/* XPM */
static const char *final_frame_014[] = {
/* columns rows colors chars-per-pixel */
"1280 720 16 1 ",
"  c #0D0213",
". c #0E092F",
"X c #2C0631",
"o c #24031D",
"O c #0E154D",
"+ c #2F0F4B",
"@ c #14236C",
"# c #5D135C",
"$ c #4A0A3C",
"% c #8F2072",
"& c #363F9D",
"* c #A73392",
"= c #B54DA2",
"- c #F79796",
"; c #DCBCDB",
": c #4AA9DE",
/* pixels */
"++++++++++++++++++++++++++++++++++++++++++XXXXXXX.....XXX..XXXXXXXXXXXXXXXXXXXXXXXXXXXX+X+$#####*%%%%#%%%%%######$$+XXXXXXXXXXXXXXXXXXXXXXXXXXXXXXXXXX+$$$######+++++XXXXXXXXX++$$####%%%**%%%%#######++XXXX.o                               o .  o.oooooo.XXXXXXXXX+$$###%*==*%######%**%%%%%%###$$+$++++$$###****#$$XXoooo                                                                                                                      ........................                                                                                            ...                                                       ...      ...                                                  ....   ...                                                                                                    .....                                                                                                                                                                               ... . ....OO@@@@@OOOOOO@@@@@@@###+++++++$$##%*====*%%%%%##$$$$XXXXXXoooooooooooooo                                           o             .ooXXXXXXXX++++++++++++++@@&&&&&&&&&&&&&:&&&&&&*===;;;;========;;;;;;;;;====*******====;;;;;;;-====***%%%#$$$Xoooo                                                                   ",
"++++++++++++++++++++++++++++++++++++++++XX+XXXXXX....XXXX...XXXXXXXXXXXXXXXXXXXXXXXXXXXXXX$#####*%%%%%%%%%%######$$+XXXXXXXXXXXXXX+++XXXXXXXXXXXXXXXXX+$+$######+++++XXXXXXXXX++$$$####%%**%%%%######+++XXXXooo                              o o   .oooooo.XXXXXXXXX+$$###%*==*%######%**%%%%%%####$+$++++$$$##**=*#$$XXoooo o                                                                                                                    ....OOOOOOO..............                                                                                                     ..    ..                                        ....     ..                                                   ...    ...                                                                                                    .....                                                                                                                                                                              ...  .....OOO@@@@OOOOOOO@@@+@@@###++++++$$$##%*====*%%%%%##$$$$XXXXXXXooooooooooooo                                                        ..ooXXXXXXXX++++++++++++@+@@&&&&&&&&&&&&&:&&&&&&===;;;;;=======;;;;;;;;;=====*******===;;;;;;;;=====**%%%##$$$Xooo                                                                    ",
"++++++++++++++++++++++++++++++++++++++++++XXXXXXXX..XXXX.....oXXXXXXXXXXXXXXXXXXXXXXXXXXXX$#####%%%%%%%%%%%#####$$+XXXXXXXXXXXXXXX+++++++++++XXXXXXXX+++$$########++++XXXXXXXXXX+$$$####%%***%%%%%%###++XXXXooo                              ooooo ooooooo.XXXXXXXX++$$###%*===%%#####%*%%%%%%%###$$+$++++$+###**=*#$$XXoooooo                                                                                                                  .....OOOOOOOOOO.............                                                                                                    .    ...    .....     ..                        ....      .                                                   ..     ..                                                                                                    . ...                                                                                          ........                                                                            ..... ....OOO@@@@@OOOOOOO@@@@@@@####++++$$$###%*==-=*%%%%%##$$$$XXXXXXXoooXooooooooo  oo                                      o             .o.XXXXXXXX+++++++++++++@@@@&&&&&&&&&&&&&&&&&&*===;;;;========;;;;;;;;;===********====;;;;;;;-===*****%%##$$XXoooo                                                                    ",
"++++++++++++++++++++++++++++++++++++++++++XXXXXXXX......oo..ooo...o..XXXXXXXXXXXXXXXXXXXXX$#####%%%%%%%%%%%#####$$+X+XXXXXXXXXXXXX+++++$+++++XXXXXXXXX++$$#########+++XXXXXXXXXX+$$$####%%%*%*%%%%%%###++XXXoooo                      o     oooooooooooooo.XXXXXXXX++$$###%*===*######%*%%%%%%####$$+$++++$+###**=*##$XXooooo                                                                                                                   ....OOOOOOOOOOOO.............                                                                                                                ...     ...                        ....     ..                                                   ..     ..                                                                                                   ......                                                                                         ...........                                                                           .........OO@@@@OOOOOOOO@@@@@@&&####++++$$$###%*==-=*%%%%%##$$$$XXXXXXXoooXoooooooooo oooo                                    o       oooo  .ooXXXXXXXX+++++++++++++@@@@&&&&&&&&&&&&&&&&&&==;;;;;;======;;;;;;;;;====********===-;;;;;;;====****%%###$$$XXoooo                                                                    ",
"++++++++++++++++++++++++++++++++++++++++++XX+XXXXX........oo.ooo..ooooooXXXXXXXXXXXXXXXXXX$######%%%%%%%%*%#####$$+XXXXXXXXXXXXXXX++$####+++++++XXXXXX++++#########+++XXXXXXXXXXX++$+####%%*****%%%%%##++XXXoooo                      oo      oooo  .oooooooXXXXXXXX++$###%*===*%#####%%%%%%%%####$$+$++++++###**=*#$$XXooooo                                                                                                                   ....OOOOOOOOOOO...............  .                                                                                                                                              ....      .. .                                                 ..    ....                                                                                             .      ...                                                                                          .........            .....                                                             .......OO@@@@OOOOOOOOO@@@@@@###@##++++$$$###%*==-=****%%##$$$$XXXXXXXoooXoooooooooooooo                                             ooo  oooXXXXXXXXX+++++++++++++@+@@@&&&&&&&&&&&&&&&===;;;;;=======;;;;;;;;;====********===;;;;;;;-====***%%%##$$$XXXXoooo                                                                    ",
"+++++++++++++++++++++++++++++++++++++++++++X+XXXXX....XX...o.ooo..oooooooX.XXXXXXXXXXXXXX+$$#####%%%%%%%*%%#####$$++XXXXXXXXXXXXXX++$#######++++XXXXXXX++++#########++XXXXXXXXXXXX++++#####%%******%%%##++XX.ooo                       o      oooo  ooo.oooXXXXXXXXX++$###**===%%#####%%%%%%%%####$$+$++++$+###**=*##$XXooooo                                                                                                                     ..OOOOOOOOOOOO....O.OO......  .                                                                                                                                               ...      ....                                                 ..    ....                                                                                             .     ....                                                                                           ........          ........                                                          ........OO@@@@@OOOOOOOOO@@@@@@######+++$$$$$##%*==-=****%%##$$$$XXXXXXXooooooooooooooooo ooo                              oooo        ooo  oooXXXXXXXXX+++++++++++++@+@@&&&&&&&&&&&&&&&==;;;;;;======;;;;;;;;;;====*******===-;;;;;;;======**%%%%#$$$$XXooooooo                                                                   ",
"$+++++++++++++++++++++++++++++++++++++++++++++XXXXX....XXX.....o....oooooo..XXXXXXXoXXXXX+$$######%%%%%%*%%####++++XXXXXXXXXoXXXXXX++########+++XXXXXXX++++#########++XXXXXXXXXXXX++$+######%%******%%%##++XXooo                       o       oo.o oooooooXXXXXXXXX++$###%*===%%#####%%*%%%*%######$$++++++###*==*%#$$Xooooo                                                                                                                     ..OOOOOOOOOOOOOOOOOOOOOOO...                                                                                                                                                  ...      ...                                                  ..   ....                                                                                                   ....                                                                                             .... ... ..     .........                                                          .......OO@@@@@OOOOOOOOO@@@&@@&######+++$$$$###%*==-=*%%%%%##$$$$XXXXXXXXooXooooooooooo  o ooo o                           oooo         oo oooXXXXXXXXXXX++++++++++++++@@&&&&&&&&&&&&&&==;;;;;=======;;;;;;;;;;===*******====;;;;;;;;=====***%%###$$$$$Xoooooooo                                                                   ",
"$+++++++++++++++++++++++++++++++++++++++++++++XXXXXXX...XX....oo... ooooooooXXXXXXXXXXXXX+$$#########%%%%%%%####+++XXXXXXXXoXooXXXX++#########+++XXXXXXXX+++########++XXXXXXXXXXXXX+$+$+#####%******%%%%##+XXooo                       o     o  oo..oooooooXXXXXXXXX++$###%*===%######%%*%%%**%#####$$+$++++###*==*%#$$Xooooo                                                                                                                     ..OOOOOOOOOOOOOOOOOOOO@OOO...                                                                                                                                                 ...      ...                                                  ..   ...                                                                                                    ....                                                                                             ....     .       ..                                                                ......OO@@@@@OOOOOOOOOO@@&&&&&######++$$$$####%*==-=*%%*%%##$$$$XXXXXXXXooooooooooooooo   oooo                            oooo            ooooXXX+XXXXXX++++++++++++++@@&&&&&&&&&&&&&==;;;;;=======;;;;;;;;;====*******====;;;;;;;======***%%%###$$$X$ooooooooo                                                                   ",
"++++++++++++++++++++++++++++++++++++++++++++++XXXXXXX...XX.ooo.oo  ooo..oooooo.ooooXXXXXXX+$$##########%%%%%###+++XXXXXXXXXooXXXXX+++##########+++XXXXXXX++$$########++XXXXXXXXXXXX++$$$######%%%*****%%##++XX..  o                          o  oooooo.Xo.XXXXXXXXXX+$$###%*===*%######%**%%**%#####$$++$$++###**=*%#$XXoooooo                                                                                                                   ......OOOOOO@@@OOOOOOOO@@@OO....                                                                                                                                              ....      ...                                                  .      ..                                                                                 .             .  ....                                                                                               ...   ....   ..                                                             ... ......OOO@@@@@OOOOOOOOOO@@@&&@@&&#####++++$$$###%*==-=*%%%*%##$$$$XXXXXXXXXoooooooooooo oooo     o                         ooooo      o    ..oo.XX+++XXXXXX++++++++++++##@&&&&&&&&&&&===;;;;========;;;;;;;;;=====*=***====;;;;;;;-=====***%%%###$$$$$XXXooooooo                                                                    ",
"++++++++++++++++++++++++++++++++++++++++++++++XXXXXXX.....oooooo.ooooo..oooo.ooooooo.XXXXXX+$###########%%%%###+++XXXXXXXXXooXXXXX+++###########++XXXXXXX+++$$$#####++XXXXXXXXXXXXXX++$$$#######%%*****%###++Xo.  o                           oooooooooXo.oXXXXXXXXX+$$###%*===*%######%**%%**%#####$$++$+$####*==*%##XXooooo                                                                                                                     ......OOOOOOO@OOOOOOOOOOOOO....                                                                                      .   .... ..     ....    .                               ...      .....                                                 .       .                                                                                                  ....                                                                                              .....  ....  .......                                                          .  .....OOO@@@@@OOOOOOOOOOO@@@&&&@&&#####++++$$####%*==-=*%%%*%##$$$$XXXXXXXXXXooooooooooo oooo                               ooooo    ooo     oo.XXX++++XXXXX++++++++++@+@#&&&&&&&&&&&===;;;;;===*===;;;;;;;;;===*=*****====;;;;;;;======***%%%###$$$$$XXXoooooooo                                                                    ",
"++++++++++++++++++++++++++++++++++++++++++++++++XXXXXX.XXX..oooo.oooo...oo....oooooooXXXXXXX$############%%%####++++XXXXXX...oXXXX+++###########++++XXXXX+++++$$+$+$+XXX.....XXXXXXXX+++++$$#####%*****%%%##+XX.o                             oooooooo.oo.XXXXXXXXXX+$$###%*===*%#####%***%%**%#####$$++$+$####*===*##XXXooooo                                                                                                                    ............OOOOOOOOOOOOOOO.. .                                                                       .   .   .....................................                          ...       ....                                                 ..      .                                                                                                 .....                                                                                              .......................  .   ...                                                 ....OOO@@@@@OOOOOOOOOOO@@@@&&@&&&#####++++$#####%*==-=*%%%*%##$$$$X$XXXXXXXXXoooooooooooooo oo  ooo oo                  o oooooooo   oooooooooXXXX+$$+XXXX+++++++###++#@##&&&&&&&&**==;;;;=======;;;;;;;;;====*******===;;;;;;;;======**%%%%##$$$$$$XXXXooooooo                                                                     ",
"++++++++++++++++++++++++++++++++++++++++++++++++++XX.XXXX.....oo...oo.o.oo....ooooooooo.XXXX$####################+++XXXXXXX...oXXX+++###########++++XXXX++++++++++++XXX.oooooo..XXXXXX+++++$$$####%%*****%##++XXooo                   o      ooo  oooo.o.oXXXXXXXXXX+$$###%*===*%#####%***%%%%%#####$#++$$$####*===*##XXXooooo                                                                                                                      ............OOOOOOOOOOOO.......                                                     .             ................................................                         ...       ....                                                         .                                                                                                 ....                                                                                              ...........OOOOOOO..................                                             .....OO@@@@@OOOOOOOOO@@@@@@@&&@&&&&####++$$$#####%*====*%%%*%##$$$$X$XXXXXXXXXXooooooooooooo o   ooo oo                  ooooooooooooooooooooooXXX+$$$$XXXX++++++####@@@@#&&&&&&&&*===;;;;=======;;;;;;;;;===*******====;;;;;;;-======***%%%###$$$$$$XXXXoooooo                                                                      ",
"+++++++++++++###++++++++++++++++++++++++++++++++++XXX.XXXX...o...ooooooooo..ooooooooooooXXXXX$######################$+XXXXX.X.XXXX++++###########+++X+++++++++XXXXXXXX.ooo....ooXXXXXXXXXXX++$$$+###%***%%%##+XXXX.o.                o       oo  ...o...ooXXXXXXXXXX+$$###%*===*######%*%%%%*%%###$#$$++++++###*===*##XXXooooo                                                                                                                        ............................                                                .    ...      ........................................OO....OOO.....                           .        ..                                                          .                                                                                                 ....                                                                                              ....OOOOOOOOOOOOOOO...................                                           .....O@@@@@OOOOOOOOO@@@@@@@@&&@@&&&&&###+++$#####%%====*%%%%%##$$$$X$XXXXXXXXXXoooooooooooo  oo      o                 oooooXooooooooooooooooooXXXX$$$$XX++++++++##########&&#%%**===;;;========;;;;;;;;====*******===-;;;;;;-======***%%%###$$$$$$XXXXXoooooooo                                                                     ",
"++++++++++++####+++++++++++++++++++++++++++++++++++XXXX.XX......o.oooo.oooooooooooooooooXXXXX$$######################++XXXXX.XXXXX++++###########++++++++++$++++XXXX..oooo....oo..XXXXXXXXXXX+++++###%%%%%%###++XXX..       o        ooo     ooo....o...oooXXXXXXXXX+$$###%*===*%#####%**%%%%%%#####$$+$++++##%*===*##$XXXoooo                                                                                                                        .............................   ...                              .......  ....................................OOO.............OOOOOOOOOOOOO.....                         ...        .                                                          ..                                                                                                .....                                                                                              ....OOOOOOOOOOOOOOO...................                                          .....O@@@@@@OOOOOOO@@@@@@@@@&&&@@&&&&&##++++$#####%%====*%%%%%##$$$$XXXXXXXXXXXXoooooooooooo  oo      oooooooo    ooooooooooXXXXooooooooooooooooXXXX$$$$$X++++++++##########&&#%**==;;;========;;;;;;;;;====*******===;;;;;;;======****%%%####$$$$$$$$XXooooooooo                                                                     ",
"++++++++++++++######++++++++++++++++++++++++++++++++XXXXXXX.....oo.o.ooooooooooo..oooX..XXXXX+$$#############%%%%%%####++XXXXXXXXX+++++###########++++++++$$$$++XXX.oo.o..o........XXXXXXXXXXX++++++####%%%*%%##++XXo oooo            oo     oooooooooooooXXXXXXXXX++$$###%*===*%#####%**%%%**%#####$#$$$#####%*===*##$XXXooooooo                                                                                                                 ..    ........................... .......     .. .....     .   .    .....................................O..OOOOOOOOOO............OOOOOOOOOOO..........                       ...                                                                                                                                                                   ......                                                                                             ......OOOOOOOOOOOOO.................                                         . ......OO@@@@@OOOOOO@@@@@@@@@@@&&&&@&&&#####+++######%%==-=*%%%*%##$$$$XXXXXXXXXXXXoooooooooooo  ooo         oo o   ooooooooooXXXXXoooooooooooooooXXXXX$$$$$+++$++++###########&&%*===;;;========;;;;;;;;=====******===;;;;;;;-======***%%%%####$$$$$$$XXXXoooooooo                                                                      ",
"++++++++++++++#######+++++++++++++++++++++++++++++++++XXXXXXXX.........o.....oo.oX..XXXXXXXXXX+$$$$#$$$$$#####%%***%####++XXXXXXXX+X+++###########++++++####$$$+XXXooo...ooo.......XXXXXXXXXXXXX+++++####%%*%%%##++X.oooooo   o              ooooooooooooooXXXXXXXXX+$$###%*===*%#####%***%%**%#####$#$$++####%*===*##$$XXXoooooo                                                                                                                 ..   ............................ ........   .    ...   ...   .   .......................................OOOOOOOOOOOOO...................OO.............                      ...                                                                                                                                                                   .....                                                                                              .......OOOOOOOOOOOO................                                          ........O@@@@@OOOOOO@@@@@@@@@@@@&&&@@&&&#####+++######%%==-=*%%%%%##$$$$XXXXXXXXXXXXooooooooooooo ooo    o    oo     oooooooooXXXXXXoooooooooooooooXXXXX$$$$$++$$++#############&&*===;;;========;;;;;;;;====*****=====;;;;;;;=======**%%%%%####$$$$$$$XXXXooooooooo                                                                      ",
"##+++++++++###++++++++++++++++++++++++++++++++++++++XXXXXXXXX...ooo...XXX....XXXXXo.XXXXooXXXXXX+++$$$$$$$$####%******%###++++XXXXX++++#+#########$+++++######++XXXoooo. oooooo.oo.XXXXXXXXXXXXXXXX$$#####%****%###++O..o                     ooooooo.XXXXoXXXXXXXXX+$$###%*===*%#####%%*%%%*%%#####$$$$+++###%*===*##$XXXXoooooooo                                                           ..                                                ...........................................  .....            ......................................................................................                           .....     ...                                                                                                                                                          .....                                                                                              ..........OOOOOOOO..................                                     ..    ....OO@@@@@OOOOOO@@@&&@@@@@@@@&&&@@&&&#####+++######%**===*%%%*%##$$$$$$XXXXXXXXXXoooooooooooooo  oooo    o       oooooXXXXXXXXXXXXoooooooooooooXXXXX+$$#$$$++++#############%**==;;;====*===;;;;;;;;;===*******====;;;;;;;======***%%%#####$$$$$$$$XXXXXooooooo                                                                        ",
"+++++++++++#+#++++#+++++++#+++++++++++++++++++++++++++XXXXXXXX..o....XXXXXXXXXXXXXXXXXXXoXXXXXXXXXX+++++$$$$####%*******###+++XXXXXXX+++++########$++++$######$+XXX.ooo...oooooooo..XXXXXXXXXXXXXXXX$$#####%****%%##++X.oo                    oooo.ooooXXXXXXXXXXXX++$$###%*===*%#####%%*%%%**%#####$$$$+++###%*===*##$$XXXoooooooo                                                                                                            ...................................................  ....  ......       .............................................................................                          ......      ....                                                       .                                                                                               ......  .                                                                                           ...................................                                      ..    ....OO@@@@@OOOOO@@@&&&@@@@@@@@&&&@@&&&%%###++$#######%*===*%%%*%##$$$$X$$XXXXXXXXXoooooooooooooo oooo   oooo      ooooXXXXXXXXXXXXXoooooooooooooXXXXX$$##$$+++$$###########%%*===;;;;===*===;;;;;;;;=====*==**====;;;;;;;=======***%%%#####$$$$$$$$$XXXXoooooooo                                                                        ",
"#+++++#+++++###++++###++++++##++++++++++++++++++++++++++XXXXXXXX....XXXXXooXXXXXXXXXXXXXoooXXXXXXXXXXXX++$$$$#####******%%###+++XXXXX+++++########$++++$######$+XXXXX.oooooooooooo...XXXXXXXXXXXXXXX++$####%%***%%####+X.oo                   oo  .oooooXXXXXXXXXXXX+$$###%*===*%#####%**%%%**%######$$$++####%*===*##$$XXXXoooooooo                                                                                                          ....................................................................................................................................................................................................... .... ....... . ....... ...........................                                                        .... ...........   ..... .......................                                                                                         ...............................  ..                               .      ..........OO@@@@OOOOOO@@&&&&@@@@@@@@&&&@@&&&%%##++++######%**===*%%%%%##$$$$X$XXXXXXXXXXoooooooooooooo  oooo   oooo     oooXXXXXXXXXXXXoooooooooooooooXXXX$$$##$$$+$$$#########%%**==;;;;===**===;;;;;;;;===******====;;;;;;;;======***%%%######$$$$$$$$$XXXXXoooooooo                                                                        ",
"##+++++###++####++######++++####++++++++++++++++++++++++XXXXXXXX..X.XX.XXXXXXXXXXXXXXXooooo.X.XXXXXXXXXX+XX+$$#####%******%%###+++XXXX++++#######++++++$$#####$$XXXXXX..ooooooooo.o.XXXXXXXXXXXXXXXXX+$$####%%**%%%%###+X.oo    oo            oo ..oooooXXXXXXXXXXX++$$###%*===*%#####%**%%***%######$$$++####%*===*##$$XXXooooooo                                                                                                 ...  .     .....................................................................................................................O.................................................................... ............................................................................................................................................................O................................  . ............................................  .....   .   ........................ ....    ... .....                             .   .  .........OO@@@@OOOOOO@@@&&&&@@@@@@@@&&&&@&&&#&&#++++######%**===*%%%*%##$$$$X$XXXXXXXXXXoooooooooooooo  oooo    ooo     ooXXXXXXXXXXXXXooooooooooXoXooXXXX$$###$$$$$$#########%%**==;;;;==***==;;;;;;;;====***=**====-;;;;;;=======***%%%%#####$$$$$$$$XXXXXXoooooooo                                                                         ",
"++++++##++++#+++########++++++++###++++++++++++++++++++++++XXXXXXXX.XX..XoXXXXXXXXoooooo.oooo..XXXXXXXXXXXX++$$$####%*******%####$$$+++$++#######$+++++$+######$XXXXXXXXX..ooo.o....XXXXXXXXXXXXXXXXXX+$#####%%*%%%%###+XX.oo   oo           ooooooooo.oXXXXXXXXXXXX++$###%*===*%######%**%***%##########+####%*===*##$$XXXXooooo                                                                                                       ........OOOOOO..................................................OO..........................O.........................O.OOOO............OO..................O......................................OO........................................................................................................................................................O..............................................................................................................    ...   ..   ...   ..  ..                         ..    .. .........OOO@@@OOOOOO@@&&&&&&@@@@@@@@&&&&&&&&%%&#+++++#####%*====*%**%%##$$$$X$XXXXXXXXXXoooooooooooooooooooo  ooooo    oooXXXXXXXXXXXXXoooooooooXXXXXXXXXX$$####$$$$##########***==;;;========;;;;;;;;==********====;;;;;;-======***%%%######$$$$$$$$$XXXXXXooooooooo                                                                         ",
"#++++#+##++####+###+####+#+++++####+++++++++++++++++++++++++XXXXXXXXXXX.XXXXXXXXXXXo.ooooooo...XXXXXXXXXXXXXX++$$#####%******%%#####++++++#######$+XXX+$+#######+XXXXXXXXXX..oo..X.XXXXXXXXXXXXXXXXXX++$#####%%%%%%%####+X.oo   oo            oooooooo.ooXXXXXXXXXXX++$###%*===*%#####%%**%%**%###############%*===*##$$XXXXoooo                                                                                           .   .....    .......OOOOOO...OOOOOOOOOO..OOOOOOOOOOOOOOO.....................................O.OOOOOOOOOOOOOOOOOOOOOOOOOOOOOOOOOOOOOOOOOOOOOOOOOOOOO.OOOO....O.......................................O........................................................................................................................................................................................................................................................................ .. ..  ...            .......       .                         .. .  ............OOOO@OOOOOO@@@&&&&&&@@@@@@@@&&&&&&&&%%&##++++#####%*====*%%*%%###$$$X$$XXXXXXXXXoooooooooooooooooooo   ooooo  ooooXXXXXXXXXXXXXoooooooooXXXXXXXXXX$#####$$$$#########%**==;;;===**===;;;;;;;===********===-;;;;;;-=====****%%%%#####$$$$$$$$$XXXXXoooooooooo                                                                          ",
"##+++#+##+####++##++++++###++###++####++++++++++++++++++++++++XXXXXXXX......XXXX...ooo.o...oo.XXXXXXXX++XXXXX++++$++####********%################$+XXX$$########+XXXXXXXXXXX....XXXXXXXXXXXXXXXXXXXX+$$######%%%%%%%####++Xo.         ooo ..  o.ooooo..ooXXXXXXXXXXX+$$$##%*===*%######%**%***%#####$$########%*===*##$$XXXXoooooo                                                                                       .  ...................O@@@OOOOOOOOOOOOOOOOOOOOOOOOOOOOOOOOOOOOOOOOOOOOOOOOOOOOOOOOOOOOOOOOOOOOOOOOOOOOOOOOOOOOOOOOOOOOOOOOOOOOOOOOOOOOOOOOOOOOOOOOOOOOOOOOOOOOOOOOOOOOOOOOOOOOOOOOOOOO...OOO..OO....OOOOO........OOOO.....................................................................................................................................................OOO.......................................................................................... ....          .  ..            ......                         .  ....  .... .............OOOOOOOOOO@@@@&&&&&&@@@@@@@&&&&&&&&&&*&##++++$#####*====*%%%%%##$$$$X$$$XXXXXXXXXooooXoooooooooooooooo  oo    ooXXXXXXXXXXXXXXXXXoooooXXXXXXXXXXXX$#####$$$#########**===;;===***==;;;;;;;;===********===;;;;;;;======***%%%%######$$$$$$$$$$XXXXoooooooooo                                                                           ",
"##+++#########++##++++++###+#+##+#######+++++++++++++++++++++++XXXXXXX......XXXX..o.o.......o.oXXXXXX++++++XX++++++++###%%********%%#############$+XX+$$########+XXXXXXXXXXXXXXXXXXXXXXXXXXXXXXXXXX++$####%%%%%*%%%%%%###+X.o         ooo...  ooooooo...oXXXXXXXXXXX+$$###%*===*%######%**%%**%#####$$###+####%*===*###$XXXXooooo                                                                                          ....................OOOOOOOOOOOOOOOOOOOO.OOOOOOOOOOOOOOOOOOOOOOOOOOOOOOOOOOOOOOOOOOOOOOOOOOOOOOOOOOOOOOOOOOOOOOOOOOOOOOOO@OOO@@@OOO@@OOOOOOOOOOOOOOOOOOOOOOOOOOOOOOOOOOOOOOOOOOOOOOOOOOOOOOOOOOOOOOOOOOO.......OOOOOO....O.OOOOOO....OOOOOO..OO.OOOOOOOOOOOOOOOOOOOOOOOOO..............................................................................................OOOOO...............................................................................................         .  .            .......  .                     ..  ....  .. ...............OOOOOOOOO@@@@&&&&&&&@@@@@@@&&&&&&&&&&&&##++++######*====*%%%%%###$$$X$XXXXXXXXXXXXXooXoooooooooooooooo  ooo   oooXXXXXXXXXXXXXXXXXoooXXXXXXXXXXXXX$#######$#######***===;;===***==;;;;;;;;===*******====;;;;;;;=====***%%%%%%%####$$$$$$$$$XXXXXXooooooooo                                                                            ",
"####+++############++++###+####+++####+++++++++++++++++++++++++XXXXXX.....XX.X....X..oo.ooo...oXXXXX+++++++++XXX+++++$$####%*********%%#########$$$$+++#########++XXXXXXXXXXXXXXXXXXXXX+++++XXXXX++++###%*********%%%%###+X. .          ...   ..ooo...ooooXXXXXXXXX++$$###**===*%%####%*******%#######+#++####%*====%#$$$XXXXooooo                                                                              ...       ....................OOOOOOOOOOOO........................OOOO.........................O.OOO.O.OOOOOOOOOOOOOOOOOOOOOOOOOOOOOOOOOOOOOOOOOOOOOOOOOOOOOOOOOOOOOOOOOOOOOOOOOOOOOOOOOOOOOOOOOOOOOOOOOOOOOOOOOOOOOO....OOOOOOOOOOOOOOOOOOOOOOOOOOOOOOOOOOOOOOOOOOOOOOOOOOOOOOOOOOOOOOOOOOOOOOOOOOOOOOOOOOOOOOOOOOO.O......OOO.OOOOOOOOOOOOOOOOOOOOOOOOOOOO....OO....OO......O..OOOOOOOO.......OOOOOO..OOOOOOOO......................................OO...............................                       ..... ......        ..    ..        ....   .................OOOOOOOO@@@@&&&&&&&&@@@@@@@@&&&&&&&&&&&&###+#######*====*%%%%%##$$$$$$$$XXXXXXXXXXXooooooooooooooo  oo   oooo  ooXXXXXXXXXXXXXXXXooooXXooXXXXXXXXX$##############%**==;;===****==;;;;;;=====*******====;;;;;;======**%%%%%######$$$$$$$$XXXXXXXXoooooooooo                                                                            ",
"##+#+++######++####+#++######++#++####++#+++++++++++++++++++++++XXXXXX......o..o.....o..oo....oXXXXX+++$+++++XXXXXXXX+++####%**********%%#######$$$$$$##########+XXXXXXXXXXXXXXXXXXXXXX++++++++XXX+++##%**********%%%%%##+XXo. o          o   ..oooooooXXXXXXXXXXXX++$$###**===*%%####%*******%######$##++####%*====%##$$XXXXooooo                                                                                        . ...................OOOOOOOOOOO........................OO.............................OOO......OOOO.OOOOOOOOOOOOOOOOOOOOOOOOOOOOOOOOOOOOOOOOOOOOOOOOOOOOOOOOO.........................OOO.OOOOO.OOOOOOOOO......OOOOOOO.OO....OO.O..OO.O..OOOOO..OOOO.OOOOOOOOO.OOOOOOOOOOOOOOOOOOOOOOOOOOOOOOOOOO..OO.....O......OOOOOOOO......OOOOOO....O.OOOOOOO...OOOOOOOO....OOOO.O.OOOO............OO..................................................................................                       .....    ....       ..    .. .    . ....   .................OOOOOOOO@@@@&&&&&&&&@@@@@@@@&&&&&&&&&&&&###########*====*%%%%%##$$$$$$$XXXXXXXXXXXXXooooooooooooooo o   ooooo  ooXXXXXXXXXXXXXXXXXoooXoXoXXXXXXXX+$#############%*===;====***===;;;;;;===*********===;;;;;;-======**%%%%%######$$$$$$$$$XXXXXXXXooooooooo                                                                             ",
"+++++++#########+###+#++++##+++##++#++++##++++++++++++++++++++++XXXXXX..XX.o..oo.ooooooooooo.o.XXXX++++++++++XXXXXXXXXXX+$####%**********%%#####++$$$###########+XXXXXXXXXXXXXX+XXXXXXXX+++++++XX++++##%***********%%%%###+X.o oo  oo     o  ooooooo..oXXXXXXXXXXXXX+$$###%*===*%#####%***%%**%########$#$####%*====%##$$XXXXoooooo                                                                          .  ...............................OOOOOOOOOO.........................O............................................................................O...............................................................OOOO........OOO......................................OOO..................................................................................................................................................................................................................             ..          .     ..     .  .. .  ......      ......................OOOOOOOO@@@@&&&&&&&&@@@@@@@@&&&&&&&&%*&&##++@######*====*%%%%%##$#$$$$XXXXXXXXXXXXXXooooooooooooooo   oooooooooooXXXXXXXXXXXXXXXXXooooooXXXXXXXX$$$############%*==;;;==****===;;;;;;;==*********===;;;;;;======**%%%%%#######$$$$$$$$XXXXXXXXoooooooooo                                                                              ",
"#++++++###############+++###+++##++#++++#++++++++++++++++++++++++XXXXXXX.X....oo..o.ooooooo....XXX++++++$++++XXXXXXXXXXXX+$$####%%********%%####++$$$###########+XXXXXXXXXXXXX+++XXXXXXXXXX+XXXXX++++###%***********%%%%##++.o ooooooooooo  oooooooo..ooXXXXXXXXXXXX+$$###%*===*%#####%**%%%**%########$######%*====%##$$$XXXXooooo                                                             ..      ......................................OOOOOOOOOOO.....................................................................................................OO................................................................OOO........OOO...........................................................................................................................................................................................................................................................   ..  ..   ...    ...           .    .  ....  ........    ......................OOOOOOO@@@@@&&&&&&&&@@@@@@@&&&&&&&&&&*&&##+########*====*%%*%%##$$$$$$XXXXXXXXXXXXXXoooooooooooooooo  oooooooooooXXXXXXXXXXXXXXXXXooooXXXXXXXXXX$$############**==;;===***===;;;;;;;===*********==;;;;;;=======***%%%%#######$$$$$$$$$XXXXXXoooooooooooo                                                                            ..",
"##++++###################+##+++#+++++###++++#+++++++++++++++++++++XXXXXXXXX....o...........oXXXXX+++++++$+++XXXXXXXXXXXXXX++++####%%*******%%###++++############+XXXXXXXXXXXX+++++++XXXXXXXXXXXXXX+++####%*********%%%%%##++..ooooooooo       ..ooooo.ooXXXXXXXXXXXX+$$###%*===*%#####%**%%%**%########$######%*====%##$$$XXXoooooo                                                             ..    ......................OOOOOOOOOOOOOOOOOOOOOOOOOOOO........................................................................................................................................................................OO.........OO......................................................................................................................................................................................................................................................    ...    ....    ..   ...                 . .......... ...............................OOOOOO@@@&&&&&&&&&&@@@@@@@@&&&&&&&&&&&&&#@&&&#&#%%%====**%**%##$$$$XX$XXXXXXXXXXoXooooooooooooooooooooo o  oooooXXXXXXXXXX$$XXXXXXXXXXXXXXXXXXX$$##########%**==;-==****===;;;;;;===*********===;;;;;;=======**%%%########$$$$$$$$X$XXXXXXooooooooooooo                                                                          ....",
"#####+######################++#+#+++####++++##+++++++++++++++++++++X+XXXXXX...oo..........ooXXXX++++$$$+++++XXXXXXXXXXXXXXX++$$#####%%*******%###+++############+XXXX.XXXXXX+++####$+++XXXXXXXXXXX+++#####%%*******%%%%%##+X.Xoooooooo  oo  o ..ooooo.oXXXXXXXXXXXXX+$$$##%*===*%#####%**%%%**%###############%*====%###$$XXXXoooooo                                                            ....  ...............OOOOOOOOOOOOOOOOOOOOOOOOOOOOOOOOOOO..................................................................................................................................... . ............    ................OO.........OO...................  .................................................................................................................................................................................................... .............................    ..  . ....        ....  .    ...    ...............................................OOOOOO@@@&&&&&&&&&&@@@@@@@@&&&&&&&&&&&&&#@&&&&&#%%%====**%**%##$$$$XX$$XXXXXXXXXXXoooooooooooooooooooooo   oooooXXXXXXXXXX$$$XXXXXXXXXXXXXXXX$$$$#########%*===;===****===;;;;;;===*********===;;;;;-======**%%%%%#####$$$$$$$$$$XXXXXXXXoooooooooooo                                                                        ........",
"###############################+##++####++#####++++++++++++++++++++++++XXXXXX.X......o.....XXXXX++++$$$$++++XXXXXXXXXXXXXXXX++++######%%******%################$+XXXXX.X.XXXX+#######+++XXXXXXXXX+++#####&&%%%%***%%%%%%##++XXoooo o      oo o...oooo.ooXXXXXXXXXXX++$$###%*===*%%####%**%****%###############%*====%###$$XXXXoooooooo                                                           ...............OOOOOOOOOOOOOOOOOOOOOOOOOOOOOOOOOOOOOOOO................................ .  ........ ........       .    ...      .............................................................   ...   ....      ...  .........OO..........O.....   .  .......   .................................................................................................................................................................................. .............. ....  ..................   ....   . ...   .....     ....   ..   .......................................................OOOOO@@@@&&&&&&::&&@@@@@@@@&&&&&&&&&&&&&&&&&&&&&&%*==;=**%**%##$$$$X$$$XXXXXXXXXXXXXXXoooooooooooooooooo  oooooXXXXXXXXXXX$$$XXXXXXXXXXXXXXXX$$$$########**===-===****===;;;;;===*********===;;;;;-======***%%%%%######$$$$$$$$$$XXXXXXXoooooooooooo                                                                         ........",
"####################+#############+++######+####+++++++++++++++++++++++XXXXXXXXX..........XXXXX+++++$$$$+X+XXXXXXXXXXXXXXXXXX+++++++####%%******###############$XXXXXX...XXXX+##%%####$++XXXXXXXX+++##%%%&&####%%%%%%**%##++XXoo...      ooooo...oooo..oooXXXXXXXXX++$$###%*===*%%####%*******%###############%*====%###$$XXXXooooooo                                                             ......O.......OOOOOOOOOOOOOOOOOOOOOOOOOOOOOOOOOOOOOOOO.........................O......      .....         .     ...... ...      ........    .......................................................... ..       ..............OO..... ....O.....       ...        ..............................................................................................................................................................................................   ... ................... .....   .. .. .  . ...    .....   ...   ......................................................OOOOO@@@@&&&&&&::&&@@@@@@@@&&&&&&&&&&&&&&&&&&&&&&%*==;=**%**%##$$$$X$$$XXXXXXXXXXXXXXXXooooooooooooooooooooooooXXXXXXXXXXX$$XXXXXXXXXXXXXXX$$$$$########%*==;-===****===;;;;;===*********===;;;;;======***%%%%%#####$$$$$$$$$$$$$XXXXXXooooooooooooo                                                                       ..........",
"####+################################+++++####++++++++++++++++++++++++XXXXXXXXXX........XXXXX+++$$$$++++++XXXXXXXXXXX.XXXXXXXXX+++++$######%%***%%############$$XXXXXX..XXXX++##%%%%%%##++++++++++++#%*****%#######%%***##++..ooooooo..o  oooo  oooo...oXoXXXXXXXXXX$$$###%*====%#####%*******%########+######%*====%###$$XXXXoooo                                                                ......OOO...OOOOOOOOOOOOOOOOOOOOOOOOOOOOOOOOOOOOO...OO....... ................OO......  ....      .......     . ......    ...     ....        ...... . . ......   .................. . ...... .. .  . . . ......  ............OO....  ....O...    ..    .....       .......................   .......................................................................................................................................................................     .......  ......... .    ....  ..        ..  ..     ..... ...................................OOOOOOO..........OOOOOOO@@@@&&&&&&&&&&@@@@@@@&&&&&&&:&&&&&&&&&&&&&&&**==;=**%%*%###$$$$$XXXXXXXXXXXXXXXXooooooooooooooooooooooooooXXXXXXXXXXX$XXXXXXXXXXXXXXXX$$$$$$#####%**==;-==****====;;;;===**********==-;;;;;=====**%%%%%%######$$$$$$$$$$$$XXXXXXooooooooooo   o                                                                     ............",
"####+##############################+##++++####+++++++++++++++++++++++++XXXXXXXXXX.....X.XXXX++++$$$$$+++XXXXXXXXXXXXXX..XXXXXXXX++++$$$#####%%****%%#########+$+XXXXXXXXXXXX+$##%%***%%###+++++++++##%**=**&########%***##++XXoo .o o .o  oooo  oooo...oooXXXXXXXXXX+$$###%*====%#####%**%****%########+######%*====%###$$XXXXoooo                                                                 ....OOOOOOOOOOOOOOOOOOOOOOOOOOOOOOOOOOOOOOO..................................OO.....                           .    .    ....                   . .       ..         .............. .  ....  ...  ......    ..     ...... ...OO..... ....O...  . ..    ....        ................................................................................................................................................................................................     .........  . .....   .   .... ....       ... ...   .... .......................................O..O.........OOOOOOOOO@@@@&&&&&&&&&&@@@@@@@&&&&&&::&&&=&&&&&&&&&&&**==;=**%%*%##$$$$$$XXXXXXXXXXXXXXXXooooooooooooooooooooooooooXXXXXXXXXXXXXXXXXXXXXXXXXXX$$$$$######%*===-====***====;;;====**********==;;;;;======**%%%%%%######$$$$$$$$$$$$$XXXXXXooooooooooo                                                                         ............",
"########################################++++###+####++++++++++++++++++++++XXXXXXXXXXXXXXXXX+++++$$$$++++XXXXXXXXXXXXXXX.XXXXXXXXXX+++$$$$+###%%******%%#####++++XXXXXXXXXXXX+$###%******%###+++++++#&&*===*%##++++###%*%%#++XXoo       o  .ooo..ooooo.o.XXXXXXXXXXXX+$$###%*====%#####%**%%%**%###############%*====%###$$XXXXooo                                       ..                        ......OOOOO...................................................................O...                                  ....  . ..                                        .............    ......       ....                   ...OO..........OO......  ..   .    .... ........................................................................................................................................................................................................................   ..  . ..  ....    ....  ..    ..   ....................................................O.OOOOOOO@@@@&&&&&&::&&@@@@@@&&&&&&&:&&&&==&&&&==&&========**%%*%##$$$$$$XXXXXXXXXXXXXXooooooooooooooooooooooooooooXXXXXXXXXXX$XXXXXXXXXXXXXX$$$$$$####%%*=======****===--;;-==***********==;;;;;=====***%%%%########$$$$$$$$$$$$XXXXXXXoooooooooooo                                                                         ............",
"##########################################++##++####++++++++++++++++++++++++XXXXXXXXXXXXX+++++++$$$+++XXXXXXXXXXXXXXXXXXXXXXXXXXXXXXX+++$$$###%%*******%%####+++XXXXXXXXXXXX+$$###%******%###+++####&&*===**##+++++##%**%##+XXoo ..    o  oooo..ooooooo.XXXXXXXXXXXX+$####%*====*#####%%*%%%**%###############%*====%###$$XXXXooo   ooo                                 ..oo                      ......OOOOO......................................................................                                    .      .                                              ........     .....         ..                   ...OO..........OO... .  ...        .... .............................................................................................................................................................................................................................    ..  ....    ....  ..    ..   ....................................................OOOOOOOOO@@@&&&&&&&::&&@@@@@@&&&&&&&&&&&===&&:====:=====;==**%%*%##$$$$$$XXXXXXXXXXXXXXXoooooooooooooooooooooooooooXXXXXXXXXX$$XXXXXXXXXXXXXX$$$$$$####**======*****====-;-===**********==-;;;;-=====*%%%%%%%#######$$$$$$$$$$$XXXXXXXooooooooooooo                                                                   .  .. .............",
"###########################################+++++##++++++++++++++++++++++++++XXXXXXXXXX+++++++++++++++XXXXXXXXXXXXXXXXXXXXXXXXXXXXXXXXX++++$$+###%***==***%%##++++XXXXXXXXXXXX++$###%%*****%%########&&******%##++++##%***##+XXoooo.o o ooooo o o..ooooo.ooXXXXXXXXXX+++###%*====*#####%%*%%%**%###############%*====%###$$XXXooooo    oo                                  oo.    .                .......OOO..........................................OO............................                                                                             ..         ............  ....        .                      ...OO..... ....OO....             .          ..... ........................OOOOOOOOOOOOOOOOOOOOOOOOOOOOOOOOOOOOOOOOOOOOOOOO..OOOO....OOO...OOO...OOOOOOOOOOOOOOOOOOOOOOOOOOOOOOOOOOOOOOOOOOOOOOOOOO....................................................................        .... ...    .    ...  ......................................................O.OOOOOO@@@&&&&&&:::&&&@@@@&&&&&&&&&&&&=::&:=========*====**%**%##$$$$$$$$XXXXXXXXXXXXXoXoooooooooooooooooooooooooXXXXXXXXXX$$$XXXXXXXXXX$X$$$$$####%*=======******=========**********==;;;;-=====**%%%%########$$$$$$$$$$$$$$XXXXXoooooooooooooo                                                                   ....................",
"#############################################+++##++++#++++++++++++++++++++++XXXXXXX++++++++++++++++XXXXXXXXXXXXXXXXXXXXXXXXXXXXXXXXXX+++++$+####%***==****%###+++XXXXXXXXXXX+++#####%*****%%#######&&******%##++++##%***###XXooooooo  ooo..  o.ooooooo.ooXXXXXXXXXX++$###%*====*#####%%**%%**%###############%*====%###$$XXXooooooo  oo                                      ....XXXX..          ..........O.OOOO.OOOOOOOOOOOOOOOOOOOOOOOOOOOOOOOOOOOOO............................                                                                              .         .......... .   .          .                      ...OO..... ....OO....            ..            ..   .....  ................OOOOOOOOOOOO@@@@@@@@@@@@OOOOOOOOOOOOOOOOOOOOOOOOOOOOOOOOOOOOOOOOOOOOOOOOOOOOOOOOOOOOOOOOOOOOOOOOOOOOOOOOOOOOOOOOOOOOOOOOOOOO....OO........................................................ .      ..... .... .  ..    ..  ........................................................OOOOOO@@@&&&&&&:::&&&@@@@&&&&&&&&&&&==::=:==:======*==;=**%**%##$$$$$$$$XXXXXXXXXXXXXoXoooooooooooooooooooooooooXXXXXXXXX$$$XXXXXXXXXXX$$$$$$$###%*======********======***********===;;;;=====***%%%%%#######$$$$$$$$$$$$X$XXXXXooooooooooooo o                                                               ........................",
"##############################################++#++++#####+++++++++++++++++++++XX++++++++++###++++++XXXX.X.XXXXXXXXXXXXXXXXXXXXXXXXXXXX+++++++####%%****=***%%##+++XXXXXXXXXXX+$+#####%*******%%###%&********%###+###%***%##XXoooo.oo..ooo   oo...ooooooooXXXXXXXXXX++$###%*====*#####%%******%###############%*====%###$$XXXooooooo                                         o.ooXXX++XX..        ............OOOOOOOOOOOOOOOOOOOOOOOOOOOOOOOOOOOOOOOOOO................ .... . . ..                                                                                        ......... .          .     .                     ...OO..... ....OO...    ..       ..     .           ...     .. .... .......OOOOOOO@@@@@@@@@@@@@@@@@@@@@@@@@@@@@@@@@@@@@@@@@@@@@@@@@@@@@@@@@@@@@@@@@@@@@@@@@@@@@@@@@@@@@@@@@@@@@@@@@@@@@@@@@@@@@@@@@@@@@@@@@@@@@@@@@OOOOOOOOOOOOOOOOOOOOOOOOOOOOOOOOOOOOOOOOOO......  ..  ......... ..........       ....   ..     .  .........................................OOOOO@@@&&&&&&:::&&&@@@&&&&&&&&&&&&::&===========**=;==*%%%*%##$$$$$$$$$XXXXXXXXXXXXXXXoooooooooooooooooooooooXXX$XXXXX$$$$$$XXXXXXXXX$$$$$$$##%*=====**********=====**********===;;;;;=====***%%%%#######$$$$$$$$$$$$XXXXXXXXoooooooooooo                                                                   ........................",
"##############################################++##++######+++++++++++++++++++++X++++++++++####++++++XXX.....XXXXXXXXXXXXXXXXXXXXXXXXXX+++++$$+######%%****==**%##+++XXXXXXXXXX++++######******%%###%&**=*****%#######%***%##XXoooo.oo..ooo   ooo..ooooooooXXXXXXXXXX++$$##%*====*#####%%******%###############%*====%###$$XXXooooooo                                            .oXXX++X...    .. .........................................OOO..O.......................  .                                                                                                 ........   .        ... .  .                      ..OO..... ....OOO..    .       . .    ..       . .  ..    ... .... ........OOOOOOOOOOOOOOOOOOOOO@@@@@@@@@@@@@@@@@@@@@@@@@@@@@@@@@@@@@@@@@@@@@@@@@@@@@@@@@@@@@@@@@@@@@@@@@@@@@@@@@@@@@@@@@@@@@@@@@@@@@@@@@@@@@@@@@@@@@@@@@@@@@@@@@@@@@@@@@@@@@@@@@@@@@@OOOOOOO.....    .  ........ .........         ...   ..              ....... ..........................OOOOOO@@@&&&&&&:::&&&@@@&&&&&:&&&&&&:&&&==========**=;==*%%%*%##$$$$$$$$$XXXXXXXXXXXXXXXoooooooooooooooooooooooXXX$XXXX$$$$$$$$XXXXXXX$$$$$$$##%*=====**%%***%***===***********===;;;;-=====***%%%%#######$$$$$$$$$$$$XXXXXXXooooooooooooo                                                                    ........................",
"################################################+++####+##++++++++++++++++++++++++++++++++#####+$++XXXXX...XXXXo..XXXXXXXXXXXXXXXXXXXXXXX+$$$$$$######%%****==**%##++++XXXXXXXXX$$$#######%%****%%##%**=*=***%&######%***%##+X....     ooo  ooo.....ooooooXXXXXXXXXX+$$$##%*====*######%*******%##############%*====*###$$XXXXoooooooo o                                      ooooo...XXXXX.        .......OOO........................................................      ..                                                                                            ..........  ....      .                            ...OOO... .....OOO....           .       ....    ..  ........        .........OOOOOOOOOOOOOOOOOOOOOOOOOOOOOOOOOOOOOOOOOOO@@@@@@@@@@@@@@@@@@@@@@@@@@@@@@@@@@@@@@@@@@@@@@@@@@@@@@@@@@@@@@@@@@@@@@@@@@@@@@@@@@@@@@@@@@@@@@@@@@@@@@@@@@@@@@@@@@@@@@@@@O@@OOOOOOOO......  ...   .......   .......   ..  ...  ... . ......     ....    ... . .................O......OOO@@@@&&&&&&:::&&&@@@&&&&:&&&&&===&===========***=;;=*%%%*%###$$$$$$$$XXXXXXXXXXXXXXXXoooooXooooooooooooooooXXX$$$X$$$###$$XXXXXXXXX$$$$###%*====**%%%%%%%%****************===;;;;=====**%%%%%######$$$$$$$$$$$$XXXXXXoooooooooooooooooo                                                                  .........................",
"################################################+++####+++++++++++++++++++++++++++++++++++######$++XXXXX.....Xoo.XXXXXXXXXXXXXXXXXXXXXXX++$$$$$$########%%%******%###+++XXXXXXXX+$$$$#######****%%###%***=****&#####%%%**%##++X.o.  .. ooooooooo...oooo.ooXXXXXXXXX+++$###%*====*######%*******###############%*====*###$$XXXXXoooo oooo                                      oooo  ....XXXo        ........OOOO......................................................      ...                                                                                          ...........    ...   ..      . ..    ..         . . ...OO.... .....OOO....          .      . .....  ...      ...... . .  ..........OOOOOOOOOOOOOOOOOOOOOOOOOOOOOOOOOOOOOOOOOOOOOOOOOOOOOOOOOOOOOOOOOOOOOOOOOOOOOOOOOOOOOOOOOOOOOOOOOOOOOOOOOOOOOOOOOOOOOOOOOOOOOOOOOOOOOOOOOOOOOOOOOOOOOOOOOOOOOOOOOOOOOOOOOOO.........  ..    ......      . ...    .  ...         ....      ..   .....    .................O......OOO@@@@&&&&&&:::&&@@@&&&&::&&&&&============******=;;=*%%%*%###$$$$$$$$XXXXXXXXXXXXXXXooooooXoooooooooooooooXXXX$$$$$$####$$XXXXXXX$X$$$$##*====**%%%%%%%%%******%%%*******==;;;;====****%%%%%#####$$$$$$$$$$$$$$XXXXXXXooooooooooooooooo                                                                ...........................",
"################################################+#####++##+++++++++++++++++++++++X++++++++#####++++XXXXXX...oooo.XXXXXXXXXXXXXXXXXXXXXXXXXXX+++$###########%%*****%%##++XXXXXXXXXX+$$$$$#####%%%%#####%*====***######%%%*%##++..o......o   .ooo ..oooooooXXXXXXXXXXX+$$###%*====*######********###############%*==;=*###$$XXXXXoooooo                                          oooooo..o...oo         .......OOOO...............................................            ..                                                                      .   .      .        ...........     ..    ...   .... .     .   ..    .  ....OO.... .....OOO.....         .    ........    ....      ....  ..   ...............................OOOOOOOOOOOO..OOOOOOOOOOOOOOOOOOOOOOOOOOOOOOOOOOOOOOOO..OOOOOOOOOOOOOOOOOOOOOOOOOOOOOOOO..OOOOOOOO..OOOOOOOOOOOOOOOOOOOOOO..O..OOOOOOOOOOOOO.O....................    ....             ..... .  .          .......................................O.....O.OOO@@@@&&&&&&::&&&@@@&&&&:&&&&&:========**********=;;=*%%%*%###$$$$$$$XXXXXXXXXXXXXXXoooooooXXooooooooooooooXXX$$$$$######$$XXXXXXX$$$$$#%*====**%%%%%%%%%******%%%%******==;;;-====***%%%%%######$$$$$$$$$$$$$XXXXXXXXooooooooooooo                                                                   .............................",
"######################################################++##++#+++++++++++++++++++++++++++++#####++++XXXXXXX..oooXo.XXXXXXXXXXXXXXXXXXXXXXXXXX++++$$$###########%*****%###$+XXXXXXXXXX++$$$#######%######%*******%#####%%%%%##++..o....ooo  ..ooo ooooooo.ooXXXXXXXXXX+$$###%*====*######********###############%*==;=*###$$XXXXXoooooo    o                                      oooooo..ooooo...     ..........OOO........ ...................... ..............         ...    .                                                                   .   ..    ..        ...........     ..    ..... ......  ......  ....  . ....OOO... .....OOO.. .. . .  ................    ......          ..  ..........................OO..OOO.OOOOOOOOOOOOOOOOOOOOOOOOOOOO..OOOOOOOOOOOOOOOOOOOOOOOOOOOOOOOOOOOOOOOOOOOOOOOOOOOOOO...OOOOOOOOOOOOOOOOO..OOOOOOOOOOOOOO.OOOOOOOOOOOOOOOOOOOOO..................                     ....... .         ........................................OOO.O..O.OO@@@@@&&&&&&::&&&&&&&&&:&&&&&=:======****%%%%****=;==*%%%*%###$$$$$$XXXXXXXXXXXXXXXXoooooooooooooooooooooooXXX$$$$$######$$$XXXXX$$$$$#%*====*%%%%#%#%%******%%%%%*****==;;;;=====**%%%%%%####$$$$$$$$$$$$$XXXXXXXXoooooooooooooooo                                                               ...............................++",
"####################################################++++#+++#+++++++++++++++++++++++++++++####++++++XXXXXXX.....o..XXXXXXXXXXXXXXXXXXXXXXXXXXX+++++$###########%******%###$+XXXXXXXXXXX++$$#############%%******%#####%%####+X..oo..  oo  oooo. ooooo...ooXXXXXXXXXX++$$##%*====*#####%****%***###############%*====*###$$$XXXXoooo     oo                                         oooooooooo....       ......................................      ............         ...    ..      ..                                                          .   ....  .....     ...................    .    .           .   ...     ....OOOO........OOO.... .... .  ..   .........    ....   ..  . .  ..   .......................................................................................................................................................................................... ..     ..      .        ............     .  ........................................OOOOOOO.OOOO@@@@@&&&&::::&&&&&&&&&&&&&&::==****&&&#%%%#%%***=;==*%%%*%###$$$$$XXXXXXXXXXXXXXXXXooooooXooooooooooooooooXXX$$$$$#######$$XXX$$$$$##%*===**%%#####%%*****%%%%*******==;;;-====***%%%%#####$$$$$$$$$$$$XXXXXXXXXXXoooooooooooooooo                                                             ..............................OO+++",
"######################################################++#++#####++++++++++++++++++++++++++#####+++++XXXXXXXX....o....XXXXXXoX...XXXXXXXXXXXXXXXXXX+$#############%%*****%##$+XXXXXXXXXXX++$$$#############%%%***%%##########+XXXoo. . oo  oooo..ooooo...ooXXXXXXXXXX++$$##%*====*%#####****%***###############%*====*###$$$XXXXoooo    oooo                                        ooooo.o..oo...        ......................................     . ............      ....    ..    . ..                                                          .   .. .  ......    ............ .....    ..   ...          ... .. .  ......OOOO........OOOO... ...  ....  .  .. .....    .. .  ...... .  ..    ......................................................................................................................................................................................... ...   ....     ..      .....OOOO....     ........ . .....    .  ....................OOOOOOOOOO@@@@@@@&&&:::::&&&&&&&&&&&&&:::==****&#####%%%%***=;==*%%%*%###$$$$$$XXX$XXXXXXXXXXXXXooooXoooooooooooooooooXXX$$$$########$$$$$$$$$##*====*%%#######%*****%%%%%*****===;;;===****%%%%%#####$$$$$$$$$$$$XXXXXXXXXXXXoooooooooooooooo                                                            ..............................++++++",
"##################++#########################################+##++++++++++++++++++++++++++#####+++++++++XXXXXX..oooooo.X.o.ooooooo..XXXXXXXXXXXXXX+$###############%%****%###+XXXXXXXXXXX+$$$$##############%%**%%%#%#######XXXXoooo      ooo.....ooo..oooXXXXXXXXX+++$$##%*====*#####%********###############%*====*###$$$XXXXXoooo  ooo                                      o    oooo..oooooo...         ......................................       .............   ..     .    .....              ..    ..        ...      ......     ....  ....    ..      ..  ......O........ ...       ....... .... .....   ...  .....O@@OO........OOOO..... ... .....      .....      ... ..... .. . . .  ...................................................................................................................................................................................... ...  ..  ......  ....    .....OOOOOOO...     ......                    ..................OOOOOOOO@@@@@@&&&&:::::&&&&&&::&&&&:::====***#######%%%***=;;=*%%%*%###$$$$$$$$$$XXXXXXXXXXXXXXXoooXooooooooooooooooXXX$$$$$#######$$$$$$$##%*===**%%######%%****%%%%%%%***====;;;====***%%%%######$$$$$$$$$$$$$XXXXXXXXXXoooooooooooo    oo                                                          ............................XX+X++++++",
"########$+++##+##++++####################################+##++#+++++++++++++++++++++++++++#####++++++++++++XXX..oooooooooooooo..ooo.o...XXXXXXXXXX+$#################%*****##$XXXXXXXXXX+X+$$$#############%%%*%%%%%%######+XXXXooo  o    oo.....ooooooo.oXXXXXXXXX+++$$##%*====*#####%****%***###############%*====*###$$$XXXXXoooo  ooo                                      o   o.ooooooooooo...       .  ......................................      .............   ...    .   ....    .      .......    ..        ...      ......   ......  ....     .     ...  .....OO.......  .....     ..................       ......O@@OO.......OOOOO.....   ....        .....       ... .........................................................................................................................................................................................................   ..  ...........    .....OOOOOO.....      .....       .            ............OO.....OOOOOOO@@@@@@&&&&:::::&&&&&::&&&:::::=&****%########%%***==;=*%%%*%###$$$$$$$$$$XXXXXXXXXXXXXXXXXXXXXooooooooooooooXXX$$$$$#######$$$$$$##%*===*%%#######%%***%%%%%%%%***===-;;====***%%%%%#####$#$$$$$$$$$$$$$XXXXXXXXoooooooooooo      o                                                        .............................XXXX+++++++#",
"########$$$$$$$$$######################################+++###++++##+++++++++++++++++++++++++###++++++++++++XXXXX...oooooooooooooooo ..ooXXXXXXXXXXX+$$#################%%**%##++XXXXXXXXXX$$$$$###########%*****%%%%%#####++XXXooooooo .  oo...ooooooo.o.XXXXXXXXXXX+$$$##%*====*%#####********###############%*====*###$$$$XXXooooooo  ooo                                 oo  oo.ooooXXXXXXXoo.ooo        . ......................................     ..........  ........               .    .     ...          ..            . .       ..    ....  .  ...    .   ....OOOO.................. .......................   ....O@@OO........OOOO..... .... ........   ....  ...     ....    ...........................................................................................................................................................   ............  ........    ..  ...  ..........................OOO....... . ........   . ..         ..    .................OOOOOOO@@@@@@@@&&&&&&:::&&&&&&&&&&:===*******%%########%***==-=*%%%%%##$$$$$$XXXXXXXXXXXXXXXXooXXXoooXXXXoooooooooooXXXX$$$$$#######$$$$$##**===*%########%****%%%%%%*****==-;;;====**%%%%%#####$$$$$$$$$$$$XXXXXXXXXoooooooooooooo  oo    o                                                    .  ...............................X++++++####",
"#########$$$+$$$$$+#####################################++###+++++#++++++++++++++++++++++++####+++++++++++++XXXX...ooooo....oo  oo o..oo..XXXXXXXXXXX+$$################%%%%##++XXXXXXXXX+$$$$$##########%**==**%%%%%#####++XXXo.oooo  .oo  ..oooooooo...XXXXXXXXXXX++$####*====*%#####%*******###############&*==;=*####$$$XXXooooooo    o                                 oo oo.XoooXXXXXXXXo.oooo           .....................................    ............. ........   ...        .   ..      ..          .. .            ...     ....  . ..    .... ...........OOOO.......................................... ......O@@OO........OOOO....................  ..........    ....    ...........................................................................................................................................................   ............   .......   .... ...  .........OOOOOO..........OOOO.....     ........        ...     .. .  ................OOOOOOOOO@@@@@@@&&&&&&::&&&&::&&&:::=&********%%########%***====*%%%%%##$$$$$$XX$XXXXXXXXXXXXXXXXXXoooXXXXooooooXooooXXXX$$$$$#######$$$$##*===*%%########%***%%%%%%%%****==;;;====***%%%%%#####$$$$$$$$$$$$XXXXXXXXXoXooooooooooooo    oo  o                                                   ..   .......................XX....X+++++####%*",
"#########+++$+++$$+++#####################################+###+++++++++++++++++++++++++++++###+++++++++++++++XXXXX..oooo...ooooooooooooooo..XXXXXXXXXXXX$$$$##################++XXXXXXXX+++$$$$$#########%*====***%%%%####++XX.o.ooooo  o oo..ooooooo.oX.XXXXXXXXXX++$$###%*====*%#####********###############&*====*###$$$$XXXooooooo                                      oooo.XXXXXXXXXXXXXXXoooo.  .       .....    ...........................  .......................... . .. ...    ..  ....    ........    .......         ....    ....            ..............OOOO.................................................O@@OO........OOOO................................   .......  ........................................................................................................................ .. ... ... ............  ..    ....         .        ....    ....  ..   .......OOOO@@@OOOOO.....OOOO.......     .......         ..     .... ...  ............OOOOOOOO@@@@@@@&&&&&&:::&&&:::&&&:::&&&&*******%########****====*%%%*%##$$$$$$XXXXXXXXXXXXXXXXXXXXXXoooooXooXoXXXXooooXXX$$$$$$##########%*===*%########%%***%%%%%%%%%**===;;-===****%%%#####$$$$$$$$$$$$$XXXXXXXXXooooooooooooooooo   oo                                                           .......................XXX++++++++###%%***",
"###########+#++$$++++#########################################+++++++++++++++++++++++++++++###+++++++++++++++XXXXXX..oooo...ooooooooooooooo.XXXXXXXXXXXX+$$$$#####%%########++++++XXXXXX++++++$$$########%**=====**%%%###$+XXX.o.ooooo  o.o.oooo.oooooXXXXXXXXXXXXX++$$###%*====*%#####********%##############%*==;=*###$$$$XXXXooooooo o    o                               ooo.XXXXXXXXXX+$$XXoooo.           ....  ..........................................................  ............  ....    ........    ........    ................  ...... .................OOOO.................................................O@@OO........O@@O............................................................................................................................................................................... ... .......   ..    ....                 . ..        .  ..    ......OOOOOOOOOOOO....OOOO........    .......          ..     ....  ..  ............OOOOOOOO@@@@@@@&&&&&::::&&:::&&&:::&&&&&%******#########%***====*%%%%%##$$$$$$XXXXXXXXXXXXXXXXXXXXXXooooooooooXXXXooooXXX$$$$$$$$#######%*==**%########%***%%%%%%%%%***==-;-====***%%%%####$$$$$$$$$$$$$$$XXXXXXooooooooooooooooooo                                                               ...................XX..XXX++++++++####%%****",
"##############+++++++#####%%%%%%%%###############################++++++++++++++++++++++++++###++++++++++$+++++XXXXXXoo.ooooooooooooooo..ooo.o..XXXXXXXXX+++$######%%%#####++$+++++++++++XXX+XX+++++$$#####%*=====***%%###$XX.Xoooooooo..o..ooooo..oooooX.XXXXXXXXXX+++$###%*====*%#####****%***%##############&*==;=*%###$X$XXXXooooooooo                                      ooXXXXXXXXX$$###XXo.o            ..   ... ...................................................................   ...  ............   ..........   ................   .......................OOOO.................................................O@@OO.......OO@@O................................................................................................................................................................ ........... .....            ..  ......                   ...     .         .......OOOOOOOOOOOO..OOOOO.....   .   ......        ..         .       ...............OOOOO@@@@@&&&&&&&&&:::&&:::&&&:::&&&&&&%%*****#########%%**====*%%%%%##$$$$$$$$$XXXXXXXXXXXXXXXXXooooooooooooXXooooXXXXX$$$$$$$$#####%**==*%%#######%%***%%%%%%%*%***==-;-==*****%%%#####$$$$$$$$$$$$$$XXXXXXoooooooooooooooooooooo                                                          ......................XX...X+++++++####%%*******",
"###############$+++++#####%%%%%%%%%%%#############################++++++++++++++++++++++++##+##++++++++++++++++XXXXXo.o.oo.ooooooooooooooooooo..XXXXXXXXX++$######%%%%####$$$+++++++$+++XXXXXXX+++++$#####%**======**%%##$XX.X.ooooo.o....ooo.oo..oo..oXXXXXXXXXXXXX++$###%*====*%#####********%##############%*==;=*%###$$$XXXXoooooo.ooo  o                                 oooXXXXXXXXXX$#%#$XXo o                       ..  .     ..........  ...........................................   ..........................................................................OO@O................................................OO@@@O.O.....OO@@O........................................................................................................................................................... .... ............... ..       . ..... ..                .      ...    ..    .   ............OOOOOOOO..OOO.......      .....          ..         .      ............O.OOOOOOO@@@@&&&&&&&&&::::&&:::&&:::&&&&&%#%******#########%%**====*%%%%%##$$$$$$$$$XXXXXXXXXXXXXXXXXXXXXoooooooXXXooXXXXXXX$$$$$$$$####%*==**%%#######%%***%%%%%%%%***==----===***%%%%####$$$$$$$$$$$$$$XXXXXXoooooooooooooooooooo  oo                                                          .................XXX..++X++++++++++###%%********",
"################++########%%%%%%%%%%%%%##############################++++#++++++++++++++++########++++++$$++++++XXXXXX...ooo....o.oooooooooooooooXXXXXXXX+$#######****%###$+$+++++$$$$$$+XXXXXX+++++$######%%*======**%##$+XXX.Xoooooooo  .oo..ooooo..XXXXXXXXXXXXXX++$####*====*#######*******###############&&==;=*%###$+$XXXXo.oooo.oooooo o   o o                         ooXXXXXXXXX$$##%##XX.oo   .                     .... .      ......   .    ..................................................................................................................OO@O................................................OO@@@OOO.....OO@@O............................................................................................................................................................ .......................  ...... .  ....      ............     ...  .........   ................................   .   ...            .      .  ..    .............O.OOOOOOO@@@@&&&&&&&&&:::&&:::&&&::=&&&&&%%%%*****#########%%**====%%%%%%##$$$$$$$$$XXXXXXXXXXXXXXXXXXXXXXXoXXoooXoooXXXXXXX$$$$$$$$$##%*==*%%##$####%%***%%%%%%%%%***===--===***%%%######$$$$$$$$$$$XXXXXXXXXooooooooooooooooooo  ooo                                                        ....................XXXXO++++++++++####%***********",
"##########################%%%*%%*****%%%##############################++###++++++++++++++++#+######+++++$$++++++XXXXXX...ooo..XXooooo...ooooooooooXXXXXX+$#######%%****%####$+++++$$$$$$+XXXXXX+++++$#######%%**======*%##+XXX..oooooooo  .o...ooo.o..XX..XXXXXXXXX++++$###*====*#######*******###############&&==;=*%###$X$XXXXo.ooo. oooooo oo  oo o                        ooXXXXXXXXXX$##%##XXXoo   ..                      .         ....... .      .................................................................................................................OO@O.O..............................................OO@@@O.......OO@@O....................................................................................................................................................................................................      ............     ...  .........  ....O.........................      .  ....                   . ...    ...........O.OOOOOOOOO@@@@&&&&&&&&&:::&:::&&&:::=&*=&&%%%%****%#########%%%*====%%%%%%##$$$$$$$$$XXXXXXXXXXXXXXXXXXXXXXXXXXoooXoooXXXXXXX$$$$$$$$##**=**%%#######%****%%%%%%%%%**===--===****%%%####$$$$$$$$$$$$$XXXXXXXoooooooooooooooooooo    ooo                                                        ....................XXX+O++++++++####&%************",
"##########%%##%############%%%*******%%%%%######################++++++#++###++++++++++++++++########++++++###+++++XXXX.XXX.X.oo...oooooooooooooooooXXXXX+$$######%%*****%%###++++$$$##$+$++++++X+++#####%%%###%%*======*##$+XX.Xooo....o  ....oooo...ooo.oXXXXXXXXXX+$$###%*====*######%*******#####+########&&*==;=**###$$$XXXX..oooo. .ooo.. ooooo  oo    o           .oooooooXXXXXXXXXX$##*%#$$XX o                                ............   ...........  ..... .................................................................................................OOO@OOO..............................................OO@@@OOO....OO@@@O.........................................................................................................................................................................OOOOOO.........   ....    .... ...    . .....    ..    .        ......O......................  ...      .....                     ....  ...............OOOOOOO@@@@&&&&&&&&&&:::&::&&&&::&&&==**%%%%****%##########%%*=-==%%%%%%##$$$$$$$$$XXXXXXXXXXXXXXXXXXXXXXXXooooXXXoXXXXXXXX$$$$$$$#%*==*%%########%****%%%%%%%****==--======*%%%####$$$$$$$$$$$$XXXXXXXXoooooooooooooooooooo                                                                 ..........X.....XXXXX++++++++++####****************",
"##########%%%%%%######%%%%%%%%%*******%%%%%#######################++++######++++++++++++++++#########++++#######+++XXX.XX..o.oo..oooooooooooooooooo.XXXX+$########%*******%%##++++$$###++++++++++++##%%***%%####%**=====*%#+XXXXoo....oooo....oooo...ooXoXXXXXXXXXXX+$$###%*====*######********##############&&&==;=**###$$$XXXX..oooo.  ....  oooooo  o    o           .. oooooXXXXXXXXX$$##*%##$XX.o                  ..          ..........  ... ...............  .  .................................................................................................OOO@OOO.............................................OOO@@@OOO....OOO@@O........................................................................................................................................................................OOOOOOOO........    .... . ........       .. .   ....   .     .. ..............................         .....                   . .... .................OOOOOO@@@@@&&&&&&&&&&::&:&&&&&::&&&&==**%%%%*****##########%%*=-==%%%%%%##$$$$$$$$$XXXXXXXXXXXXXXXXXXXXXXXXXooXXXXXXXXXXXX$$$$$$$#%*==*%%##$####%%***%%%%%%%%***===--====***%%%%###$$$$$$$$$$$$XXXXXXXoooooooooooooooooooooo                                                                 ................XXX++++++++++####%%****************",
"$+#########%%%%%%%%%****%%%%%%%***********%%%######################+####+++#+++++++++++++++###########++##########++XXXXX...oooooooooooo  o ooooooo.XXXXX+$########%%%******%########+++$++++++++++##%******%%###%%**===**##++XXoo..oooooooooooooo.o..oXoXXXXXXXXXX+++$###%*====*######********###############&*====*%###$$$XXXXooooooo.oo   o    oooo   oo     oooo      ooooooXXXXXXXXX$$#%*%###+X.o                                .......   ...        . .....    ..  .............................................................................................OOOOO@OOOOO.........O...O..OOOO......O.OO..OOOOOO..OOOOOO@@@OOO......O@@OOOO.............OO.O..OO..OOOO......................O....OOOOOOOOO......................................................................................................OOOOOOO.............................. .. .  ...   ....  .   ..  ............................      .     ....                 .    ..... ..............OOO.OOOO@@@@@&&&&&&&&&&:&&:&&&&&::&&**==**%%%%*****#########%%%*=-==%%%%%%##$$$$$$$XXXXXXXXXXXXXXXXXXXXXXXXXXXXXXXXoXXXXXXXX$$$$$$#%****%###$####%%***%%%%%%%%**====-===*****%%####$$$$$$$$$$$$$XXXXXXXoooooooooooooooooooooo o                                                             oo..........XX.....XXX++++++++####%%******************",
"$+$$#######%%%%*%%********%%%%%%************%%%%########################++#++++++++++++++++############+###########$+XXXX..ooo.ooooooo o    ooooooo.XXXXX++$##########%*******%%####++++++++#+++#####%*====**%#####%%***=*%#++XXooo.ooooooooooooooooo.XXoXXXXXXXXXX+++$###%*====*%#####********###############&*==;=*%###$$$XXXXooooooooooooooo   oo. o ooooo  ooooo      oo.oooXXXXXXXXX$$#%*%###$X.o                               ..          .            ....    ..   ...  .........................................................................................OOO@@OOOOOOOOOOOOOO..OOOOOOOO......OOOO..OOOOOOOOOOOOOO@@@OOO....O.O@@OOOO..O.O....OOOOOOOO.OOO..OOOOOO....OOOO....OOOO..OOOOO.OOOOOOOOOOOOO.OOOO....OO................................................................................................................................................................................ ..       .    .....            .    .    ..... ..............OOOOOOOO@@@@&&&&&&&&&&&:::&&&&&&&&&&*&==**%%%%*****#########%%%*=-=*%%%%%%##$$$$$$XXXXXXXXXXXXXXXXXXXXXXXXXXXXXXXXooXXXXXXXX$$$$##%***%%##$$$###%%**%%%%%%%%%**===-===****%%%%####$$$$$$$$$$$$XXXXXXXooooooooooooooooooooooo                                                               .........o..XXX....XXX++++++++###%%******=*************",
"+++$$$######%%*******************%%***********%%*%%#################++##++++++++++++++++++++###########+######%%####+XXXX.ooooo.oooo  o   ooooooooo..XXXXXX+++$$########%%******%#####+###+###########%*====**%#####%%*****%#+XXooooo .o...oooooooo.o.oXXXXXXXXXXXXX+++####**===*######*********##############%*==;=*%###$$$XXXXXooooooooo. .oo   o...  ooo oo oo.   o..o ooooo.XXXXXXX$$$$##*%###$Xoo                                                ..     .......       .  . ..........................................................................................OO@OOOOO..........O.OO.OOO..............O...OOOOOO.OOO@@@OOO....O.OO@OOOO........O..........OO............OOOO.........OOO....OOO.OOOOOOO...OO.......O.............O..............O........................................................................................................................................... ....   .... . . .   .....    .         .    .    .... ... ...........OOOOOOOO@@@@&&&&&&&&&&&:::&&&&&&&&&&&*****%%%%*****#########%%%*====%%%%%%##$$$$$$$$XXXXXXXXXXXXXXXXXXXXXXXXXXXXXXXXXXXXXX$$$$##%****%%##$#####%%**%%%%%%%%%***==-===***%%%%####$$$$$$$$$$$XXXXXXXoooooooooooooooooooooooooo oo                                                         oo..oo........X....XXX+++++++++###%%**********************",
"++++$$$#####%%%*******=***********%%*************%%%####################++++++++++++++++++++++#######+++######%%%###++XXXooooooooooo      oooooooooo..XXXXXXXX++++$#$#####%*******%###++##########%%##%%**===*%%######%%**%%#+XXoooooo.o.. ooooooo....ooXXXXXXXXXXX+++$####*====*######*********##############&*==;=*%###$$$XXXXXoooooooo .  ooo  ....o     ..  ..  oo..o.ooooo.XXXXXX$$$$$##%%###$X.o.                              ..                       ........... ...............................................................................................OOOOOOOOO............OOOOOOOO.....OOO...O.....O.....OOO@@@@OO....O.OO@OOOO...................OO..............OO..........OO........OO.OOO.........................................................................................................................................................................O............  ..    . .. ...  . ......    .             ..    ..... .. ...........OO..OOOO@@@&&&&&&&&&&&&:::&&&&&&&&&&&*****%%%%****%#########%%%*===*%%%%%%##$$$$$$$$XXXXXXXXXXXXXXXXXXXXXXXXXXXXXXXXXXXXXX$X$#%*==**%####$###%%**%%%%%%%%%***=======***%%%#####$$$$$$$$$$XXXXXXXoooooooooooooooooooooooo                                                             o................X.XXXXXX+++++++###&%************************",
"X++++$$$######%%*****=======*********%**************%%####################+#####++++++++++++++++#####++++####%%%#####+XXXXoooooo.ooooooooooo....oooo..XXXXXXXXXX+++++$$####%%******%%###########%%**%%#%%*****%%########%%##++X.oo.oo.. ....ooooo.o.....XXXXXXXXXXX++++####*====*%#####*********############&&&*==;=*%###$$$XXXXXo.oooo.ooo..o.o   .oooo    ....    ooooo..ooooXX+$XX$$$$$$#######$X.o                             ........   . ..  .       ........................................................................O.O....OOO..OOOO...O.....OO........OOOOOOOOOOO....OOOO.O.OOOOOOOOOOOOOOOOOOOOO.O..O.OOOOOOOO@@@OOO....OOOO@OOOOO.O.O..O...........OOOO....O.....OOOOOOOO....OOOOOOOOOO....OOOO....OO............................................................................................................................................. .....................O............  ....          .   ......   .....                 .    ..............OOOOOOOO@@@&&&&&:&&&&&:::&&&@&&&&&&&******%%%%****%#########%%**====%%%%%%##$$$$$$$$$$XXXXXXXXXXXXXXXXXXXXXXXXXXXXXXXXXXX$$$#%*==*%%##$#####%%**%%%%%%%%%***======****%%####$$$$$$$$$$XXXXXXooXXooooooooooooooooooooooo    o                                                       oo.....o.....XX...XXX.XXXX++++++###%%**************************",
"XXXX+++$$$######******========*******%%**************%%%########################++++++++++++++++#+++++++++####%%#####$XXXXoooooooooooooooooo.oo.ooo...XXXXXXXXXXXXX+++$$######*******%##########%*****%%#%%%%%%%############++X...ooo..o.....ooooo......oXXXXXXXXXX++++####*====*%#####*********############&&&*==;=*%###$$$XXXXX..oooo.ooo.o.oo  .oo       o.o.    oooo.o.ooo.XX$$XX$$$$$########+X.o.                           .............. .......................................................OOOOO.OOOOOOOOOOOOOOOOOO....OOOO..OOOOOOOOOO..OOOO....OOOOOOOO.OOOOOOOOOOOO..OOOOOOOOOOOOOOOOOOOOOOOOOOOOOOO..OOOOOOOOOO@@@OOO....OOO@@OOOOOOOOOOOOOOOOOO.O.OOOOOOOOOOOOOOOOOOOOOOOOOOOOOOOOOOOOOOOOOOOOOOO.O.OO.........OOOOOOO....OO.....OOOOO....OOO...................................................................................................... ..................................  .....        ..   ....     .......         ..   ..    ..............O.OOOOOO@@@&&&&&:&&&&&:::&&@@&&&&&&&&*****%%%%*****#########%%**=-==%%%%%%##$$$$$$$$$$$XXXXXXXXXXXXXXXXXXXXXXXXXXXXXXXXXX$$#%*=**%%###$$##%%***%%%%%%%%%**======****%%%###$$$$$$$$$$$$XXXXooooXXooooooooooooooooooooo   o o                                                        .....oo..X.XXXXXX.XXXXXXX+++++###%%%*************************%%",
"XXXXXXXX++$$#####******==========***********************%%################++++###+++++++++++++++#+$$$++++$$##########+XXXXooooooooooooooooooo.Xoooooooo.XXXX.XXXXXXXXXXX++$#####%******%########%****=*%%###################+X.o..ooooo......ooooooooo.ooXXXXXXXXX++++$$##%*====*######********#########@####&&&==;=*%###$++XXXXoo..oooooooo....oooo    o  o.....o..ooooooooooXXX$$$X$$$#$$####$##+XXo                          .... ...........  ....................................OOOOOOOOOOOOOOOOOOOOOOOOOOOOOOOOOOOOOOOOOOOOOOOOOOOOOOOOOOOOOO....O....OOOOOOOOOOOOOOOOOOOOOOOOOOOOOOOOOOOOOOOOOOOOOOOOOOOOOOOOOOOOOOOOOOOO@@OOOO...OOOO@@OOOOOOOOOOOOOOOOOOOOOOOOOOOOOOOOOOOOOOOOOOOOOOOOOOOOOOOOOOOOOOOOOOOOOOOOOOOOOOOOOOOOOOOOOOOOOOOOOOOOOOOOOOOOOOOOOO.O......O...................................................................................................................................  ..         ....  .   ...  ..           .  .. .  ..............OOOOOOOO@@&&&&&&&&&&&&:::&&@&@&&&&&&&*****%%%%****%#########%%%*=-=*%%%%%%##$$$$$$$XXXXXXXXXXXXXXXXXXXXXXXXXXXXXXXXXXX$$$$%%==*%%###$####%%***%%%%%%%%***=====****%%%##$$$$$$$$$$$$$$XXXXXXXoooooooooooooooooooooo                                                                .....o......XX....XX++++++++####%%****===*****************%%####",
"XXXXXXXXXX$$$#####*******==========**********************%%###############++++###+++++++++++++++++++$++++++$#########+XXXX.ooooooooooooooooooooooooXXXX.XoXooXXXXXXXXXXX+++$$####%*******%######%%***==*%%################++XX....oooo.......oooooooooooXXXXXXXXXXX++++$##%*====*######********#########@####&&&==;=*%###$$+XXXXoo..ooo.oooo....oooo.   .ooo....o...ooooooooooXXX$$$X$$$$$####$$##+XXo o                                 . .....   ..................................OOOOOOOOOOOOOOOOOOOOOOOOOOOOOOOOOOO@@@OOOOOOOOOOOOOOOOOOOOOOOOOOOOOOOOOOOOOOOOOOOOOOOOOO@OOOOOOOOOOOOOOOOOOOOOOOOOOOOOOOOOOOOOOOOOOOOOOOOOO@@@OOOO.O.OOOO@@OOOOOOOOOOOOOOOOOOOOOOOOOOOOOOOOOOOOOOOOOOOOOOOOOOOOOOOOOOOOOOOOOOOOOOOOOOO.OOOOOOOOOOOOOOOOOOOOOOOOOOOOOOOOOOOOOOOOOOO.OOOO.................................................................................................................................              ...  ...  ...  ..     .    .. ...    ..............OOOOOOOO@@&&&&&&&&&&&::::&&&@@&&&&&%******%%%%****%##########%%*=-=*%%%%%%##$$$$$$$$XXXXXXXXXXXXXXXXXXXXXXXXXXXXXXXX$X$$##*==*%%##$$####%%**%%%%%%%%%***=====***%%%%##$$$$$$$$$$$$$$XXXXXXXXooooooooooooooooooooo                                                                 ...ooo......XX..XXXX+++++++###%%******=******************%%#####",
"XXXXXXXXXXXX+$$#####%******===========*********************%%###############+++#++++++++++++++++++++++++++++$$######++XXXXXooooooooooooooo.o.ooXooXXXXXXXoXoo.XXXXXXXXXXXXX+$$#####%******%######%****=**%###############$++XXo..ooo....o.oooooooooo..XXXXXXXXXXXXX+++$$##**====*######********#########@####&&&==;==%###$$$XXXXooo....oo.oo.oooo.oo..o...oo.o..oo..ooooooooooXXX$$$XXXX+$####$$##+Xoo o                                    ....      ..............................................OOOOOOOOOOOOOOOOOOOOOOOOOOOOOOOOOOOOOOOOOOOOOOOOOOOOOOOOOOO@OOOOOOOOOOOO@@@@@@@@@@@@@@@@@@@@@@@@@@@@@@@@@@@@@@@@@@@@@@@@@@@@@@@@OOO...OOOO@@OOOO@@@@@@@@@@@@@@@@@@@@@@@@@@@@@@@@@@@@@@OOOO@OOOOOOOOOOOOOOOOO@OOOOOOOOOOOOOOOOOOOOOOOOOOOOOO@OOOOOOOOOOOOOOOOOOOOOOOOOOOOOOO.O..........................................OOOO.......................................................................................    ..... ..    ..  ..    ..    ..  ..   ................OOOOOOO@@&&&&&:&&&&&:::&&&@@@@&&&%%******%%%%****%#########%%%*=-==%%%%%%##$$$$$$$$$XXXXXXXXXXXXXXXXXXXXXXXXXXXXXX$$$$#%*==*%%#######%%***%%%%%%%%%**=====***%%%####$$$$$$$$$$$$$$XXXXXoooooooooooooooooooooooo                                                            ooooo...o...XX....XXXXXX++++++####%%*****==*****************%%#####$$$",
"XXXXXXXXXXXXXX$$######*******===========*********************%%%############+++#++++++++++++++++++++++++XX+++++$$+++++XXXXXoooXXXX..o.oooo...o.XooXXXXX..XXXo.XXXXXXXXXXXXXX++$$####%%*****%######%******%##############+++XXXoo..oo....ooooooooo.ooooXXXXXXXXXXXX++++$$##%*====*######********#########@####&&&==;=*%####$$XXXXooXXX..o..oooooo..ooo.oo..oooo.ooo..ooooooooooXXX$$$XXXXXX$###$$##$Xoo.ooo                                 ....       ......    ................................................O.OOOOOO..........O.OOOO......OO.OOOOOOOOOOOOOO@@@@@@@@@@@@@@@@@@@@@@@@@@@@@@@@@@@@@@@@@@@@@@@@@@@@@@@@@@@@@@@@@@@@@OOOO..OOO@@@@@@@@@@@@@@@@@@@@@@@@@@@@@@@@@@@@@@@@@@@@@@@@@@@@@@@@@@@@@@@@@@@@@@@@@@@@@@@@@@@@@@@@@@@@@@@@@@@@@@@@@@@@@OOOO@@@@OOOOOOOOOOOOOOO.........................................OOOOOO..................................................................................................   ...  ... ....    ..  .....................OOOOOOO@@&&&&:::&&&&:::&&&@@@#&&&%%******%%%%****%#########%%%*=-==%%%%%%##$$$$$$$$X$XXXXXXXXXXXXXXXXXXXXXXXXXX$$$$$$#%*=**%########%%**%%%%%%%%%%**=====**%%%%###$$$$$$$$$$$$$XXXXXooooooooooooooooooooooooooo                                                           ooooooo..o....X..XXXXXX++++++++###%*******=*****************%%#####$$$$",
"XXXXXXXX.XXXXXXX$$$#####%*******=========**********************%%%################++++++++++++++++++++++XX+++++++++++XXXXXXXXXXXXXXXXXXXooooooooo...XX.X.XX.XXXXXXXXXXXXXXXXXX++++####%%****%#####%******%##############$+XX.X.o....oooo.ooooooo......XXXXXXXXXXXXXX+++$##%*====*######********#############&%%*==;=*%###$++XXXXoXXXX..ooo..oooo.......oooooooooooooo....oooooXXX$$$XXXXXX$###$$###X.o.o..                                ...    .              ......  ....................................................................O.OO......OO...OOOOO@@@@@@@@@@@@@@@@@@@@@@@@@@@@@@@@@@@@@@@@@@@@@@@@@@@@@@@@@@@@@@@@@@@OOOOO..OOO@@@@@@@@@@@@@&&&&&&&&&&&&&&&&&&&&&&@@@&@@@@@@@@@@@@@@@&&&@@@@@@@@@&@@@@@@@@@@@@@@@@@@@@@@@@@@@@@@@@@@@@@@@@@@@@@@@@@@@@@@@@@@@@@@@OOO........................................O@@@OO............................................................................................... ..          . ....         . ..................OOOOOO@@@&&&&:::&&&&:::&&&&@@###&&&*******%%%****%##########%%*=-==%%%%%%##$$$$$$$$$$$$$XXXXXXXXXXXXXXXXXXXXXX$$$$$#%*==*%%####$###%%*%%%%%%%%%%%**====***%%%####$$$$$$$$$$$X$XXXXooooooooooooooooooooooooooooo                                                       ooo ..ooooooooo..XX..XXX+++++++####%%************************%%####$$$$XXXX",
"XXXXXX..XXXXXXXXX+$$#######*******==========********************%%%%##############+++++++++++++++++++++++++++XXX+XX+XXXXXXXXXXXXXXXXXXXXXX...oooooo..X.X..XX..XX..XXXXXXXXXXXXXX++++####%*****%###%%*****%%#############$XXX.X.o.   oooo..ooooooooo...XX.XXXXXXXXXX++++$##%*====*######********############&#%%*==;=*%###$++XXXXXXXX...ooooo.ooo..oo..ooooooooooooooooooooooo.XXX$$$XXXXXX$###$$###XXX.o...                                                   . ....     ...................................................................................OOOO@@@@OOOOOOOOOOO@OOOO@@@@OO@@O@@@@@@@@@@@@@@@@@@@@@@@@@@@@@@@@@@@@O@OOOOO.OOOOO@@@@@@@@@@@@@@@@@@@@@@@@@@@@@@@@@@@@@@@@@@@@@@@@@@@@@@@@@@@@@@@@@&@@@@@@@@@@@@@@@@@@@@@@@@@@@@@@@@@@@@@@@@@@@@@@@@@@@@@@@@@@@@@@@@OOO......................................OO@@@OO..........................................................................................      ..    .   .   .. .        .. ..................OOOOO@@@@&&&&&::&&&&:::&&&&@@###%&&*******%%%****%#########%%**=-=*%%%%%%##$$$$$$$X$$$$X$XXXXXXXXXXXXXXXXXXXX$$$$$#%*==*%%#######%%%*%%%%%%%%%%%**===**%%%%%%#$$$$$$$$$$$XXXXXXXooooooooooooooooooooooo      oo                                                      oooo....ooo......XXXXXXX+++++++####%*************************%#####$$$$XXXXX",
".X..ooo..o..ooXXXXXX$$$######%*******==========**********************%%############+++++++++++++++++++++++++++XXXXXXXXXXXXXXXXXXXX++$+++XXXXX.ooooooo.XXoX.o..XXoXXXXXXXXXXXXXXXXX+++#####%%****%##%*****%%#############+XXX.o.o... oooo.....oooooo..oXX.XXXXXXXXX++++++###*====*%#####********%##########@&&&%*==;=*%###$++XXXXXXX...oooooooooooooooo..ooooooo...o..o..oooooXXXX$$$XXXXXX$####$###XXXoo....                                              .. .    ..      ........... ......................................................................OOOO&@@@OOOOOOOOOOOOOOOOOOOOOOOOOOOOOOOOOOOOOOOOOOOOOOOOOOOOOOOOOOOOOOOOOOOOOOOOOO@@OOOOOOOOOOOOOOOOOOOOOOOOOOO@OOOOOOOOOOOO@OO@@@@@O@@@@@@@OOOO@@@&@@@OOOOOOOOOOOOOOOOOOOOOOOOOOO@@@@@OOOOOOOOOOOOOOOOOOOOOOOOO@@@@OOOO.................OOO.................OO@@@OO..................................................................................... ..  ..    ..    ......            ......................OOOOOO@@@@&&&&&::&&&&:::&&&&@@&&#&&&******%%%%****%###$######%**=-=*%%%%%%##$$$$$$$XXXXX$$XXXXXXXXXXXXXXXXXXXX$$$#%%*=**%#####$##%%%%%%##%%%%%%***===***%%%%###$$$$$$$$$$XXXXXXooXooooooooooooooooooooooo     oooo                                                     ooo...oooo.....XXXXXXXX+++++###%%************************%%####$$$$XXXXoooo",
"XX..ooooXXXXoXXXXXXXX$$$$######%******==========**********************%%###########++++++$+++++++++++++++++++++XXXXXXXXXXXXXXXXXX++$$$$+++XXXXoooooooo.Xoooo...XoXXXXXXXXXXXXXXXXXXX+++####%%****%%%%****%%#############+XXXoooooo  .ooo.....oooooo..oXXXXXXXXXXXX+++++###%*====*%#####********%##########@&&&&*==;=*%###$++XXXXXXX.oooooooooooooooooo..ooooooo.o....o.oo.oooXXX+$$$XXXXXX$###$$###XXX.o...                                               . .. .  ...     ............    ......................................................O..........OOOO@&&@OOOOOOOOOOOOOOOOOOOOOOOOOOOOOOOOOOOOOOOOOOOOOOOOOOOOOOOOOOOOOOOOOOOOOOOOOO@@@@OOOOOOOOOOOOOOOOOOOOOOOOO@@OOOO@O@@@OO@@@@OOOO@O@@@@@@@OOOO@@&&@@OOOOOOOOOOOOOOOOOOOOOOOOOOOOOO@@@OOOOOOOOOOOOOOOOOOOOOOOOOO@@@@OOO.................OOO.................OO@@@OO........................................................................................  .... .      ......            ......................OOOOOO@@@@&&&&&::&&&&&:&&&&&@@@&&&&&******%%%%****%###$#$####%**===*%%%%%%##$$$$$$$XXXXX$$XXXXX$XXXXXXXXXXXXX$$$##%*=*%%##$$$###%%*%%%##%%%%%%***==****%%%%%##$$$$$$$$$$XXXXXoXoXXooooooooooooooooooooooooo   oooo                                                     ooo..oooooo...XXXXXXXX+++++###%%************************%%###$$$$XXXXXXXooo",
"X.oooooooooXXXXXXXXXXXXX+$$#######%*****==========**********************############++++$$++++++++++++++++++++XXXXXX+XXXXXXXXXXXX+$$#####$+XXXX.oooo..XXXXX...oooo......XXXXXXXXXXXXX+$$#####%************%%%%%%########+XX.ooooooooooooooo..oo.ooo.o.ooXXXXXXXXXXX++$$###**====*######********%###########&&&&*==;==%###$$+XXXX..oooo.oooXXXooooo.ooooooooooo.ooo..ooooooooooXX++#$XXXXX+$####$###XXXooo  .   .                                          ......       .   .............  ................................................................O.OOO@&&@@OOOOOOOOOOOOOOOOOOOOOOOOOOOOOOOOOOOOOOOOOOOOOOOOOOOOOOOOOOOOOOO@@OOOOOOOOO@@@OOOOOOOOOOOOOOOOOOOOOOOOOOOOOOOOOOOOOOOOOOOOOO@OO@@&@@@O@OO@@&&@@OOOOOOOOOOOOOOOOOOOOOOOOOOOOOO@@OOOOOOOOOOOOOOO.OOOOOOOOOOO@@@@OOO.O...............OOOO...............OOO@@@OO........................................................................     .....     ...... ..           ...   .         ..................OOOOOOOOO@@&&&&&::&&&&&&&&&&@@@###%&&*******%#%****%####$#####%**=-=*%%#%%%##$$$$$$$$$$XXXXX$$XXXXX$$XXXXXX$X$$$#%*=**%##$#$$##%%**%%##%#%%%%%**==*******%%%##$$$$$$$XXXXXXoXoXooooooooooooooooooooooooo   ooo                                                o      ooooo..ooo...XXXXXXXXX++++####%************************%%%####$$$XXXXXXXoooooo",
"XXoooooooo..XXXXXXXXXXXXXX$$$#######%*****============*******************%%#########++++$$++++++++++++++++++++XXXXXXXXXXXXXXXXXXXX+$$#####$+XXXXXo...XXXXXXX..oooo......XXXXXXXXXXXXXX+$$$####%*****************%%######+XXXoooooooooooooo...oo.o...oooXXXXXXXXXXXX++$+###**====*######********%###########&&&%*==;=*####$$++XXX..ooooX.ooX.o.oooooooooooooooooooooooooooXooXXXXX$#$XXXXX+$########XXX.... .  ..                                          ... ..      ... .. ........... ..............................................................O..O.OO@@&&@@OOOOOOOOOOOOOOOOOOOOOOOOOOOOOOOOOOOOOOOOOOOOOOOOOOOOOOOOOOOOOOO@@OOOOOOOO@@@@OOOOOOOOOOOOOOOOOOOOOOOOOOOOOOOOOOOOOOOOOOOOOOOO@@@&@@@@@@@@@&&@@OOOOOOOOOOOOOOOOOOOOOOOOOOOOOO@@OOOOOOOOOOOO....O.OOOOOOOOO@@@@@OOOO..O............O@OO...............OOO@@@OO.........................................................................   ......    ............         ...  .  .    .. ..................OOOOOOOOO@@&&&&&::&&&&&&&&&&@+@##&%&*********#%****%####$#####%**=-=*%%%%%%##$$$$$$$X$$XXXX$$$XXXXXXXXXXXXXXX$$#%*=*%%####$$##%**%%%##%%%%%%***==********%%%%#$$$$$$$$X$XXXXXXXooooXooooooooooooooooooo    ooo                                                o    oooooo....oo...XXXXXX+++++++###%************************%%####$$$$XXXXXXoooooooo",
"....XXXXXX.....XXXXXXXXXXXXX$$$$######%*****============*******************%###########+++++++++++++++++++++++XXXXXXXXXXXXXXXXXXXXX$+$#####$+XXXX...XXXXXXXXXooooooooo.XXXXXXXXXXXXXXXXX++$####%%****************%%#####+XX.oooo  oo.o.......ooooo..o.XXXXXXXXXXXX+++$+###**====*######********%#########@&&#&&%==;==%###$$++XXX.oo.XXX......o.oo.oooooooooooo.ooooo.o.oXXoX.XXXX$#$+XXXX+$########XXX..o... .                                        ..  ... . .. .      .. ...................................................OO..OOOO.OOO..............O.OO@@&&@@OOOOOOOOOOOOOOOOOOOOOOOOOOOOOOOOOOOOOOOOOOOOOOOOOOOOOOOOOOOOOOO@@OOOOOOOO@@@@OOOOOOOOOOOOOOOOOOOOOOOOOOOOOOOOOOOOOOOOOOOOOOO@@@@&@@@@@@@@@&&@@OOOOOOOOOOOOOOOOOOOOOOOOOOOOOO@OOOOOOO..............OOO.OOO@@@@@OOOO..OO..........OO@OOO..............OO@@@@OO...................................................................................       ......... ....    ... ......  .....................OOOOOOO@O@@@&&&&::&&&&&&&&&&@+@#&&%&*********#%****%####$#####%%*=-=*%##%%%##$$$$$$$XXXXXXXXXXXXXXXX$$$X$$$$$#%****%##$$$$##%%**%%%#%%%%%%%**===*%%%%****%%%%##$$$$$$$$$$XXXXXXXXooXoooooooooooooooooooo    o                                                oo    ooooooooooo....XXXXX+++++###%%****==******************%%###$$$$$XXXoXooooooooooo",
"XX....XXX......XoXXXXXXXXXXXX$$$$$######%*****============*******************%#########+#+#+++++++++++++++++++XXXXXXXXXXXXXXXXXXXXXX+++#####$+XXXXXXXXXXXXXXX.oooooooooX..XXXXXXXXXXXXXXX$$$#####%%******=======**%#####+XX.oo.  ooo... .....oo.oo....XXXXXXXXXXXX++++$###**====*######********%####@###@&&&#&&*==;=*%###$$++XXX.oooX....o....Xoo.oo.oooo...oo..ooo...o.X..X.XXXX$#$+XXXX+$########+XX..o...    ..                                   ...   .... ......   ... ...........................................................OOOO....O.........OOOO@@&&@@OOOOOOOOOOOOOOOOOOOOOOOOOOOOOOOOOOOOOOOOOOOOOOOOOOOOOOOOOOOOOOO@@OOOOOOOO@@@@@OOOOOOOOOOOOOOOOOOOOOOOOOOOOOOOOOOOOOOOOOOOOOO@@@@&@@@@@&&@@&&@@OOOOOOOOOOOOOOOOOOOOOOOOOOOOOO@OOOOOOOO............OOOOOOOO@@@@@OOOOOOO......O..OOOO@OO.............O.OO@@@@OO................................................OOO....................... .... ..      ....... ... ....    .................................OOOOOOO@@@@@&&&&::&&&&&&&&&&@++#&&%&&********%%****%####$#####%%*=-=*%##%%%##$$$$$$$$XXXXXXXXXX$$XXXXXXX$$$$#%*=*%%##$$$$##%%**%%%%#%%%%%***===*%%%%%*****%%%##$$$$$$$$$$$$XXXXXXXooooooooooooooooooooooo                                                    ooooooooo.oooo.....XXXXXX+++++###%*************************%####$$$$XXXXXooooooooooo  ",
"..XXX.........XXooXXXXXXXXXXXXXX++$$$######*****=============*****************%%########++#+++++++++++++++++++XXXXXX++XXXXXXXXXXXXXXXX++####$$XXXXXXXXX+++XXXX.ooooooooo.....XXXXXXXXXXXXXX++$####%%******=======**%####$XXX....  oooo  o.oo.oooooo...XXXXXXXXXXXXX++++####*====*######********%######@######&&&==;=*####$$+XXXXXXXXX......ooooo...o........oo.............XXXXXX$#$+XXX++$########$XX..o.....  ...                                   ..  ....  ..  ... ..   ...........................OOOOOOOOOOOOOOOOOOOOOOOOOOOOOOOOOOOOOOOO......OOOOOOOO@@&&@@@@OOOOOOOOOOOOOOOOOOOOOOOOOOOOOOOOOOOOOOOOOOOOOOOOOOOOOOOOOOOOO@@@OOOOOOO@@@@@OOOOOOOOOOOOOOOOOOOOOOOOOOOOOOOOOOOOOOOOOOOOOO@@@@&@@@@@&&&&&&@@OOOOOOOOOOOOOOOOOOOOOOOOOOOOOO@OOOOOOOOOOOOOOO.....OOOOOOO@@@@@@OOOOOO....OO..OO..OO@OOO..............OO@@@@OOO...............................................OOO...............................    .....     ......  ....  ..    ....  ....................OOOOOO@@@@&&&&&:&&&&&&@&&&&@@@&&&%%&********#%****%#########%%%*===*%%%%%%##$$$$$$$XXXXXXXXXXXXXXX$$$$$$$$%%***%##$$$$$##%**%%%##%%%%%%%*===**%%%%%%%*****%%####$$$$$$$$$$XXXXXXoooooooooooooooooooooooooo                                                  oooooo.ooooooo..XXXXXXXX++$####%***********************%%####$$$$$XXXoooooooooooo     ",
"X.oo.oooo.ooooooooXXXXXXXXXXXXXXXX$$$$######%*****=============*****************%%##########++++++++++++++++++XXXXXX++XXXXXXXXXXXXXXXXXX+$##$$+XXXXX++$$$$+XXXXoooooooooo...ooXXXXXXXXXXXXXX$$$#####%%*******====**%####$XXX..oo  oooo  o.oo.ooooo..o.oXXXXXXXXXXXX++++####*====*######********%####@#@######&&&==;=*####$$+XXXXXXoX.....X.ooooX...o...o....ooX....X..X....XXXXXX$#$+XXX++$########$XXXX.o.........     ...                     .. .  ..  ....  ..  ........  .....................OO.O.OOOOOOOOOOOOOOOOOOOOOOOOOOOOOOOOOOOOOOOOO....OOOOOOOOO@@&&@@@@@@@O@@OOOOOOOOOOOOOOOOOOOOOOOOOOOOOOOOOOOOOO@@OOOOOOOOOOOOOO@@@@OOOOOOO@@@@@@OOOOOOOOOOOOOOOOOOOOOOO@OOOOOOOOOOOOOOOOOOO@@@@@&&@@@@@@@@@&&@@OOOOOOOOOOOOOOOOOOOOOOOOOOOOO@@OOOOOOOOOOOOOOOO....OOOOOOO@@@&@@OOOOOO....O.O.OO.OOO@@OO..............OO@@@@OOOO....................OOOOOOO.OO...O......O..OOOOOO...............................   ......   ..  ....  ....   ..   ....  ....................OOOOOO@@@@&&&&&:&&&&&&@&&&&@@@&&%%%&********#%****%#########%%%*===*%%%%%%##$$$$$$$$XXXXXXXXXXXXXXXXX$$$##%**%%###$$$$##%**%%##%%%%%%%**===*%%%%%%%%%*****%%####$$$$$$$$$$XXXXXXXXXXoooooooooooooooooooooo o  o                                           oooooooo...ooo...XXXXXXX++++###%************************%%####$$$$$XXXXooooooooo        ",
".oooooo.oooooooo.XXXXXXXXXXXXXXXXXXX$$$$$$#####%*****===========*******************%#########+++++++++++++++++XXXXXX++XXXXXXXXXXXXXXXXXX++$$$$+XXXX++$$##$$XXXXo.oooooooooooooXXXXXXXXXXXXXXXXX+++#####%%%**********%###$+XX..oo...oooo oooo.ooo...Xo..XXXXXXXXXXXX++++###%*====*######********%######@#####&&&&==;=*####$+++XXXXXXX...oXX..oXX....ooo....oooo....ooXooXX...XXXXX$#$XXXXX+$########+XXXX............    ..                      .  .       .  . .   ......................OOOOOOOOOOO@OOOO@@@@@@@@@@@@@@@@@@@@@@@@@@@@@@@@@@@@@OOO...OOOOOOO@@@@&&@@@@@@@@@@@@@O@@OOOOOOOOOOOOOOOOOOOOOOOOOOOOOOOOOOOOOO@OOOOOO@OO@@@@OOOO@@@@@@@@@O@OOOOOO@@@@@@@@OOO@O@@@@@@@@@@@@OOO@@@@@OOO@@@@&&&@@@@@@@@&&@@OOOOOOOOOOOOOOOOOOOOOOOOOOOOO@@@OOOOOOOOOOOOOOOO..OOOOOOOO@@&&@@OOOOOOO.OOOO..OOOOOO@@OOO.............OO@@@@OOOOOO............OOOOOOOOOOOOOOOOOOOOOOOOOOOOOOOOOOO.......................................   ...   .    ..    ....   ...   ...................OOOOOO@O@@&&&&&::&&&&&@&&&&@#@#&%&%%*******%##****%####$####%%%*===*%%%%%%##$$$$$$$$$$$$$XXXXXXXXX$$$$$#%%*%%#$$$$$###%%**%%###%%%%%**====*%%%##%%%%%%%**%%%%%###$$$$$$$$$$$$XXXXXXXXooooooooooooooooo oooooo oo                 ooooo               ooooooooooooo..oo....XXXXXXXX+$###%************************%%###$$$$XXXXXoooooooo            ",
"oooooo..oooooooooooooooXXXXXXXXXXXXXXX$$$$$#####%*****============******************%%########++++++++++++++++XXXXXX+++XXXXXXXXXXXXXXXXXX++$$$+XXXX++$####$+XXX..oooooooooooooXXXXXXXXXXXXXXXXXX+++######%%******%%%####$XXX..o....ooo. oooo.ooo..XXX..XXXXXXXXXXXX+++++###*====*######********%###########&&&&&==;=*####$+++XXXXXXoo...XX........oooo..oooooo....ooXoXoXX..XXXXX$#$$XXXXX$$#######$XXXXoo..........                               .          . ..  .....................OOOOOOOOOOOOOOOO@@@@@@@@@@@@@@@@@@@@@@@@@@@@@@@@@@@@@@@OO..OOOOOOOO@@@@&&&@@&@@@@@@@@@@@@@OOOOOOOOOOOOOOOOO@@@@OO@@@@@@OOOOOOOOOOO@OOOOO@@@@@OOO@@@@@@@@@@@@@@OOO@@@@@@@@@OOO@@@@@@@@@@@@@@OO@@@@@@OO@@@@@&&@@@@O@@@@&&@@OOOOOOOOOOOOOOOOOOOOOOOOOOOO@@@@OOOOOOOOOOOOOOOOOOOOOOOOOOO@&&@@OOOOOOOOOOOO..OOOOOO@@OOO.......OO..OOOO@@@@OOOOOO............OOOOOOOOOOOOOOOOOOOOOOOOOOOOOOOOOOO.......................................              .     ....  ....   ...................OOOOOOOO@@&&&&:::&&&&&@&&&&@+##&%%%%*******%##****%####$#####%%*===*%%%%%%##$$$$$$$$$$X$$$X$$$XXXX$$$$#%%%%%$$$$$$$##%%%%%%%##%%%%%**===**%%%#####%%%%%%*%%%%%####$$$$$$$$$$$$XXXXXXXXXoooooooooooooo ooooooo                   oooooo o o        oooooo..ooooooooooo..XXXXXXXXX+++###***********************%%#####$$$$XXXXXooooooooo            ",
"ooooo.oo..  ooooooooooo...XXXXXXXXXXXXXXX$$$$######%****=============*****************%%#####++++++++++++++++++XXXXXXXXXXXXXXXXXXXXXXXXXXX++++XXXXX+$#####$+XX.ooo oooooooo..ooXXXXXXXXXXXXXXXXXXXX+$######%***%########$+XXoo.ooooo...o..oooooo.oooooXXXXXXXXXXXXX+++$+###*====*######%*******%#############&&*==;==####$$++XXX.......o.......Xoooooo....ooo.o..ooX.o..XXo..XXXX$##$XXXXX+$#######+XXX..o.........     ..                        ..          ...... ...................OO@OOOOO....OOOOOOOOOOOOOOOOOOOO@@OOOO@@@@@@@@@OOOOOOOOOOOO...OOOOOO@@@@&&&&@@@@@@@@@@@@@@@OOOOO@OOO@@@@@@O@OOOO@OOOOO@O@@@@@O@@@@@@OO@@OO@@@@OOOO@@@@@@@@@@OO@@OO@@@@@@@@@@@@@@@@@@OOO@@@@@@@@@@@OO@@@@@@@&&@@@OOOO@@&&@@@OOOOOOOOOOOOOOOOOOOOOOOO@@@@@@@OOOOOOOOOOOOOOOOOOOOOOOOOO@@&@@@OOOOOOOOOO.O..OOOOO@@@OOOO....O.O....OOO@@@@OOOOO..........OOOOOOOOOOO@@@@@@@@@@@@@@@@@@@@@@@@OOO.........................................    .         ..    .............................OOOOOOOOO@@&&&&:::&&&&&@&&&&@###&&&%%*****%**##****%###$$#####%%*=-=*%#%%%###$$$$$$$$X$$$XXXXXXXXXX$$$#%%%%##$$$$$$##%%*%%%%###%%%%**==**%%####$$##%%%%%%*%%%%%#####$$$$$$$$$$$XXXXXXXXoooooooooooooooooooo oooo                 oooooooo    oooooo ooooo  oooooo..oo..XXXXXX+++++##%************************%####$$$$XXXXXoooooooooo              ",
"ooooo..o..  oooooooooooo..oXXXXXXXXXXXXXXXX$$$$$#####%*****============*****************%######++++++++++++++++XXXXXXXXX+XXXXXXXXXXXXXXXXX++$+XXXXX+$#####$+XXoooo ooooo.ooo...XXXXXXXXXXXXXXXXXXXXX++$#####%**%########+XXX.ooooooo...oo.o.oooX..ooooXXXXXXXXXXXXX+++$+###*====*######%*******%############&&&&==;==%###$$++XXXX....o..........oooooo....oo.o..XoXXoo..XXoo.XXXX$##$XXXXX$$#######+XXXX...........     ..                        ..     .    ...... ...................OO@OOO.O.........O.O.OOOOOOOOOOOOOOOOOOOOOOOOOOOOOOOOOOOOO....OOOOOO@@@@&&&@@@@@@@@@@@@OO@@@@@@@OOO@@@@@OOO@OOO@@OOO@@@@@@@@@@@@@OOOOO@@OO@@@@@@OO@@@@@@@@@@@@@@OO@O@@@@@@@@OOOOO@OOOOO@OOOO@@OOOOOO@@@@@@@&&@@@OOOO@@&&@@@@O@O@OOOOOOOOOOOOOOOOOOOO@@@@@@OOOOOOOOOOOOOOOOOOOOOOOOOO@@&@@@OOOOOOOOOOOOO.OOOOO@@@OOOO....OO....OOOO@@@@@OOO...........OOOOOO@@@@@@&&&&@&&&&&&&&&&&&&@@@@OOOO............OOO...........................     .       .. .  .... .  .... ................OOOOOOOOO@@&&&&&::&&&&&&&&&&@###&&&*%*****%**##****%###$$#####%**===*%#%%%###$$$$$$$$X$$XXXXXXX$$$$$$#%%%%#$$$$$$##%%%%%%%%%%%%%%**=****%%###$$$$###%%%%%**%%%%####$$$$$$$$$$$$XXXXXXXXoooooooooooooooooooo    o                 oooooooo    oooo   oooooooo.ooo..XX..XXXXX+++++###%****===****************%######$$XXXXXXXoooooooo                ",
".ooo..oo oo oo ooooooooooo.XoXXXXXXXXXXXXXXXXX$$$$######*****===========******************%%######++$$$$++++++XXXXXXXXXX++XXXXXXXXXXXXXXXX++$$XXXXXX$#####$+XXooo  ooooo..ooo....X.XXXXXXXXXXXXXXXXXX++$$$##############+XXXoooooooo. oo....oooXoo..XXXXXXXXXXXXXXX+++$+##%*====*######%*******%######@#@&&&&&&&==;==####$$++XXXXX..XoXXoXX.oX.o....X.X.ooooooooooXXooooXXXXXXXXX$##$+XXX+$$#######+XXXXX...........   ....           ..              ....    ....   ..................OOO@@OO............................OO.O..OOOOOOOOOOOOOOOOOOOO.OOOOOOO@@@@&&&@@@@@@@@@@@@O@@@@@@@O@@@@@@@@@@@@@@@@@@@@@@@@@@@@@@@@@@@@@@@@@@@@@@@OOO@@@@@@@@@@@@@@@@@@@@@@@@@@@@@@@@@@@@@@@@@@@@@@@@@@@@@@@@&&&@@@OOOO@@&&@@@@OOOO@@@@@@@@@@@@@@@@@@@@@@@@@@@@OOOOOOOO@@@@OOOOOOOOOOOO@@&&@@@OOOOOOOOOOOOOOOOOO@@@OOOOO.OO.O......OO@@@@OOOOOOOOOOOOOOOOOOOO@@@@@@@@@&@@&@@@@@@@@@@@@@@OOOOOO..........OOOOO..........................   .....  ........   .        .. ................OOOOOOOOO@@@&&&&:&&&&&&@&&&&@@@##%&*******%***%****%###$$$###%%**===*%%#%%%##$$$$$$X$XXXXXXX$XX$$$$$#%%%%##$$$$$##%%%%%%%%%%%%%%**=***%%%##$$$$$$$##%%%%%**%%%%#####$$$$$$$$$$XXXXXXXXooooooooooooooooooo o    o                 ooXooooooo   o    ooooooooooo..X.XXXXXXX++++###%%****==***************%%%#####$$$$XXXXXXXooooooooo                ",
"oooo..oo..ooooooooooooooooo.ooooXXXXXXXXXXXXXXXX$$$#######****============*****************%%%#####+++++++++++XXXXXXXXX+++XXXXXXXX+XXXXXXX+$$$$X+XXX$$####$XXXoooo  ooo....ooo....X.oXoXXXXXXXXXXXXXXX++$$$############$+XXXoooo.oo...ooooo.oooXooooXXX.XXXXXXXXXXX+++++###*====*######%*******%######@@@&&&&&&&==;==####$$++XXXXXXXXXXXoXX.XXXo....XX..ooXXoooXXXXXXXXXXXXXXXXXX$##$+XX+$$########+XXXXXX.........     .....                         ....    ....   ..................OOO@@OO.......................O..OO....OOOOOOOOOO....OOOOOOOOOOOOOOOO@@@@:&&@@@@@@O@@OOOO@@@@@@@@@@@@@@@@@@@@@@@@@@@@@@@@@@@@@@@@@@@@@@@@@@@@@@@@OO@@@@@@@@@@@@@@@@@@@@@@@@@@@@@@@@@@@@@@@@@@@@@@@@@@@@@@@@&&&@@@OO@@@@&&@@@@@@@@@@@@@@@@@@@@@O@@@@@@@@@@@@@@OOOOOOOO@@@@OOOOOOOOOOOO@@&&@@@OO@OOOOOOOOOOOOOOO@@@OOOOOO..OOO....OOO@@@@@OOOOOOOOOOOOOOOOOOO@@@@@@@@@@@@@@@@@@@OOOOOOOOOOOOOOO....OOOOOOOOOO............................................. .        ....................OOOOOOOOO@@@&&&&&&&&&&&@&&&#@#@##%&*******%**#%****%#####$###%%**===*%%%%%%##$$$$$$XXXXXXXXX$$$$$$$#%%%%%%###$###%%**%%%%%%%%%*******%%####$$$$$$$##%%%%***%%%%#####$$$$$$$$$$$XXXXXXXXooooooooooooooooooo oo  o o              oooXXoooooo  oo    oooooooo....XXXX.XXXXX+++###%*****==****************%%#####$$$$$XXXXXXooooooooo               o ",
"...oo..o.oooooo.  oooo  ooo.oooo.oXXXXXXXXXXXXXXXX$$$$#######****============*******************######++++++++XXXXXXX++++XXXXXXXX+++XXXXX++$$$$$++X+$$####+XXXoo   oooo oooooooooo..XX..XXXXXXXXXXXXXXXX++$$$####$$$$$+$XXX..oo...  oooooooo...X.XXXXX..XXXXXXXXXXX++++$###**===*######%*******%####@#@####&&&&*==;==####$$++XXXXXXX......XXX...oooX....oXXX.o.XX.XXXXXXXXXXXXXXX$##$+X++$$########++XXXXX.........   ..    ..                 .      . ...   ...    .................OOO@@@OO....................................................OOOOOOOOOO@@@@:&@@@@@@OOOOOOOO@@@@@@@@@@@@@@@@@@@@@@@@@@@@@@@@@@@@@@@@@@@@@@@@@@@@@@@OOO@@@@@@&&&@@@@@@@@&@@@@@@@&&&&&@@&&@@&&&&@@&&@&@&&&&&&&&@&&&@@@@@@@@@&&@@@@@@@@@@@@@@@@@@@@@@@@@@@@@@@@@@@@@@@@@@@@@@@@@@@@@@OOOOOO@@&&@@@@OOOOOOOOOOOOOOOOO@@@OOO.....OO....OOOO@@@@@@OOOOOOOOOOOOOOOOOOO@@@@@@OOO@@@@OOOOOOO@OOOOOOOOOOOOOO..OOOOOOOOOOO.......................  .............   .....       ......................OOOOOO@O@@@&&&::&&&&&&@&&&&@#@#&&&&&*****%*##%%***%##########%%*=-=*%%%%%%##$$$$$$$$$$$$$X$$X$$$$#%%***%%##$$##%****%%%%%%%%**=**%%%%%#$$$$$$$$$$$#%%%%%**%%%%#######$$$$$$$$$XXXXXXXXooooooooooooooooooooooo    o             oooXXXooooo     ooooooooooo.XXXXXXXXXXX+++###*****=******************%#####$$$XXXXXooooooooooo                   ..",
"XX.ooooo.oooooo.ooo oooo ooooooooo.ooXXXXXXXXXXXXXX$$$$$$#####****=============****%************%#####++$$++++XXXXXX+++++XXXXXXXX+++XXXXX+$$$$$$$+$++$###$+XXoooo oo o  ooooooooooooo...XXXXXXXXXXXXXXXXX++$$$##$$$$$$++XXX..ooo..  .o. ooo...XX.XXXXX..XXXXXXXXXXX++++$###**===*######%*******%#######&##&&&&&&==;==####$$++XXXXXX......XXXX...XXXX....XXXX......XXXXX.XXXXXXXXX$##$++X+$$########++XXXXX........  . ...   ....      .        .  ..  .  .    ...     ................OOO@@@OO....................................................OOOOOOOOOO@@@&&&@@@@@@@OOOOOO@@@@@&&&&&&&&&&&&&&&&&&&:::::::::::::::::::&:::::&&&&@@@O@@@@@@@&&&&&::&:&&&:&&&&&&&&::::::::&&:::::::&&&:&::&&&&&&:&&&@@@@@@@@&&&&&&&&&&&&&&&&&&&&&&&&&&&&&&&&&&&&&&&&&&&&&&&&&&&&&@@@OOOOOO@@&&@@@@OOOOOOOOOOOOOOOOO@@@OOOOO..OOO..OOOOO@@@&@@@@@@@@@@@@@@@@@@@@@@@@@@@@@OO@@@@OOOOOOOOOOOOOOOOOOOOOOOOOOOOOOOOOO........O....O........... ......................   .........................OOOOOO@O@@@&&&:::&&&&&@&&&&@#@#&&&&&*****%*###****%###$#####%%%*===*%%%%%###$$$$$$$$$$X$$$X$X$$$$#%%****%####%%%*%%%%%%%%%*****%%%%%%%#$$$$$$$$$$##%%%%%**%%%%#######$$$$$$$$$$$XXXXXXooooooooooooooooooooooo    oooo         ooooXXXoooooooooooooooooooooXXXXXXXXXXX++###%****=*=*****************%######$$XXXXXXoooooooooo                 ooo.o",
"XXXX..oooooooooo    ooo    oooooooo.XXooXXXXXXXXXXXXXXX$$$$#####*****===========*******************#######$++++XXXXX++++XXXXXX++X++XXXXXX++$$$$+++++++$$++XXXooo.oooo   oo   oooooooo.ooooooXXXXXXXXXXXX+++$$$$$$$$$++++XXXX.o..o.. .o...o......XXXXX...XXXXXXXXXX+++++$###**===*######%*******%#######&####&&&*==;==####$+++XXXXX..o...XXXX....oooX...XXXX....X..XXXX..XXXXXXXXX$###$+X+$$########++XXXX............. ... . ...      ...         ...     ..    ..   .... ...........OOOO@@@OO......................................................OOOOOOOO@@@&&&@@@@@@OOOOOO@@@@&&&&&&&&&:::::::::::::::::::::::::::::::::::::::&&&@@@@@@@@@@@&&&&:::::::::::::::::::::::::::::::::::::::::::::::&&&&&&&&&&&&&&&&&&&&&&&::&&&&&&&&:::&::&&&&&&&&&&&&&&&&&&&&&&&&&&&@@@OOOO@@&&@@@@OOOOOOOOOOOOOOOOO@@@OOOO..OOOOOOOOOOO@@&&&&&&&&@&&&&&&&&&&&&&&@@@@@@@@@@@@@@@@@@@@@@@@@@@@@@OOOOOO@@@@OOOOOOOOOOOOOOOOOOOOOOOO............................................................OOOOOO@O@@@&&&:::&&&&&@&&&&#####%&&&*****%%###****%###$$#####%%*===*%%#%%###$$$$$$$$$XXX$$XXXX$$$#%*****%####%%%%%%%%%%%%*****%%%%%%%#$$$$$$$$$$$$#%%%%%**%%%%%######$$$$$$$$$$$XXXXXoXXXXoooooooooooooooooooo    oo    oo    oooXXXXXooooooooooooooooooXXXXXXXXXXX+$###%****==*****************%%####$$$$XXXXXoooooooooooo              oooooo.oo",
"XXXXX...oooooooo    oooo o  oooooooooo..XXXXXXXXXXXXXXX$$$$$#####%****===========*******%%**********%%#####$++++XXXX+++++XXXX+++X++XXXXXX++$##++++++++++XXXX.o.o .oooo  oo    oooooooooo..ooXXXXXXXXXXXX+++$$$$$$+++++++XXXXooooo.. .....o.....XXXXX....XXXXXXXXXX+++++$###**===*######%*******%######&###@@&&&*==;==####++++XXXXX......XXX.....ooo...XXXXX....XXXXX...XXXXXXXXX+$###$++$$#########++XXXX.................   .....    ...   .  ... .      ..   ...   ... .............OOO@@@OO.......................................................OOOOOOO@@@&:&@@@@@@@OOOOO@@@@&&&&&&&&&&&&&&&&&&&&&&&&&&&&&&&&&&&&&&&&&&&&&&&&&&@@@@@@@@@@@@@@&&&&&&&&&&&&&&&&&&&&&&&&&&&&&&&&&&&&&&&&&&&&&&&&&&&&&&&&&&&@&&&&&&&&&&&&&&&&@&&@@@&&&&&&&&&@@@&&&&@@@@@@&@@@@@@@&&&&@@@O@O@@&&@@@@OOOOOOOOOOOOOOOOO@@@OOOO...OOOOOOOOO@@@&&&&&@@@@@@&@&&@@@&&&&&&&&&&&&&&&@@@@@@@@@@@@@@@@@@@@@@@@@@@@@@OOOOOOOOOOOO....OO..................................................................OOOOOO@O@@@&&&:::&&&&&@&&&&####&%&&&*****%%###****%###$######%%*===*%##%%###$$$$$$$$$XXX$$XXXX$$$#%*****%###%%%%%%%%%%%%****%%%%%%%%%#$$$$$$$$$$$$#%%%%%**%%%%%#######$$$$$$$$$$XXXXXoXXXXooooooooooooooooooooo    oo o  oo  ooooXXXXXooooooooooooooooo.XXXXXXXXXX$###%***********************%%%####$$$$$XXXXXXXooooooo               ooooooooooo",
"++++XXX.XXX..oooooo oooooo o o oooooooo.ooXXXXXXXXXXXXXXXXX$$$#######****============******%*********%%######++++XXX++$$+XXXXX++XXXXXXXXX+$$$$$$$$+XXXXXXXXXoooo   .oo       ooooooooo..oooo.XXXXXXXXXXX$$#$$$$$$+++++++XXX.ooo.oo...ooo.o...XXXXXXXXXXXX+XX+XX+++++++++###*====*######%*******%######@@&&&&&&&*=====%##+++++XXXXXXX........XXXX......XXXXXX....XXXXXXXXXXXXXXXX$####$$+$+###%%####++XXXXXX................     .....  .    ..          ..    ........................OOO@@@OO.................................................O...OOOOOOOOO@@@&&&@@@@OO@OOOO@@@@&&&@@@@@@@@@@@@@@@@@@@@@@@@@@@@@@@@@@@@@@@@@@@@@@@@@@@@@@@@@@@@@@@@@@@@@@@@@@@@@@@@@@@@@@@@@@@@@@@@@@@@@@@@@@@@@@@@@@@@@@@@@@@@@@@@@@@@@@@@@@@@@@@@@@@@@@@@@@@@@@@@@@@@@@@@@@@@@@@@&&@@@@OO@@&&@@@@OOOOOOOOOOOOOOOOO@@@OOOOOOOOOOOOOOOO@@&&@@@@@@@@@@@@@@@@@@@@@@@@@@@@@@@@@@@O@@@OO@@@OOOOOOOOOOOOOOOOOOOOOOOOOOOOO...................  ..................................................OOOOOOOOOO@@@&&&&:&&&&&&@&&&&@+##%&&&******%%%%%****%###$######%%*===*%#%%%%##$$$$$$$$$XXX$$XXX$$$$#%*****%###%%%%%%%%%*%****%%%####%%##$$$$$$$$$$$##%%%%**%%%%%#######$$$$$$$$$$XXXXXXXXXXXXXooooooooooooooooooooooo          ooooXXXXXooooooooooooXXXXXXXXXXXX+++###****===****************%%#####$$$XXXXXXXoooooooooooo                  oooo.ooo",
"##++++XXXXXXXX.ooo. oooooooooo  ooooooo.ooXXXXXXXXXXXXXXXXXX$$$#######%****============***************%%%#####++++XX+++$+XXXXXX+++XXXXXXX+$$$$$$$++XXXXXXXXX.ooooo oooo.      oo   ooooooooo..XXXXXXXX+$$######$$+++$$++XXXX..o.oo..oo.ooo..XXXX++++++++X+++++++++++++++###*====*######********%######&@&&&&&&&*=====%##+++++XXXXXXX........XXXX.X...oXX.XXX....XXXXXXXXXXXXXXXX$####$$+++###%%####++XXXX.X................  .... ..         ..   ...    ..   ........  ..............OOO@@@OO......................................................OOOOOOOO@@@&&&@@@@OO@OOOO@@@@&&&@@@@@@@@@@@@@@@@@@@@@@@@@@@@@@@@@@@@@@@@@@@@@@@@@@@OO@@@@@@@@@@@@@@@@@@@@@@@@@@@@@@@@@@@@@@@@@@@@@@@@@@@@@@@@@@@@@@@@@@@@@@@@@@@@@@@@@@@@@@@@@@@@@@@@@@@@@@@@@@@@OOO@O@@@@@@@@@@&&&@@@O@@@&&@@@@OOOOOOOOOOOOOOOOO@@@OOOOOOOOOOOOOOOO@@&&@@@@OOOOOOOOOOOOOOOOOOOOOOOOOOOOOOOOOOOOOOOOOOOOOOOOOOOOOOOOOOOOOOO@@OO..................... ...................................................OOOOOOOO@O@@@&&&&:&&&&&&@&&&&#+###&&&******%%%%%****%##########%%*===*%##%%%##$$$$$$$$$$XXXXXXX$$$$#%*****%%###%%%%%%*******%%#######%##$$$$$$$$$$$##%%%%**%%%%%#######$$$$$$$$$$XXXX$$XXXXXXXooooooooooooooooooooooo   oooo  oooooXXXXXXoooooooooooooXXXXXXXXX+++##%****==*****************%%####$$$$XXXXXXXXoooooooooo            ooooooooooooo.oo",
"####++++XXXXXXX.oo...ooo.ooo..o ooooo.ooooXXXXXXXXXXXXXXXXXXX$$$$$$######*****==========*****%%%%*********######++++$$$$++++XXX+++XXXXXXX+$$$$$$$+++XXXXXXXXXooooooooo..      oo  ooooo ooooo.XXXXXXXXX+++######$$++$$$$XXXXooooooooo......XXX+++#####+++++++++++++++++###%*====*######%*******%##########&&&&&&==;==%####++++XXXXXX.......XXXXXXXXX.XXX..XX.XXXXXXXXXXXXXXXXXXXX$###$++++###%#####+XXXXX.X................ .... .          ..    ....................................OOO@@@OO.................................................O..OOOOOOOOOO@@@&:&@@@@OO@OOOO@@@@&&@@@@@@@@@@@@@@@@@@@@@@@@@@@@@@@@@@@@@@@@@@@@@@@@@@@OO@@@O@@@@@@@@@@@@@@@@@@@@@@@@@@@@@@@@@@@@@@@@@@@@@@@@@@@@@@@@@@@@@@@@@@@@@@@@@@@@@@@@@@@@@@@@@@@O@@@OOOOOOOOOOOOOOOOOOOOO@@@@@&&@@@@@@@&&@@@@@@OOOOOOOOOOOOOO@@@@OOOOOOOOOOOOOOO@@&&@@@OOOOOOOOOOOOOOOOOOOOOOOOOOOOOOOOOOOOOOOOOOOOOOO.OOOOOO......OOOO@@OO.........................................................................O.OOOOOOO@@@@@&&&::&&&&&&@&&&&#+###&********%%%%%****%###$$#####%%*===*###%%%#$$$$$$$$$$XXXXXXXX$$$$#%*****%%##%%%%%%%*****%%%##$$$$$#%##$$$$$$$$$$$##%%%%***%%%%#######$$$$$$$$$$$$$$$$XXXXXXXoooooooooooooooooooooooo  ooooooooooXXXXXXXoooooooooooXXXXXXXX++$###%***=******************%%####$$$$$XXXXXXXoooooooooo           oooooooooooo.oooo.oo",
"######+++++XXXXX.....ooo...o... ..ooo.oooooXXXXXXXXXXXXXXXXXXXX$$$$$######%*****==========******%%%*#%#%***%####++++$+++++++XXX+++XXXXXXX+$$$$$$$+++XXXXXXXXXXoXX.ooXooo      oo  ooo  .oooooo..XXXXXXXX+$######$$$$$$$+XXXXooo...ooo...XXXXX++++##%%%%####+++++++++++++##%*====*#####%%********########@#&&&&&&==;==%####+++XXXXXX...XX..XXXXXXXXXX.XXX..X.XXXXXXXXXXXXXXXXXXXXX$###$$$++###%#####+XXXXX.........................   .  . ....  ......................................OOO@@@OO................................................OOOOOOOOOOOO@O@@@&:&@@@@OO@OOOO@@@@&&@@@@@@OOOOOO@@O@@@O@@@@@@OOO@@@O@@@@@@@@@OO@@@@@O@@OOOOOO@@@OOO@@@@@@@@@@@@@@@@@@@@@@@@@@@@@@@@@@@@@@@@@@@@@@@@@@@@@@@@OOO@@@O@@@@OOOOOOO@@@@OOOOOOOOOOOOOOOOOOOOOOOOOOOOOOOO@@@@@&&@@@@@@@&&@@@@@@OOOOOOOOOOOOOO@@@@OOOOOOOOOOOOOOO@@&&@@@OOOOOOOOOOOOOOOOOOOOOOOOOOOOOOO....O.O.......................OO@@O...........................................................................O.OOOOOOO@@@@@&&&::&&&&&&@&&&&#+###&****=****%%%%****%###$$#####%%*===*##%%%##$$$$$$$$$$XXXXXXXXX$$$#%%****%%%%%%%%%*****%%%##$$$$$$$#%##$$$$$$$$$$$##%%%%***%%%%%######$$$$$$$$$$$$$$$$XXXXoXXXooooooooooooooooooooooo  ooooooooooXX$$XXXXoooooooooXXXXXXXX+$$###****==*****************%%####$$$$$$XXXXXXooooooo              ooooooooXX..ooooo.o  ",
"########+++++XXXXXX.....ooo.ooooooooo.oooo..XXXX..XXXXXXXXXXXXXXXX++$$$######*****==========*******%*********%######$#$$$+++++X+++XXXXXXX+$$$$$$$$++XXXXXXXXXXXXXXXXXo.o.o    oo  oooo.ooo..oooo.XXXXXXXX+$######$$$$+++XXX...oooooo....XXXXX++++###%****%%&######++++++###**===*%####%%*******%####&&##@@&&&&&&=====%####+++XXXXXX.XXXX..XX......XXXXXX..XXXXXXXXXXXXXXXXXXXXXX+####$$+++###%%####++X..XXX........................ ........    .....................................OOOO@@@OO....................................................OOOOOOOO@O@@@&:&&@@@OOOOOO@@@@@&&@@@@OOOOOOOO@O@@@@@OOO@OOOO@@@@@O@@OO@@OOOO@@OOOO@@O@@@@O@@@O@@@@OO@@@@@@@@@@@@@@@@@@@@@@@@@@@@@@@@@@@@OO@@@@@@OOOO@OOOOOOOOOOOOOOOOOOOOOOOOOOOOOOOOOOOOOOOOOOOOOOOOOOOOOOOOOO@@@&&&@@@@@@@&&@@@@O@OOOOOOOOOOOOO@@@@@OOOOOOOOOOOOOO@@&&&@@OOOOOOOOOOO..................................................OO@@@O............ .......    ...............OOO.....................................OOOOO@@@@&&&&:::&&&&&&&&&&@####&**&*=*****%%*****%##$$$#####%%*===*%##%%##$$$$$$$X$$X$$XXXX$$$$$###%%%%#####%%%%***%%%###$$$$$$$$#%##$$$$XX$$$$$$#%%%****%%%%%########$$$$$$$$$$$X$XXXXXXXXXXoooooooooooooooooooo  ooooo ooooooXX$$$XXXoooooooXXXXXXX++$###%***===****************%%####$$$$$XXXXXXXooooooooo             ooooooooooooooooooooooo",
"++########++++++XXXXXX....ooooooooo...oo.o..XXoo..XXXXXXXXXXXXXXXXXX$$$$#######*****===========********%#*%%**%#########$+++XXX+++XXXXXXX+$++$$$$$$+XXXXXXXXXXXXXXXXXo.oooo ooooo..ooooo o   oooooX..XXXXX$######$++++XXXXXX.....o...XXX.XXXX+++++####%%%%**%%%%%#########%**===*%####%%*******%####&&#@@@&&&&&&=====%####+++XXXXXX.XXXX.XXX........XXXXXXXXXXXXXXXXXXXXXXXXXXXX+####$$++####%%####++X..XX........................    ......    ....................................OOOOO@@@OO...................................................OOOOOOOOOOO@@@&:&&@@@OOOOOOO@@@@&&@@@OOOOOOOOOOOOOO@@OO@@OO@@@@@OOO@@O@@@OOOO@@@OO@@OO@@O@@@@@OOOO@OOOO@@OO@@@@@@@@@@@@@@@@@@@@@@@@@@@@@@OOO@@@@@OOOO@OOOOOOO@OOOOO@@OOOOOOOOOOOOOOOOOOOOOOOOOOOOOOOOOOOOOOOOOOO@@@&&&@@@@@@@&&@@@@@@OOOOOOOOOOOOO@@@@@OOOOOOOOOOOOOO@@&&@@@OOOOOOOOOOOOOOOOOOOOOOO......................................O@@@O.............. ......    .... ..........OOOO...................................OOOOOO@@@@&&&&:::&&&&&&&&&&@+###&&&&***=***%%*****%##$$$#####%%*===%###%%%#$$$$$$$X$XX$XXXXX$$$$$$############%%%%%%%%#$$$$$$$$$$$####$$$$XX$$$$$$#%%%%***%%%%%######$$$$$$$$$$$$$$$XXXXXXXXXXoooooooooooooooooooooooooo  ooooooXX$$$XXXXoooooXXXXXX+++####***===****************%%%#####$$$$$XXXXXooooooooooo            ooooooooooooooooo.oo....",
"$++++#########+++++XXXXXXX.ooooooooo....ooo.XX...XXXXXXXXXXXXXXXXXXX++$$$$#######%****==========******##################$$$++XX++XXXXXXXX++++$$$$$$+XXXXXXXXXXXXXXXXXoXXoo..o.o..ooooooo     ooooooooXXXXX+$$####$$+XXXXXXX..........XXX.XXXXX++++++#########%%%%%%#######%%*===*%####%%*******%##&#@#@@@&&&&&&&=====%###++++XXXXXXXXX....XXXX......XXXXXXXXXXXXXXXXXXXXXXXXXXXX+####$$$$####%*####++X.............................................................................OOOOOO@@@OO..............................................OO...OOOOOOOOO@O@@@&:&@@@@@@OOOO@@@@@&&@@@@@OOOOOOOOOOOO@@@OOOOO@O@@OOO@@@@@@@@@@@@@@@@OOO@@OO@@OOOO@@OOOOO@@@O@@@@@@@@@@@@@@@@@@@@@@@@@@@@@@@@@@@@@@OOOO@@@OOOOOOOOOOOO@OOOOOOOOOOOOOOOOOOOOOOOOOOOOOOOOOOOOOOOOOOOOO@@&&&@@@@@@@&&@@@@@@OOOOOOOOOOOOO@@@@@@OOOOOOOOOOOO@@&&@@@OOOOOO..OOOO..................................................OOOO........... ... .......      . ...........OOOO................................OOOOOOOO@@@@@&&&&::&&&&&&&&&&@+##&&&&&***===*%%*****%#########%%%*===%%##%%%#$$$$$$$$$$$X$XXX$$$$$$$$$##$$$$$$$$######$$$$$$$$XXX$$$#%##$$$$XXX$$$$$##%%%*%%%%%%%########$$$$$$$$$$$$$$XXXXXXXXXooooooooooooooooooooooooooo ooooooXXXX$XXXXXooooXXXX+++###%***===****************%%%####$$$$$$XXXXXooooooooo  o o  o    oooooooXXXXXooooo....o......",
"++++++##########$++++XXXXX..ooo.o..o....ooo.....X.X.XXXXXXXXXXXXXXXXX+$$$$$########*****==========*****###################$$+++++XXXXXXXX++$++$$$$$+XXXXXXXXXXXXXXXXXXXXX.oooXXXXX.oo o       ooooooo.XXXXX$$#####$+XXXXXX...ooo....XXXXXXXXXXX+++++++++++++######%#######%%*===*%#####%********##&#@#@&@@&&&&&&&====%###++++XXXXXX.XXX...XXXXXX..XXXXXXXXXXXXXXXXXXXXXXXXXXXXXX+####$$$$####%*####++X......................................................O......................OOOOO@@@@OO..............................................OOO....OOOOOOO@@@@@&:&@@@@@@@OOOO@@@@&&@@@@@OOOOOOOOOOOOOO@@OOOO@O@@OOO@@@@O@@@@@@@@@@@@@@@@@@@@@O@@@@OOOOO@@@OO@@@@@@@@@@@@@@@@@@@@@@@@@@@@@@@@@@@@@@OOOO@@OOOO@OOOOOOOOOOOOOOOOOOOOOOOOOOOOOOOOOOOOOOOOOOOOOOOOOOOO@@@&&&@@@@@@@&&@@@@@@OOOOOOOOOOOOOO@@@@@OOOOOOOOOO@@@@&&@@OOOOOO...OO............OOO.....................................OO.............  .   .. ...        ........OO.OOOO...............................OOOOOOOOO@@@@&&&&:::&&&&&&&&&&@+##&&&&&=**===*%%*****%#########%%%*===%%##%%%##$$$$$$$$$$$$XXX$XX$$$$$$$$$$$$$$$$$$$$$$$$$$$$XX$$XX$$####$$$$XXXX$$$$##%%%%%%%%%%##########$$$$$$$$$$$$$XXXXXoXXXooooooooooooooooooooooooooooooooooXX$$$XXXXXXXooXXXX$$##%**=**=*****************%%####$$$$$$XXXXXXooooooooo    oooooooooooooooXXXX.X.oo.............",
"XXX+++++##########++++++++XXXXXXXXXXX...ooX..oo.XXXXXXXXXXXXXXXXXXXXXXXXXX$$$$$#######*****==========***%%##################$$$++XXXXXXXX++$$$$$$$++XXXXXXXXXXXXXXXXXXXoooo...XXXXXooo o  o   ..ooooooXXXXX+$#####+XXXXXooXX......ooXXX..XXXXX++++++++++++++++++##########%*====*%#####%*******%####@#@&@@#&&&&&&:==*####++++XXXXXX.....XXXXXXXXXXXXXXX...XXXXXXXXXXXXXXXXXXXXXX+####$$$+####%%####+XX.......................................... ...............O.....OOO...........OOOO@@@@OO..................................................OOOOOOOOOOO@@@@&::&@@@OOOOOO@@@@@&&@@@@OOOOO@@OOO@@OO@@@@OOOOO@@@O@@@@@@@@@@@@@@@@@@@@@@@@@@@@OOO@@@@@@@@@@@@@@@@@@@@@@@@@@@@@@@@@@@@@@@@@@@@@@@@@@@@@@@@@@@@@@@@@@@OOOOOO@@OOOOOOOOOOOOOOOOOOOOOOOOOOOOOOOOOOOOOO@@&&&@@@@@@@&&@@@@@@O@OOOOOOOOOOOO@@@@@@@@@@@@@@@@@&&&@@@OOOOO....O..................................................................   ......    ..     ...........OOOOOOOO.............................O..OOOOOO@@@@&&&&::&&&&&&&&&&&@###&&*&&=&*===*#%%****%##$$$#####%%*===%%#%%%%##$$$$$$$$$$$XXXXXXXXX$$$$$$$$XXXXXXXXXXXXXXXXXXXXXXXX$$####$$$$XXXX$$$##%%%%**%%%%%#########$$$$$$$$$$$$XXXXXXXXXXXooooooooooooooooooooooooooooooooXXXX$$$XXXXXXXXX++$###%****==****************%%####$$$$$XXXXXXXooooooooo   ooo       ooooo..ooXX.oooooo.............",
"XXXXX+++++############+++++++XXXXXXXXX..o.ooooooX.X..X...XXXXXXXXXXXXXXXXX$$$$$$$#######****==========****%###########**######$$$+XXXXXXX++$$$$$$$++XXXXXXXXXXXXXXXXXXoooooo..XXXXXooo.  o  oo..ooooo.XXXXX+$#####+XXXXXooXX...X..ooXX..XXXXXX++++++++++++++++++++########%*====*%#####%*******%######@&@@&&&&&&&:==*####++++XXXXXX.X.X..XXXX.X.XXXXXX....XXXXXXXXXXXXXXXXXXXXXX+#####$#+#####%####++X..................................................................OOOOO.......OOOO@@@@OO..................................................OOOOOOOOOO@@@@@&:&&@@@@@OOOO@@@@@&&@@@O@OOOO@@O@OOOO@@@@OOOOO@@@OOOOOOO@@@@@@@@@@@OO@@@@OOO@@@@@OOO@@@@@@@@O@@@@@@@@@@@@@@@@@@@@@@@@@@@@@@@@@@@@@@@@@O@@OO@OOOO@O@@@OOOOOO@@OOOOOOOOOOOOOOOOOOOOOOOOOOOOOOOOOOOOOO@@&&&@@@@@@@&&&@@@@@OOOOOOOOOOOOOO@@@@@@@@@&&&&&&&&&&&@@OOOOOO.......................................................................   ....     ...    ...........OOOOOOOOOO............................O.OOOOOOO@@@@&&&&::&&&&&&&&&&&#+##&&&&&======*%%*****%###$######%%*===%%#%%%%#$$$$$$$X$$$XXXXXXXXXXXXXXXXXXXXXXXXXXXXXXXXXXXXXXXXXX$$####$$$$XXXX$$$##%%%%**%%%%%%#########$$$$$$$$$$$XXXXXXXXXXXXoooooooooooooooooooooooooooooooXXXX$$$XXXXXXXXX+###%***==*****************%%%####$$$$$XXXXXoooooooooooo  oooo     oooooooXXXoooooooooo.............",
"XXXXXXXX+++#############+$++++++XXXXXXXX.XXXX.o.X..ooooooo.XXXXXXXXXXXXXXXXX++$$$$$$#######****=========***%%########%%*########$$$XXXXXX++$$$$$$$++XXXXXXXXXXXXXXXXXXXoooo.oooXXXXX.ooooo..o.oooooooo.XXXX+$$####+XXXXXoo.....X...o.X.XXXXXXXX+XX++++++++++++++++++++#####*====*%#####%********######&&@@&&&&&&=:==*####++++XXXXXX.XXXXX.....XX..XXXXXXXXXXXXXXXXXXXXXXXXXXXXXX+#######+#####%#%##++XX...................................................................OOOO..OO..OOOO@@@@OOOO..............................................OO.OOOOOOOOOO@@@@&::@@@@OO@OO@@@@@@&&@@@@@OOOOO@@@@@@@@@@@@@@@@@@@@@@@@@@@@@@@@@@@@@@@@@@@@@@@@@@@@@@@@@@@@@@@@@@@@@@@@@@@@@@@@@@@@@@@@@@@@@@@@@@@@@@@@@@@@@@@@@@@@@@@@@@@@@@@@@@@@@@@@@@@@@@@OOOOOOOOOOOOOOOOOOOOOO@@&&&@@@@@@@&&&@@@O@OOOOOOOOOOOO@O@@@@@@&&&&&&&&&&&&@@@@OOOOOOO....................................................................... . .      ...................OOOOOOOOOOO...........................O..OOOOOO@@@@&&&&&:&&&&&&&&&&&@+##&&*&&======*%******%##$$######%%*===*%##%%##$$$$$$$$XXXXXXXXXXXXXXXXXXXXXXXXXXXXXXXXXXXXXXXoXooXX$$####$$$$XXXX$$$##%%%%**%%%%%%######$$##$$$$$$$$$$$XXXXXXXXXXXoooooooooooooooooooooooooooooooXXXX$$XXXXXX++$###%***===****************%%#####$$$$$$XXXXoooooooooooooo         oooooXXXXXXoooooo..oooo....o.......",
"oXXXXXXXX+++++#############+++++XXXXXXXXXXXXXXXXXXooooooooo.XXXXXXXXXXXXXXXXXX++$$$$$#######****==========****%########*#########$+++XXXX+$$#$$$$$$+XXXXXXXXXXXXXXXXXXoo.ooooooXXXXX.oo.....oooo..ooooXXXXXX$$####+XXXXXXXo........X.XX.XXXXXXX+XXX+++++++++++++++++++++###*====*%#####%********&#####&&@&&&&&&&=:==*#####+++XXXXXXXXXXXXX..........XXXXXXXXXXXXXXXXXXXXXXXXXX+++#######+#####%#%##+++XX...........................................................................OOOOO@@@@OOOO...........................................O.OOO.OOOOOOOOOOO@@@&:&@@@@OO@OO@@@@@@&&@@@@@OOOO@@@@@@@@@@@@@@@@@@@@@@@@@@@@@@@@@@@@@@@@@@@@@@@@@@@@@@@@@@@@@@@@@@@@@@@@@@@@@@@@@@@@@@@@@@@@@@@@@@@@@@@@@@@@@@@@@@@@@@@@@@@@@@@@@@@@@@@@@@@@@@@OOOOOOOOOOOOOOOOOOOOOOO@@&&&@@@@@@@&&&@@@O@OOOOOOOOOOOO@@@@@@&&&&@@@@@@@@@@@@OOOOOOOO........................................................................ ...       ..................OOO@@OOOOOOOO........................OO..OOOOOO@@@@&&&&&::&&&&&&&&&&@##&&&*&&====;=*%******%##$$$#####%%*===*%##%%##$$$$$$$XXXXXXXXXXXXXXXXXXXXXXXXXXXXXXXXXoXXXXooooooXX$$####$$$$XXX$$$$$#%%%***%%%%%%######$####$$$$$$$$$$X$XXXXXXXXXoooooooooooooooooooooooooooooXXXXX$$$$+++++$$##%***====***************%%%###$$$$$$$XXXXXoooooooooooooo       oooooooXXXXoooooooo...ooo.............",
"XX.XXXXXXXX+++++##############++++++++XXXXXXXXXXXX......ooo...XXXXXXXXXXXXXXXXXXX++$$$$$$######****========****%##########**#######$$+++++$$$$##$$$++XXXXXXXXXXXXXXXXXXo.oooooooXXXX.oo...o.ooooooooooooXXXX$$####$XXXXXo...ooo..ooo...XXXXXXXXXXX++++++++++++++++++++++###**===*%#####%********&#&&##@&#&&&&&&&&===*%####+++XXX..XXXXXXXX.XXX...XXXXXXXXXXXXXXXXXXXXXXX+XXXX+++$#####++#####%%%%#+++++XX..............................................   .........................OOOOO@@@@OOOO...............................................O..OOOOOOOO@@@@@&:&@@@@OO@@OO@@@@&&&@@@O@@@@O@@@@@@@@@&&@@@@@@&&&&&&&&&&&&&&&&&&&&&&&&&&&&&&&&&&&&&&&&&&&&&&&&&&&&&&&&&&&&&&&&&&&&&&&&&&&&&&&&&&&&&&&&&&&&&&&&&&&&&&&&&&&&&&&&&&&&&&&&&&&&&@@@@@@OOOOOOOOOOOOOOOO@@@@&&&@@@@@@@&&@@@@O@O@@OOOOOOOOO@@@@&&&&@@@@@@@@@OOOOOOOOOOOOOO.................................................................... ..      ......  ...............OOO@@@OOO@@OOO......................OOOOOOOOOOO@@@&&&&&&:&&&&&&&&&&&@@@#&&*&=======*%******####$$$####%%*===*%#%%%###$$$$XX$XXXXXXXXXXXXXXXXXXXXXXXXXXXXXXXooXXXXoooooooX$$####$$$$X$$$$$$##%%%%***%%%%#######$$$##$$$$$$$$$$$X$XXXXXXXXXoooooooooooooooooooooooooooXXXXXX$$$$$$$$###***====***************%%%####$$$$$XXXXXXoooooooooooooo      ooooooooXXXXXXX.ooooooo.................XX",
"XXX.XXXXXXXXX+++++###############+++++XXXXXXXXXXXX.o.....o...XXXXXXXXXXXXXXXXXXXXX$$$$$$$$######*****========****%########**%*#######$+++$$#####$$$++XXXXXXXXXXXXXXXXXXXooo.oo.XXXXXX.ooooooooooooooooooXXXX$$####$$XXXXo...o.ooo.o.......XXXXXXXX++++++++++++++++++++++###*====*%####%%********&##&##@&&&&&&&&&&:==*%###++++XXXXXXXXX.XX...XX..XXXXXX..XXXXXXXXXXXXXXXX++XXX+++$#####++#####%%%%##++++++X...........................................     .........................OOOOO@@@@OOOO...........................................O..OO..OOOOOOOO@@@@@&:&@@@@OO@@OO@@@@&&&@@@O@@@@@@@@@&&&&&&&&&&&&&&&&:&::::::::::::::::::::::::::::::::::::::::::::::::::::::::::::::::::::::::::::::::::::::::::::::::::::::::::::::::::&:&&&&&&&@@@OOOOOOOOOOOOOOOO@@@@&&&@@@@@@@&&@@@@@@@@@@OOOOOO@O@@@&&&&@@@@@@@@OOOOOOOOOOO.........................................................................         ...... . ...............OOOOOOOOOO@@OO.....................OOOOOOOOO@O@@@&&&&&&:&&&&&&&&&&&@@##&&*&=====;=********####$$#####%%*===*%#%%%###$$$$XX$XXXXXXXXXXXXXXXXXXXXXXXXXXXoXXXooooXXooooooXX$$####$$$$$XX$$$$##%%%%%%*%%%%########$$#$$$$$$$$$$$$$$$XXXXXXXXooooooooooooooXooooooooXXXXXXXXX$$$$$$####****===*****************%%###$$$$$$$XXXXXoooooooooooooo     oooooooooXXXXXXX.ooo..oo..o.........XX.+OO++",
"XXXXXXXXXXXXXX++++++################++++++XXXXXXXXXX.XXXXXX...XXXXXXXXXXXXXXXXXXXXX+XXXX$$$$######%*****=======****%#######%%%*%*###############$$$++XXXXXXXXXXXXXXXXXXX.oo...XXXXXXXoooooooo.oooooooooooXXX$$####$$XXXXo.......oo..XXXX...XXXXXXXX++++++++++++++++++++##&&*====*%&#&##%********########&&&&&&&&====*%##++++++XX..XXXX.XXXXXXX..XXXXXXXXXXXXXXXXXXXXXXXXX++XX++++#####$++####%%%%##+++++++OO......................................... ............................OOOOOO@@@@OOOO..............................................OOOOOOOOOOOO@@@@@&:&&@@@OO@OO@@@@@&&&@@@@@@@@@@@@&&&&&&&&&&&&&&&&&&&&&&&&&&&&&&&&&&&&&&&&&&&&&&&&&&&&&&&&&&&&&&&&&&&&&&&&&&&&&&&&&&&&&&&&&&&&&&&&&&&&&&&&&&&&&&&&&&&&&&&&&&&&&&&&&&&&&&&&&&&&&&&@@OOOOOOOOOOOOOOOO@@@@&&&@@@@@@@&&@@@@@@@@@OOOOOOO@@@@@&&&&@@@@OO@OOOOOOOOOOOOO..................................................................... .  . ..  ......    ..................OOOOOOOO@@@OO....................OOOOOOOOOOO@@&&&&&&::&&&&&&&&&&&####&&&========********#####$####%%%====%%#%%%##$$$$$XXXXXXXXXXXXXXXXXXXXXXXXXXXXXXXoXXoooooooooooooXX$####$$$XXXX$$$$##%%%%%**%%%%########$$$$$$$$$$$$$$$$$$$XXXXXXXXXXXXXXXoXXoXXXXooooooXXXXXXXXXX$$######%**===******************%%%###$$$$$$XXXXoooooooooooooo       oooooooooooXXoooo.o....ooo.oo....X++++++++++O",
"++XXXXXXXXXXXXXX++++++################++++++XXXXXXXXXXXXXXXX.XXXXXXXXXXXXXXXXXXXXXXX++XX$$$$$$######******=======****%##########**##############$$$++XXXXXXXXXXXXXXXXXXXX.o....XXXXXooooooooooooooooooooXXXX$$####$$XXXXX.......o..XXXXX..XXXXXXXX+++++++++++++++++++++###&*====*%&&&&#%********#######@&&&&&&&&====*####++++XXX..XXXXXXXXXXXX.XXXXXXXXXXXXXXXXXXXXXXXXX+XXXX+++$#####+++####%%%%##++++++++O.....................................................................OOOOOOO@@@@OOOOOO....OO......................................OOOOOOOOOOOO@@@@@&::&@@@O@@@O@@@@@&&&@@@@@@@@@@@&&:&&@@@@@@@@@@@@@@@@@@@@@@@@@@@@@@@@@@@@@@@@@@@@@@@@@@@@@@@@@@@@@@@@@@@@@@@@@@@@@@@@@@@@@@@@@@@@@@@@@@@@@@@@@@@@@@@@@@@@@@@@@@@@@@@@@@@@@@@@&&&&@@OOOOOOOOOOOOOOO@@@@&&&@@@@@@@&&&@@@@@OO@OOOOOOO@@@@@&&&@@@@OOOOOOOOOOOOOOOOO.......O............................................................  ...  ..   .....    .. ................OOOOOOOO@@@OO...................OOOOOOOOOOO@@&&&&&&::&&&&&&&&&&&#####&&&=====;=********####$#####%%*====*%#%%%%##$$$$XX$$$$XXXXXXXXXXXXXXXXXXXXXXXXooXXoooooooooooooX$$###$$$XXXXX$$$$##%%%%%%*%%%%########$$$$$$$$$$$$$$$$$$$$XXXXXXooXXXXXXXXXXXXXXooooooXXXXXXXXXX$$####%***===*****************%%%#####$$$$$XXXXoooooooooooooo    o  oooooXXo..oXXXooooo.....ooo.oo..XX+++++++++++O",
"++++++XXXXXXXXXXXXXX+++###################+++++++XXXXXXXXXXX..XX....XXXXXXXXXXXXXXXXXXXXXX+$+$$$$#######*****=====*****%########******%###########$$+XXXXXXXXXXXXXXXXXXXXXooo.oXXXXX.oooooooo..ooo....ooXXXX$$#####$+XXXoo....XX....oo.X.XXXXXXXXXXX+++++++++++++++++++##&&&===*&&&&###%********%#&&&&&&&&&&&&&&=:==*%####+++XXXXXXXXXXXXXXXXXXXXXXXXXXXXXXXXXXXXXXXX+XXXXXXXXX++#####+++####%%%##++++O+XX..OOOOOO..............................O.................................OOOOOO@@@@OOOO.....O..OO.................................O...OOOOOOOOOOO@@@@@&::&@@@@@@@@@@@@@&&&@@@@@@@@@@@&:&&@@@@@@@@@@@@@@@@@@@@@@@@@@@@@@@@@@@@@@@@@@@@@@@@@@@@@@@@@@@@@@@@@@@@@@@@@@@@@@@@@@@@@@@@@@@@@@@@@@@@@@@@@@@@@@@@@@@@@@@@@@@@@@@@@@@@@@@@@@&&&&@@@OOOOOOOOOO@@@@@@@&&&@@@@@@@&&&@@@@@OOOOOOOOOO@@@@&&&&@@@@OOOOOOOOOOOOOOOO....................................................................  ....  ..      ..... .....................OOOOOOO@@@@OO..............OO..OOOOOOOO@@@@&&&&&&:::&&&&&&&&&&####&&&&&====;=********####$$$####%**===%%#%%%%##$$$$$$X$XXXXXXXXXXXXXXXXXXXXXXXXXXXXXXooooooooooooXX$$###$$$$$XXX$$$$$#%%%%***%%%%######$####$$$$$$$$$$$$$XXXXXXXXXXXXXXXXooooXXXXooooXXXXXXXXXXXX$$$###%**===******************%%#######$$$$XXXXXXoooooooooooo      ooooooXXooooooooo..ooooo.....o...OO++++++++++++++",
"###+++++XXXXXXXXXXXXX++++##################+++++++XXXXXXXXXXX..Xoo.XXXX.XXXXXXXXXXXXXXXXXXXX++++$$######%%****======*****%%#######******##########$$+XXXXXXXXXXXXXXXXXXXXXXoo.XXXXXX.oo.oooo...ooooo..ooXXXX$#######$XXX....ooXX...X...X.XXXXX..XXXX+++++++++++++++++++##&&&====&&&&###%********%#&&&&@#&&&&&&&&&:==*%####+++XXXXXXXXXXXXXXXXXXXXXXXXXXXXXXXXXXXXXXX++XXXXXXXXXX$#####++#####%%%##++++X+XX.OOOOOO..............................OO.................................OOOOOO@@@@@OOO....OOOO.O.................................O..OOOOOOOOOOOO@@@@@&::&@@@@@@@@@@@@@&&&@@@@@@@@@@@&:&&@@@@@@@@@@@@@@@@@@@@@@@@@@@@@@@@@@@@@@@@@@@@@@@@@@@@@@@@@@@@@@@@@@@@@@@@@@@@@@@@@@@@@@@@@@@@@@@@@@@@@@@@@@@@@@@@@@@@@@@@@@@@@@@@@@@@@@@@@@&&&&@@@OOOOOOOOOO@@@@@@@&&&@@@@@@@&&&@@@@@@@OOOOOOOO@@@@&&&&@@@@OOOOOOOOOOOOOOOO....................................................................  ....  ..    ......  ......................OOOOOOO@@@OOO..............O..OOOOOOOO@@@@&&&&&&:::&&&&&&&&&&####&&&&&====;=********####$$$####%**===%%#%%%%##$$$$$$XXXXXXXXXXXXXXXXXXXXoXXXXXXXooXXooooooooooooXX$$###$$$$$XXX$$$$$#%%%%*%*%%%%##########$$$$$$$$$$$$$$$XXXXXXXXXXXXXXXoooXXXXXXXoXXXXXXXXXXXX$$$###***==******************%%%########$$$XXXXXXoooooooooooooo  ooooooooooooooooooooo.oooo.....oo..XO+++++++###@++++",
"#####+++++XXXXXXXXXXXX+++++########%%%########+++++++XXXXXXXXXX...XXXX..XXXXXXXXXXXXXXXXXXXXXXXX+$$########%******====******%#######******#########$$XXXXXXXXXXXXXXXXXXXXXXoo..XXXXXX..X.XXXXXX.oo..oXoXXXX+$#######$XXX..oooooX.....XXX.XXXXXXXXXXXX++++++++++++++++++##&&&&==&&&&&&&%*********%&&&##@#&&&&&&&&&:==*&####+++XXXXXXX.X.XXXX.XXXXXXXXXXXXXXXXXXXXXXXX++++XX++XXXX+############%%###++++XXX...OOOOO..............................OOO...........................OOO..OOOOOO@@@@@OOOOOOOOOOOOOOOOOOOOOOOOOOOO.O.....OO........OO....OOOOOOOOOO@@@@@&::&@@@O@@@@@@@@@&&&&@@@@@@@@@&&:&@@@@@@@@@@@@@@@@@@@@@@@@@@@@@@@@@@@@@@@@@@@@@@@@@@@@@@@@@@@@@@@@@@@@@@@@@@@@@@@@@@@@@@@@@@@@@@@@@@@@@OO@@@@O@@@@@@@@@OO@@@@@OOO@@@@@@@@@@@@&&&&@@@OOOOOOOOOOO@@@@@@&&&@@@@@@&&&&@@@@@@@@OOOOOOO@@@@&&&&@@@@OOOOOOOOOOOOO.OOOO......O.................................................................  ..  ......     ......................OOOOOOO@@@@OO................OOOOOOOO@@@@&::&&&::&&&&&&&&&&&#@@&&&&&=:===;=********####$#$####%%*===%%#%%%%#$$$$$$$XXXXXXXXXXXXXXXXXXXXoXXXooooooooooooooooooooXX$$####$$$XXXX$$$$$#%%%%%**%%%%##########$$$$$$$$$$$$$$$XXXXXXXXXXXXXXXooXooXXXXXXXXXXXXXXX$$$$###***=******************%%%%#########$$$$XXXXXXooooooooooooooooooooooooooooooooooooooooooo..oo..XXX++++++######@+++",
"#######++++XXXXXXXXXXXXX+++++########%%%########+++++XXXXXXXXXX.X.XXXX..XXXXXXXXXXXXXXXXXXXXXXXXX+$$$$#######******======*****%#######******%######$++XXXXXXXXXXXXXXXXXXXXX...oXXXXXXoo..XXXXXXo.o..oXXXXXX+$########XXX...oo.oX......XXXXXXXXXXXXXXXX+++++++++++++++++##&&&&==&&&&&&&%*******=*%#&&@#@@&&&&&&&&&:==*&####++++XXXXXX.X.XXXXXXXX.XXXXXXXXXXXXXXXXXXXX+++++X++++X++############%%#%##+++XX+X..X.OOOO..................OO.........OOO..............................OOOOOOOO@@@@@OOOOOOOOOOOOOOOOOOOOOOOOOO.OOOOOO..OOOO.....OOO....OOOOOOOOOO@@@@@&::&@@@O@@@@@@@@@&&&&@@@@@@@@@&&:&@@@@@@&@@@@@@@@@@@@@@@@@@@O@@@@@@@@@@@O@@@@@@@O@@@@@@@@@@@@@@@@@@@@@@@@@@@@@@@@@@@@@@@@@@@@OOOO@@@@OOOO@@@@OOOOOO@@OOOOOOOOOOOOOOOOOOO@O@@@&&&&@@@@@OOOOOOOO@@@@@@@&&&@@@@@@&&&&@@@@@@@@@@OOOOO@@@@&&&&@@@@OOOOOOOOOOOOOOOOOO..O....O................................................................  ..  .......    .......................OOOOOOO@@@@O................OOOOOOOO@@@&&::&&&::&&&&&&&&&&&#@@&&&&&:::==;=********####$######%%*===%%##%%###$$$$X$XXXXXXXXXXXXXXXXXXXXXXXXoooooooooooooooooooooX$$####$$$XXXX$$$$##%%%%%**%%%%##########$$$$$$$$$$$$$$$$XXXXXXXXXXXXXXXXXXXXXXXXXXXXXXXXXX$$$##%**********************%%%%##########$$$$XXXXXXoooooooooooooooooooooooooooooooooo...oo.o.oo...X.X+++++##########+++",
"#########+$+++XXXXXXXXXXXX+++$#######%%%%#%#########++++++XXXXXXXXXXX..oXXXXXXXXoXXXXXXXXXXXXXXXXXXX++$$$$######*****=======****%######*******%%%###$+XX++XXXXXXXXXXXXXXXX..o.XXXXXXXXoo.XXXXXX.oo..oXXXXXX+$########+XXX..o.......oooXX..XXXXXXXX++XX+++++++++++++++++#&&&&&::&&&&&&&%******==*%###@&&&&&&&&&&&&:==*####+++++XXXXXXXXXXXXXXXXXXXXXXXXXXXXXX++++X++XXXXX++++X++++############%%#%##++XXXXX++........O..............O...........OOOO.......................OOOOOOOOOOOO@@@@&@@@OOOOOOOOOOOOOOOOOOOOOOOOOOOOOOOOO.OO....OOO.OOOOOOOOOOOOOOOO@@@@@&:&@@@@@@@@O@@@@@&&&&@@@@@@@@@&&:&@@@@@&&&&@@@@@O@@@@@OO@@OOOOOOOOO@@@@OOOO@@@@OO@@@@@@@@@@@@@@@@OOO@@@@@@@@@@@@@@@@@@@OOOO@@@@OOOOOOOOOOOOOOOOOO@@@@OOOOOOOOOOOOOOOOOOOOO@@@&&&&@@@@OOOOOOOOOO@@@@@@&&&@@@@@@@&&&@@@@@@@@@OOOO@@@@@@&&&&@@@@OOOOOOOOOOOOOOO.OOO.OOOO..........................................................................           ......................OOOOOOO@@@@OO.............OOOOOOOOO@@@&&::&&&::&&&&&&&&&&&@@@&&&&&=====;=********###########%%*===*%##%%%##$$$$XX$$XXXXXXXXXXXXXXXXXXXXoooooooooooooooooooooooo$$###$$$XXXXXX$$$##%%%%%*%%%%%#####$$$#$$$$$$$$$$$$$$$$$$$XXXXXXXXXXXXXXXXXXXXXXXXXXXXX$$$###%**********************%%##########$$##$$$$XXXXXoooooooooooooooooooooooooooooooooooooo...ooo...XXX++++++#########++++",
"############++++XXXXXXXXXXXX+++$##########%%#########++++++++XXXXXXXXX..oooooXXXoX.XXXXXXXXXXXXXXXXXXX$$$$$######%*****=======****%#####*********%###$++$++XXXXXXXXXXXXXXX..o.XXXXXXXXXXXXXXXXXooXo.XXXXXXX+#########$XXXX.ooo........X...XXXXXXXXX+XXX++++++++++++++++#&&&&&:::&&&&&&&******==*&####&&&&&&&&&&&&:==*&##++++++XXX.XXXX..XXXXXXXXXXXXXXXXXXXX++++++++XX+++++++++++############%%####++XXX.X++X....O..O..............O.O........OOOOO........................OOOOOOOOOO@@@@@&@@@O@OOOOOOOOOOOOOOOOOOOOOOOOOOOOOOOOOO....OO..OOOOOOOOOOOOOOO@@@@@@&:&@@@@@@@@@@@@@@&&&&@@@@@@@@@&&:&@@@@@&::&@@@@@O@@@@OOOO@@OOOOOOOOOO@@OOOOOO@@OOOOOO@@@@O@@@@OOOOOOO@OOOOOO@OOOOOOOO@@OOOOOO@@OOOOOOOOOOOOOOOOOO@@@OOOOOOOOOOOOOOOOOOOOOO@@@&&&&@@@O@@@OOOOOOO@@@@@@&&&@@@@@@&&&&@@@@@@@@@OOO@@@@@@@&&&&@@@@OOOOOOOOOOOOOOOOOOOOOOOOO.........................................................................  ..        ......................OOOOOOO@@@OO............OOOOOOOOOO@@@&&::&&&::&&&&&&&&&&&@@@&&&&&=====;=********###########%%*===%%##%%###$$$$XX$$XXXXXXXXXXXXXXXXXXXXooXXXooooooooooooooooooX$$###$$$XXXXXX$$$##%%%%%*%%%%%######$$#$$$$$$$$$$$$$$$$$$$$XXXXXXXXXXXXXXXXXXXXXXXXXXXX$$###**********************%%%%#########$$$##$$$$$$XXXXXXooooooooooooooooooooooooooooo.oooo....o..X.X++++++++######@#@#++++",
"##############++++++XXXXXXXXXXX+++#########%%%%%%#######++++++++XXXXXXXXoooXX...XXXXXXXXXXXXXXXXXXXXXXXXXX$$$$######%*****======****%######%*******#####$$$+XXXXXXXXXXXXXXo...XXXXXXXXXXXXXXXXXoXX....XXXXX$########$$XXXXX.oooo...o..XX....XXXXXXXXXX+++++++++++++++++##&&&::::::::&&&&&=***==*&&###&&&&&&&&&&&&:==*###++++++XXXX..XXXXXXXXXXXXXXXXXXXXXXXXXX+X++XXXX+++++++++++############%%#%##+XX.X..++OO...OOOOO..............OOOOOO....OOOOO...............OOOOOOOOOOOOOOOOO@@@@@@@&@@@@@@@@@@@@@@@@@@@@@@@@@@@@OOOOOOOOOOOO....O...OOOOOOOOOOOOOOO@@@@@&:&@@@@@@@@@@@@@@&&&&@@@@@@@@@&&:&&@@@@&:::&@@@@@@O@@@OOO@@@@OOOOOOOO@@@OOOOO@@@OOOOOOOOOOO@@OOOOOO@@@@OOOO@@OOO@OOOO@OOOOOOO@@@OOO@@@O@@OO@O@@OOOOOOOOOOOOOOOOOOOOOO@@@@@@@@&&&&@@@@@@@@OOOO@@@@@@@@&&&&@@@@@@&&&@@@@@@@@@@O@@@@@@@@&&&&@@@@OOOOOOOOOOOOOOOOOOOO..OO.........OOO......................................................... ...   ......  ..........................OOOOOO@@OO............OOOOOOOOOO@@@&&::&&&::&&&&&&&&&&&@##&&&&&=::=:;=********###########%%*===*%##%%%##$$$$XX$$XXXXXXXXXXXXXXoooXXXXooXoooooooooooooooooooX$$###$$$XXXXXX$$$##%%%%%*%%%%%##$###$$$$$$$$$$$$$$$$$$$$$$$$XXXXXXXXXXXXXXXXXXXXXX$$$$###%***=*****%%%%%*********%%#############$$##$$$$$$$XXXXXXXXXoooooooooooooooooooooooo.oooooooo..X.X+++++++++++###@#@@@@++++",
"++#############++++++XXXXXXXXXXX+++#########%%%%%%########++++++XXXXXXXXXXXX....oXXXXoXXXXXXXXXXXXXXXXXXXX$$$$$$#####%******====*****%######*******#######$$XXXXXXXXXXXXXXXo.oXXXXXXXXXXXXXXXXXXoX....XXXXX$########$$XXXXXooooo..oo..XX....XXXXXXXXXX+++++++++++++++++#&&&&:&&&&:::&&&&===*&==*&&###&&&&&&&&&&&&:==*###++++++XX.X..XXXXXXXXXXX+XXXXXXXXX+XXXXXX+++XXX+++++++++++############%%%%##++XXX....O....OOOOO..............OOOOOO....OOOOO.............OOOO@@@@@@@@@@@@@@@@@@@@@&&&&@@@@@@@@@@@@@@@@@@@@@@@@@@@OOOOOOOOOOO.O.OO...OOOOOOOOOOOOOO@@@@@@&:&@@@@@@@@@@@@@@&&&&@@@@@@@@@&&:&&@@@@&&::&@@@@@@O@@@OO@@@@@@@@@OOOO@@@OOOOO@@@OOOOOOOOOOO@@@@OOO@@@@@@@@O@@@@@@OOOOOOOOOOOO@@@@OO@@@@@@OOOOO@OOOOOOOOOOOOO@O@OOOOO@@@@@@@@@&&&&@@@@@@@@@O@@@@@@@@@@&&&&@@@@@@&&&@@@@@@@@@@@@@@@@@@@&&&&@@@@OOOOOOOOOOOOOOOOOOO..OOOOOO....OOOOOO.......................................................  ...   ...... ............................OOOOO@@@O............OOOOOOOOOO@@@&&::&&:::&&&&&&&&&&&####&&&&=::=:;=********###########%%*===*%##%%%##$$$$XX$$XXXXXXXXXXXXXXooooXXXXoooooooooooooooooooooX$$###$$$XXXXXXX$$##%%%%%*%%%%%##$###$$#$$$$$$$$$$$$$$$$$$$$$$XXXXXXXXXXXXXXXXXXXXX$$$###***==*****%####%%%*****%%%#############$$$####$$$$$$XXXXXXXXXoooooooooooooooooooooo.....ooo..XXXX++++++++++++++#+@++++++++",
"+++$$##############+++++XXXXXXXXXXX++$$########%%#%#%########+++++XXXXXXXXXXXXXX..ooXXoooooXXXXXXXXXXXXXXXXXX$$$$$$#######******==*****%####%%*****########$$XXXXXXXXXXXXXXXXXXXXXXXXXXXXXXXXXXXXXoo.XXXXXX+##########XXXX..oo.....X....XXXXXXXXXXXXXXX+++++++++++++++@#&&&&:&&&:&:&&:::::&&===&&&&&@&&&&&&&&&&&&:==*###++++++XXOO..XXXXXXXX++XX++++XXXXXX+XXXXX+++XXX+++++++++++###########%%%%%##+++XX.......OOOOOOO..............OOOOO.....OOOOOO............OO@@@@@@@@@@@@&&@@@@@@@@@&&&&&&&&&&&&&&&&&&&&&&&&&:::&&@@@@OOOOOOOOOO...OOOOOOOOOOOOOOOOOO@@@@@&::&@@@@@@@@@@@@@&&&@@@@@@@@@@&&:&&@@@@&&::&@@@@@@@@@@@@@@@@@@@@@@@@@@@@@@@@@@@@@@@@@@@@@@@@@@@@@@@@@@@@@@@@@@@@@OOOO@@@@OOO@@@OO@@@@@@@@OO@@@OOO@@@OOOOOOOOOO@@@@@@@@@@@@@@@&&:&@@@@@O@@@@OOO@@@@@@@&&&&@@@@@&&&&@@@@@@@@OOO@@@@@@@@&&&&@@@@OOOOOOOOOOOOOOOOOO....OOO...OO.OOO.............O............................................... . .. .................................OOOOOO@@+O.........OO.OOOOOOOOO@@@@&&:&&&&::&&&&&&&&&&&#@#&&&&&:::==;==*******###########%**===%%##%%##$$$$$$$XXXXXXXXXXXXXXXXXXXXXoooooooooooooooooooooooooX$###$$$XXXXXX$$$##%%%%%*%%%%%#########$$$$$$$$$$$$$$$$$XXXXXXXXXXXXXXXXXXXXXXX$$$###%**==*******%##%%%%%%%%%%%%###########$$$$$$$###$$$$$$$XXXXXXXXoooooooooooooooo   ooooooo....XXXX+++++++++#++++##++++++++++++",
"++++++###############+++++XXXXXXXXXXX+$$##########%%%%%########++++XXXXXXXXXXXXX..oooo.ooooXXXXXXXXXXXXXXXXXXX$$$$$$$######*****===*****%%%#%%%****########$$XXXXXXXXXXXXXXXXXXXXX+XXXXXXXXXXXXXXXoo.XXXXXX+##########+XXX.........o....XXX..XXXXXXXXXX+++++++++++++++@&&&&&:&&&&&&&&&&&:&&====&&&&&@#&&&&&&&&&&::==*%##++++++XXOO.XXXXOXXXXX+XXX+++XXXXXX++++XX++X+XX+++++++++++############%%%###+++XX......OO.OOOOO..........OO.OOO..O.....OOOOOO............OO@@@@@@@@@@@@@@@@@@@@@@@@&&&&&&&&&&&&&&&&&&&&&&&&&&::&&@@@@OOOOOOOOOO..OOOOOOOOOOOOOOOOOO@@@@@&:&&@@@@@@@@@@@@@&&&@@@@@@@@@@&&:&&@@@@&&::&@@@@@@@@@O@OOO@@OO@@@@@@@@@@@@@@@@@@@@@@@@O@@@@@@@@@@@@@@@@@@@@@@@@@@@@@O@@@@@OO@@@@O@@@@OO@@OOOOOOOO@@OOOOOO@OOOO@@@@@@@@@@@@@@@&&:&@@@@@@@@@@@O@@@@@@@@&&&&@@@@@&&&&@@@@@@@@@O@@@@@@@@@&&&&@@@@OOOOOOOOOOOOOOOOOOO...OOO...O...OO....OO........O...................................................  ................................OOOOOO@@+O.........OOOOOOOOOOOOO@@@&&:&&&&::&&&&&&&&&&&#@#&&&&&=::==;==*******###########%**===%%##%%##$$$$$X$XXXXXXXXXXXXXXXXXXXXXoooXXooooooooooooooooooooX$###$$$XXXXXX$$$##%%%%%%%%%%%#########$$$$$$$$$$$$$$$$$XXXXXXXXXXXXXXXXXXXXXX$$$$##***==********%##########%%%%#########$$$$$$$$$####$$$$$$$XXXXXXXooooooooooo oooo   oooooo.o...XXX++++++++####+++++++++++++++++",
"XXX++$++#################++++++XXXXXXX++$$############%%%%########+++++XXXXXXXXX.oooXXoooooXXXXXXXXXXXXXXXXXXX+$$$$$$$$######*******==*****%%%%%############$$XXXXXXXXXXXXX.XXXXX++XXXXXXXXXXXXXXoXX.XXXXXX+##########$XXXXX.oX.oo......XX....XXXXXXXX+++++++++++++++@@&&&&&:&&:::&&&&&&&&&&===&%#&#@#@&&&&&&&&&&:==*####+++++++OOOXXXXXXXXX++XXXXX+++XXX+++++X+++++X++++++++++++###########%%%%###++XXX.....O.O..OOO............OOOOOOOOO...OOOOOOO............OO@@@@@@OO@@@@@@@@@@@@@@@@@@@@@@@@@@@@@@@@@@@@@@@@&&&::&@@@@OOOOOOOOOOOOOOOOOOOOOOOOOOOO@O@@@@@&:&@@@@@@@@@@@@@@&&&@@@@@@@@@@&&:&&@@@@&&::&@@@@@@@@@@@@@@@@@@@@@@@@@@@@@@@@@@@@@@@@@@@@@@@@@@@@@@@@@@@@@@@@@@@@@@@@@@@@@@@@@@@@@@@@@@@@@@@@@@@@@@@OO@@@@@@@@@@@@@@@&&@@@@@@@&&&&@@@@@@@@@@@@@@@@@@@@&&&&@@@@@&&&&&@@@@@@@@@@@@@@@@@@&&&&@@@@@OOOOOOOOOOOOOOOOOOO.OOOOO......O....OOOOO......OO.................................................. ..................................OOOOO@@OOO........OOOOOOOOOOOOO@@@&&:&&&&::&&&&&&&&&&&#@##&&&&=====;=********###########%**===%%##%%%#$$$$$XXXXXXXXXXXXXXXXXXXXXXXXooXXooooooooooooooooooXXX$###$$$XXXXXX$$$##%%%***%%%%%####$$###$$$$$$$$$$$$$$$$$$X$$XXXXXXXXXXXXXX$$$$$###***************%######################$$$$$$$$$$#####$$$$$$XXXXXXXooooooooo  o  ooo oooooooo...XXXX+++++++++##++++++++++++++++++",
"XXXX++++##################+++++X+XXXXXX+++$$$##########%%%%%%######+++++XXXXXXXXXXXXXXX.ooXXXXXXXXXXXXXXXXXXXX++++++$$$$$$#####******====******%############$$+XXXXXXXXXXX..XXXXX+++XXXXXXXXXXXXXXXXXXXXXXX+##########$XXXXXooX....ooX..XX....XXXXXXXX+++++++++++++++@@#&&&&&&:::::&&&&&&&&&===*&###@#&&&&&&&&&&&:==*%###++++++++OXXXXO+XXO+++XXXO+++++++++++++++++++++++++++++++############%%#%##++XXX..........OOO..............O.OOOOOO.OOOOO@OO............OO@@@OOOOOOOOOO@OOOO@@@@@@@@@@@@@@@@@@@@@@@@@@@@@@@&&&::&@@@@@OOOOOOOOOOOOOOOOOOOOOOOOOO@O@@@@@&:&@@@@@@@@@@@@@@&&&@@@@@@@@@@&&::&&@@@&&::&&@@@@@@@@@@@@@@@@@@@@@@@@@@@@@@@@@@@@@@@@@@@@@@@@@@@@@@@@@@@@@@@@@@@@@@@@@@@@@@@@@@@@@@@@@O@@@@@@@@@@@@@@@@@@@@@@@@@@@@@&&&@@@@@@&&&&@@@@@@@@@@@@@@@@@@@@&&&&@@@@@&&&&&@@@@@@@@@@@@@@@@@@&&&&@@@@@@@OOOOOOOOOOOOOOOOOOOOOOOOO....OO...OOOO.......OO.O..................................................... ..............................OOOO@@OOO........OOOOOOOOOOOO@@@@@&::&&:::&&&&&&&&&&&@++#&&&&=====;=********###########%**===%###%%%#$$$$$XX$XXXXXXXXXXXXXXXoXXXXXXoooooooooooooooooooooXX$$###$$$XXXXXX$$$##%%%****%%%%####$$$##$$$$$$$$$$$$$$$$$$X$$$$XXXXXXXXXXXX$$$$##***==***********%%#####################$$$$$$$$$$$##$$$$$$$$$$XXXXXXooooooooo     ooo ooo.....XXXXX+++++++++++++++++++++++++++++++",
"XXX++++#######################++++XXXXXXXXX++$$$$########%%%%%%%#######++++XXXXXXXXXXXXXooXXXXXXXXXXXXX++XXXXXXXXXXXXX$$+$$$####%*******====****%############$$$+XXXXXXX..ooXXXXX$$++XXXXXXXXXXXXXXXXXXXXX+$##########$XXX...o........X.X.....XXXXXXXX+++++++++++++++++#&&&&&&&::::&&&&&:&&====*&#&#&&&&&&&&&&&&&:==*&####++++++++XXXXX+++++XXXXX+++++++X+X+++++XXXX+++++++++++++##%#########%#####+++.XXX..........OOOOOO............OO..OOOOOO@@OO............OO@@@OOO.OOOOOOOOOOOOOOOOOOOO@@@@OOO@@@@@@@@@@@@@@@@&&:::&@@@@OOOOOOOOOOOOOOOOOOOOOOOOOO@@@@@@&&::@@@@@@@@@@@@@@&&&&@@@@@@@@@@&&:&&&&&&&::&&@@@@@@@@@@@@@@@@@@@@@@@@@@@@@@@@@@@@@@@@@@@@@@@@@@@@@@@@@@@@@@@@@@@@@@@@@@@@@@@@@@@@@@@@@@@@@@@@@@@@@@@@@@@@@@@@@@@@@@@&&&&@@@@@&&&&@@@@@@@@@@@@@@@@@@@@&&&&@@@@@&&&&&@@@@@@@@@@@@@@@@@@&:&&@@@@@OOOOOOOOOOOOOOOOOOOOOOOOOOO..OOOOOO....OOOO..O.O..O....OOO...........................................  .  ............................OOOOO@@OOO............OOOOOOOO@@@@&&::&&::::&&&&&&&&&&####&&&&&====;=********###########%*==-=%%##%%%#$$$$XXXXXXXXXXXXXXXXXXXoXXXXXXXoooooooooooooooooooooX$$###$$$XXXXXX$$$##%%%****%%%#####$####$$$$$$$$$$$$$$$$$$X$$XXXXXXXXXXXX$$###%***=************%%%%######$$$###########$$$$$$$$$$$####$$$$$$$$$XXXXXXXooooo            .....XXXXXX+X+++++++++++++++++++++++++++++++",
"X+X+++$#########%%%#############++++++XXXXXXXX++$$+########%%%%%#%######+++++++XXXXXXXXXoXXXXXXXXXXXX+++++++XXXXXXXXXXXX$$$$$######*****====******###########$$$++XXXXXXo.o.XXXX+$$$XXXXXXX+XXXXXXXXXXXXXX+$##########$+XXXo...oX...XXooXX....XXXXXXXX+++++++++++++++++#&&&&&&&&:::&&&::::=====*&#&&&&&&&&&&&&&&&:==*&####++++++XXX+XX++++++XXX++X+++++++++++++++++++++++++++++++##%#########%#####+++XXXXX.........OOOOOO...........OOOO.O.OOOO@@@OO..........OOO@@@OOOOOOOOOOOOOOOOOOOOOOOOOOOOOOO@@@@OO@O@@@@@@@@@&&::&@@@@@@OOOOOOOOOOOOOOOOOOOOOOOO@@@@@@&&::@@@@@@@@@@@@@@&&&&@@@@@@@@@@@&&&&&&&&&::&&&@@@@@@@@@@@@@@@@@@@@@@@@@@@@@@@@@@@@@@@@@@@@@@@@@@@@@@@@@@@@@@@@@@&@@@@@@@@@@@@@@@@@@@@@@@@@@@@@@@@@@@@@@@@@@@@@@@@@@@&&&&@@@@@&&&&@@@@@@@@@@@@@@@@@@@&&&&&@@@@@&&&&&@@@@@@@@@@@@@@@@@@&:&&@@@@OOOOOOOOOOOOOOOOOOOOOOOOOOOOOOOOOOOOOOOOOOOOOOOOOOOO....OOOOOO........................................................................OOOOOO@@@OO............OOOOOOOOO@@@@&::&&::::&&&&&&&&&&####&&&&:====;=********###########%*==-=%%##%%%#$$$$XXXXXXXXXXXXXXXXXXXoXXXXXXXXXoooooooooooooooooooX$$###$$XXXXXXX$$$##%%%%***%%%#####$$##$$$$$$$$$$$$$$$$$$$$$$XXXXXX$XXXX$$###%*==************%%%%%%#####$$$$#####$###$$$$$$$$$$$$$##$$$$$$$$$$XXXXXXXoooooo o  o     o...XXXXXX++++++++++++++++++++++++++++++++++++",
"++X+++$######%%%%%%%%%##############+$+++XXXXX++XX++$+#######%%%%%%%%######$++++XXXXXXXXXXXXXXXXXXXXXX++$$$$+$$$$$$$+++++++$$$######******===*==**%##########$$$++XXXXXX....XXX+$$$$+XXXXX+++XXXXXXXXXXXXX$$##########$+XX.o...oX...XXXX.......XXXXXXX+++++++++++++++@#@&&&&&&&&&&&&&:::::=====&&&&&&&&&&&&&&&&&&:==*&###+++++++XXXXXXXX++++++++X++++XXX++XXXX+++++++++++++++++++############%#%%##++++XX+XX....OO....OOOOO.........OOOOOOOOOOOO@@@OO.........OOOO@@@OOO......OO...OOOOOOOOOOOOOOOOOOOOOOOOOOOO@@@@@@&&:::&@@@@@OOOOOOOOOOOOOOOOOOOOOOOO@@@@@@&&::@@@@@@@@@@@@@@&&&&@@@@@@@@@@@@@&@@@@&&::::&&&&&&&&::::::::&&&:::::&&::::::::::::::&:::::::::::::::::::::::::::::::&&::::::::::&&&:::::&&::::&&&&::&&&&&&&&&@@@@@@&&&&@@@@@&&:&@@@@@@@@@@@@@@@@@@@@&&&&@@@@@&&&&&@@@@@@@@@@@@@@@@@@&&&&@@@@O@OOOOOOOOOOOOOOOOOOOOOOOOOOOOOOOOOOOOOOOOOOOOOOOOOOOO..OOOOOOOO.....................................................................OOOOOOO@@@OO.......OO..OOOOOOOO@@@@@&&::&&:::&&&&&&&&&&&@##&&&&&:::==;=********###########%*====%%##%%%#$$$$XXXXXXXXXXXXXXXXXXXXXXXXXoooooooooooooooooooooooXX$###$$XXXXXXX$$$##%%%%%%%%%%#####$###$$$$$$$$$$$$$$$$$$$X$$XXX$$$$$$$$###***=************%%%%%%%%######$$$$$$$$$$$$XXXXXX$$$$$$$$$$$$$$$$$$$XXXXXXXoooooooooooooooooooXXXX+++++++++++++++++++++++++++++++++++++++",
"++++++$####%%%%%%%%%%%%%%##############$$++XXXX+XX++++++##########%%%%########++XXXXXXXXXXXXXXXXXXXXXX++$$$$$$$$$$$$$$++$$$$$$########*****======**##########$$$++XXXXXX.XXXXXX+$##$+XXXXX++XXXXXXXXXXXXXX+$###########$XX......o...XXXX..X....XXXXXXX++++++++++++++@@+#&&&&&&&&&&&&&:::::=====&&&&&&&&&&&&&&&&&&:==*&###+++++++OXXXXXOO++++++++X+++XXXX++++++++++++++++++++++++###%#########%%%%##++++++++X....OO...OOOOOOOO......OOOOOOOOOOOOO@@@OO.........OOOO@@@OOO......OOO.O.OOOOOOOOOOOOOOOOOOOOOOOOOOO@@@@@@@&&::&@@@@@OOOOOOOOOOOOOOOOOOOOOOOO@@@@@@&&::@@@@@@@@@@@@@@&&&&@@@@@@@@@@@@@@@@@@@&&&::::::::::::::::::::::::::::::::::::::::::::::::::::::::::::::::::&:::::::::::::::::::::::::::::::::::::::::&&&&&&&@@@@@@&&&&@@@@@&&:&@@@@@@@@@@@@@@@@@@@@&&&&@@@@@&&&&&@@@@@@@@@@@@@@@@@@&&&&@@@@@@@O@@OOOOOOOOOOOOOOOOOOOOOOOOOOOOOOOOOOOOOOOOOOOOOOOOOOOOOOOOOOOO...................................................................OOOOOO@@@OOO.......OO..OOOOOOOO@@@@@@&::&&:::&&&&&&&&&&&@##&&&&&:::=:;=********###########%**===%%##%%%#$$$$XXXXXXXXXXXXXXXXXXXXXXoooooooooooooooooooooooooooX$###$$XXXXXXX$$$##%%%%%%%%%%#####$$##$$$$$$$$$$$$$$$$$$$X$$XXX$$$$$$###******************%%%%%%%#%######$$$$$$$$$XXXXXXXX$$$$$$$$$$$$$$$$$$XXXXXXXXoooooooooooo oooo..XXX+++++++++++++++++++++++++X+++++X++++++++",
"+++++++####%%%******%%%%%%%%%##############+++++XXXXXX+++$$#######%%%%%%%%%#####+++++XXXXXXXXXXXXXXXXXXX+$$$$$#####$$$$$++$$$$$#########%******=****##########$$$XXXXXXXXXXXXX++###$+XXXXX+XXXXXXXXXXXXXXX++###########$XXXXo...XX...XXXXXXXXXXXXXXXXX+++++++++++++++###&&&:&&&&&&&&::::::=====&&#&&&&&&&&&&&&&&:::=*%###+++++++++X+++++++++++++X++++++++++++++++++++++++++++++++##%#########%%%%%#++++++X..X.....OO.OOOOOOOOOO.OOOOOOOOOOOOOOOO@@@OOO..........OO@@@O.O.......O..O.....OOOOOOOOOOOOOOOOOOOOOOOO@@@@@@&&:::&@@@@OOOOOOOOOOOOOOOOOOOOOOOOOO@@@@@&:&&@@@@@@@@@@@@&&&&&@@@@@@@@@@@@@@@@@@@@@@&&&&&&&&&&&&&&&&&&&&&&&&&&&&&&&&&&&&&&&&&&&&&&&&&&&&&&&&&&&&&&&&&&&&&&&&&&&&&&&&&&&&&&&&&&&&&&&&&&&&&&&&&&&&&@@@@@@@@@@@@&&&&@@@@@&&:&@@@@@@@@@@@@@@@@@@@@&&&&@@@@@&&&&&@@@@@@@@@@@@@@@@@@&:&&@@@@@@@@@@OOOOOOOO@OOOOOOOOOOOOOOOOOOOOOOOOOOOOOOOOOOOOOOOOOOOOOOOOOOOOOOOOO............................................................OOOO@@@@@@+O.O.....OOO..OOOOOO@@@@@@@&&::&&&::&&&&&&&&&&&@###&&&&:::::;=********###########%%*===*%##%%%#$$$$$XX$XXXXXXXXXXXXXXXXXXooooooooooooooooooooooooooXX$###$$XXXXXXX$$$##%%****%%%%####$#$$$$$$$$$$$$$$$$$$$$$$$$XX$$X$$$###***=****************%#######%%########$$$$XXXXXXXXXXX$$$$$$$$$$$$$$$XXXXXXXXXXoooooooooooooooo.XXX++++++++++++++++++++++++++XXXXXX++++++++++",
"++++++#####%%********%%%%%%%%%#%%############+++XXXXXXXXX+$$$#########%%%%%%######++++XXXXXXXXXXXXXXXXXXXX$$$$$##$$$$$$$+$$$$$$###########**********%#########$$$+XXXXXXXXXXXX++###++XXXXX+++XXXXXXXXXXXXX++###########$XXXXo...oo.....XX..XXXXXXXXXXXXX+++++++++++++@#&&&&:&&&&&&&:::::::=:===&&##&&&&&&&&&&&&&:::=*%###+++++++++O++++++++++++++++++++++++++++++++++++++++++++++############%%%%%#++++++X..X........OOOOOOOOOO.OOOOOOOOOOOOOOOO@@@OO..........OOO@@@O.O.......O......OO..OOOOOOOOOOOOOOOOOOOOO@@@@@@@&&&::&@@@@@@@OOOOOOOOOOOOOOOOOOOOOOO@@@@@&:&&@@@@@@@@@@@@@&&&&@@@@@@@@@@@@@@@@@@@@@@@@@@@@@@@@@@@@@@@@@@@@@@@@@@@@@@@@@@@@@@@@@@@@@@@@@@@@&&&&@@@@&@@@@&&&@@@@@@@@@@@@@@@@@@@@@@@@@@@@@@@@@@@@@@@@@@@@@@@@@@@&&&&@@@@@&&:&@@@@@@@@@@@@@@@@@@@@&&&&@@@@@&&&&&@@@@@@@@@@@@@@@@@@&:&&@@@@@@@@@@O@OOOO@@@@OOOOOOOOOOOOOOO@@@@@@@@@@@@@OOOOOOOOOOOOOOOOOOOOOOOOOOOOOOOOO.......................................................OOOO@@@@@@+O.O.....OOO.OOOOOOOO@@@@@@&&::&&&::&&&&&&&&&&&@##&&&&&=::=:;=********###########%%*===*%###%%#$$$$$XX$XXXXXXXXXXXXXXoXXXooooooooooooooooooooooooooXX$###$$XXXXXXX$$$##%%%%**%%%%####$#$$$$$$$$$$$$$$$$$$$$$$$XX$$$$$$##%********************%%#####%%%%%#######$$$$XXXXXXXXXXXX$$$$$$$$XXXXXXXXXXXXXXXXXoooooooooooooo.XXX++++++++++++++++++++++XX+XXXXXXXX++++++++++",
"+++++++####%%***********%%%%%%%%%%%%############$$+++X++X+++$$$##########%%%%%######+++++XXXXXXXXXXXXXXXXXXX++$$$$$$$$$$$$$$$$$$$############**********######$$$$$+XXXXXXXXXXX++###+++XXXX++++XXXXXXXXXXXX++###########$XXXXo...oo....XX..XXXXXXXXXXXXX++++++++++++++@#&&&&:&&&&&&:::::::::&===&&#@&&&&&&&&&&&&&&:==*%####++++++++++++++++++++++++++++++++++++++++++++++++++++++#############%#%%%#++XXXXXX..........OOOO.OOOOOO..OOOOOOOOOOOOOO@@@OO...........OO@@@OOO.............OOOOOOOOOOOOOOOOOOOOOOOOOOO@@@@@@&&&:::&@@@@@@OOOOOOOOOOOOOOOOOOOOOOO@@@@@&:&@@@@@@@@@@@@@@&&&&@@@@@@@@@@@@@@@@@@@@@@@@@@@@@@@@@@@@@@@@@@@@@@@@@@@@@@@@@@@@@@@@@@@@@@@@@@@@@@@@@@@@@@@@@@@@@@@@@@@@@@@@@@@@@@@@@@@@@@@@@@@@@@@@@@@@@@@@@@@@@@@&&&&@@@@@&&:&@@@@@@@@@@@@@@@@@@@@&&&&@@@@@&&&&&@@@@@@@@@@@@@@@@@@&:&&@@@@@@@@@@O@@@O@@@&@@@OOOOOOOOOOOO@@@@@@@@@@@@@OOOOOOOOOOOOOOOOOOOOOOOOOOOOOOOOOOO.....................................................OOOO@@@&@@@+O.O.....OOOOOOOOOOOO@O@@@@&&::&&:::&&&&&&&&&&&@@#&&&&&=====;=********###########%%*===*####%%#$$$$$XXXXXXXXXXXXXXXXoooXooXXooooooooooooooooooooooooX$###$$XXXXXXX$$$##%%%%**%%%####$$$$$$$$$$$$$$$$$$$$$$$$X$$$$$$###**********************%%%####%%%%%%######$$$XXXXXXXXXXXXXX$$$$X$+XXXXXXXXXXXXXXXXXXXooooooooooooo.XXX+++++++++++++++++++++XXXXXX++X+XXX+++++++++",
"#++++++####%%***************%%%%%%%%%#%###########++++++XXXXX+$$+##########%%%%%#####++++XXXXXXXXXXXXXXXXXXXXXXX++++$+$$$$$$$$$$$$$$##########**********######$$$++XXXXXX.XXXX++###+++XXX+++++XXXXXXXXXXXX$$#######%###$XXXXo...XX..XXXX..XXXXXXXXXXXX+++++++++++++++@@&&&&:&&&&:::::::::::&===*&#@&&&&&&&&&&&&&::==*%####+++++++++++++++++++++++++++++++++++++++++++++++++++++++############%##%##++X...............O.O....OOOO.OOOOOOOOOOOOOOO@@@OO..........OOO@@@OOO..........OOOOOOOOOOOOOOOOOOOOOOOOOO@@@OO@@@@@@&&&::&@@@@@@@OOOOOOOOOOOOOOOOOOOOOO@@@@@&:&@@@@@@@@@@@@@@&&&&@@@@@@@@@@@@@@@@@@@@@@@@@@@@@@@@@@@@@@@@@@@@@@@@@@@@@@@@@@@@@@@@@@@@@@@@@@@@@@@@@@@@@@@@@@@@@@@@@@@@@@@@@@@@@@@@@@@@@@@@@@@@@@@@@@@@@@@@@@@@@@@&&&&@@@@@&&&&&&&&&&&&&&&@@@@@@@@@&&&&@@@@@&&&&&@@@@@@@@@@@@@@@@@@&&&&@@@@@@@@@@@@@@@@@&&&@@OOOOOOOOOOO@@&@@@OOOOOOOOOOOOOOOOOOOOOOOOOOOOOOOOO..OOOO@@OOO....................................................OOOO@@@&@@@+O.O....OOOOOOOOOOOOO@O@@@@&&::&&:::&&&&&&&&&&&@##&&&&&=====;=********###########%%*===*####%%#$$$$$XXXXXXXXXXXXXXXXoXXXXXXXXoooooooooooooooooooooooX$###$$XXXXXXX$$$##%%%***%%%%###$$$$$$$$$$$$$$$$$$$$$$$$$$$$$$###**********************%%%%##%%%%**%%%######$$XXXXoXXXoXXXXXXXXXXXXXXXXXXXXXXXXXXXXXXXXoooooooooo..XXXX+++++++++++++++++++++XXXXXX++++XX++++++++++",
"##++++####%%%****************%%%%%%%%%%%%%%%#########+++++XXXX++++$##########%%%%%%#####+++++++XXXXXXXXXXXXXXXXXXXXXXX+++++$$$$+++$$$$$$$$######%*********#####$$++XXXXXX..XXX++####++XXX++++++XXXXXXXXXX+$########%###+XXX....X...XX......XX.XXXXXXXXX++++++++++++++@@&&*==&&&&&&&&&::::::&===*&#&&&&&&&&&&&&&&&:===&###++++++++++++++++++++++++++++++++++++++++++++++++++++++++##%#########%##%#++OO....................OOOO..OOOOOOOOOOOOOOOOO@@@OO.......O.OOO@@@OOO.O......OOOOOOOOOOOO@@OO@@@@@@@@@@@@@@@@@@@@@@@&&&:::&@@@@@@@@OOOOOOOOOOOOOOOOOO@@@@@@&&::&@@@@@@@@@@@@&&&&&@@@@@@@@@@@@@@@@@@@@@@@@@@@@@@@@@@@@@@@@@@@@@@@@@@@@@@@@@@@@@@@@@@@@@@@@@@@@@@@@@@@@@@@@@@@@@@@@@@@@@@@@@@@@@@@@@@@@@@@@@@@@@@@@@@@@@@@@@@@@@@@&&&&&@@@@&&&&&&&&&&&&&&&&@@@@@@@&&&&&@@@@@&&&&&@@@@@@@@@@@@@@@@@@&&&&@@@@@@@@@@O@@@@@@@&&@@@@OOOOOOOO@@&&@@OOOOOOOOOOOOOOOOOOOOOOOOOO..OOOO....OOOO@@OOO.......OOOO........................................OOOOO@@&&@@@@O.O...OOOO.OOOOOOOOO@@@@@@&&::&&&:::&&&&&&&&&&@###&&&&:===:;=********###########%%*===*%##%%%#$$$$$XXXXXXXXXXXXXXXXXXXXXXXXXoooooooooooooooooooooooX$###$$XXXXXXX$$$##%%****%%%####$$$$$$$$$$$$$$$$$$$$$$$$$$$###%*******%%%%*%%*%%%%%%%%%%%#%%##%%****%#######$$XXXXXooXXXXXXXXX$XXXXXXXXXXXXXXXXXXXXXXXXXooooooooo.XXXXX+++++++++++++++++++++XXXXXX++XXXX++++++++++",
"##########%%%%*****************%**%%%%%%%%%%%##########+++++XXXX+++$$$$#######%%%%%%%######$++++XXXXXXXXXXXXXXXXXXXXXXXXXXX++$$$++++$$$$$$$#######%%******#####$$++XXXX.X..XXX++####++XX++++++++XXXXXXXXX+$###%####%###+XXX.X..XooXX...X..X.XXX.XXXXXXXX+++++++++++++@@&&&==:&&&&&&&&::::::&===*&&&&&&&&&&&&&&&&&:===&###++++++++++++++++++++++++++++++++++++++++++++++++++++++++##%#########%#%%#++O+....................OOOO..OOOOOOOOOOOOOOOOO@@@OO.......OOOOO@@@OOOOO....OOOOOOOO@@@@@@@@@@@@@@@&&&&&&&&&&&&&&&&&&&&&::::&@@@@@@@@OOOOOOOOOOOOOOOOO@@@@@@&&::&@@@@@@@@@@@@&&&&&@@@@@@@@@@@@@@@@@@@@@@@@@@@@@@@@@@@@@@@@@@@@@@@@@@@@@@@@@@@@@@@@@@@@@@@@@@@@@@@@@@@@@@@@@@@@@@@@@@@@@@@@@@@@@@@@@@@@@@@@@@@@@@@@@@@@@@@@@@@@@@@&&&&&@@@@@&&&@&&&&&&&&&&@@@@@@@@&&&&&@@@@@&&&&&@@@@@@@@@@@@@@@@@&&&&&@@@@@@@@@@@@@@@@@@&&&@@@OOOOOOOO@@&&@@OOOOOOOOOOOOOOOOOOOOOOOO.............OOO@@OOO.......OOOO.......................................OOOOOO@@&&&@@@O.O.O.OOOO.OOOOOOOOO@@@@@@&&::&&&:::&&&&&&&&&&@###&&&&:====;=********###########%%*===*###%%%##$$$$XXXXXXXXXXXXXXXXXXXXXXXoooooooooooooooooooooooooX$###$$XXXXXXX$$$#%%%***%%%%###$$$$$$$$$$$$$$$$$$$$$$$$$$$###*******%%###%%%%%%%%%%%%%%%%#%%#%%*****%%######$$XXXXoooooXXXXXXX$$$$XXXXXXXXXXXXXX$$$XXXXXoo...ooooXXXXX++++++++++++++++++++++XXXXXX++XX+++++++++###",
"###########%%%%%******************%%%%%%%%%%##############$$+++X+X++++$$++#######%%%%%%#######+++++XXXXXXXXXooooXXXXXXXXXXXX+$$$$$++$$$$$$$$###########*%%######$++XXXXXXX.XXX++####++XXX++$++++XXXXXXXXX+###*%########$XXXX....ooXX......X.XX..XXXXXXXX++++++++++++++@&&&==:&&&&&&&&:::::::===*&&&&&&&&&&&&&&&&&::==&###++++++++++++++++++++++++++++++++++++++++++++++++++++++++##%#########%#%%#+++X.....................OO...OOOOOOOOOOOOOOOOO@@@OOO.....O.OOOO@@@OOOOOOO..OOOOOOO@@@@@@@&&&&&&&&&&&&&&&&&&&&&&&&&&&&&&&::::&@@@@@@@@OOOOOOOOOOOOOOOOOO@@@@&&::&@@@@@@@@@@@@@&&&&@@@@@@@@@@@@@@@@@@@@@@@@@@@@@@@@@@@@@@@@@@@@@@@@@@@@@@@@@@@@@@@@@@@@@@@@@@@@@@@@@@@@@@@@@@@@@@@@@@@@@@@@@@@@@@@@@@@@@@@@@@@@@@@@@@@@@@@@@@@@@@@&&&&&&@@@@@@@@@@@@@@@@@@@@@@@@@@&&&&&@@@@@&&&&&@@@@@@@@@@@@@@@@&&&&&&@@@@@@@@@@@@@@@@@&&&&@@@OOOOOOOO@@&&@@@OOOOOOOOOOOOOO...O...OO.............OOO@@OOO.......OOOO....................................OOOOOOOOO@@&&&@@OOOO.OOO....OOOOOOOOOO@@@@@&&:&&&&:::&&&&&&&&&&@##@&&&&::&=:;=********###$######%%%*===*###%%##$$$XXXXXXXXXXXXXXXXXXXXXXXoooooXXooooooooooooooooooooX$###$$XXXXXXX$$##%%%%***%%%##$$$$$$$$$$$$$$$$$$$$$$$$$$##%*******%%##################%%%%%%%%%******%#######$$XXXXoooXXXXXXX$$$$$$$$$XXXXXXXXX$$$$$$XXXXX....oXXX.XXX+++++++++++++++++++++++XX+X++++++++++++#####",
"############%%%%%%*****************%%%%%%%%%###%%###########++++++XXX++++++#########%%%%########$$+++XXXXXXXooooXXXXXXXXXXXXX++$$$$$$$$$$$$$$#################$$$$+XXXXXXXXXXX++###$++XXX++$++++XXXXXXXX+$##**%########$XXXX......XXXXXX...XXX..XXXXXXX+++++++++++++++@&&&==:&&&&&&&&:::::::===*&&&&&&&&&&&&&&&&&:===&&##++++++++++++++++++++++++++++++++++++++++++++++++++++++++##%#########%%%%##++X....................OO...OOOOOOOOOOOOOOOOOO@@@OOOO.....OOOOO@@@OOOOOOO.OOOOOOOOO@@@@@@@@@@@@@@@@@@@@@@@@@@@@@@@@@@&&&&::::&&@@@@@@@@OOOOOOOOOOOOOOOO@@@@&&::&@@@@@@@@@@@@@&&&&@@@@@@@@@@@@@@@@@@@&@@@@@@@@@@@@@@@@@@@@@@@@@@@@@@@@@@@@@@@@@@@@@@@@@@@@@@@@@@@@@@@@@@@@@@@@@@@@@@@@@@@@@@@@@@@@@@@@@@@@@@@@@@@@@@@@@@@@@@@@@@@&&&&&&&@@@@@@@@@@@&&&@@&&@@@@&@@&&:&&@@@@@&&&&&&&@@@@@@@@@@@@&&&&&&&&@@@@@@@@@@@@@@@@@@&&&@@@OOOOOOOO@@&&&@@OOOOOOOOOOOOO........OO..............OO@@OO........OOOO....................................OOOOOOOO@@@&&&&@OOOO.O......OOOOOOOOOO@@@@@&&::&&&:::&&&&&&&&&&@#@&&&&&:::=:;=********###$######%%*====*%###%##$$$$XXXXXXXXXXXXXXXXXXXXXXoooooXXooooooooooooooooooooX$###$$XXXXXXX$$##%%%%%*%%%%##$$$$$$$$$$$$$$$$$$$$$$$$###%******%%%%#########$$$$$###%%%%%%%%%%******%#######$$$XXXXooXoXXXXX$$###$$$$$XXXXXXX$$$$$$$XXXXX....XXXXXXX+++++##+++++++++++++++++++++++++++++++$######",
"################%%%%****************%%%%%%%%####%%%%###########+$+++++++++++$$$#######%%%%%%%%######++++XXXXXXXXooooXXXXXXXXXXXXX+$$$$$$$$$$$$$$$$$$$$#########$$+++XXXXXXX.XX++####++XX+++$+++XXXXXXXXX++##***####%###$++XXXXX...XoXX....XXXX..XXXXXXX+++++++++++++++@&&&==&&&&&&&&:::::::&===&&&&&&&&&&&&&&&&&::::=&###++@++++++++++++++++++++++++++++++++++++++++++++++++++++##############%%%##+XX......................OOOOOOOOOOOOOOOOOOOOO@@@OOOO........OO@@OOOOOO...OOOOOO@OOOOOOOOOOOOOOOOOOOOOOOOOO@@@@@@@@@@@@&&&&::::&@@@@@@OOOOOOOOOOOOOOOO@@@@@@&:::&&&&&@&&@@@@@&&&&&&@&&@@@@@@@@@@@@&&&&&&&&&&&&&&@&&@@&&&@@@&@&@@@@@@@@@@&&&&&&&&@@@&&&&@@&&&@&@@@@@@@@@@@@@@@@@@@@@@@@@@@@@@@@@@@@@@@@@@@@@@@@@@@@@@@@@@@@@@@@@@@&&&&&&&&&&&@&@@@@@@&@@@@@@&@@@@&&&&&&&@@@&&&&&&&&@&&&@&&&&&&&&&&&&@&@@@@@@@@@@@@@@@@@&&&&@@@OOOOOOOO@@&&@@OOOOOOOOO.OOOOOO..OOOO................OO@@@OO.......OOOOO..................................OOOOOOOOOO@@&&&&@OOOO.O.....OOOOOOOOOOO@@@@@&&::&&:::&&&&&&&&&&&@##&&&&&:::==;=********###########%%*===*%###%%##$$$XXXXXXXXXXXXXXXXXXXooXoooooXXooooooooooooooooooooX$###$$XXXXX$$$###%%%%***%%%##$$$$$$$$$$$$$$$$$$$$$$###********%%%%%%%####$$$$$$$$###%%%%%###%%******%%%######$$+XXXXXXXXXX$$########$$$XXXXX+$$$##$$$XXXXXoooXXXXXXXX++++++#+++++++++++++++++++++++++$$$$$$######",
"##################%%%****************%%%%%%%#####%%%####%########$$+++++X+++++$$########%%%%%%%%#####+++XXXXXXXXooooXXXXXXXXXXXXXX+$$$$$$$$$$$$$$$$$$$$$$$$$$#$$$++XXXXXXXX.XX+$####++XX+++$$+++XXXXXXXX+$##***####%###$++XXXX....XXXXXX..XXXX..XXXXXXX+++++++++++++++@&&&==&&&&&&&&:::::::&====&&&&&&&&&&&&&&&&&:::=%###+++++++++++++++++++++++++++++++++++++++++++++++++++++++###%##########%%%##+XX......................OOOOOOOOOOOOOOOOOOOOO@@@@OOO.......OOO@@OOOOOO....OOOO@@@OOOOOOOOOOOOOOOOOOOOOOOOO@@@@@@@@@@@@@@&&&::::&@@@O@@OOOOOOOOOOOOOOO@@@@@@@&&&&&&&&&&&&&&&&&&&&&&&&&&&&&&&&&&&&&&&&&&&&&:&&&&::&:&&&&&&&&&&&&&&&&&&&&&&&&&&&&&&&&&&&&&&&&&&&&&&&&&&&&&&&&&&&&&&&&&&&&&&&&&&&&&&&&&&&&&&&&&&&&&&&&&&@&&&&&&&&&&&&&&&&&&&&&&&&&&&&&&&&&&&&&&&&&&&&&&&&&&&&&&&&&&&&&&&&&&&@@&&&&&&&&@@@@@@@@@@@@@@@@@@@&&&&@@@@OOOOOOO@@&&@@O@OOOOOOOOOO.OOOOO.OO....O...O........O@@@@OOO......OOOOO..................................OOOOOOOOO@@@&&&@@OOOO.O....OOOOOOOOOOO@@@@@@&&::&&:::&&&&&&&&&&&@##&&&&&:::====********###########%%*===*%###%%#$$$$XXXXXXXXXXXXXXXXXXXXXXoooooooooooooooooooooooooooX$###$$XXXXXX$$$####%%***%%%##$$$$$$$$$$$$$$$$$$#####%***************%###$$$$$$$$$###%%%%%####%******%%%########$+XXXXXXXX$$#########$$$XXXX++$$$###$$XXXXXXXXXXXXXXX++++++####+++++++++++++++++++++++$$$$########",
"####%%&%%#############%%%**************%%%%%%%#######%%%%%%%%########+++++++XX+++$#######%%%%%**%%%%####++++XXXXXXooXXX.XXXXXXXXXX+$$$$$$$$$++++++XXXXX$++$$$$$$$+XXXXXX.XX.XX++####$+XX+++$$+++XXXXXXXX+$##***####%###$XXXXXX.o......XX....XX.XXXXXXX+++++++++++++++@@&&&==&&&&&&&&&::::::&====&&&&&&&&&&&&&&&&&:===%####++++++++++++++++++++++++++++++++++++++++++++++++++++++##############%%%%#+XX......................OOOOOOOOOOOOOOOOOOOOO@@@@OOOOO.....OOO@@@OOO.....OOOOO@@@OOOOOOOOOOOOOOOOOOOOOOOOOOOOOO@@@@@@@@@@&&&:::&@@@@@@@O@OOOOOOOOOOO@@@@@@@@&&&&&&&&&&&&&&&&@@@&&&&&&&&&========::::::=======;=;;;;=;;;;;;;;;;============;;;;;;;;::::::::================================================================&&=&&&&&&&:::::&:&:::::::::::::::::::::::&&&::::&:::::&&&&&&&&&&&&&&&&&&&&&&&&&&&&@@@@&@&&&&&&&&@@@OOOOO@@@@&&&@@@OOOOOOOOOOOOOOOOOOOOOOOOOOOOOO....O.O@@@@OOO.....OOOOOO..................................OOOOOOOOO@@@&&@@@@OOO..OOOOOOOOOOOOOOO@@@@@@&&::&&&:::&&&&&&&&&&@@#&&&&&::=====********###########%%*===*%###%##$$$$XXXXXXXXXXXXXXXXXXXXXooXoooooooooooooooooooooooooX$###$$XXXXXX$$$$###%%%**%%%##$$$$$$$$$$$$$$$$#####%*******%%%%******%##$$$$$$$$$$###%%%%#####%******%%##########$$XXXXXXX$####%######$$$XXXX$$$####$$$XXXXXXXXXXXXXX++++######+++++++++++$$$$$$$$$$$$###########%",
"##%%%%&&%###############%%******************%%%%%%%####%%%%%%%########+++++XXX+++++++#######%%******%%####++XXXXXXXXXooo..XXXXXXXXX$$$$+$$$$++++X+XXXXXXX+$$$$$$$+XXXXXX.XX.X+++####$++X+++$$+++XXXXXXXX+$##%**####%###$XXXXXX.o.......X....XXX.XXXXXXX++++++++++++++@@&&&&==&&&&&&&&::::::&====*&&&&&&&&&&&&&&&::===*####++++++++++++++++++++++++++++++++++++++++++++++++++++++###%#########%%#%%#+XX..................OO...OOOOOOOOOOOOOOOOOOOO@@@@OOOOO.....OO@@@@OOOOO.OOOOOO@@@@OOO.O..O.O.OOOOOOOOOOOOOOOOOOOO@@@@@@@@@@&&&:::&@@@@@@O@@OOOOOOOOOO@@@@O@@@&&&&&&&&&&&&&&&&&&&&&:::;;::;;;;;;;;;;;;;;;;;;;;;;;;;;;;;;;;;;;;;;;;;;;;;;;;;;;;;;;;;;::::::::;;;;;;;;;;;;;;;;;;;;;;;;;;;;;;;;;;;;;;;;;;;;;;;;;;;;;;;;;;;;;;;;;;;;;;:::::::::::::::::::::::::::::::::::::::::::::::::::::::::::::::::&&&&&&&&&&&&&&&&&&&&&&&&&@@OOOOOOO@@@&&&@@@OOOOOOOOOOOOOOOOOOOOOOOOOOOOOOO.O.OOO@@&@OOO.....OOOOOO..................................OOOOOOOOO@@@&&@@@@OOO.OOOOOOOOOOOOOOOO@@@@@@&&::&&&::&&&&&&&&&&&@@@#&&&&::=====********####$######%%*===*%##%%###$$$XXXXXXXXXXXXXXXXXXXooooXoXoooooooooooooooooooooooX$###$XXXXXXXX$$$$##%%%%*%%%##$$$$$$$$$$$$$$$###%%*****%%%%%%%******%###$$$$X$X$$$###%%%%#####%******%%#%#%%######$$$XXXX$###%**######$$$+XXX$$######$$XXXXXXXXXXXXXX+++++#####+++++####++$++++$$$+$$$#########%**",
"##%%%%%%%%#####$++++######%%%*****************%%%%%%%%%%%%%%%%%%%%%######$$+++++X++++$$$######%%%%**%%%%####++++XXXXXXoo.XXXXXXXXXX++$$$$$$$$$$$X+XXXXXX+++$$$$+$+XXXXXX..XXXX++$###$+++++++$+++XXXXXXX+++##%**####%###$XXXXXX.oXXX..XXXXXXX..X.XXXXXXX+XX++++++++++++@&&&&=&&&&&&&&&:::::&::===*&&&&&&&&&&&&&&&::===&&###@@@++++++++++++++++++++++++++++++++++++++++++++++++++++###########&%%#%%#+XX...............OOOOOOOOO..OOOOOOOOOOOOOOOO@@@@@OOOOO.O.OOOO@@@@OOOOOOOOOOOO@@@@OOO..O.............OOOOOOOOOOOOOOOOO@@@@@@&&&::&@@@@@@OOOOOOOOOOOOO@@OO#=====------------------------------;;;;;;;;;;;;;;;;;;;;;;;-;-----------------------------;=&&&&&:----------------------------------------------------------------------------====:;;;;;;;;;;;;;;;;;;==;=;==================&&===&&&&&&&&&&&&&&&&&&&&&&&&&&:&&&&&&@@@@@@O@@@@@&&&@@@OOOO@OOOOO@@@@@@@O@OOOOOOOOOOOOOOOOOO@@&@OOO.....OOOOOO.................................OOOOOOOOOO@@&&&@&@@OOO.O.OOOOOOOOOOOOO@@@@@@@&&:&&&&::&&&&&&&&&&&@@##&&&&===::==********###$$######%**===*%##%%%#$$$$$$$XXXXXXXXXXXXXXXXXXooXXXXXXooooooooooooooooooXoX$###$XXXXXXXX$$$$##%%%***%%##$$$$$$$$$$$$$###%*****%%####%%*******%###$$$$$$$X$$$###%%%%####%%*****%#####%%######$$$$$$$$###%%*%######$$$$X$$$######$$XXXXXXXXXXXXXX++++######+++####+$$$$$$$$$$###########%*****",
"##%%%%%%%%###+++++++$########%%*%%**************%%%%%%%%%%%%%%%%%%%%%######$++++++XXX++$+++#####%%%*%***%%####++++XXXXXX.XXXXXXXXXX+$###$$$$$$$$++XXXXXXX++$$$$+$+XXXXX...XXXX++####$+++++++$$++XXXXXXX+++##%**####%###$XXXXXX.oXX......XXXXX..XXXXXXXXXX+++++++++++++@&&&&=&&&&&&&&&:::::&&:===*&&&&&&&&&&&&&&&::===&&###+@+++++++++++++++++++++++++++++++++++++++++++++++++++++##%########&&%#%%#+XXX............O++OOOOOOOO..OOOOOOOOOOOOOOOO@@@@@OOOOOOOOOOOO@@@@OOOOOOOOOOOO@@@@O.O..........................OOOOO@@@@@&&&&&::::&@@@@@@@O@@@OOOOOOO@@O@*;;;----;---------------------------============------;;----------------------------------;=&&&&&:--------------------------------------------------------------------------;;;===&&&&&&::=:::;;;;;;;;;;;;;;;;;;;;;;;;;;;;;;:::::=:::::::::::&&&&&&&&&&&&&&&&&&&&&@@@@@OOO@@@@&&&@@@@@@@@@@@@@@@@@@@@@@@@@@@@@@@OOOOOOOOO@@@@OO......OOOOOO.................................OOOOOOOOOO@@@&&@&@@OOOOO..OOOOOOOOOOOOO@@O@@@&&:&&&&::&&&&&&&&&&&@@##&&&&===::==********###$$######%**===*###%%%#$$$$$X$XXXXXXXXXXXXXXXXXXXoXXXXXXooooooooooooooooooooX$###$XXXXXXXXX$$$##%%%%%%%%##$$$$$$$$$$####%****%%%####%%********%%###$$$$$$$XX$$$##%%%#####%%***%%#####%***######$$$$$$$###%***%%#####$$$$$$#######$$XXXXXXXXXXXXXX+++##################################******==",
"##%%%%%%%####++XXX+++++++#######%%%%%****************%%%%%%%%%%%%%%%%%%%######+++++XXX++++++#######%%%%***%%%####++XXXXXXXXXXXXXXX++###+++++$$$$++XXXXXX++$$$##+++XXXX....XXXX++####+++++++$$$++XXXXXX++++##%%*####%####+XXXXXX.XX.....XXXX...XXXXXXXXXXX+++++++++++++@&&&&=&&&&&&&&&::::::&::===&&&&&&&&&&&&&&&&:::=&&###@@+++++++++++++++++++++++++++++++++++++++++++++++++++++##%%########%%##&#+X+XX............O+OOOOOOOOOOOOOOOOOOOOOOOOOO@@@@@OOOO.O.OOOOO@@@@OOOOOOOOOOOO@@&@O.O........oXXXXXX$$$$$####%%%%*======-----;=::::&@@@@@@@@@O@OOOOOOOOX#=-----------------------------------&&@@@@&&&&&&&&&&&&&&&&&&========;;;;;;;;;-;;;;;;-;-;;;;&&@@@&=--------------------------------------------------------------------------------=%#@@@&&&&&&&&&&&=====;;;;;;;;;----------------------------------=&@@@@@@@@@@&&&@@OOOOO+OO+@&&&############+++++++++X+++OOOOOOOOOOOOOOO@@@@OO......OOOOOOO...............................OOOOOOOOOOO@@@&&&@@@O.OOO.....OOOOOOOOOO@@@@@@&&::&&:::&&&&&&&&&&&@##&&&&&=::::==********###$#######%*====*###%%%#$$$XXXXXXXXXXXXXXXXXXXXXXXoooXoXXooooooooooooooooooXoX$##$$XXXXXXXXX$$$##%%%%%%%%##$$$$$$$$$####%**%%#####%**********%%####$$$$XXXXXX$$$##########%****%#######%%**%%####$$$$####%%****%%####$$$$$$#######$$XXXXXXXXXXXXX++++#############################%%******=====",
"###%%%%%#####++XXX+++++++++########%%%******************%%%%%%%%%%%%%%%%%#######$$++++++++++$$$######%%%%****%%####+XXXXXXXXXXXXXX++####++++++$$$+XXXXXX++$$$###++XXXX...XXXXX++####++X++++$$$++XXXXXX++++##%%#####%####+XXXXX...X....XXXXX...XXXXXXXXX+XX++++++++++++@&&&::&&&&&&::::::::&&&:===&&&&&&&&&&&&&&&&:::=&###@++++++++++++++++++++++++++++++++++++++++++++++++++++++++#%%########%&%#&#+XXXX..............OOOOOOOOOO..OOOOOOOOOOOOOO@@@@@OOOOO..OOOOO@@@@OOOOOOOOOOOO@&&@O.OOO.O...+*======-------------------------;;::::&@@@@@@O@@OOOOOOO@O@+*------------------------------------&@O@@@@@@@@@@@@@@@@@++++@@@#&#######%%%%%%*=====------=#@@@@&;--------------------------------------------------------------------------------;==&@@@@@@@@@@@@@@@###%%%%*=====---------------------------------=&@@@@@@@@@&&&&@@@@&&&&&&=:::====;;;;;;;;==========&&#@@OOOOOOOOOOOOOO@@@@OO.....OOOOOOOO..............................OOOOOOOOOOOO@@@&&&@@@OOO......OOOOOOOOOOO@@@@@@&:::&&:::&&&&&&&&&&&@@@&&&&&:::::;=********###########%**=-=*%###%%#$$$XXXXXXXXXXXXXXXXXXXXXXXoooooXXooooooooooooooooooXXX$##$$XXXXXXXXX$$$###%%%%%%%##$$$$$$$$##%%%%#######%%***********%%###$$$X$X$XXXX$$$$#########%%***########%***%%#####$$$#####%****%%#####$$$$########$$XXXXXXXXXXXXX++++############################%*****========",
"###%%%%%####++XXXXXXXXXXX++++$########%%*********************%%%%%%%%%%%%%%%%#######+++++++XXX+$++######%%****%%%####++++XXXXXXXXX$$####+++++++$++XXXXXX++$$$$$$$+XXXX.o...XX+++####$+X++++$$+++XXXXXX+++$##***#########XXXXXX..oXXXXXXX.XXX..XXXXXXXXX+X++++++++++++@@&&&&==&&&&=::::::::&&&====*&&&&&&&&&&&&&&::::=&&##@+++++++++++++++++++++++++++++++++++++++++++++++++++++++##%############%%#+OO.................OOOOOOOOOOOOOOOOOOOOOOOOO@@@@@OOO.......X.++++XXXXXX$$$###%*==*===%O...$=--------------------------------;=&&::&&@@@@@@@@@OOOOOOOOO#=-----------------------------------=@@@@@@@@@@@@@@@@@@@@@@@@@@@@@@@@@@@@@@@@@@&&&&&&&&&&&&&@@@@@=------------------------------------------------------------------------------------=&+@@@@@@@@@@@@@@@@@@@@@@&&&&&&&&&=======;;;;;;----------------*+@@@@++##%%*====----------------------------------------=*%%##$XX..O@@@OO......OOOOOO..................................OOO@@OOOOO@@@&&&@@@OOO.....OOOOOOOOOOO@@@@@@@&&::&&&:::&&&&&&&&&&@@@&&&&&=:=====********####$$######*==-=*%##%%##$$$+XXXXXXXXXXXXXXXXXXXXXXXXoooXXoooooooooooooo..ooXXX$##$$XXXXXXXXXX$$$###%%%%%%##$$$$$###%%%##########%************%###$$$XXXXXXXX$$$$$$$$#######%%%%#######%#%%%%%#####$$$####%*****%%######$$##########$+XXXXXXXXXXXX$$+#########################%%****============",
"###%%%%%####++XXXXXXXXXXXXX+++$########%%%*********************%%%%%%%%%%%%%%%%#######++++++++XX+++#######%%%*%%*%%###+++++XXXXXX+$#####+++++++++XXXXXXXX+$$$$$$$+XXXX.....XXX++####$+XX++++++++XXXXXXX+++##***#########XXXXX..o.XX.XX.X..XX..XXXXXXXXX++++++++++++++@@&&&&:=&&&&=:::::::&&&&&===*&&&&&&&&&&&&&&:::==&###@@++++++++++++++++++++++++++++++++++++++++++++++++++++++##%#########%##%%#+XO..........XX......OOOOOOOOOOOOOOOOOOOOOOOO@@@@@OOOOOOO++++#&&*========--;;;;;;;-;-;%O...%---------------------------------;=&&&::&@@@@@@@@@OOOO@OOO@%------------------------------------*@@@@@@@@@@@@@@@@@@@@@@@@@@@@@@@@@@@@@@@@@@@@@@@@@@@@@@@@@@@&=-----------------------------------------------------------------------------------;-=&@@@@@@@@@@@@@@@@@@@@@@@@@@@@@+@@+#####%%*===----------------=+@@@&&====-;;;;--------------------------------------------;;;-==*&&&&@O.....O...OOOO....O............................O.OOO@OOOOO@@@&&@&@@OOOO...OOOOOOOOOOOO@@@@@@@&&::&&&:::&&&&&&&&&&@@@&&&&&:====;=********####$$######*==-=*%###%%#$$$+XXXXXXXXXXXXXXXXXXXXXXXooooXXoooooooooooooo.oo.oXX$##$$XXXXXXXXXXXX$$####%%%###$$$####%%###$$$######%**********%%###$$$$XXX$$$$X$$$$$$$$$##$####%%%#########%%%%%%####$$$$###%%%*%%%#######$###########$$XXXXXXXXXXXX$$$#####################%%%*****==========;;;;",
"+##########++XXXXXXXXXXXXXXXX++$+++#########%%*******************%%%%%%%%%%%%%%%%%######++++++XX+++++$######%%%%***%%###+++++XXX+++#####$++XXX++XXXXXXXXXXX$+$$$$+XXXX....XXXX+$####+++X++++#$+++XXXXXX+++##***####%####XXXXXX.oo..oo.XX......XXXXXXXX+++++++++++++++@@@&&&:=&&&&===::&&&&&&&&====&&&&&&&&&&&&&&&:===%###@++++++++++++++++++++++++++++++++++++++++++++++++++++++###%%########%%%%%#+X+XX...XXXXXooXXXXXXXXXX++XX....XXXXXXXXXX$$##%%%%*=====----------------------------=$O.X+=---------------------------------;&&&&::&@@@@@@@@@OOO@@@@++=-----------------------------------=#@@@@@@@@@@@@@@@@@@@@@@@@@@@@@@@@@@@@@@@@@@@@@@@@@@@@@@@@@@+&=--------------------------------------------------------------------------------------=&+@@@@@@@@@@@@@@@@@@@@@@@@@@@@@@@@@@@@@@@@&&&&&&&=======;;;;:@@@@&%---------------------------------------------------------------==##$$XXXXOOO....................................OOOO@@@OOOO@@@&&&@@@OOO....OOOOOOOOOOOOO@@@@@@&&:&&&:::&&&&&&&&&&&#@#&&&&&:::=;==********####$######%*====*%###%##$$$$$XXXXXXXXXXXXXXXXXXXXXoooooooXoooooooooooooooo.oXX$##$XXXXXXXXXXXXX$$$$#############%%%##$$$$$$$$####%********%####$$$$$XX$$$$$$$$$$$$$$$$$$$###%%%#######%%%***%%####$$$$#############################$$XXXXXXXXXXX$$$+##################%******=========;==;;;;;;",
"++#########++XXXX...XXXXXXXXXXXX++++########%%%%%*******************%%%%%%%%%%%%%%%%#######++++++++++++$######%%***%%%%###++++++++$#####$+XXXXXXXXXXXXXXXXX$+$$$$+XXXX..o.XXXX++####++++++++#$+++XXXXXX++###***####%####XXXXXX..oo.oo.X......XXXXXXXXX+++++++++++++++@@@&&&==&&&&*==:::&&&&&&&&====&&&&&&&&&&&&&:::==&####@++++++++++++++++++++++++++++++++++++++++++++++++++++++##%%########%%%%%#+++XX....ooooXX+++###################%*=======-;;;-----------------------------------#X..X#----------------------------------=&&&&&::&@@@@@@@@OOO@@@@O&------------------------------------=+@@@@@@@@@@@@@@@@@@@@@@@@@@@@@@@@@@@@@@@@@@@@@@@@@@@@@@@@@@+&----------------------------------------------------------------------------------------=&@@@@@@@@@@@@@@@@@@@@@@@@@@@@@@@@@@@@@@@@@@@@@O@@+####%*===&@@@@@%=----------------------------------------------------------------;--======&&&++.................O..............OOOOOO@@OOOO@@@&&&@@@OOOOO...OOOOOOOOOOOO@@@@@@&&:&&&&::&&&&&&&&&&&#+@&&&&&::&=;;=********####$$#####%*====*%###%%#$$$$XXXXXXXXXXXXXXXXXXXXXXooooXoXXoooooooooooooooo.XXX$##$XXXXXXXXXXXXX$$$$$$$########%%###$$$$$$$$$$$###%%%****%%####$$$$$$$$$$$$$$$$$$$$$$$$$$$###%%%#######%%*****%%####$$#############################$$$XXXXXXXX$$X$$$##################%****=*=========;;=;;;;;;;",
"XX+#######$+XX.oooooooooXoXXXXXXXXXX++++$######%%%%******************%%%%%%#%%%%%%%%%%#%######+++++X++++++#####%%%%%**%%%####++++$$#####$$+XXXXXXXXXXXXXXXX++$#$$+XXX..o.XXXX+++####+++X+++$#$+++XXXXXX+++##***####*###$XXXXXXX.o.X...X...XXXXXXXXXXXXX+++++++++++++++##&&&:=&&&&&*====&&&&&&&&&===&&&&&&&&&&&&&&::==&#####++++++++++++++++++++++++++++++++++++++++++++++++++++++##%%#######&##%###$XXXXX$$$#%*=-----------------------------------------------------------------------=+OO.X*----------------------------------&@&&&:::&@@@@@@@@OOO@@@O$=------------------------------------&@@@@@@@@@@@@@@@@@@@@@@@@@@@@@@@@@@@@@@@@@@@@@@@@@@@@@@@@@@@#=-----------------------------------------------------------------------------------------=#+@@@@@@@@@@@@@@@@@@@@@@@@@@@@@@@@@@@@@@@@@@@@@@@@@@@@@@@@@O@@O@#=----------------------------------------------------------------------=%*=========*%#$$ooooooooo............OOOOOOO@OOOOOO@@@&&&&@@OOOOO..OOOOOOOOOOOO@O@@@@@&&:&&&:::&&&&&&&&&&&@@@@&&&&&=&::==********###########%*====*%##%%%#$$$$$XXXXXXXXXXXXXXXXXXXXXoooXXooXoooooooooooooooooXXX$##$XXXXXXXXXXXXXXXX$$$$$$$###%%%###$$$XXX$$$$$$$##%%%%**%####$$$$$$X$$$#$$$$$$$$$$$$$$$$$$###%%%#######*******%######$###########$#$$$$$###########$$$$$XXXXXX$+$$$############%#%%*****===========;;;;;;;;;;===",
"XX++####+++XX.o.....oooooo..XXXXXXXX+++++$#########%%%**********=******%%%%#%%%%%##%%%%%########$$++++++++$######%%%****%%####++$$$#####$$+XXXXXXXXXXXXXXXX+$##$$+XXX..o..XXX+++####+++++++$#+++++XXXX++++##***####*###$+XXXXX..o.X...X...XXXXXXXXXXXXX+++++++++++++++@&&&&:=&&&##%*==&&&&&&&&&&&=::=&&&&&&&&&&&&:=:=&######+++++++++++++++++++++++++++++++++++++++++++++++++++++###%##################%===-------------------------------------===----=----====-----=====----====--==%#....#-----------------------------------&@@&&&::&&@@@@@@@@@@@@@@#=-----------------------------------=&O@@@@@@@@@@@@@@@@@@@@@@@@@@@@@@@@@@@@@@@@@@@@@@@@@@@@@@@@@@#=------------------------------------------------------------------------------------------&+@@@@@@@@@@@@@@@@@@@@@@@@@@@@@@@@@@@@@@@@@@@@@@@@@@@@@@@@@O@@O@#=------------------------------------------------------------------------%%$$#%==--------==*%%##$+++XX........OOOOOO@@OOOOO@@&&&&@@OOOO.OOOOOOOOOOOOOOOOO@@@@@&&::&&:::&&&&&&&&&&&@@@&&&&&=:&::==********######$####%*====*%##%%%##$$$$XXXXXXXXXXXXXXXXXXXXXoooXXoXXoooooXoooooooooooXXXX##$XXXXXXXXXXXXXXXXX$$$$$###%%##$$$$$XXXXXX$$$#####%%%%%###$$$$$XX$$$#####$$$$$$$$#$$$$$$$###%*%#######*******%##################$$$$$$$##########$$$$$$+$$$$$$$$$$############%******===========;;;;;;;;;;=====",
"oXXX++++++XX.o..     ooooooo....oXXXXXXX++++++#######%%%******************%%%%%#####%%%%%%%%######$$+++$+++########%%%%%**%####$$$######$$+XXXXXXXXXXXXXXX+$$###$+XXXX.o.XXXX+++####++XX++$+#++++XXXXX++++##%%*####*###$+XXXXXXXo....XX...XXXXXXXXXXXXXX++++++++++++++#&&&&:=&&&#&&&&**&&&&&&&&&&&&::::&&&&&&&&&&:::=&&&&&#@+++++++++++++++++++++++++++++++++++++++++++++++++++++###%##########*%*===------------------------------------=%#++++@@@&@@OO++OOOOOOO@@&@@@@OO++++@@@@&&&@@OOO.+*----------------------------------*@@@@&&&::&@@@@@@@OO@@OO@%------------------------------------%@@@@@@@@@@@@@@@@@@@@@@@@@@@@@@@@@@@@@@@@@@@@@@@@@@@@@@@@@@@@%=------------------------------------------------------------------------------------------=$@@@@@@@@@@@@@@@@@@@@@@@@@@@@@@@@@@@@@@@@@@@@@@@@@@@@@@@@@@@@@@&=--------------------------------------------------------------------------*#XoXX$##%=---------------=%%%$$$$XXXXXXX+++OOOO@@&&&&&@OOOO.OOOOOOOOOOOOOOO@@@@@@@&&::&&:::&&&&&&&&&&&@@@&&&&&=::::==********#####$#####%**===%%##%%##$$$+XXXXXXXXXXXXXXXXXXXXXXoXXXXXooooooooooooooooooooXXX##$$XXXXXXXXXXXXXXXX$$$#######$$$$XXXXXX$$$$##############$$$$$XX$$$#######$$$$$$###$$$$$$$##%*%%######*******%######$$###############$#$$####$$$$$$$$$$$$$$$$$$$$#########%*******=============;;;;;;==--======",
"o..X++++XXX.oo..      ooooooo.oo.XXXXXXX++++++++########%%*********==*******%%%%%%####%%#%%%%%######$+$$+++#####%###%%%%%**%####$$######$$+XXXXXXXXXXXXXX++$$###$+XXXX...XXXX++$####++XX+++##++++XXXX+++++##%%%####*###$++XXXXXXo.X...X...XXXXXXXXXXXXXXXX++++++++++++#@&&&:=&&&##&&#&*&&&&&&&&&&&&&:::::&&&&&&&&:::=&&&&&@@++++++++++++++++++++++++++++++++++++++++++++++##+#+++###%#######%*==-----------------------------------------%$XXXXXO@&&@@OOO....OOOO@@&@@OOOOOOOOOOO@@&&@OOOO.#-----------------------------------#@@@@&&&::&&@@@@@@OO@@O@@=------------------------------------%@@@@@@@@@@@@@&&&@&&&&&&&&&&&&&&&&&&&&&&&&&&&&&&&&&&&&&&@@@@@*=------------------------------------------------------------------------------------------=#@@@@@@@@@@@@@@@@@@@@@@@@@@@@@@@@@@@@@@@@@@@@@@@@@@@@@@@@@@@@@@#=---------------------------------------------------------------------------=%#XoooooX$$#%=----------------====*%#####++OOO@@&&&&&@@OOO.OOOOOOOOOOOOOO@@@@@@@@&&::&&:::&&&&&&&&&&&#@@&&&&&&::::==********######$####%**===*%###%##$$$$+XXXXXXXXXXXXXXXXXXXXXoXXXXXXXoooooooooooooooooooXX##$XXXXXXXXXXXXXXXXX$#######$$$$XXXXXXXX$$###############$$$$$$$$$$########$$$$$$###$$$$X$$##%**%#####%*******%#########################$$$$#$$$$$$$$$$$$$$$$$$$$#########%******========;;;;;;;;;==============",
"..X.XXXXXX....         o..oooo..oooXXXXXXXXXXX++++$#######%********====********%%%#####%#####%#######+++++######%%%%##%%%%%%%###$+######$+XXXXX..XXXXXXXXX$$####++XXXX....XXXX+$####$+X+++++$+++++XXXXX+++##***####**##$+XXX..XX.oo.X.XX....XXX.XXXXXXXX+++++++++++@@@+@&&&:&&&&####&&&*&&&&&&&&&&&&&:::::&&&&&&&&:::&&&###+++@++++++++++++++++++++++++++++++++++++++++++$+$+$++#########%*==-------------------------------------------=+OO@@OO@@&&@@OOOOOOOOOOO@@@@@OOOOOOOOOO@@&&&@@OOO$=----------------------------------=$@@@@@&&&:::&&@@@@@@@@@O&-------------------------------------==============-====-----=======------------------------&@@@@&=-------------------------------------------------------------------------------------------=%##&##########+++###++@++@@@+@@@@@@@@@@@@@@@@@@@@@@@@@@@@@@@@@@@&-----------------------------------------------------------------------------*$o...... ...X++#%===-------------------===%%#######+++O+OOOOOOOOOOOOOOOOO@@@@@@&&:&&&&::&&&&&&&&&&&&@@&&&&&&::=;==********####$$#####%**===%%###%##$$$$$XXXXXXXXXXXXXXXXXXXXXXXXooooooXXoooooooooooooooXXX##$XXXXXXXXXXXXXXX$#######$$XXXXXXXX$$$$##%***%%%%####$$$$$$$$$$#########$$$$$$$$###$$$X$X$##***%#####%*********###########%%%############$$$$$$##$$$$$$$$$$$$$$########%******=======;===;;;=;;--==============",
"..XXXXXX.....              oooooooo....XXXXXXXXXX+$$$#######%%************=*******%%%%#%################+#####%%%%%%%###%%%%####$+$#####$+XXXXXX.XXXXXXXX+$$####$$XXXX....XXXX+$####$+X++++#$+++++XXXX++++##***####*%##$+XXX.X...oo.XXXX...XXXX.XXXXXXXX+++++++++++@@@+@&&&:&&&&@###&&&*&&&&&&&&&&&&&&&::::&&&&&&&&::&&&####++@@++++++++++++++++++++++++++++++++++++++######&#########%*==---------------------------------------------=#+OOOOOO@@&&@@OOOOOOOOOOO@@@@OOOOOOOOOOO@@&&@@@OOO#=----------------------------------%X@@@@@@&&&::&&&@@@@@@@@@&----------------------------------------;;--------------;---------------------------------;-&&&&&&=---------------------------------------------------------------------------------------------;;;;=================&&&&&&&&&&&&&&&&&&&&&@@@@@@@@@@@@@@@@@&@@&&------------------------------------------------------------------------------*$............oooXoX$#%%==-------------------;;;;====&@+OOOOOOOOOOOOOOOOO@@@@@@&&:&&&&::&&&&&&&&&&&@@@@&&&&&::=;=*********####$######%**===%####%###$$$XXXXXXXXXXXXXXXXXXXXXXXXXooooooXXXooooooooooooooXXX##$XXXXXXXXXXXXX$$######$$$$$XXXXXXX$$##%%*****%%%###$$$$$$XX$$#########$$$$$$$$$$$$$$$X$X$##****%####*********%##########%%**%###########$##$$$######$$$$$$$$########%****==========;;;;;;;;===============**==",
".XXXXXXX.....              oo.ooo.oooo....o.XXXXXX++++$+########%%**********=*=*****%%%%%####################%%*%%%%%%##########+++######+XXXXXXXXXXXXXXX+$#####$$XX.X....XXXX++####$++++++#$+++++XXXX++++##***####*###$+XXX......o.XX.X..XXXX..XXXXXXX++++++++++++++@@@&&&:&&&&@####&#%&*====&&&&&&&&&&:::::&&&&&&&&&&&&#&@#@@@##+++++++++++++++++++++++$$$$$####%%%%======*######%==------------------------------------------------=%OO@@@OO@@@&&@@OOOOOOOOOOO@@&@OOOOOOOOOOO@@&&&@@O.+=----------------------------------=@O@@@@@@&&&&::&&&&&&&&&@&=------------------------------------===;;;;;;;;;;;;;;;;;;;--------------------------------;=&&::::----------------------------------------------------------------------------------------------;;;;;;;;;;;;;;;;---------------------=================**=*&&&&&&=------------------------------------------------------------------------------*Xo......O.............X+##%===-;--------------------=#XX.O#%%##$$XXXX+++++OO@@&:&&&:::&&&&&&&&&&&@@@&&&&&&::===*********#####$#####%**===*####%%##$$$$XXXXXXXXXXXXXXXXXXXXXXXXooooXoXXooooooooooooooXXXX##$XXXXXXXXXXX$$######$$XXXXXXXXX$$###%***%*%%%%###$$$$XXXXXX$###%%%####$$$$$$$$$$$$$$XX$$$##******%%**********##########%%***%%%#############$$##################%%%****========;;;;;;;;;;;==============******",
"XXXXXXXXXX..o.o                 o...ooooooooXXXXXXXXX+++$########%%%*********===******%%%%##################%%%***%%%%%########+++#######$XXXXXXXXXXXXXXX+$#####$$XX.X....XXXX++####$+X+++$$$+++++XXXX++++##***####*###++XXX......o....X..XXXX..XXXXXXX+++++++++++++++@@&&&:&&&&@@##&&##&&====&&&&&&&&&&&&:::::&&&&&&&&&&&&&#@@@##@@@@++++++++++++++++#####%%*==---------=*##+###*=---------------------------------------------------%$@@@@O@@O@@&&@@OOOOOOOOOO@@@&@@@@@@OOOO@@@@&&@@@@.&-----------------------------------%+O@@@@@@@&&&&&&&&&&&&&&&=;-----------------------------------*##&&========------------------------------------------;=&&&&&:---------------------------------------------------------------------------------------------=&&&&::====-;;;;;--;;;-----------;;------;--;-;;;;;;;;;;;;=:&&&&&=-------------------------------------------------------------------------------%X......................ooooX$#%*=-------------------*XX.+#;---====*##++++@@@@&::&&:::&&&&&&&&&&&@@@&&&&&&:::==*********#####$#####%**===*####%%##$$$+XXXXXXXXXXXXXXXXXXXXXXXXooXoXXXXooooooooooooooXXX$##$XXXXXXXXXX$######$$$$XXXXXXXX$$###**%%%%%%%####$$$$$XXXXXX$##%%%%####$$$$$$X$$$$$$$$X$$$##%*****************#########%%****%%%###############################%%****=======;;;;;;;;;;;===============*********",
"XXX+++++++XXX....    ooo          ....oooooooXXXXXXXXXXXX+++$$########%*********==*=******%%################%%%%*****%%%#######+++#######++XXXXXXXXXXXXXX+$#####$$XXXX.X..XXXX++####+++++++#$++++XXXXXXX++##*%%####*%##$XXXX.........o.X.XXXXXX.XXXXXXX+XX++++++++++++@@&&&:&&&&@@@&####**========&&&&&&&&&&::::&&&&&&&&&&&&@@@###########$$$$$$##%%%*==---------------=*#XX$$#*=---------------------------------------------------=#++@OO@@@@@@@&&@@OOOOOOOOOOO@@@@OOO+OOO++++@@&&@@OO$=----------------------------------=#@OOOO@@@@@@@&&&&&&&&&&&&=------------------------------------%@@&&&&&&&&&&&&&&&:::::::::::::::::::;;;;;;;;;;;;;;;;;;;=&&&&#=------------------------------------------;;;;;;--;-----------------------------------------;=&&&&&&&&&&&&:::::=:;;;;;;;;;;;;;--------------------------=#@@@&%=-------------------------------------------------------------------------------%Xo...................OOOOO...OO+++#%*===--;;-------=#X..#------------=*%%%#%==&&&&&&&&&&&&&&&&&@@@@&&&&:::::==********###########%**===*####%%#$$$$$XXXXXXXXXXXXXXXXXXXXXXXXXoXXXXooooooooooooooooooXX$$XXXXXXXXX$$#####$$XXXXXXXXXX$$##%%*%%*%%%%####$$$$XXXXXXXX$###%%%%####$$$$$$$$$$$$$$$$$$$###*****************#%#####%%******%###############################%%***========-;;;;;;;;;;===========***************",
"X++++++++++++XX..oo....o     o    . ..oo .oooo.oooXXXXXXX+++$$$########%%%********====******%%###############%%%%****%%%%######+$$#######++XXXXX..XXXXXXX+$#####$+XXXX....XXXX++####++++++##$++++XXXXXXX++##*%*####*%##$XXXXX......X....XXXXXXX.XXXXXXX+++++++++++++++#@&&&=&&&&@@&@####&***=======&&&&&&&&&&&::::&&&&&&&&&&&&############**=====---------------------%#$X$#%=-;----------------------------------------------------#$X+@@@@@O@@@@&&@@OOOOOOOOOO@@@&@@@@+@++####&&&&&@O@#=----------------------------------=$@OOOO@@@@@@@@&&&&&&&&&@&-;----------------------------------=%@@@@&&&&&&&&&&&&&&&&&&&&&&&&&&&&&&&&&&&&**==========;==&@&&&%=--------------------------------------==============----------------------------------------;=@@@@@@@@@@&@&&@@@@&&&%%%====------------------------------=#@@@@#=--------------------------------------------------------------------------------#o...........................O..XXXXXX$$#%==--------%X.X$=--------------;-==;;::::::&&&&&&&&&&&@@@&&&&&&::::==********#####$#####%**===*####%%#$$$$$XXXXXXXXXXXXXXXXXXXXXXXXXXXXXXoooooooooooooooooXXX$XXXXXXXX$$######$XXXXXXXXXX$$###%%%%%%*%%%###$$$$$XXXXXXXXX$###%%%%####$$$$$$$$$$$$$$$$$$$###*******************%%%%%*****%%%###############################%**==========;;=;;;;;==============****************",
"+++++##+++++++++XXXXX..o....ooo     ...o . ...oooo...XXXXXXXXX+$+++#######%%%*******==**=*****%%%%############%%%%%%*%%%%%%####+$$$#####$$+XXXXX.XXXXXXXX$$#####$$XXXX....XXXX++####++++++###$++++XXXXX+++##**%####*%##$XXXXXX..X..X....XXXXXXXXXXXXXXX++X++++++++++++@@&&&:&&&&&@@@@@&&&&****=======&&&&&&&&&&&::::&&&&&====&*%%%**====-----------------------=====%#++$$%=-------------------------------------------------------%XXOO++++++++++####$$######%%%%*======-------;=&&@@O@=-----------------------------------#XOOOOOO@@@@@@@@@@@@@@@@#=------------------------------------=#@@@@@@@@@@@@@@@@@@@@@@@@@@@@@@@@@@@@@@@@@@@@@@@&&&&&&&&@@@@@%--------------------------------------*&&@@@@@@@@@@@@&&=-------------------------------------;=@@@@@@@@@@@@@@@@@@@@@@@@@@@&&&&&&&======;--;--------------=%@@@@#=--------------------------------------------------------------------------------=#X..O......................OOOOOOO@OOOO@@@@&&&&====*#OOX%--------------------------====*%#%%###++@@&&&&&&====********%###$######%**===%%##%%%#$$$$XXXXXXXXXXXXXXXXXXXXXXXXXXXooXoXoXXooooooXXoooXXXXXXXXXXXXX$######$$XXXXXXX$$$$###%%%%%%%%#####$$$XXXXXXXXXXXXX$$####%%%###$$$$$$$$X$$$$$$$$$###***************************%%%%##############################%%***=======;;;;;;====================****************",
"++++######+++++++++XXXXX....o...    .   .    ..ooooo.oXXXXXXXX++++++$#######%%%******=**===******%%%##########%%%%%%%%%%%%%####+$$######$$+XXXXXXXXXXXXX+$######$$XXXX....XXXX++####++++++###+++++XXXX++++##***####*%###XXXXXX..XXXX.....XXXXXXXXXXXXXX++X++++++++++++@@&&&&&&&&&@#@@&&&&&&*****======&&&&&&&&&&&&:::::&&&====================**%%%%%%%%%%######$$$$$$++#=--------------------------------------------------------=$++++####&&&*=======;---;;;--;;;;;;;;;;;-----;=&&@@@&-----------------------------------=+.OOOOOO@@@@@@@@@@@@@@@@&;------------------------------------&+@@@@@@@@@@@@@@@@@@@@@@@@@@@@@@@@@@@@@@@@@@@@@@@@@@@@@@@@@@@&=;------------------------------------=#@@@@@@@@O@@OOO@@%=------------------------------------;%@@@@@@@@@@@@@@@@@@@@@@@@@@@@@@@@@@@@+###%%%===-------------*@@@@+=---------------------------------------------------------------------------------=+.O.......................OOOOOOOOOOOO@@@&@@+++$$##+OOo#----------------------;;-;;;;;;;;====*%%&&&&&&&&=:==*%******%###$######%%*===%###%%%#$$$$XXXXXXXXXXXXXXXXXXXXXXXXXXXoXXXXoXXoooooXXXXXXXXXXXXXXXXX$$######$$XXXXXXXX$$######%%%%%####$$$$$XXXXXXXXXXXXXX$$####%%%####$$$$$$$X$XXXX$$$$##%***************************%%%#####$$#####################%%%**========;;;;;;;;===============**=******************",
"+++###############+##+++++XX......  .       ....o.ooo...XXXXXXX+XXX++$$$########%******************%%%#########%%%#%%%##%%#####+++#######$XXXXXXXXXXXXXX+$#######$XX.X....XXXX++####++++++++++++++XXXXXX++##***%###*%##+++XXXXX.XX...XXXXXXXXXX..XXXXXXXXX++++++++++++@@&&&&&&&&&@@&##&&#&%%**&&&*=====&&&&&&&&&&&&::::::::=:;;;====*%%%###########++++++++++++++@+@++$%----------------------------------------------------------*%*=------------------------------------------;&&&&@#=-----------------------------------%OOOOOOOOOOOO@@@@@@@@@@@@=------------------------------------=@OOO@@@@@@@@@@@@@@@@@@@@@@@@@@@@@@@@@@@@@@@@@@@@@@@@@@@@@@@@@&--------------------------------------=#@@@@@@@@@@@@@@@@@&-------------------------------------%@@@@@@@@@@@@@@@@@@@@@@@@@@@@@@@@@@@@@@@@@@@@@@@@&&&&=====-==@@@@@&=;--------------------------------------------------------------------------------*$$oooooooo.............OOOOOOOOOOOOOO@@&&&&@@@OOOOOOOX+=----------------------------------------===========*******%%##########%**===*###%%%##$$$XXXXXXXXXXXXXXXXXXXXXXXXXXXXXXoooooooXXXXXXXXXXXXXXXXX$$######$$XXXXXXXXX$$###%%%%%%%%###$$$$$XXXXXXXXXXXXXXXXXX$$###%%%###$$$$$$XX$+$$$$$$###%*************************%%%########$$#################%*****=======;;;;;=;;;;;;===========*==**********************",
"+++###################+++++XX......             o.ooooooXXXXXXXXXXXX+++$++########%***********=*******%%%%####%#%#%%####%%######$########$XXXXXXXXXXXXXX+$#######+XXXX.....XXX++####++++++++#+++++XXXXXX++##***####*%##+++XXXXX.......XXXXXXXX...XXXXXX+XX++++++++++@@@@&&&&&&&&&&&&&&#&###%**&&&*&=====&&&&&&&&&&&&&:::::=========*%#######+++++++++++++++++++++++++#=---------------------------------------------------------------------------------------------------------=#&&@&%=----------------------------------=#.OOOOOOOOOOOO@@@@@@@@@@&=;-----------------------------------*+OOO@O@@@@@@@@@@@@@@@@@@@@@@@@@@@@@@@@@@@@@@@@@@@@@@@@@@@@@@@&--------------------------------------=+@@@@@@@@@@@@@@@@@&------------------------------------=#@@@@@@O@@@@@@@@@@@@@@@@@@@@@@@@@@@@@OOOOOOOOOOOOO+++++######@@@@@&=;----------------------------------------------------------------------------------===%%#++++XXX.......OOOOOOOOOOOOOOOO@@&&&&@@@OOOOO.O.+=------------------------------------------;;;;=====********###########%**===*###%%%##$$+X+XXXXXXXXXXXXXXXXXXXXXXXXXXXXoooooooXXXXXXXXXXXXXXXX$#######$$XXXXXXXXX$######%%%%%###$$$$XXXXXXXXXXXXXXXXXXXXX$####%%###$$$$$$$XXX+$$$$####%*************************%%%#########$$#############%#%%***=======;;;;;;;==;;--===========***=**************%********",
"+++###############&&&####+++++O....              o.oo.ooXXXXXXXXXXXXXXX+++++$$#######%%%******************%%%%%%%########################$+XXXXXXXXXXXX++$#######$XXXX....XXX+++####++++++###+++XXXXXXX+++##***####*%##$+XXXXXX.....X...XX..X...XXXXXXX+X+++++++++++@@@@&&&&&&&&&&&&&&&&&&&&&&&&&&&&*=====:&&&&&&&&&&&&&&&&&&&&&:::==&&&@@@@@@@@++@++@+@OO+O+@@@O++$%=------------------------------------------------------------------------;;;;;;;-;;;------;---;;;;;;;;;;;;-&@@&@&=-----------------------------------%XOOOOOOOOOOOOOO@@@@@@@@O&-------------------------------------%OOOOOOOOOOOOOOOOO@@@@@O@@@@@@@@@@@@@@@@@@@@@@@@@@@@OO@O@OO@O+=--------------------------------------&+@@@@@OO@OO@@@@@@+&------------------------------------=#@OOOOOOO@@@@@@@@@@@@@@@@@@@@@@@@@@@@@@@@@@O@@@@O@@O@@@@@@OO@@@@@@@&:;;;;;--------------------------------------------------------------------------------------===%%%##$$$$$XXXXXXXX.XOOOO@@&&&&@@@OOO.OOO.X%---------------------------------------------------====**%%###########%**===*####%%#$$$$+XXXXXXXXXXXXXXXXXXXXXXXXXXXXXXooooooXXXXXXXXXXXXXX$######$$XXXXXXXXX$$#######%%%%###$$$$XXXXXXXXXXXXXXXXXXoXXXX$########$$$$XXXXXX$$$$###%*******=******************%%##########$$$$$$##########%%%***=======;;;;;;;;;===============*****************************",
"+++++#############&#&&&####++++X....               .oo.o.XXXXXXXXXXXXXXX+++++$$$#######%%%*********************%%%#######################$++XXXXXXXXXXXX+$#######+XXX...o.XXX+++####++++++###$+++XXXXXX+++##***####*%##$XXXXXXX.oo...X..........XXXXXX++XX++++++++++@@@@&&&&&&&&&&&&&&&&&&&&#&&&&&&&****==:::&&&&&&&&&&&&&&&&&&&&::===&&&&@@@@@@@++@@@@++++O@@@+++#*------------------------------------------------------------%%#$$#############%%*%%%%%%%%%###%%*%%%%**%%%%%#@@@&@&------------------------------------#XOOOOOOOOOOOOOO@@@@@@@@+=------------------------------------=#OOOOOOOO@OOOOOO@OOOO@@@@@@O@OO@@@@@@@@@@@@@@@@@@OOOOOOOOO@@@#=--------------------------------------&+@@OOOOOOOOOOOOO@+&------------------------------------%+OOOOOOOOO@@@@O@@OOOOOOO@O@@@@@@@@@@@@@@@OOOOOOOOOOOO@@@@@OOOO@@@@@&:=&%%**=====-=--------------------------------------------------------------------%%*==---------------====*%%###++++OOOO@@&&&@@@@OOOOOOOO#=------------------------------------------------------===*############**===%####%%#$$$$++XXXXXXXXXXXXXXXXXXXXXXXXXXXXXooooooXXXXXoXXXXXX$$#####$$$XXXXXXXX+$#######%%%%###$$$$$$XXXXXXXXXXXXXXXXXXoXXXX$######$$$$XXXXXX$$$$####*********=**************%%%%%#####$$$$$#$$$$###########%***========-;;;;;;;;-===============******************************",
"++++++############%%%%%%&####+++...                .o.oo.oXXXXX++++XXXXXXXXXX+$$$$$$######%%%******=====*********%%#########%#############++XXXXXXXXXXXX+$#######$XXXX....XXX+++####$++++++##$+++XXXXX++$###***####**##$XXXXXX....XX..o.XXX...XX.XXXXX++XXX+++++++++++@@&&&&&&:::::&&&&&&&&&&&&&&&****&&*=====:&&&&&&&&&&&&&&&&&&&::::::&&&&@@@@@@+@++@+@@++++++$#=-----------------------------------------------------------=#++OOOOOOOOO@@@@@@@@&&@@@OOOOOOOOO@@&@@O@OOOOOO@@@@@&#=-----------------------------------%O.OOOOOOOOOOOOOOO@@@O@@@#=------------------------------------=$..OOOOOOOOOOOOOOOOOOOOO+++OOOO++OOOOOO++++++++++++++++@OOO@@#=--------------------------------------&+O@OOOOOO@@@@OOO@+=------------------------------------&XOOOOOOOOOOOOOOOOOOOOOOOOOOO@@@@@@@OOOOOOOOOOOOOOOOOO@@@@OO@@@@@@@@&&&&&@@@@@@@@@&&&&&&&&&&&&&*=========;;--------------------------------------------%+X.++#%*==--------------------==%%%#######+++XXXXXOOOO$=----------------------------------------------------------*%#$$$######**==*%####%###$$$$$XXXXXXXXXXXXXXXXXXXXXXXXXooooXXooooXXXXXXXXXXX$#####$XXXXXXXXXXX$#######%#####$$$$XXXXXXXXXXXXXXXXXXXXXXXXXXXX$$###$$$$$$XXXXXX$$####*******=====************%%%#########$$$$$$$$$#########%%***========;;;;;;;===============******************************=====",
"+++++++++#########%%&%%&&&###+++X....                o.o..XXXX+$$$$$++X+XXXXXX++$$$$$########%%******========******%%######%%%%####%%%%###+$+XXXXXXXXXXX++#######$XX......XXX+++####++++++###$+++XXXXX+++###***%###**##$+XXXXX..o.XX...o..........XXXX++XXX+++++++++++@@&&&&&&:::::=&&&&&&&&&&&&&&&&**&*&&&&&=:=:&&&&&&&&&&&&&&&&&::::====&&&@@@@@@@++++@+@@@+++#=-----------------------------------------------------------=#X+OO.OOOOOOOO@@@@@@@&&@@OOOOOOOOO@@@&@@OOOOOOOOO@@@@&%;-----------------------------------#..OO.OOOOOOOOOOOOO@OO@O@%;------------------------------------%$X++++@++++++++@@@@@#@@@@@#@@@@##&&&&&&&&&&&%%%&&***==&@OO@@@%--------------------------------------=&+OOOOOOOO@@@@@OOO$=-----------------------------------=#XOOOOOOOOOOOOOOOOOOOOOOOOOOO@@@@@@@OOOO@@OOOOOOOOOO@O@@O@@@@@@@@@@@&&&&@@@@@@@@@@@&&&&@@OX+XXXXXX$$$$###&*%%%%*==-=-----------------------------------=+....oooX$$$#%*=------------------;;;;;====*%###+++.OOX=------------------------------------------------------------=%##$$###%%*==*%####%###$$$$XXXXXXXXXXXXXXXXXXXXXXXXXXXoooXXooooXXXXXXXX$$#####$$XXXXXXXXXX$$#############$$$$XXXXXXXXXXXoXXXXXXXXXXXXXXXXXX$$$$$$$$$XXXX$$$$###*********====***********%%############$$$$$$##########%%**======-;=;;;;;;;;==============**************************===========",
"XXX++++++++++######&&&%%%&&&##+++X.....        .     o...oXXXXX$$$$$$$$$++XXX+XXXXX++++$########%%*******=====******%%%%%%%%%%####%%%%%%####$$++XXXXXXX+++#######$XX.X..XXXXX+++####$+++++###+++++XXX++++###***%###**##$+XXX....o.XX....X.XX..X.XXXXXXXXXXXX++++++++++@@&&&&&&&:==::::&&&&&&&&&&&&&&&&******&&&===&&&&&&&&&&&&&&&&&&&:======&&####++++++++++++#%------------------------------------------------------------=#+@@OOOOOOOOO@@@@@@@@@&@@@OOOOOOOOOO@@&@@OOOOOOOOOO@@@&=-----------------------------------*X..OO.OOOOOOOOOOOOOOOO@O&=--------------------------------------=============------------------------------------------+OOOO@%--------------------------------------=@+OO@OO@@O@@@@OOOO#=-----------------------------------=########++++XX+XXXXXXX.XXXX.X+++++OOOO.OOOOOOOOOOOOOOOOOOOOOOOO@@@@@&&&&&@@@@@@@@@@&&&&@@@OOOOO@@@@@@@@@&&&&@OOOOO++%----------------------------------=$X.OO..........X+#%===---------------------------=#+OOX%--------------------------------------------------------------=%#$###%%*==*%####%##$$$++XXXXXXXXXXXXXXXXXXXXXXXXXXooXXXXooooXXXXX$$$####$$$XXXXXXXXXX$$######%%%%##$$$$$XXXXXXXXXXXXoooXXXXXXXXXXoXXXXXX++$$$$$$$$+$$$$###***********************%%##########$#$$$$$$##########%%***======;;;;;;;;;;;===============*************************==========;;;",
"XXXXX+++++++++#####&&&*%%%&&##+++X....         .     oooooXXXXX+$$$$$$$$$$$$$++++XX+++++$++#######%%%*****=======*********%%%#####%%%%*%%%####+++++XXX++++#######$XX.X.XXXXXX+++####$+++++###+++++XXX++++###***%###**##$+XXX....o....o..XXX...XXXXXXXXXXXXXX++++++++++@@&&&&&&&&:&::::===&&&&&&&&&&&###&&***&&&&&&:::&&&&&&&&&&&&&&&&&&======*&&###@@@+@+@+++#%-------------------------------------------------------------%$OOOOOOOOO@OOOOO@@@@@@&&@@OOOOOOOOO@@@&@@OOOOOOOOO@@@@&-;----------------------------------#oOOOOOOOOOOOOOOOOOO@@@@O&----------------------------------------------------------------------------------------------+OOOO@=--------------------------------------=@+O@@@@@@@OOOOOOOO%------------------------------------%+##&*==============**&&&&&&&&&&&&&&&&###@@@@@@@@@@@@OOOOOOOOOOO@@@@@&&&&&@@@@@@@@@@&&&@@@@OOOO@@@OOO@@@@&&&@OOOOOOO.#=----------------------------------#..............  .ooX$$#%=------------------------*+OOX#----------------------------------------------------------------=*%##%%*==*%####%##$$$+XXXXXXXXXXXXXXXXXXXXXXXXXXXoXXXXXooooXXX$$#####$$XXXXXXXXXXXX$$######%%%###$$$$$XXXXXXXXXXXXXXooXXXXXXXXXXoXXXXXXX+$+$$$$$$$$$$##************************%%#########$$$#$$$$$#########%%**========;;;;;;;;=================*=**********************=======-----;;;;",
"X.....XXXX+++++++###%%%**%&&###+++......  .             ...XXXX+++$$$$$$$$$$++++++++++++$$$$$########%%******=======*******%%%########%%%%%%######$+++X+$$#######$XX.X.XXX.XX+++####++++++###++++++XX+++++##%%*####*%###XXXXoX..X...........XXX...XXXXX+.X++++++++++++@@&&&&&&&:::&&&:::::::==&&&&&&&&&&&&&%&&&&&&==&&&&&&&&&&&&&&&&&&&&*========****=*#@@++$*------------------------------------------------------------;=@XOOOOOOOOOOOOOOO@@@@@@@@@@@OOOOOOO@O@@@@@@OOOOOOOO@@@#=-----------------------------------=OOOOOOOOOOOOOOOOOOOOO@O@+*--------------------------------------==-----------------------------------------------------=@OO@O&---------------------------------------%@@@@@@@@@@OOO@OO+%------------------------------------%+OOOOOO++#&&====--;----------------------------=====*%%%%%%###########&&&###$++@+@@@&&&&@@OOO@@@@@@@O@@@@&&&@@@OOOOOO#=----------------------------------#XOOOOO..................O++#&%===;;;;;;;---------=$OOO@-------------------------------------------------------------------*%%%*==*%#######$$$+XXXXXXXXXXXXXXXXXXXXXXXXXXXXXXooooooXXX$$###$$$XXXXXXXXXXXX$############$$$XXXXXXXoXXXoXXXXooXXXXXoXXXXXXXX+++++++++++##$$$$###%********%%%***************#######$$$$$$$$##########%***======;;=;;;;;;;;================*************************=======;;;;;;;;;;;",
".ooooo..XXXXX+++++###%%%**&&####++............    .     ...o.XXXX+++$$$$$$$$$$$$+++++X++X$$$$$$$########%******======********%##########%%%%%######+++++$$#######$XXXX.XXXXXX+++####++++++###++++++XXX++++##%%*####*%##$XXXXXX...o..........X.....XXXXXXXX++++++++++++@@&&&&&&&:::&&&&&:&&::====&&&&&&&&&&&&&&&&&&&&&&&&:&&&&&&&&&&&&&&&*=====--;-----=#@@+#=-------------------------------------------------------------=#++OOO@@@@@OOOOOOO@@@@@@@@@@@OOOO@OO@O@@@@@@O@OOOOOOO@@%=-----------------------------------%O..OOOOOOOOOOOOOOOOOO@O@#=-------------------------------------%##%%%%%%%*==-------------------------------------------%OO@@O&--------------------------------------=%@@@@@@@@@@@@@@@@&=-----------------------------------=#XOOOOOO...+XXX+$###%%%%====-------------------------------;;;--;;;;;;=;;;======&#@@@&&&@@@OOOOO@@@@OO@@@@&&&@@@OOOOOO#=----------------------------------#X..OO......................XXXXXX##*==------------#OOO@=-------------------------------------------------------------------=*%*==*%#######$$$+XXXXXXXXXXXXXXXXXXXXXXXXXXXXXXoooooooXXX$$$$$$XXXXXXXXXXX$$############$$$$XXXXXXXXXXXoXXXXooXXXXXXXXXXXXXXX+++##############*******%%%%%%%**************%######$$$$$$$$$########****=====;=;;;;;;;;;=================**********************========-;;;;;;;;;;;;;;",
"o......o.XXXXX++++###&&&&&&&####++...............      .o o....XXXXX+++$$$$$$$$$$$$$+XXXX$$X+++$$$$########%*******=====*****%%####################$+++++$#######$XXXX..XXXXXX++####++++++###$++++XXXX++++##***####*%##$XXXXXX.......o....o.XXX..XXXXXXXXX++XO++++++++@@&&&&&&&&:::&::::&&&&:======&&&&&&&&&&&&&&&&&***=================------------;=*#++#=--------------------------------------===*%%%#######++######&#@+OOOOOO@@@@@@OOOOOOOO++@@@@++++++++++X++##+++$$$+OO@@@@=;----------------------------------=$O.OOOOOOOOOOOOOOOOOOO@O@%=------------------------------------=$OOOOOOOO@@@@+@@@@@##&&&&==========;;;;;;--------------=#@@@@+&--------------------------------------=%+$+XXXXXXXX+$##%=-----------------------------------=%@.OOOOOOO.OOOOO.OOOOOOOO++@@&&&&====---------------------------------------------%@@@&&&&@@@OOOOOOOOOOOO@@&&&@@@OOOOOO#=----------------------------------%XOOOOOO..O...........OOOOOOOOOOOOOOO@@&&&====-----%OOO@=---------------------------------------------------------------------====*%####%%##$$$XXXXXXXXXXXXXXXXXXXXXXXXXXXXXooooooooXXXXXXXXXXXXXXXXXX$$###########$$$$XXXXXXXXXXXXXXXXXXXXXXXXXXXXXXX++++###%%*%########%******%########%%%%***********%####$$$$$$$$$$#######%**======;;;;;;;;;;===================********************=========;;;;;;;;;;;;;;;;;",
"........oo...X+++++###&&&&&&&###++..................  ..    ..ooXXXXXX++++$$$$$$#$$$$$+X+$XXXX++$$$$$########%*********===****%###################$$++++$$#######$+XXX..XXXXX+++####++++++###+++++XXXXX+++##***####*%##$XXXXXoo.oooo......o.XXXXXXXXXXXXXX++.X++++++++@@&&&&&&&&&&&&::::&&&&&&==::====&&&&&&&&&&&&&&&&&=====;;;;;;;-----------------=*###&=----------------------------------====*%##$$$XXXXXX+++++++XXX+XOOOOOOOO@@@@@@@@OOOOOO@@@@@@@+++#######&&=========@OOOO&=;----------------------------------=$O.OOOOO.OOOOOOOOOOOOO@O@=-------------------------------------%$OOOOO..OOOOOOOOOOOO+OO++++###&&&%%%*=========---------=#@@@@@&---------------------------------------=***%%%%%%%***==-------------------------------------=#OOOOOOOOOOOOO....O...O.OOOO++++++######%%*==-------------------------------------%@@@&&&&@@OOOOOOOOOOO@@@@&&&@@OOOOOOO#=----------------------------------%XOOOOOOOO.............OOOOOOOOOOOOOO@@@&@#+###%*==%OOOO%-----------------------------------------------------------------------===*%###%%##$$$XXX$XXXXXXXXXXXXXXXXXXXXXXXXXooooooooXXXXXXXXXXXXXXXXX$$###########$$$$$XXXXXXXXXXXXXXXXXXXXXXoXXXXXXXX+++##%****%#####%*******%###########%%%%**********%####$$$$$$$$$#####%%**======-;;;;;;;;====================********************=======--;;;;;;;;;;;;;;;;;==",
".....  o......X++++###&&%&%&&##+++X.....XX......... ....o .....oo.XXXXXX++++$$$$$$####$$$$++XXXX++++$$$$+#######%%*************##################$++XX+++$#######$XXXX.XXXXXXX+$####++++++###+++++XXXXX++###***%###*%##$XXX..oo.o...oo..oooooo.o..X.XXXXXXXX.XO++++++++@@@&&&&&&&&&&&&&&::&&&&&&:======&*%%%%%%***======--------------------------;-==*%%=--------------------------------=*%%%%%%##++++++OOOOOOOOOOOO..+...XXXXXXXXXXXXX$$$$####%%%====-------------------=@OO@+%------------------------------------#oOOOOOOO.OOOOOOOOOOOOOOO&--------------------------------------&@@@@@@@@@@@@@@@@@@@@@@@@@&&&&&::::::::::::::::::::::::::&&&&&&=-------------------------------------------------------------------------------------------=&+OOOOOOOOOOOOOOOOOOOOOOOOOOO@@@@@@@@@@@@@@@@@@@#&%*====---------------------------%@@@&&&&@@@OOOOOOO@@O@@@@&&&@@OOOOOOO$=----------------------------------%o.....................OOOOOOOOO@O@@@@@&&&&@@@OO++#+@@OO#=-----------------------------------------------------------------------==%%####%##$$XX$XXXXXXXXXXXXXXXXXXXXXXXXXooooXoXXooXXXXXXXXXXXXXX$$$##########$$$$$XXXXooXXXXXXXXooXXXXXXXXXoXXXXX+++##%*******%%%%********%###############%%**********%####$$$$$$$$####%%*======;;;;;;;;;;-=================********************========-;;;;;;;;;;;;;;;;;--====",
"..... oo...o..XX++++##&&&&&&&##++++.....XX......... ....o.....o...XXXXXXXXX+X$$+$$$###$$$$$+XXXXX+X$$$$$+#########%%***********#########$$$$$$$$++++XXX++$#######$XXXX.X...XXX+$####$+++++###+++++XX++++++##***%##%*%##$XXXXoo......oooo..oooooo....XX.....X..X++++++++++@@@&&&&&&&&&&&&:::&&&&&&&&==============-;;;;;;;;;-------------------==========--------------------------------=%#####%%%##++OOOOOOOOOOOOOOOO+++++++++####%%*====----;;---------------------------%OOOO+=-----------------------------------=$oOOOO.OOOOOOOOOOOOOOOOO+&-------------------------------------=&@&&@&&@&&@@&&&&&&&&&&&&&&&&&&&&&&&&&&&&&&&&&&&&&&&&&&&&&&&&&&*=------------------------------------------------------------------------------------------=%+.OOOOOOOOOOOOOOOOOOOOOOOOOOOO@@@@@@@O@@@OOOOOOOOO+++####%*====--------------------%@@@&&&&@@@OOOOOO@@@O@@@@&&&@@OOOOOOO$=----------------------------------%$.....................OOOOOOOOOO@@@@@@&&&&@@@OOOO.+OOOO$=-------------------------------------------------------------------------*#####%##$$XX$XXXXXXXXXXXXXXXXXXXXXXXXXXXooXoXXoooXXXXXXXXXXX$$$##########$$$$$$$XXXXXXXXXXXXXXooXXXXXXXXXXXXXX+$##%%******************%#################%%**********%####$$$$$$$####%**======;;;;;;;====================********************=======-;;;;;;;;;;;;;;;;;;;-======",
"  ...   ......X++++####&##&&##++++++XO.O+++X....... ...........X..XXXXXXXXXXXX++$$$######$$$+XXXXXXXX+++++$$$########%%********#########$$++++++XXXXXXX++$#######$XXXX.X.XXXX++#####$++++++##+++++XX+++++###%**###%*%##$XXXXoooo.o  o.........oo............XX.XO++O++++++++@@@@&&&&&&&&&&::&&&&&&&&===;;;--;---------------;--=============**%%&&&&&&=-------------------------------=*####&&&%%%##+X+XXXXXXX$$$$$$##%%%%===---------------------------------------------=#OOO@%------------------------------------%O......OOOOOOOOOOOOOOOOO#=-------------------------------------%@@@@&@&&&&&&&&&&&&&&&&&&&&&&&&&&&&&&&&&&&&&&&&&&&&&&&&&&&&&&&&*=-----------------------------------------------------------------------------------------=&+OOOOOOOOOOOOOOOOOOOOOOOOOOOOOO@@@@@@@OOOOOO@@@OOOOOOO@@@@@@@@@@@@&&&*===;;;;;;-----%@@&&&&@@@@OOOOOO@@@O@@@@&&&&@OOOOOOO$=----------------------------------=%%%###$$XXoooooo . .....OOOOOOOOOOO@@@@&&@@@@@@OOOOOOOO+=-------------------------------------------------------------------------=%##%%%#$$$XX$XXXXXXXXXXXXXXXXXXXXXXXXXXXXXXoXXoooXXXXXXX$$$$###########$$$$XXXXXXXXXXXXXXXXXXoXXXXXXXXXXXXXXX$##%***%%%%%%**********%%##########$$#######%**********%#####$$$$#####%**====;;;;;;======================******************=======-;;;;;;;;;;;;;;;;;;;-=========*",
"  .....o......X++++###########+++++++OO.++++....... .......oo....XXXXXXXXXXXXX+++$+$$$###$$$+XXXXXXXXX++++$$$$#########%%%****%##########+++XXXXXXXXXXX+$$#######$XXXX.X.XXXX++#####$++++++###+++++X+++++###%%*###%*%##$XXXXoooo..    oo.......o....o.......X.XXOOXO+++++++++@++##&&&&&&&&&&&:&&::::==;;;;---=======*******=======**%%%##%%%%###&&&&#&=;-----------------------------=%#####&&&&**%#######%%%*====--------------------------------------------------------%$O@@@=;-----------------------------------$..OOO...OOOOOOOOOOOOOOOO#;------------------------------------=#@@@@@@@@@@@@@@@@@@@@@@@@@@@@&&&&&&&&&&&&&&&&&&&&&&&&&&&&@@@@@@*;----------------------------------------------------------------------------------------=%+.OOOOOOOOOOOOOOOOOOOOOOOOOOOOOO@@@@@@@OOOOOOOOOOOOOO@OO@@@@@@@@OOOO+++++#&=*%%%==--=%@@&&&&@@@@OOOOOOO@@@@@@@&&&&@@OOOOOO$*----------------------------------;-;;----====*%###++++++OOOOOOOOOOOO@@@@&&&@@@@@@OOOOOOOOX*--------------------------------------------------------------------------=%##%%##$$+XXXXXXXXXXXXXXXXXXXXXXXXXXXXXXXXoooXXXXXXXX+$$$$##########$$$$$XXXXXXXXXXXXXXXXXXXoXXXXXXXXXXXXXX$##%%*%%%#%%%**==******%############$$$$#####%**********#########$####%*======;;;;;;===================*******************======--;;;;;;;;;;;;;;;;;;==========****",
".    ..ooo....X++++####&##&###+++++O++++O++++...........  .....XX+++++++++++++++XX+++$$$$$$$+++XXXXXXXXX++++$$$$$$#######################++XXXXXXXXXXX++$########$+XXX.XXXXXX+++####+++++++##++++++++X+++###***###%**###+XXXoo o.oo . . ...........o........XXXXXXXXXO++O+++++++++##@@&&&&&&&&&&&:===&==:======&&&&&&&&&&&&&*========&&&&&&&&&&&&&&&#=------------------------------=########%*****%##%%*===========-------------------;;;;;;;;;;;;;;;------------;;;;;;-=@OOO+#------------------------------------*XOOOOOOOOOOOOOOOOOOOOOOO@*-------------------------------------=+@@@@@@@@@@@@@@@@@@@@@@@@@@@@@@@@@@@@@@@@@@@@@@@@@@@@@@@@@@@@@&=---------------------------------------------------------------------------------------==&OOOOOOOOOOOOOOOOOOOOOOOOOOOOOOOOO@@@@@@@@@OOOOOOOOOOOOOOO@@@&&&@@@@@@@@@@@@&&&&@@@@@@@@@@@&&&#+++$$#########%%%*==***======-----------------------------------=*===------------------==%%%#$$$$XX+++@@@##+++OOOOOOOOOOOX&----------------------------------------------------------------------------%%%###$$+XXXXXXXXXXXXXXXXXXXXXXXXXXXXXooooooXXXXXXX$$$###########$$XXXXXXXXXXXXXXXXXoXXXXXXXXXXXXXXXXXXXX$##***%%#*****===***##########################%**********#####$$######%**====;;--====================******************========;;;;;;;;;;;;;;;;;;--========********",
".......o......X++++#######&##+++++++++++O++++..............o..XX+++++###++++++++++XXXX++++$+++XXXXXX+XXX++++$$$$$$#+#####################++XXXXXXXXXXXX+$########$+XXX.XXXXXX+++####+++++++##++++++++X+++###***###***###+XXX.o o..   ..  . o..................XX...XXXOOO+++++++++++++@@&&&&&&&&&&&&&&&&&&&&&=====*&&&%&&&&&&**=======&&&&&&&&&&&&&&*=-----------------------------=%#&######%%%%*%##$$$$$$$$$$$$$$$$$$$$$$$$$$$$$######%%%%%%%%*=====**%%%%%%%%%%*===**%#OOOO+&------------------------------------#oOOOOOOOOOOOOOOOOOOOOOOO@=-------------------------------------&O@@@@@@@@@@@@@@@@@@@@@@@@@@@@@@@@@@@@@@@@@@@@@@@@@@@@@@@@@@@@@&----------------------------------------------------------------------------------------*#OOOOOOOOOOOOOOOOOOOOOOOOOOOOOOOOOO@@@@@@@@@@@OOO@@OOOOOOOO@@@&&&@@@@@@@@@@@@&&&&@@@@@@@@@@@&&:==============;;---;;-------------------------------------------=%X$$##%*=---------------;;-;;-;;======&&&&&@#@++OOOOOOOOO.#-----------------------------------------------------------------------------*%###$$XXXXXXXXXXXXXXXXXXXXXXXXXXXXXXXoooooXXXXXXX$$##########$$$XXXXXXXXXXXXXXXXXXoXXXXXXXXXXXXXXXXXXX$##%**%%%*****==***%###########################%**********###########%%**==========================****************=========--;;;;;;;;;;;;;;;;;;-=======************",
".............XXX+++##########+++++++++++OO++XX.............o..XX+++##########+++++XXXXXXX+++++++++++++++++++$$+++$$+$$####################++XXXXXXXXXXX+$########$+XXX.XXXXXX++#####++++++####+++++++++++###***###%**###+XXX.X..o   .. .   .......oo..............XXXXOO.X+++++++++++++++##&&&&&&&&&&&&&&&&&&&::=:::=&&&&&&&&&&=&:====&&&&&&&&&&:&*==;----------------------------=###&###&&&&%%#&#+++O+OOOOOOOOOOOO...............OOOOOOOOOOO@@@@@@@@@@OOOOOOO@@@@&&@@@@@OO@O#=-----------------------------------=+.OOOOOOOOOOOOOOOOOOOOOOX&--------------------------------------#+@@@@@@OOOO@@@@OOOOOOOOO@@@@@@@@@@@@@@@@@@@@@@@@@@@@@@O@@@@@@+&------------------------------------------------------------------------------------;=&#@OOOOOOOOOOOOOOOOOOOOOOOOOOOOOOOOO@@@@@@@@OOOOOOOOO@@@OOOOO@@@@&&&@@@@@@@@@@@@&:&&@@@@@@@@@@@@&:----------------------------------------------------------------*$O......+++##%*==---------------------------==*%%####$$.OO@=-----------------------------------------------------------------------------*%##$$+XXXXXXXXXXXXXXXXXXXXXXXXXXXXXXooooXooXXXX$$########$$$$XXXXXXXXXXXXXXooooXXoXXXXXXXXXXXXXXXXXXX$##*************%###################%%%%#######%**********##########%****=======================*****************=========-;;;;;;;;;;;;;;;;;--=======***********%%%%",
".............XXX+++##########+++++++++++O.++XX............oo..X++++###########+++++XXXXXXXXXXXX+$$$+$$$$$$$$$$+++$$+$$$$$######$$$#######++XXXXXXXXXXXX+$########$+XXX.XXXXXX++#####++++++####+++++++X+++###***###%**###$XXXXXoo.o     .   o...........o......oo..XXXXXXXXO+++++++++++++++##@&&&&&&&&&&&&&&&&&&&&&&====&&&&&&&&&&&&====&&&&&&&&&&&==-----------------------------=*#&#&####&&&&&%%##++++OOOOOOOOOOOOO.........OO.OOOOOOOOO++O@@@@@@@@@@@@OOOOOOOO@@&&@@OOOOOO@*------------------------------------%..OOOOOOOOOOOOOOOOOOOOOO+=-------------------------------------=+OOO@@@OOOOOOOOOOOOOOOOOOOOO@@@@@@@@@@@@@@@@@@@@@@@@@@@@@@@@@@+=-----------------------------------------------------------------------------------=%#+XOOOOOOOOOOOOOOOOOOOOOOOOOOOOOOOOOO@@@@@@@@@@@@OOOOOO@OOOO@@@@@@&&&@@@@@OO@@@@@&&&&@@@@@@@@@@@@&:---------------------------------------------------------------=#X..........ooooo$$#%=--------------------------------=%OOO@=-------------------------------=====------------------------------------------*#$$$X$XXXXXXXXXXXXXXXXXXXXXXXXXXXXXooooXooXXX$$######$$$$$$$XXXXXXXXooooooooooXXoooooXXXXXXXXXXXXXX+$##***********%##########$$$######*****%#######%%*********%########%*****======================***************========-;;;;;;;;;;;;;;;;;;;========************%%%%%%",
"..o..o..oo..XXXX++++########++++++++++++X...XX............o.XXX+++##############+++XXXXXXXXXXXX+++########$$++++++$$$+$$+$$$$++++$#######$+XXXXXXXXXXXX+$########$+XXX.XXXXXX++#####++++++####++++++++++++##***###%***##$+XX....oo        ....oo ...oooo...o........XX...XXO++++++++++++++++++##&&**&&&&&&&&&&&&&&&:&:=&&&&&&&&&&&&&&===**&&&&&&+#=------------------------------*##&#####&&&##%&%##+OOOOOOOOOOOOOOOOOOOOOOOOOOOOOOOOOOOOOO@@@@@@@@@@@@@@@OOOOOO@@@&&@@@@O@OO#=-----------------------------------=$O.OOOOOOOOOOOOOOOOOOOOOO#--------------------------------------*$$$$$$$$$$$$$$##########################%%%%%%%%%%%%%%=%@O@@@@#=-------------------------------------------------------------------------------==%&@@OOOOOOOOO@@+++++++XXXXXXXXXXXXXX..OOOOOO@@OOOOOOOOOOO@@OOOOOO@@@@@&&&@@@@O@@@@@@@&&&&@@@@@@@@@@@@&:---------------------------------------------------------------*+.OOOOOOOO.O.........X+#%*==--;;;;---------------------=+XO@%-------------------------------%##&#%%*====------------------------------------*#$$X$+XXXXXXXXXXXXXXXXXXXXXXXXXXXXoooXXXXXX$$####$$$$XXXXXXXXooXXoooooooooooooooXoooXXXXXXXXXXXXXX+$##**********######$$$$#$$$#####%******%#######%**********%######%%%*****=================****************=========;;;;;;;;;;;;;;;;;;;--======***********%%%%%%%%%%%",
".....ooo....XXXX++++########++++++++++++X.X.XX............o.XX++++##########%####++XXXXXXXXXXXX+++############++$$$$++++$$$$$+++++$######$+XXXXXXXXXXXX+$$#######$+XXX..XXXXX++#####++++++####++++++++++++##***###%***##$$XXX..o..        ....oo ..ooooo..oo........X.....XX++OOOO++++++++++++++@&&&&&&&&&&&&&&&&&&&&&&&&&&&&&&&&&&&&&====*&&&&&#=------------------------------=#########&&###%&%##++OOOOOOOOOOOOOOOOOOOOOOOOOOOOOOOOOOOOOO@@@@@@@@@@@@@@@OOOOO@@@&&@@@OO@@+&------------------------------------%XO.O.OOOOOOOOOOOOOOOOOOOO%---------------------------------------=-============------=====--=======--==----------------;=&O@@@@#=------------------------------------------------------------------------------=%#$+.OOOOOOO@@@&&&&&&&&&&*%%%&########++@++@@@@@@@@@@@@O@@@@@@@OOO@@@@@@&&&&@@@@@@@@@@&&&&&@@@@@@@@@@&&&:--------------------------------------------------------------*$OOOOOOOOOO............. oXX$##%*==---------------------=+XOO#-------------------------------*#######&%*====*=--------------------------------%$$$$+$XXXXXXXXXXXXXXXXXXXXXXXXXXXXXoXXXXXX$$$#$$$$$XXXXXXXXXoooooooooooooooooooooooXXXoooXXXXXXXX+$##*******%#####$$#$$$$$$$#####%******%########%%********%######%%*******===============*****************======---;;;;;;;;;;;;;;;;;;========************%%%%%%%%%###",
".  ........o.XXX+++++#######++++++++++++++X................XXX++++######%&&&%%####+XXXXXXXXXXXX+++################$$++++$++++++++++#######+XXXXXXXXXXX++$########$+XXX.XXXXXX++#####++++++####+++++++X++++##***###%***###$XXXXoo..         . .oo oo..o....o........XXX....XXXXXXO+++++++++++++++++###&*=&&&&&&&&&&&&&&&======***=*=**=======&&&&*=------------------------------%#@#&&####&&###%%%&#+++OOOOOOOOOOOOOOOOOOOOOOOOOOOOOOOOOOOOO@@@@@@@@@@@@@@@OOOOOO@@&&@@@OOO@#=------------------------------------#XOOO.OOOOOOOOOOOOOOOOOO.+=----------------------------------------------------------------------------------------------=#+@@@@%--------------------------------------------------------------------------------=*%#$+OOOO@OOOOOOO+++##%*======---------=========**%%%%%%%%###########+#&&&@+++++++@@@&&&&&@@@@@@@@@@&&&:-------------------------------------------------------------=#XOO..OOOOO.......OOOO.OOOOOOOOOOOO+@#&&&==;;;------------+XOO$=------------------------------=&&&&&&&&&&===****==-----------------------------=#$X$X$XXXXXXXXXXXXXXXXXXXXXXXXXXXXXXXXXXXX$$$$XXXXXXXXXXXXooooooooooooooooooooooooooooooXXXXXXXXX+$##****%######$$$$$$$$$$#####%*******%#########%%*******%%%##%%%%********=============***************=======--;;;;;;;;;;;;;;;;;;-========**********%%%%%%%%%%#######",
"  .......oo...XX++++++++++++++++++++++++++XX...........o...XXX++++########&&%%####+XXX.XXXXXXX++++#####%%%%%%%######$++++++++++X+++#######+XXXXXXXXXXX+++########$+XXX.XXXXXX++#####++++++###+++++++++++++##***%##%***%##$XXXXooo.o              ooo........XXXX...XXX.........XO++O..O++++++++++++###&&&&&&&&&&&&&&&&&=========;;;;------==*&&=-------------------------------=####&&&####&###%&%&#++O@OOOOOOOOOOOOOOOOOOO.......OOOOOOOOOOOOOOOO@@@@@@@@@@OOO@@@@&&@@@@OO@#=-----------------------------------=+.OO.OOOOOOOOOOOOOOOOOOOO&-----------------------------------------------------------------------------------------------=+.@@@@*;--------------------------------------------------------------------------------;-;==&@OOOOOOOOOO.XXXXX+$##%%%===-----------------------------==========::&&&&&&&&&&&&&&&&&&@@@@@@@@&&&:------------------------------------------------------------%$..OOOO.OOO.........OOOOOOOOOOOOOOOOO++++++##%%*=----------+XOOX=------------------------------=&&&&&&&&&&===*%**%%*=----------------------------*$X$X$XXXXXXXXXXXXXXXXXXXXXXXXXXXooXoXXXXXXXXXXXXXXXXXXoooXoooooooooooooooooooooooooooXXXXXXXXXXX+###*%#######$$$$$$$$$$$#####*******%############%%%*%**%%%%%%%%**********=======*****************=========--;;;;;;;;;;;;;;;;;========***********%%%%%%%%%%%######$$$",
"..  .......o....X++++++++++++++++++++++XXXX...............XX+++++++#####&#%&######++XXXXXXXXXX+++++####%%*******%###+$$$+$+$++XX++$######$+XXXXXXXXXXXX+$########+XXX.X..XXX+++#####++++++###+++++++++++$+##****##%***%##$+XXXooo..       ..        o...ooo...XX.......X..........X..OX+++++OO+++++++++###*********======-----------------==**==------------------------------=######&########&#%%#+++OO++OO@@@O@@@@OOOOOOOOOOOO..OOOOOOOOOOOOOOOOOO@@@@@@OOOOOOO@@@&@@@@OO+=------------------------------------%O.OOOOOOOOOOOOOOOO@@@@@@+&--------------------------------------=&&&&========;;;;;;;;;----;------------------------------*@@@@@@=---------------------------------------------------------------------------------------=%@+O@@@@@@@@@@@@@@@@@@@@&&&&&&=====;;;;;;;----------------------------------------=====*%&#&&&&::----------------------------------------------------------=#+OOOOOOOOOO..........OOOOOOOOOO@OOOOOOO@@@@@@&&@@@@##%*==---%.OO+%------------------------------=#&&&&&&&&====*&%*****=----------------------------%$$XX$XXXXXXXXXXXXXXXXXXXXXXXXXXXXXXXXXXXXXXXXXXXXoXoooooooooooooooooooooooooXXXoXooooXXXXXXXXX+$########$$$$$$$$$$$######%******%#############%*%*%%**%%*****%%%%*****************************==========;;;;;;;;;;;;;;;;;-======**************%%%%%%%%%#######$$$$$$",
"..   ... .......+++++++++++++X++++++++XXX..............X..XXX++++++#######&&######++XXXXXXXXX+++++++####%%*******%%###$$$$++++XX++$#######+XXXXXXXXXXXX+$########++XXXXX.XXX+++#####++++++###+++++++++++++##***%##%***%##$+XXX.oo..        .        oo.........XXXXXXXXXX........XX.X.XX+++++++++++++++++###*====;;;;;--------------------=**==;------------------------------=##@@##&&#########%%##++OOOOOO@@@@@@@@@OOOOOOOOOOO....OOOOOOOOOOOOOOOO@@@@@@@@@@@@@@@@&&@@@@O#=-----------------------------------=#..OO..OOOOOO@@@@@@@@@@@@&=-------------------------------------=#+@@@@##########%%%%%%%%*=====---------------------------%@@@@&&=-----------------------------------------------------------------------------------------=&&@@@@@@@@@@@@@@@@@@@@@@@@@@@&&&&&&*====-----------------------------------------------;=&&&:=:--------------------------------------------------------=%#+OOOOOOO.OOOO........O.OOOOOOOOOO@@OOOOO@@@@@@&&&@@OOXXXX$#%%+.OO+#-------------------------------%&&&&&&&&&====%%*****%%----------------------------#$XX$XXXXXXXXXXXXXXXXXXXXXXXXXXXXXooXXXXXXXXXXXXooooooooooooooooooooXoXXXoooXXXXXoXXoXXXXXXXXX+$######$$$$$$$$$$$#####%*****%%##########%%******************%%%%%***%*******************============--;;;;;;;;;;;;;;;;-=========**********%%%%%%%%%%%%######$$$$$$$$",
"..     .    ......XXXXXXXXXXXXXXXXXXXXXX............XXXX+++++++++++++############+++XXXXXXXX++++##########%********%####$$$+++XX++$######$+XXXXXXXXXXXX+$########++XXXXX..XX+++#####++++++####++++++++++++##%**###*****###++XX.Xoo..          ....   o  .  o...o..XXXXXXXX..............XXXXXXX$$$$##%%%%*=-----------------------------==***=--------------------------------%#@@@#&&&&&#&&&&&&&&##+@@@++++@@@@@@@@@@@@OOO.....XXXXXXXXoXXXX$$$$$$#######%%%%%%%*==&&@@O@X*------------------------------------=$.OOO.OOOOOOO@@@&&&&&&&&&=;------------------------------------;=&&&&&&&&&&&&&&&&&&&&&&&&&&&&&&&&&&&&::========;;;;;;;;;;;&&&&&::--------------------------------------------------------------------------------------------=%&&&&&&&&&&&&&&&&&&&&&&&&&&&&&&&&&&&&&&&&&&====;;-------------------------------------=&&::==------------------------------------------------------==&+OOOOOO.OOOOOOO..OOOOOOO.OOOOOOOOO@OOOOOOO@@@@@@&&&@@OOOO.....OOOOO+#-------------------------------*&#&&&&&&*====*%*%*****=---------------------------=$$XXXXXXXXXXXXXXXXXXXXXXXXXXXXXXXoooooXXXXXooXooooooooooooooXooXoXXXXXXXXXXXXXXXXXXXXXXXXXXXXX$$###$$$$$$$$$$$#####******###########%*****===*************%###%%%%%%*******************==========;;;;;;;;;;;;;;;;--======*************%%%%%%%%%%#######$$$$$$$$$$$$",
"..              ...............XXXXX...............XXXX+X++++++++++++###########+++++XXXXXXX++++###########%%******%####$$++++XX++$#######+XXXXXXXXXXXX+$########$+XXXXX..XX+++#####+++++#####++++++++++++##%**###*****###$$XXXX.o..          ......o      ..o.oooXXXXXXXX..X............XXX++$#%*==-----------------------------------==***=;-------------------------------=##@@@@#&&&#&&&&&&&&&&++++@+@@@@@@@@@@@@@@@@+OO++++X+++#######%%%**==========--------;;:&@@@@#=------------------------------------&XOOOO.OOOOOO@@@&&&&&&&&&&=;------------------------------------;=&&&&&&&&&&&&&&&&&&&&&&&&&&&&&&&&&&&&&&*&&&&*=========-;=:&&&::::--------------------------------------------------------------------------------------------;=:&&&&&&&&&&:::&&&&&&&&&&&&&&&&&&&&&&&&&&&&&&&&##%%%*==-------------------------------*&&&&&=------------------------------------------------------=*&#@@OOOO...OOOOOOOOOOOOOOOOOOOOOOOOOOOOOOOOO@@@@@&&&@@OOOOOO.....OOO++=------------------------------=&#&&&&&&*====*%*******%=---------------------------%$XXXXXXXXXXXXXXXXXXXXXXXXXXXXXXXXXooooXXXXooooooooooooXoXXXXXXXXXXXXXXXXXXXXXXXXXXXXXXXXXXXXXX+$$$$$$$$$$$$###********###########%**=========**********%%%##%%%%%*****************==========--;;;;;;;;;;;;;;;;======**************%%%%%%%%%%%%#######$$$$$$$$$$$$$",
".                       ...................ooo..XXXX+++++++#+####++#+###########++++XXXXXXX++++#############%%*****%#####$$+++XX++########+XXXXXXXXXXX++$########++XXXXXXXXX++$######+++++###+++++++++++++##%**###%****###$$XXXX.o.            ...ooo   o  .o...ooXXXXXXX...XXXXo.XooXX$##%%==---;;;;--------------=======;;;;==;======*&&*==-------------------------------=%##@@@@####&&&&&&#&###+++++$###++########%%%%%%%%%%%*===-------------------------------=@@@O+%------------------------------------=@XOOOOOOOOOO@@@&&&@@@@@@+&--------------------------------------=&&&&&&&&&&&&&&&&&&&&&&&&&&&&&&&&&&&&&&&&&&&&&&&&&&&&&&&:::&&&&&&=----------------------------------------------------------------------------------------------=%&&&&&&&&&&&&&&&&&&&&&&&&&&&&&&&&&&&&&&&&&&&&&&@@@@@@@&&&&=:====--------------------*&&&&&=------------------------------------------------------=====&%%%%####$$$$$XXoXXooooo.......O.OOOOOOO@@@@@@@&&@@@OOOOOOOOO.O.OO+=------------------------------=%#&&&&&&&====*%******%%=---------------------------=$$XXXXXXXXXXXXXXXXXXXXXXXXXXXXXXXXooXXXooooooooXXXoXXXXXXXXXXXXXXXXXXXXXXXXXXXXXXXXXXXXXXXXXXX++$$$+$$$#####*******%###########%**==========*********%%%%%%%%%%%%%**************=========-;;;;;;;;;;;;;;;--=======*************%%%%%%%%%########$$$$$$$$$$$$$XXXXX",
".                    ......      ...........oo.XXXXX++++############++#########+++++XXXXXXX++++####%#%%%#####%%%%%%%####$$+++++X++########++XXXXXXXXXX++$########$+XXXX.XXXX++$#####++++++###+++++++++++++##%%*%##%****###$$XXXX.oo           ....oooo...o  ...o.XXXXXXXXX..XXX+####%=============%%%%%#%%######%%%**===*****======***%%&&*=--------------------------------=###@@@@#####&&&&##&#%#######%%**=========;;--------------------------------------------&@@@O@=------------------------------------*@OOOOOOOOOOO@@@&&&@@@@@@@&--------------------------------------&@@@&&&&&&&&&&&&&&@@@@@@@@@@&&&&&&@&&&&&&&&&&&&&&&&&&&&&&&&&&&&&#=----------------------------------------------------------------------------------------------;=&@@@&@@@@@@@@@@@@@@@@@&&&@@@@@@@@@@@@@@&&&&&&&@@OOOOOO++@&&&&&#%%%*===-------------%@@@@#=-------------------------------------------------------=%#&=====----=====**%%%####+++++XO....OOOOO@@@@@@@&&&@@OOOOOOOOOO.OOOO+=-------------------------------*#&&&&&&*====*%*%****%#%=---------------------------%$$XXXXXXXXXXXXXXXXXXXXXXXXXXXXXXXoooXooooXooooXXXXXXXXXXXXXXXXXXXXXXXXXXXXXXXXXXXXXXXXXXXXXXX+++$$$$$####*******############%**===========*********%%%%%%%%%%%%%%************========-;;;;;;;;;;;;;;;-=======************%%%%%%%%%%%%%%#######$$$$$$$$$$$$$$XXXXX",
"                                      ........o.XXXX++########################++++XXXXX.XXX++++###%&&&%%#&###############++++++X++########++XXXXXXXXXX++$########$+XXXX.XXXX++######++++++####++++++++++++##%**%##%****%##$$+XXX.o.             ..ooo.....oooo.o.XXXX+XXX...XXX+###++++++++XXXXXXXXX+++X+++++++@+###&&&&*===&&&&==&&&&&&&&==-------------------------------=##@@##@@@#######%%***=======-----------------------------------------------------------=&@@@+%------------------------------------=#OOOOOOOOOOOO@@&&&@@@@OOO#=--------------------------------------&@@@@@@@@@@@@@@@@@@@@@@@@@@@@@@@@@@@@@@@@@@@@@@@@@@@@@@@@@@@@@@@%=------------------------------------------------------------------------------------------------=#@@@@@@@@@@@@@@@@@@@@@@@@@@@@@@@@@@@@@@&&&&&&@@@@@@@@@@&&&&&@@@@@@@@@&&:::====;;;=#@@@@+=--------------------------------------------------------*#$X+##%===-------------------==*%%%#$$$$$X+++@@@&&&@@OO.O.....O...OOO*-------------------------------=##&&&&&&====*%******%##=---------------------------=$$$XXXXXXXXXXXXXXXXXXXXXXXXXXXXooooXXoooooXooooXXXXXXXXXX+XXXXXXXXXXXXXXXXXXXXXXXXXXXXXXXXX++++$$######******%############***==========******%%%*****%%%%%%%***************=======-;;;;;;;;;;;;;;;-=======************%%%%%%%%%%%%#######$$$$$$$$$$$$$$$XXXXXXXXX",
"                                      ........o.XXX+++####%%%%%%############++++++XXXX...XX++++###%&&&%%&&&##############++++++X++########++XXXXXXXXXX++$########$+XXXXXXXXX+++#####++++++####+++++++++++###%%*%##%****%##$$+XXXXo...      .   o..oo......o.o....XXX++XXX.o..XX+#$XXXXXoXXXXXXXXXXXXXXX++++++++++@####&&&&*=&&&&==&&&&&&%*=--------------------------------=##@###@@&##%%%***==========-=----------------------------------------------------------*@@@@#=------------------------------------=$OOOOOOOOOOOO@@&&&@@@@OO@%=-------------------------------------=&O@@@@@@@@@@@@@@@@@@@@@@@@@@@@@@@@@@@@@@@@@@@@@@@@@@@@@@@@@@@@@@%;------------------------------------------------------------------------------------------------;*&@@@@@@@@@@@@@@@@@@@@@@@@@@@@@@@@@@@@@@&&&&&@@@@@@@@@@@&&&&@@@OOOO@@@&&&&@+#####@+@@@@+=---------------------------------------------------------=%$XX.XX+$#%%==----------------------=====*&&&&&&&&@@@OOO....OO.OOOOO%-------------------------------=##&&&&&&====*%%**%**%##%----------------------------%$$$XXXXXXXXXXXXXXXXXXXXXXXXXXXooXoooooXooooooXoooXXXXX+$$$$XXXX$$+XXXXXXXXXXXXXXXXXXXXXXXX++++$$####****##############%***===========***%%%%%%%%*****%%%%%************========--;;;;;;;;;;;;;;-========************%%%%%%%%%%%%#######$$$$$$$$$$$$$$$$XXXXXXoooo",
" .                                     .     ...oXX+++####%%**%%%%%#########+++++++XX...XX.X+++###%%%&%%%%%&%########$$$$++$++++++$#######++XXXXXXXXXX++$########++XXXXX.XX++++#####+++++$####++++XX+++++###***%##%****%##$$XXXXX.oo            ....oo.oo.oo....XXXX++XX.oo.XXX+##+XXXXooo.XXXXX..XX.OOOOO+++++++++@@@##&&&&======&&&&###=--------------------------------=##+#@######&&#######%%*%####&&#&&&&&====&&===============*=========================--==:&&&@@%-------------------------------------&+OOOOOOOOOOOO@@&&&@@@O@.+=--------------------------------------*@@@@@@@@@@@@@@@@@@@@@@@@@@@@@@@@@@@@@@@@@@@@@@@@@@@@@@@@@@@@@@@@=---------------------------------------------------------------------------------------------------&X@@@@@@@@@@@@@@@@@@@@@@@@@@@@@@@@@@@@@@&&&&@@@@@@@@@@@&&&&@@@@@@@@@@@&&&@@@@@@@@@OO@@#=-----------------------------------------------------------=#X........++##%%===-----------------------------==*%%###$$$XXXOOOO#-------------------------------=#&&&&&&*====&%%%*****##%=----------------------------#$$XXXXXXXXXXXXXXXXXXXXXXXXXXXoooooXXoooXXooooooXXXX$$#####$$$$$$$+XXXXXXXXX+++X+++++++++XX$$$$###****%############%***=============**%%%%%%%%*********************=========;;;;;;;;;;;;;;;--=======**********%%%%%%%%%%########$$$$$$$$$$$$$$$$$$XXXXXXoooooooo",
"..                                     .    ....o.XX++###%%******%%%#########+++++XX......XX+++###%&&&%%%%%&%%##+++++$++$+$$++++++$#######++XXXXXXXXXX++$########$+XXXXX.XX++++#####+++$$$####++++X++++++###***%##%****%##$$+XXXX.ooo    o..........oooooo.oX...XXXX++XX.oo.XXX+##+XXX.......XXX.XXXX..OOO+++++++++@@@+##&&&&&====&&&@@&%=--------------------------------=#+#@@######&&############++++++++++##&&#@++++@@@@+++++++++++X$$$$$$$$$$$$##############&&@&@&=-------------------------------------#XOOOOOOOOOOOO@@&&&@@@OO+@=-------------------------------------=#OOOO@@@@@@@@OO@@@@@@@@@@@@@@@@@@@@@@@@@@@@@@@@@@@@@@@@@@@@@@@@@&=---------------------------------------------------------------------------------------------------=+@@@@@@@@@@O@@@@@@@@@@@@@@@@@@@@@@@@@@@&&&&@@@@@@@@@@@&&&&@@@@@@@@@@@&&&&@@OOO@@@OO@@#=------------------------------------------------------------=%+.O........XXXX$$#%%==---------------------------------===%#OOOO#=-------------------------------%&&&&&&&====*%%%*****###=----------------------------%$XXXXXXXXXXXXXXXXXXXXXXXXXXXXoooooXooooXXooooooXXXX$$######$$$##$++++XXXXX+++++++++++++$$$$$$####***%###########%**======;-======***%%%%%%%%***====************=========-;;;;;;;;;;;;;;-========***********%%%%%%%%%%%#########$$$$$$$$$$$$$$$XXXXXoXXXoooooooo",
"                                         .    ....XXX++###%%*******%%%%%#######++++++XX.X.XX+++####&&&&&%%&&&%##++++++++++++++++X+$#######++XXXXXXXXXX++$########++XXXXXXXX++++#####++++++####+++++++++++###****##*****%##$$+XXXX.oo.   o   ........oo.ooooo....XXXX++XX.o..XXXX+##+X.o.ooo..........XOO+++++O++++++@++++#&&&&&&=&&&#@##=---------------------------------##@#@#@@@#####&##@####&&@@@@@@@@@@@@@&&&&@@@@@@@@@@@@@@@@@OOOOOOOOOOOOOOOOOOOOOOOOOOOO@@@&&@@&-------------------------------------%@OOOOOOOOOOOOO@@&&&@@@OO$%--------------------------------------=#OOOO@OOOOOOOOOOO@@@@OOOOO@OO@O@O@@@@OOO@@@@OO@@@@@@@@@@OOO@OO@+&----------------------------------------------------------------------------------------------------=#OO@@@@OOO@O@@@@@@@@@@@@@@@@@@@@@@@@@@@&&&&@@@@@@@@@@@&&&@@@@@@@@@@@@&&&@@@@@OOOOOO@@#=--------------------------------------------------------------*$...OOOOOOOOO....OXX+###%==-------------------------------%+XOO#=-------------------------------*&&&&&&*====*%*%****%###%----------------------------=#XXXXXXXXXXXXXXXXXXXXXXXXXXXXXoooXXXoooXXooooXXXXX+$$######$$$###$+++XXXX++++++$$+++++++$$$$$$###***#########****======;;=======***%%%%%%%***======**********========;;;;;;;;;;;;;;;-=====*************%%%%%%%%%%##########$$$$$$$$$$$$$$$X$$XXXXXooooooooooooo",
"                                              .....XX+++##%%%**********%%%&######++++XX.XXX+++++########%%&&&%##++++X+++++++++++X+$#######++XXXXXXXXXX++$########++XXXXXXXX++++#####+++++#####+++++++++++###***%##******##$$+XXXX.oo.   ooo   .....ooo..oooo....XXXX$$XX.o..XXX+$##XX.............X.XX..OOOOOOO+++++@@++++###&&&&&&&#&#*---------------------------------*##@#+@@@@@####&#&&########@@@@@@@@@@@&&&&@@@@@@@@@@@@@@@@@@@OOOOOOOOOOOOOOOOOOOOOOOOOOO@@&&@+&-------------------------------------#OOOOOOOOOOOOOO@@&&&@@@OO#=--------------------------------------*$@@OO@O@@@O@@@O@@@@@@OOOOO@OOOOOOOOOOOOO@@@@OO@@@@@@@@@@@OO@O@@+&----------------------------------------*%%**%%%%%%*%***==-------------------------------------------%+OOOOOOO@@@@O@@@@@@@@@@@@@@@@@@@@@@@@@&&&&&@@@@@@@@@@&&&&@@@@@@@@@@@&&&&@@OOOOOOOOO@#=---------------------------------------------------------------=#XOOOOOOOOOOO..O....XXXX$$##%*=--------------------------=+OOO$=-------------------------------=&&&&&&*====*%*%****%####=----------------------------%$$XXXXXXXXXXXXXXXXXXXXXXXXXXXXooXXXXXXXXooooXXXXX+$$#######$####$$++XX++++++++$$$$++$$$$$$$$####**########%**======;;=;-=====*****%%%%%****=======*********======;;;;;;;;;;;;;;;-=======*************%%%%%%%%%#######$$$$$$$$$$$$$$$$$$XXXXXXoXooooooooooooooo",
"                                            .    ..XXX++####%%%%***********%%%%######++++++++++############&#####++++++++$$+++XX++$#######++XXXXXXXXXX++$########$+XXXXXXXX++++#####++++++####+++++++++++###%%*%##%*****##$$+XXXXXoo.   .     ..oooooo....oXXXXXXXX+$$XXX....XXX$#$XX...............XXX...X.XX++X+++++++$$$$$###**&&##%=--------------------------------=###@@+#@@###&&#&&#######&&@@@@@@@@@@@@&&&&@@@@@@@@@@&&@@@@@@@@@O@OOOOOOOOOOOOOOOOOOO@@@@@@&@@#=------------------------------------=+OOOOOOOOOOOOOO@@&&&@@@OO%=--------------------------------------%$$$$$$$$$$$$$$$$$####$$$$#$$$###################%%%%%%%%%#XOOOO#=---------------------------------------=@@@@@@OO@@@@OOOO@@#&=----------------------------------------=%#######$$$$XXXXXX+XXX++++++X+++++@O@@&&&&@@@@OOO@@@@&&&&@@@OO@@@@@@&&&&@@@@@@@@@@O@#=----------------------------------------------------------------*#X.OOOOOOOOOOOOOOOOOOOOOOO+++++$#%====;;;----------------$XOO$=-------------------------------=%#&&&&&===*%%******%####=----------------------------=#$XXXXXXXXXXXXXXXXXXXXXXXXXXXXooXXXooXXXoooXXXXXX+$#######$$#####$+XXX++++$$$$$$++$$$$$$$$$#####**%####%***=====;;;;========*****%%%*****==========****=======;;;;;;;;;;;;;;--=======***********%%%%%%%%%%%#####$$$$$$$$$$$$$$$$$$$XXXXXXXXooooooooooooooooo  ",
"     ..                                        .  .oXXX+++####%%%%%%*%%***%*%%%%%######+++++++++##########&&#####+++++++$$+$++XX++$#######++XXXXXXXXXX++$########$+XXXXX.XX++++#####+++++#####++++++++++++##%%*%##%*****##$#$$XXXXoo..o ..    ..ooooo...ooX.XXXXXXX+$$XXX..X.XXX##$XX.....o.........XX........O++++++$####%%*=====&&##=---------------------------------*#+++@#@@@###&&&&&#@&#&&#&&@@@@@@@@@@@@&&&&@@OOOOO@@@@&&@@@&@@@@@@@OOOO@OOOOOOOOOOOOOOOO@@@&@&*;------------------------------------%+OOOOOOOOOOOOOO@@&&&@@@O@%---------------------------------------=====================================-====---------------=&+@O@O#=---------------------------------------%OOOOOOOOOOOOOOOOOO++#=----------------------------------------===============*%%%%#########+++@+@@@@&&&&@@@@@@@@@@@&&&&@@@OO@@@@@@&&&&@@@@@@@OOOO@#=-----------------------------------------------------------------*+.OOOOOOOOOOOOOOOOOOOOOOOO+++XXXXX$#%%*==---------------#XOO+*--------------------------------*%&&&&&====%%******%##$#%-----------------------------%$XXXXXXXXXXXXXXXXXXXXXXXXXXXXoXXXoXXXXXoooXXXXX++$#######$$#####$+XXX$++$+$$$$$$$$$$$$$$$######**%%#%**========;;;-====**************===========****=====--;;;;;;;;;;;;;;-==========*********%%%%%%%%%%######$$$$$$$$$$$$$$$$$$$$$XXXXXooXooooooooooooooo    ",
".... ......                                    .  ....XX++++######%%%%%%%%%%%%****%%%%####################&&#####++++++++$++++XX++$#######$+XXXXXXXXX++$$########$+XXXXX.XX++++######++++#####+++++++++++###%%*%###*****####$$XXXX.oo...  ooo....ooooooo..ooo.XXXXX+$$XXXX...XXX##$XX.....o.....XXXXXXXXooX$$$$$#%%%*=-----------%##$%---------------------------------=##@@@@##@###@&&&&###&&&###&#@@@@@@@@@@@&&&&@@OOOOOOO@@@@@@@@@@@@@@OOOOOO@@@@@OOOOOOOOOOO@@@&@&=------------------------------------=#OOOOOOOOOOOOO@@@@&&&@@@+&=-------------------------------------------------------------------------------------------------#+OO@O%----------------------------------------%OOO@O@@@OO@@@@@@@O@@+&=---------------------------------------=======-----------------------============%%%%#######&&&####$$++++@#&&&&@@OOOO@OO@@@#=------------------------------------------------------------------%$+......OOOOO.OOOOOOOOOOOOOOOO@@@@@@@@@@&##%*===-------#XOO+&--------------------------------*#&&&&&====*&%******##$#%=----------------------------=$XXXXXXXXXXXXXXXXXXXXXXXXXXXXXXXXXXXXXXoooXXXXXX+$$######$$####$$+XX+XX$$$$$$$$$$$$$$$$$######%******====;;;==;=======***********=======*******========;;;;;;;;;;;;;;;-========**********%%%%%%%%%%#########$$$$$$$$$$$$$$$XXXXXXXXooXooooooooooooooooooo    ",
"oo........                                         ....X++++++#########%%%%%%%*******%%%%##################&#####+++++++$$++++XX++$#######++XXXXXXXXX+++$########$+XXXXXXXX++++######++++#####+++++++++++###%%%%###*****####$$XXX..oo... o.ooo...ooo.oooo.o.o.XXXXX$$$XXXXXXXXXX###+XX..o.....XXXXXXX$$###%%===-----------------*##+$=---------------------------------*#+@+@#+#####&&&&&@##&&&&#&&@@@@@@@@@@@@&&&&@@@@OOOOO@@@@@@@@@&@@@@@OOOOOOO@@@OOOOOOOOOOO@@@&@&-------------------------------------=+OOOOOOOOOOOOO@@@@&&&@@@+&--------------------------------------------------------------------------------------------------#XOO@@%;--------------------------------------=%OO@@O@@OO@@@@OOOOOO@.@=---------------------------------------*#+++$$##%%*===-----------------------;;;;;;-;-----;;;;;============:::&&&&&&&@@@O@@+=------------------------------------------------------------------=%OO.OOOOOOOOOOO.O.OOOOOOOOOOOOOO@@@@@@@@@+++X$$$#%*=---#XOO+&--------------------------------*#&&&&&====*&%%*****###$#=-----------------------------#$XXXXXXXXXXXXXXXXXXXXXXXXXXXXXXXXXXXXXXooXXXXXX+$$######$$$#$$+XXXXXX$$$$$$$$$$$$$$$$#######***=========;;-=======**********=========*********====-;;;;;;;;;;;;;;;===========*********%%%%%%%%%%#########$$$$$$$$$$$$$$$$$XXXXXXXXoooooooooooooooooooo      ",
"XXX.......                                      ...   ....XX++++##########%%%%%********%%%%#######################+++++++##++++X++########++XXXXXXXXX++$#########$+++XXXXXX++++#####++++++####+++++X+++++###****###*****####$$XXXo.oo... .o..o.........o.o.....XXXXX$$+XXXooXXXX$##$Xoooooooo$$$%%%*=--------------------------%+++$%---------------------------------=#@@@@##@@@@####&&@####&&####@@@@@@@@@@@&&&&&&@@@OOOOOOO@@@@@@@&&@@@@@OOOO@@@@@OOOOOOOO.OO@@&&#&------------------------------------;%@OOOOOOOOOOOOOOO@@&&&@@@+=--------------------------------------==&&&======;=;;;;;;;---------------------------------------=@O@@O@=---------------------------------------=#@@@@@@@@@@@@@@@@@@@@@@%;--------------------------------------=+@@@@@@@@@@@@&&&&&&=====;---------------------------------------------------=*+@@@@@&::=;=;;;-----------------------------------------------------------=$XOOOOOOOOOOOOOOOOOOOOOOOOOOOOOO@@@@@&&&@@@OOOOOO++++@@@O@@&=-------------------------------=#&&&&&====*%******%###$$=-----------------------------*$XXXXXXXXXXXXXXXXXXXXXXXXXXXXXoooXXXXXXXXXXXXX+$$$######$$$$$XXXXXXXXX$$##$###$##########%***=======-;;-=======**********=========*********=====-;;;;;;;;;;;;;;-=======***********%%%%%%%%%%#######$$$$$$$$$$$$$$$$$XXXXXXXXXXoooooooooooooooooo            ",
"+XXX.......                                       .    ...XXXX++++++#########%%%%*%%****%%%%%######################++++++###$++X++########$+XXXXXXXXXX+$#########$+++XXXXXXX++#######+++++####+++++X+++++###***%##%*****####$$+XXoooo.o....oooo......oo.oooo...XXXX+$$+XXXX.oXX$$###$$$$##%%==---------------------------------#+++#=---------------------------------*#+@@####@@@###&&&#####&&@###@@@@@@@@@@@&&&&&&@@@@@@OOOOOO@@@@&&&@@@@@@@@@@@@@@@@@@@++++@O@@&&#=------------------------------------=#OOOOOOOOOOOOOOOO@@&&&@@@#=--------------------------------------*#@@@@##@#@&&#&%%%%%=====---------------------------------=%@O@@@&=---------------------------------------*+@@@@@@@@@@@@@@@@@@@@@@%---------------------------------------=+@@@@@@@@OO@@@@@@O@+@####%%===-----------------------------------------------=#@@@@@@&&&&&&**%===--------------------------------------------------------%X.OOOOOOOOOOOOOOOOOOOOOOOOOOOOOOO@@@&&&@@@OOOOOXX+++OOO@@@@=-------------------------------=%&&&&&====*%******%##++$%-----------------------------=#XXXXXXXXXXXXXXXXXXXXXXXXXXXooooXXXooXXXXXXXXX+$#$#####$$++XXXXXXXXXX++$################**=====;====-;======**********=========*=*******=====-;;;;;;;;;;;;;-=======*=************%%%%%%%%########$$$$$$$$$$$$$$$$$XXXXXXXXXXoooooooooooooo ooo              ",
"+++++++O.o...           .                         . . ......XXXXXXXX+++++#########%%#%%%****%%%%%%###########%######+++++###++++++########+++XXXXXXXX++$##########+++XXXXXXX++######++++++####+++++++++++###%***##******#####$+XXX.ooooo..ooooooooXX.ooXoooo...XXXX$$#$XoXXXX$$#%*=====---------------------------------------*$XX$%---------------------------------=##++++##@@@##@#&&&#&&&&&&&&&&@+@@@@@@@@@@&&&&@@@+++++XXXXXXX+##############%%****=======*#@@@&%=------------------------------------=+OOOOOOOOOOOOOOOO@@&&&@@@%=-------------------------------------=&&&&&&&&&&&&&&&&&&&&&&&&&&&&&&&&=======;=;;;;-------------=%@@&&&&-;--------------------------------------&@@@@&&&@@@@@@@@@@@@&&@&=;--------------------------------------=#&@@@@@@@@@@@@@@@@@&&&&@@@@@@@@#&&&&=======----------------------------------=#@@@@@@@@@&&&&@@@@&&&&&===;;;-;--------------------------------------------=#o....OOOOOOOOOOOOOOOOOOOOOOOOO@@@@@&&&@@@OOOOOOOOOOO@@@@@@=-------------------------------=%&&&&=====*%%*****%##++$#------------------------------%$XXXXXXXXXXXXXXXXXXXXXXXXXXooooXXooooXXXXXXX+$#######$+XX++XXXXXXXX++$$#############***======;;-;========*********===========*****=*=====;;;;;;;;;;;;;;-======*************%%%%%%%%%%#######$$$$$$$$$$$$$$$XXXXXXXXooooooooooooooooooooo                   ",
"+++++++OXX...           ..                           ...........XXXXXX++++++#########%%%%%%%%%%%%%%%#########%%%%#####++###+++++++########+++XXXXXXXXX+$##########++XXXXXXXX++######++++++#####++++++++++###%***%%******##$$#$+XXX.oo...ooooooo.oooXX.oXo.ooo..XXXX$###$$####%*==----------------------------=======*%%%%%%%%#$XX+#=---------------------------------*##@@+###@@@@###&&&&&&##&&&&&&@++@@@@@@@@&&&&&&@@@#&########%%%%===========--------------*+@@@&=;------------------------------------&+OOOOOOOOOOOOOOOO@@&&&@@@*--------------------------------------=&&&&&&&&&&&&&&&&&&&&&&&&&&&&&&&&&&&&*=============--------=*&&&:&:----------------------------------------:&&&:::::&::::&&&&&&&&&&=;--------------------------------------=&&&&&&&&&&&&&&&&&&&&&&&&&@@@@OO+O+++@&&&&##%%===-----------------------------=#@@@@@&@@@&&&&@@@O@+++++#&=======-------------------------------------------*#+OOOOOOOOOOOOOOOOOOOOOOOOO@@@@@@@@&&@@@@OOOOOOOOOOO@@@@@&=--------------------------------*&%&*=====*%%*****%##++$#=-----------------------------*$XXXXXXXXXXXXXXXXXXXXXXXXXXXXXXXXXXooXXXXXXX$$##$$$++XXXXX+XXXXXX++++$###########***======;==;;-======*********============*****======--;;;;;;;;;;;;======****==*********%%%%%%%%%%#######$$$$$$$$$$$$$$$$$XXXXoooooooooooooooooooo                        ",
"#####+++XXX.....    ... ..                            ..................XXXXX++++$#########%%%%%*%%%##########%&&&&########+++++++$#######+++XXXXXXXXX+$##########++XXXXXXX++++#####+++++######++++++++++###%%*%##******#####$XXXXoooo.ooo....oXoo....ooo.oo.XXXXX$$########%%%**==*%%%########$$$$$$$$$$XXXXXXXXXXXXXXXXXXXXX..X$%---------------------------------=##@+++#+@@@@@@@@@&@#######################%*=======-------------------------------------=#+@@@&=-----------------------------------;=&@@OOOOOOOOOOOOOOO@@&&&@O@=--------------------------------------=&&&&&&&&&&&&&&&&&&&&&&&&&&&&&&&&&&&&&&&&&&&&&&&&&&&&&&&:&&:&&&&&&=--------------------------------------;-:&::&&&&&:&:::::&::&::::=---------------------------------------=*&&&&:::::::::&&&::&&&&&&&&@@@@@@@@@@&&&&@@@@@@@@&&&&=====-------------------=#@@@@@@@@@@&&&&@@@@@@@@@@&&&@@@@@&&%%==--------------------------------------==%%%%###$$$$$$$$$XXXXXXXXXXX.OOO@@@@@@@OOOOOOOOOO@@@@@@&&*;-------------------------------=%%&&=====*%%****%%##++$#*------------------------------#XXXXXXXXXXXXXXXXXXXXXXXXXXXXXXXXXoXXXXXXXX++$$$$+++XXXXXX+X++++X++$$##########**=========-=-=====***********=======================-;;;;;;;;;;;--======*************%%%%%%%%%#########$$$$$$$$$$$$$$XXXXXXXooooooooooooooooooooo                          ",
"######++++X.....    ..  ..                               ....   ........XXXXXX+++++++##########%%%%%%##########%%%&&#######+++++++$#######+++XXXXXXXX++$##########++XXXXXXX++++#####+++++######++++++++++###%**%##******#####$XXXXoooo..oo....oXXXXX.ooooooooXXXXXX$##$XXXXX$$$$###$$XooooooooooooooooXXXXoXooooXXXXXXXXXXXXXXXXX#=---------------------------------=##++++#+#@@######&##&&&%%**============-------------------------------------------------%+X@@@&------------------------------------;=@@OOOOOOOOOOOOOOOO@@&&&@+&--------------------------------------=%@@&@@@@@@@&@@&@@@@@@@@&&@@@@&&&&@@@@@@@@@&&&&&&&@@&&&&@&&&&@@@&&&=---------------------------------------=&&&&&&&&&&@@&&@&&&&&&&&&=---------------------------------------=&&&&&&&&&&&&&&&&&&&&&&&&&&&@@@@@@@@@@&&&&@@@@@@O@@@@&&&####%%%====-----------=#@@@@@@@@@&&&&&@@@@@@@@@@&&&@@OOO++++$%---------------------------------------------------=====*%%%###+++++++@@@@@@@@OOOOOOOOOO@@@@@@&&%;-------------------------------=%%&&=====*%%****%%###+$$%------------------------------%XXXXXXXXXXXXXXXXXXXXXXXXXXXXXoXXooXXXXXXXX++$+$+X+XXXXXXX++$+++$+$$########%**================***********=============**========-;;;;;;;;;;;-=====****************%%%%%%%%%%#######$$$$$$$$$$$$$$$$$XXXXXXooooooooooooooooooooo                           ",
"%%%#####++XX.o..    ..  ...   ..                         . .  .    ............XXX++++++#########%%######+######%%%%%%#####+++++++########+++XXXXXXXX+++$########++++XXXXXX++++#####+++++#####+++++++++++###%**%##%*****#####$XXXX.o......o....XXoXXX..oo.oo.XXXXXX$##+XXXX.XXX+###+XXo........................X.....X.X.X......$%---------------------------------=%#@@@@+######&%%%*=========-------------------------------------------------------------=#OO@@#=------------------------------------;&@@OOOOOOOOOOOOOOOO@@&&&@+=--------------------------------------=+@@@@@@@@@@@@@@@@@@@@@@@@@@@@@@@@@@@@@@@@@@@@@@@@@@@@@@@@@@@@@@@@#=---------------------------------------%@@@@@@@@@@@@@@@@@@@@@@@&----------------------------------------=#@@@@@@@@@@@@@@@@@@@@@@&&&&@@@@@@@@@@&&&&@@@@@@@@@@&&&&@@@@@@@@&&&&&==;;;;;;=&@@@@@@@@@@@&&&@@@@@@@@@@&&&&@@@@@OO@@+#=---------------------------------------------------------------====*%%%%%%####$XXXX++++O@@@@@@&#--------------------------------=%%&&&====*%%****%%##++$$%------------------------------*$XXXXXXXXXXXXXXXXXXXXXXXXXXXXXXXXXXXXXXXXX++$$$$++XXXXX$$$$$$$$$$$####*******===============**********=======================-;;;;;;;;;;--====***************%%%%%%%%%%########$$$$$$$$$$$$$$$XXXXXXXoooooooooooooooooo   oo                              ",
"%%%######++XX...    ..  ..    ..                             .. .  ...  ......XXXXXX+++++++#############++#######%%%%*%%####++++++########+++XXXXXXXX++$$########++++XXXXX+++++#####+++++#####+++++++++++###%%*%##******#####$XXXX.o....ooo.....XXXXXooo..oo.XXXXXX$##+XXXoXXXX+####XX.o.....................................X.X$=---------------------------------*#+@@@@#########%%*****========================-=----------------------------------------=#OO@@#=------------------------------------=&@@OOOOOOOOOOOOOOOO@@&&&&#=-------------------------------------=&+@@@@@@@@@@@@@@@@@@@@@@@@@@@@@@@@@@@@@@@@@@@@@@@@@@@@@@@@@@@@@@@@%;---------------------------------------%@@@@@@@@@@@@@@@@@@@@@@@=----------------------------------------=#@@@@@@@@@@@@@@@@@@@@@@&&&&@@@@@@@@@@&&&&@@@@@@@@@@&&&&&@@@@@@@@@@@@&&&==*=*%@O@@@@@@@@@&&&&@@@@@@@@@@&&&&@@@@OOO@@+&---------------------------------------%##%*=-----------------------;;;;;;;;=====*%%%%###@@@@@@@#=-------------------------------=*%&&&====*%*****%%##++$$%=-----------------------------=$XXXXXXXXXXXXXXXXXXXXXXXXXXXX$$$XXXXXXXXXXX+$$$$++XXXX+$$$$$$$$$$$####****==============************======================-;;;;;;;;;;;======**************%%%%%%%%%##########$$$$$$$$$$$$$$$XXXXXXXooooooooooooooooo o                                    ",
"%%%%%####+++X.........  ....    ..                             . .....   .. .......XX.XXXX++++$$#######++++######%%%***%%####+++$+#########+++XXXXXXXX$$##########+++XXXXXXX+++#####+++++#####+++++++++++###****##******#####$+XXX.ooooo..o...X.XXXXXXXX..oo..XXXX+$##+XXX....X+####XX...... ..ooooo......................XX...X%---------------------------------=##+@+++##########&&%#####&%%%%%&#####@@###@##&&&&&&&&&&&=&&&&*================-====-----=&#OO@@%-------------------------------------:&@@OOOOOOOOOOOOOOO@@@&&&&*--------------------------------------=@O@@O@@@@@@OO@@@@@@@@@@@@@OOO@O@@@@@@@@@@@@@@@@@@@@@@@@@@@O@@@O@+#=---------------------------------------;%@@@@@@@@@@@@@@@@@@@@+@%-----------------------------------------=#@@OOOO@@@@@@@@@@@@@@@@&&&&@@@@O@@@@@&&:&@@@@@@@@@@@&&&&@@@@@@@@@@@&&&&&&&&@@@@@@@@@@@@@&&&&@@@@@@@@@@@&&&@@@@@@@@@O&---------------------------------------%X.OO++##%===--------------------------------------=#@O@@$=--------------------------------*#&&&====*%%****%%##++$$#=------------------------------#X+XXXXXXXXXXXXXXXXXXXXXXXX$##$+XXXXXXXXXX++$+$++++XX+$$$$$$#########***=============*************============***=======;;;;;;;;;;-=====*************%%%%%%%%%%#########$$$$$$$$$$$$$$$$$$XXXXXXooooooooooooooooo                                         ",
"%%%%######++X.... ....   ...     ..                          .   .....    . .........XXXXXX++++++$$$$$++++++#####%%%****%%###++++##########++++X++XXXX$$#########+++++XX+XX++++#####+++++#####+++++++++++###****##%*****#####$+XXX..ooooXX.....XXXXXXXXXX.ooXXXXXX+$##+XX...XX++####XX.. ooo  .ooooo................XXXX..X... +=---------------------------------*#+++++++#+##@#####&&############+++++++++++@@+@++@+@#@######++++++###########%%%%%%%%####++OO@@*-------------------------------------&&@@OOOOOOOOOOOOOOOO@@&&&&=;------------------------------------=%@OOOOO@@@@@@@@@@@@@@@@@@@@@@@@@@@@@@@@@@@@@@@@@@@@@@O@@@@OOOO@OO+#=---------------------------------------=#@@@@@@@@@@@@@@OO@@@@+&=-----------------------------------------=#@@@@@@@@@@@@@@@@@@@@@@&&&&@@@@@@@@@@&&&&@@@@@@@@@@&&:&&@@@@@@@@@@@@&&&&&&&@@@O@@@@@@@@@@&&&@@@@@@@@@@@&&&@@@@@OO@@O&=--------------------------------------%+.OOO.XXXX$$#%%=-----------------------------------%OO@@$=--------------------------------*#&&*====*%%****%%##++$$#=------------------------------%$XXXXXXXXXXXXXXXXXXXXXXXXXX$XXXXXXXXXXXXX+$$$$+++$++++$$###########**============*************=============****=====;;;;;;;;;;--====*************%%%%%%%%%%%%########$$$$$$$$$$$$$$$$XXXXXXXoooooooooooooooooo                                           ",
"##########++XX...   ..    .. . . ...                         ..  .... . ..  .........XX.XXXXX++++++++++++++######%%%%***%%###+#+#######%####++++++++++$$##########++++XX+++++++######++++#####+++++++++++###%***##******######+XXX..ooooo.....XXXXXXXXXXX..X.XXXXX+$##+XXX..XX++####XX.o....................o.Xo..XXXXXXooXX..o%---------------------------------=#$@+++++@+@@@@@@@@@&&#@@&&&@&&&&@@@@@@@@@@@@@@@@@@@@@@@@&&&&&&@@@@@@@@@@@@@@@@@@@@@@@@OOOOOOOOO@=-----------------------------------;=&&@@@@OOOOOOOOOOOOO@@@&&*=--------------------------------------=#@O@@O@OO@OOOOOOOOOOOOOOO@OOOOOOOOOOOOOOOOOOOOO@@@@OOOO@@@@@@@@OO+&----------------------------------------=#@O@O@@@@@O@@@@OOO@++#=------------------------------------------=#@@@@OOOOOO@@@@@@@@@@@@@&&&@@@@@@@@@@&&&&@@@@@@@@@@&&:&&@@@OO++#%####&&&&&@@@@@@@@@@@@@@@&&&@@@@@@@@@@@&&&@@@@@@@@@O@=--------------------------------------=+XOOOOOOOO...OOOO+##%===---;-----------------------%++@@#=--------------------------------=%&*=====*%%****%%###+#$$*------------------------------=$XXXXXXXXXXXXXXXXXXXXXXXXXXXXXXXXXXXXXXXX$$$$$+++$$$$$$#########%**============************===========******=====;;;;;;;;;;-====*************%%%%%%%%%%##########$$$$$$$$$$$$$$$$$XXXXXXXXooooooooooooooooooo                                            ",
"#########+++XX..o   .     ...... ...                           . .........   o........XXXXXXX++XXX+++++++++#####%%%%****%%###+######%%%%%####++++++++$############+++++++++++++#####+++++#####+++++++++++###%**%##******######+XXX.....oo.....XXXXXXXXXXX.XXXXXXXXX$##+XXX..XX++####XXo.....  ...............XXX...XXXXXXXX...$=---------------------------------%#+++++++@@@@@@@@@@@&&&@@&&&@&&&&@@@@@@@@@@@@@@@@@@@@@@@@@@&&&&&@@@@@@@@@@@@@@@@@@@@@@OOO.OOOOO+&-------------------------------------=&&@@@OOOOOOOOOOOOOOO@&&=-;--------------------------------------%+OOOOOOOOOOOOOOOO@O@OOO@@@@@@O@O@@@@@OO@@OOOOO@@@@@OOOO@@OO@@@@O@+%----------------------------------------*$@@OOOOOOO@@@@OOOOO#&=-------------------------------------------=$@@@@OOOO@@@@@@OO@@@@@@@&&&&@@@@@@@@@&&&&@@@@@@@@@@@&&&&@@@@@O@%=;;===&&&&@@@@@@@@@@@@@@@&&&@@@@@@@@@@@&&&@@@@@@@@@O@=--------------------------------------=#XOOOOOOOOOOOOO.OXXXX$$$#%%===---------------------*++@@#=--------------------------------=%%**====*%%****%%###+#$$%------------------------------=$XXXXXXXXXXXXXXXXXXXXXXXX$XXXXXXXXXXXXXXX+$$$$$$$++$$$$#######***==========***************======*==******=====-;;;;;;;;;;=====*************%%%%%%%%%%%#######$$$$$$$$$$$$$$$$$$$XXXXXoooooooooooooooooooo                                                ",
"#########+++XX....  ....  ...... ..                          .      ..  ....  o.oo...XXX+X++++++++++++++++++##%%%%%%****%%#########%%%%%%%####$$++++$$#############+++++++++++#######++++#####+++++++++++###%%%%##******######+XXX..oo..o.XXXXXXXXXXXXXX....XX.XXX++##+XXXX.XXX+####XXXoooooooooooooooooooooX$$$$$$##%%==#XXXX#---------------------------------=#++@@@@++@@@@##@@++#&&&#&&&&&&&&&#@+@@+@@@@@@@@@@@&&&@@@@@@@@@@&&@@@@@@@@@@@@@@@@&@@@@@OOOO@OO@+&------------------------------------=%&&@@++++XXXXXXXX$$$#%==----------------------------------------=#XO.OOOOOOO+++++++++++++++++++++++++++++++++++++++++++++$$++@O@@O@+=----------------------------------------%$$$$$$$$$$$$$$$##%%=---------------------------------------------=$OO++OOOOOOOOOOOOOO@O@@@&&&@@@@@@@@@@&&&&@@@@@@@@@@@&&&&@@@OO+#=--------==%##$+XXOOOO@@@@&&&@@@@@@@@@@&&&&@@@@OOO@@O@=--------------------------------------=#XOOOOOOOOOOOOOOOOOOOOOOOO++++#&===;---------------=#+@@#=--------------------------------=%&&*====*%*****%%###+++$#=------------------------------%XXXXXXXXXXXXXXXXXXXXXXXX$$XXXXooXXXXXXXX+++$$$$$$$$#####%****==========****%******************==******=====;;;;;;;;;-=====************%%%%%%%%%#########$$$$$$$$$$$$$$$X$$$$XXXXXXXXoooooooooooooooo                                                    ",
"##+#####++++XX......................                     . . ..    .. ........ .o....XX++++++++++++++++++++###%%%%%%****%%###+#####%%%%%######+$++++$++##############++++++++########++++#####+++++++++++###%%*%##******######+XXX...o....XXXXXXXXXXXXXo......XXXX+$##+XXXX.XX+$####XXoo..oo  ooooXXXXX$###%%===-------;;#..X$=---------------------------------*$++@@++++@#@@#@#@@+#&&&##&&&&&&&&&@@@@@@@@@@@@@@@@&&&&&@@@@@@@@&&&@@@@@@@@@@@@@@&&&@@@@OOOOOOO++*------------------------------------=*&&&&@#########&%**==-------------------------------------------=#+++@@@@@@##&&&&##&&&&&&&&&&&&&&&&&&&&&&&&&#&&&&%%%%%%%%**&&@@@@@@#=------------------------------------------====--====-====-------------------------------------------------=#@@++@@@@@@@@@@@@@@@@@@@&&&@@@@@@@@@@&&&&@@@@@@@@@@@&&&&@@O@@+&=---------;-====*%#@@@@@@&&&&&@@@@@@@@@&&&&@@@@@@@@@+&=--------------------------------------=#XOOOOOOOOOOOOOOOOO@@OOOOOOO++++###%%%*==-----------@+@@#=--------------------------------=%&&*====*%%****%%###+++$#=------------------------------%XXXXXXXXXXXXXXXXXXXXXXXX$XXXXoooXXXXXXXX++$$$$$$$$$###***===========****%%%%%%%%********************===-;;;;;;;;;;-===************%%%%%%%%%%%%######$$$$$$$$$$$$$$$$$$$$XXXXXXXXXXoooooooooooooo                                                        ",
"+##+#+++++++X.......................                        ..    ..... . ..........XX+++++++#####+++++++++###%%%%%%****%####++######%######+$+++X+++$$##############################++++#####+++++++++++###%%*%##%*****######+XXXX....X..XXXXXXXXXXXXXXXXXoXXXXXX$###$XXXXXXX$$####$XXXoooooX$$##%%===-----------------=$XXX#=--------------------------------=##@+@@+++++@+@@@@#++@#######&&&&&#@+#@@@@@@@@@@@@@@@@&&&@@@@@@@@@@@@&&@@@@@@@@@@@@@@@@@OOOOOOOO@#=-------------------------------------=--=========-----------------------------------------------------===========------------------------------------------------=@O@@@@#=-----------------------------------------------------------------------------------------------------------========****%%%%%%%%%%%%**&%##%######&&&&+++++++++#@&&&&@@@@@$%-------------------==*%###&&&@@@OO@@@@@&&&&@@@@@@@OO+&----------------------------------------#XOOOOOOOOOOOOOOOOO@@O@@OOO@O@@@@@@@@@@@@#&&====--;=@O@@+&--------------------------------=%&&&===**%*****%%###+++$#=------------------------------*$XXXXXXXXXXXXXXXXXXXXXXX+XXXXXXXXXXXXXXX++$$#$######%**==========****%%%%%##%%%*****************=====;;;;;;;;;-====************%%%%%%%%%########$$$$$$$$$$$$$$$$$$$$XXXXXXXXXoooooooooooooooo oo                                                        ",
"+##+++++++++X.......................                        ..  ....... ..........XXX+++++++#########+++++#####%%%%%%%**%####++#############+$+++XX++$+###############%##############+++######++++++++++####%%%%##******######$XXXXX...ooXXXXXXXXXXXXXXXXXXXXXXXXX$###$XXXXXXX$$######$###%%====------------------------%X..X%---------------------------------*##@#@@++++++@+####@+@#######&&&&&####&@@@@@@@@@@@@@@@@@@@@@@@@@@@@@@@&&@@@@@@@@@@@@@@@@@OOOOOOOO#=----------------------------------------;------------------------------------------------------------------------------------------------------------------------=@+@@@@%=----------------------------------------------------------------------------------------------------------------------------------;;;;============:===========::::&@@@@@$*-----------------------===:::&&&&&@@&@&&&&&@@@@@@@&&#=----------------------------------------#+OOOOOOOOOOOOOOO@@@@OO@OOO@@@@@&&&&@@@@++++$###%%%#@O@@+&--------------------------------=%&&*===**%*****%%###+++##*------------------------------=$$$XXXXXXXXXXXXXXXXXXXXX+XXXXXXXXXXXXXXX++$$######***==========**%%%%##%%###%%****************====;;;;;;;;;;====**************%%%%%%%%%########$$$$$$$$$$$$$$$$$$$$$XXXXooXXoooooooooooooooooo                                                          ",
"++#+++++++++++........................                       ...    ...  ..  .......X++++++##################%%&%%***%%%%###++++############++++++X+$$#############%%%%***%%%%%%%####+++#######++++++++++###***###******######$XXXX.Xo.o...XXXXXXXX++XXXXXXXXXXXX$$$##$$$$$$$$#%%%***==---------------------------------#XX.$=--------------------------------=###@&@@@@+++++++#@@@###@@&@@&######%*==*#@@@@@@@@@@@@@@@@@@@@@@@@@@@@@@@@@@@@@@@@@@@@@@OOOOOOOOOO#=-----------------------------------------------------------------------------------------------------------------------------------------------------------------=&&&&&&==--------------------------------------------------------------------------------------------------------;;;;;;;;;;----------------------------------------------;=&@@@@@#=-------------------------------------===============------------------------------------------%XOOOOOOOOOOOOOOOOOOOOOOOOOOO@@@&&&&@@@@@@@@@@@@@@OOOO@@@&---------------------------------=%%*====*%%****%%####++$#%-------------------------------#$XXXXXXXXXXXXXXXXXXXXXX+XXXXXXXXXXXXXX$$$$####***==========**%%%%###%##%%%%%**************====;;;;;;;;;-====*************%%%%%%%%%#######$$$$$$$$$$$$$$$$$$XXXXXXXXoooooooooooooooooooooooo                                                            ",
"#+++++++++++++........................                       ...  .....   .. ......XX++++++##################%%%******%%%###++++############++++++++$$#############%%%%%********%%%###+########+++++++++####***%##******######$XXX..oo.oo..XXXXXXX++$XXXXXXXXXXXX$######%%%*==-----------------------------------------=XXXX%---------------------------------%X+++@@@####@++++++@@##@@@@@&&####==----=#@@@@@@@@@@@@@@@@@@@@@@@@@@@@@@@&@@@@@@@@@@&&@@@@++OOOOOO%----------------------------------------------------------------------------------------------------=%%%%%*%**=====-----------------------------------------------=&&:&::=;--------------------------------------------------------------------------------------------------------==========----------------------------------------------;=&@@@@&*=----------------------------------------------------------------------------------------------%+OOOOOOOOOOO@OO@@@@OOOOOOO@O@@@@&&&@@@@@@@@@@@@@@OOOO@O@&---------------------------------=%%*===**%%****%%###+++$#%-------------------------------#$XXXXXXXXXXXXXXXXXXXXXX$XXXXXXXXXXXXX+$$####**==========***%%#######%%%%%***************===-;;;;;;;;-===**************%%%%%%%%#%%########$$$$$$$$$$$$$$$$XXXXXXXXXoooooooooooooooooooo oo                                                              ",
"###+++++++++++++++.XX..................                       ........... .. .....XXX++++++##################%%%******%%%%##+++++###########$+++++++$####%#########%%%%%***********%############+++++++++###***%##%*****%#####$+XX..oo.....XXXXXXX+$$++XXXXXXX$###%*====----------------------------------------------=%XXX+=--------------------------------=++OOOOOO@@@&&&&@@@@+++########%*=-------%+@@@@@@+@+++OO+OO++++##++++++++$#########%%%%%%%%%#+.OOO+%---------------------------------------------------------------------------------------------------%#@@@@@@@@&&&&&&&&&&&&=========;;;;;;;;-----------------------==&&&&&&----------------------------------------------------------------------------------------------------------:&&&&&&&&&&&&&====-;-------------------------------------=&&&&&&=-----------------------------------------------------------------------------------------------%XOOOOOOOOOOO@@OOO@@@OOOOOOOOO@@@&&&@@@@@@@@@@@@@OOOOOOO+#=--------------------------------=%%*===**%%****%%###+++##%=------------------------------#$XXXXXXXXXXXXXXXXXXXXXX$$XXXXXXXXXX$$$###%**=========****#########%%%****************===-;;;;;;;;====*************%%%%%%%%%########$$$$$$$$$$$$$$$$$$XXXXXXXXoooooooooooooooooo                                                                        ",
"######++++++++++++++++OOOOOOOO...............                 ..... ........  ....XXX+++++++#################%%%%%****%%%%##+++++##########+$+++++++$#############%%%%*%*************%##########+++++++++###***%##%*****%#####$+XXX.oo..o..XXXXXXX$$$+++XXXXXX$###%**=**%%%%%%%%%***%%%%%%%%%%%%%%%%%%%%%%%%%%%###$$$$$XXXX#---------------------------------%XXOOOOOOOO@@@@&&##@+++#####*==---------*#+@@@@+++@@@++++++++##&&&&&&&&%*======-===--------=%+.OO+@*--------------------------------------------------------------------------------------------------=#+OOOOO@@@@&&&&@@@@@+@@@@#&&&&%**========---------------------=%&&&&&&=;--------------------------------------------------------------------------------------------------------=&&&&&&&&&&&&&&###%%%=====-------------------------------=&&&:&:-;----------------------------------------------------------------------------------------------%++OOOOOOOOOOOOOO@@@@O@@@O@@@@@@@&&&&@@@@@@@@@@@@OOOOOOOO@=--------------------------------=*%*===*&%%****%%###+++##%=------------------------------%$XXXXXXXXXXXXXXXXXXXXXX$$XXXXXXXXX+$###***========****%#########%%%***************===-;;;;;;;;-===**************%%%%%%%%%%#######$$$$$$$$$$$$$$$$$$XXXXXXXooooooooooooooooooooo                                                                        ",
"##++####+@@@+++++++O++++OOOOOOOOO...........          .         .. . ......  ....XXX+++++++#+################%%%%*******%###++++++########$$$++++++#####%%########%%******************%%#########++++++++###%%*%##%*****######$XXX........oXXXXXXX$$$$+XXXXXXXXXX$######XXX$$$$#####$XXXoXooXXooXXoXooo.XXXooXo.Xooo..XXXXX%---------------------------------#XXXoooooXXXXXX$$######%%==-------------%##$######%%%%%%***=====----------------------------%+XOO+@=-------------------------------------------------------------------------------------------------=%@O@@@@@@@@&&&&&@@@@@@@@@@@&&&&&&&&&&&&&&&&&&&&&============;;=&#&@@@+&---------------------------------------------------------------------------------------------------------=&&&&@@@@&&&&&&&&@@@@@@&&&&&:========--------------------;=&&&&&&------------------------------------------------------------------------------------------------=%%%####$$$$XXXXXXXXXXXXXXX+OOO@@@&@@@@@@@@@@@OOOOOOOOOOO+*--------------------------------=*&&===*&%%****%####+++$#%=------------------------------*$XXXXXXXXXXXXXXXXXXXXXX++XXXXXX$$###%**========****%##########%%***************====;;;;;;;-====**************%%%%%%%#########$$$$$$$$$$$$$$$$$$XXXXXXXXoooooooooooooooooooo                                                                 ...        ",
"#+++#####@@@++++++++++++++OOOOOO+OOO..........      ..   .... ... .. ....... .....XX+++++++#++##############%%%%&******%%###++++++#########$$+++++######%#########%%%*%****************%%%%%######+$+++++###%%*%##%*****######$+XX...o.X..XXXXXXX+$$$$+XXXXXXXXXXX$$##$$XXXXXXX$###$$XXXooooXXXXooooooooXXXXooXX..X.....XX$=--------------------------------=%#######$$$####%*====-------------------=****====-------------------------------------------%+XOO+#=-------------------------------------------------------------------------------------------------=#@O@@@@O@@@&&&&@@@@@@@@@@@&&&&&@@@@@@@@@@@@@@++@@########%%%%%&#+@@@@@=---------------------------------------------------------------------------------------------------------=&@@@@@@@@@&&&&&@@@@OOO@@@@&&&&#####%%%*=====------------;=&&&@+&--------------------------------------------------------------------------------------------------------=======*%%%#####++++++@@@@@@@@@@@@@@@OOOOOOOOOOOO@*---------------------------------***===**%%*****####+++##%=------------------------------=$XXXXXXXXXXXXXXXXXXXXXX+$+++X$$###***========***%%##########%%**************===--;;;;;;;===**************%%%%%%%%%%########$$$$$$$$$$$$$$$$$$$$XXXXXXoooooooooooooooooooo  o                                                      ..          .        ",
"++++@@########++++++++++++++++OO++++OO........      .... ....... .... ..... ......XX+++++++#+##############&%%%%&&**%%*%%###++++++#########$++$++#####%%%##########%%%%%%%%%%%%%%%%%%%%#%%%%%%%%####+++$+###%%*%##******######$+XX..oo.o..XXXXXXX+$$$$+XXXXXXXXXXX$$##++XXXXXX+$####XXX................ ................X+#=-----------------------------------------------------------------------------------------------------------------------------%+OOO+#=------------------------------------------------------------------------------------------------=&+OOOO@@@@@@&&&@@@@@@@@@@@@&&:&@@@@@@@@@@@@@@@@@@@@@@@@@@@@@@@@@@@@@O@#=--------------------------------------------------------------------------------------------------------=#@@@@@@@@@@@&&&&@@@@@@@@@@@&&&&@@@@@@@@@&&&:&&&*=====;;;;:&&&@@+*------------------------------------------------------------------------------------------------------------------------=====******%######$$#$$XXXXX+O@@@@*---------------------------------=**===**%%*****#####++##%=------------------------------=$XXXXXXXXXXXXXXXXXXXXXX$$$$$###**========*****############%%%*******%****====;;;;;;;-===*************%%%%%%%%%#%######$#$$$$$$$$$$$$$$$XXXXXXXXoooooooooooooooooooooo                                                              .   ..    .....   ..",
"++++@@########@@@++@++++++++++OO+++++O........  .   ............  ................XX+++++++#+###++++########&&%%%&*%%%%&%##+++XX+++#####+###++########%%%###################%%%%%%%########%%%%%*%###$$++###%**%##******######$XXXX.ooooo.XXXXXXX+$$$$+XXXXXXXXXXX$###++XXXXXX+$####+XX.........o.......................X+#------------------------------------------------------------------------------------------------------------------------------%@OOO+&=-----------------------------------------------------------------------------------------------=%@+@@OO@@O@@@&&&@@@@@@@@@@@@&::&@@@@@@@@@@@@@@@@@@@@@@@@@@@@@@@@O@@@@O@%=--------------------------------------------------------------------------------------------------------*+@@@@@@@@@@@&&&&@@@@@@@@@@@&&&&@@O@@@@@@@&&&&@++#####%%&&&&&&@@#=---------------------------------------------------------------------------------------------------------------------------------;;;;==========*%###++@@@@*---------------------------------=**===*%%******#####++##%=------------------------------=$XXXXXXXXXXXXXXXXXXXXXX+$$$##**=======****%#############%%%%*%%%%%%***===-;;;;;;;-===*************%%%%%%%%%%%#######$$$$$$$$$$$$$$$$$$XXXXXXXXXooooooooooooooo oooo o                                                                  ..   ....... ...",
"++++###&&&&&&&&@@@++++++++++++O++OOO+OOO.........   ......  .......................XX++++++++###+++++########&&%%*******&##+++X+++++##$+++++++$#####%%%%%###+#+##############################%****%###++####***%##******######$XXXX........XXXXXX+$$$$XXXXXXXXXXXX$###+XXXXXXX++####+XX...........................o.....X+%-------------------------------------------------------------------------=====================-------------------------------=#OOOO+&------------------------------------------------------------------------------------------------=&@@OO@@OO@@@@@&&@@@@@@@@@@@@&::&@@@@@@@@@@@@@@@@@@@@@@@@@@@@@@@@@O@O@O@*--------------------------------------------------------------------------------------------------------=&+@@@@@@@@@@@@&&&@@@@@@@@@@@&&&&@@@@@@@@@@&&:&@@@@OOO@@@@&&&&&@@%=-----------------------------------------------------------------------------------------------=#+###%*===------------------------------------------*$@@@@%;--------------------------------=**===*%%******#####$$$#%=------------------------------=$XXXXXXXXXXXXXXXXXXXXXX$$###*======****#############%%%%%%%***%%%***===;;;;;;--===***********%%%%%%%%%%###########$$$$$$$$$$$$$$$XXXXXXXooooooooooooooooooo ooo                                                        ....   ......   ........  ......",
"++++####&&&&&&&@@@@+++++++++++++++OOOO+O+.........  ...............................XX+++++++++##+++++++#+###&&&&********&##+++XX+++##$+++++++++######%%**%###################################%%***%###++####***%##******%######XXXX..o.....XXXXX++$#$$+XXXXXXXXXXX$###++XX.XXX++####XXXXooo..o.o........................X+=------------------------------------------------------------------------=#######################%%%%%%%%%%*========----------=#OOOO+#------------------------------------------------------------------------------------------------&@OOOOOOOO@@@@@&&@@@@@@@@@@@@&::&@@@@@@@@@@@@@@@@@@@@@@@@@@@@@@@@@O@O@O#=-------------------------------------------------------------------------------------------------------=%@O@@O@@@@@@@@@&&&@@@@@@@@@@@&&&&@@@@@@@@@@&&:&@@@@@@O@@@@&&&&&@@%------------------------------------------------------------------------------------------------%XXOOXXX$$###%*=-------------------------------------=#@@&@%-----------------------------------======*===**%####$$$##=-------------------------------=$XXXXXXXXXXXXXXXXXXXXXX$##**====***%##############%****%%%%%*****===-;;;;;;-===************%%%%%%%%%##########$$$$$$$$$$$$$$$$$XXXXXXXXooooooooooooooooooo                                                             ....   .......  ................",
"++++#####&&&&&####++++++++++++++++++++O+O..........................................XX+++++++++####++++++++####**********%###++X+++++$$++++++++++#####%****%##################################%%***%###++####%%*###******%######+XXX.o......XXXXX++$#$$+XXXXXXXXXXX$###$+XXXXXX+$####+XX..o......o.....oooooooooooooo.X.XX#=------------------------------------------------------------------------%#+@@@@@&&&&&&&@@@@OO@@@@++++++++++++++++#####&&&&&&&&+OOOO+#=---------------------------------------------------------------------------------------------=*@@@@@@@OOOO@@@@&&@@@@@@@@@@@@&&:&@@@@@@@@@@@@@@@OO@@OOOO@@OOOOOOOOO@OOO&=-------------------------------------------------------------------------------------------------------*+OO@@@@@@@@@@@@&&&@@@@@@@@@@@&&&&@@@@@@@@@@&&&&@@@@@@@@@@@&&&&&@&=-----------------------------------------------------------------------------------------------=%+OOOOOOOOOOOOO++##%===-----;-------------------------%@@@@%;---------------------------------------------===*%%%%%*=--------------------------------=$XXXXXXXXXXXXXXXXXXXXX+$#%******##############%*******%%%%%***===-;;;;;--==************%%%%%%%%%######$##$$$$$$$$$$$$$$$$$$$$XXXXXXXooooooooooooooooo            ooo                             oo                .     ..      ......................",
"++++#####&&&&#####++++++O++++++++++++++++O........................................XXX++++++++#####++++++++###%*********%%###+++++++$$$+++++++++######%****%#############++###################%%***%###+#####%%*###*******######+XXX.o..oo.XXXXXX++$##$+XXXXXXXXXXX$###$+XXXXXX$$####+XX......X.......o..X..ooooXXXXXXXXXX#------------------------------------------------------------------------=#++@@@@@@@&&&&&&&@@@@@@OO+++++++OOOOX+XX++++++@##++++@+OOOOX#=---------------------------------------------------------------------------------------------=#@@@OOOOOOOOO@@@&&@@@@&&&&&&&&&&&&@@@@@@@@@@@O@@@OO@@@@@@@@@@OOOOOOO@OO+&-------------------------------------------------------------------------------------------------------*#+OOOOOO@O@@@@@@&&&@@@@@O@@@@@&&&&@@@@@@@@@@&&&&@@@@@@@@@@@&&&&&@&=-----------------------------------------------------------------------------------------------=#++OOOOOOOOOO..++XXX$$$###%==-------------------------%@@@@%-----------------------------------------------------------------------------------------=$XXXXXXXXXXXXXXXXXXXX++##****##############%*********%%%%**===-;;;;;-===************%%%%%%%%%#######$$$$$$$$$$$$$$$$$$$$$$$XXXXXXXooooooooooooooooo           o ooooooo                    o         o             .... ... .   .......................",
"++++&&&&#&&&######@+++++OO++++OO++++++++OOO.......................................XXXX+++++++#####++++++++###%*********%%%##+++++###++++++++++++####%%****%###########++++#####%#############%%***%###+####%***%##*******#####$+XXXXooooXXXXXXXX++$##$+XXXXXXXXXXX$###$XXXXXXX$$####$XXoooooooooooooooo$$$$$$$#%**==$X..X#------------------------------------------------------------------------=#@@@@@@@@@@@@&&&&&&&&@@@@@OOO@OOOOOOOOOOOOO@@@&&&@@@@OOOOOO+#=-------------------------------------------------------------------------------------------;=&&@@@@OOOO@@@@@@@&&@@@@&&&&&&&&&&&&@@@@@@@@@@@OO@@OOOO@O@@O@@@@OOOO@@@OO+*------------------------------------------------------------------------------------------------------=#@O@O@@@@@@@@@@@&&&&@@@@@@@@@@@&&&&@@@@@@@@@@&&&&@@@@@@@@@@@&&&&&+&------------------------------------------------------------------------------------------------%+OOOOOOOOOOOOOOOOOOO@++OO++++##%===-------------------%+@@@#=----------------------------------------------------------------------------------------=$XXXXXXXXXXXXXXXXXXXX++##***#############%*******%%%%****===-;;;--===***%%*****%%%%%%%%%%########$$$$$$$$$$$$$$$$$$$$XXXXXXXXoooooooooooooooooo    o                                      .  o   oo                ....  ..............................",
"+++#&&&&&&&&%####+++++++OOOO++++++++++OOOO........................................XX++++++++######++++++++###%*********%%%##++++######++++++++$######%%%**%###+######+++++####%%%%###########%%***%###++###%***%##*******#####$+XXXXo..XX.XXXXXX++$##$+XXXXXXXXXXX$###$XXXXXXX$$####$XXXoooXX$$$$$###%%*===-------;-#XX.X%------------------------------------------------------------------------%$O@@@@@@@@@@@@@&&&&&&&@@@@@@OOOOOOOOOOOOOOOO@@@&&@@@@@OOOOOO@*-------------------------------------------------------------------------------------------=&&@@@@@OOOO@@@@@@@&@@@@@@&&&&&&&&&&&&@@@@@@@@@@@@@@@@@@@@@@@@@@@@@@@O@@O@#=-----------------------------------------------------------------------------------------------------=#X@O@OOOO@@@@@@@@@&&&@@@@@@@@@@@&&&&@@@@@@@@@@&&&&@@@@@@@@@@@&&&&&+&-----------------------------------------------------------------------------------------------=#XOOOOOOOOOOOOO@OOOO@@++++O+++++###%%%*==--------------%++@@#=----------------------------------------------------------------------------------------=$XXXXXXXXXXXXXXXXXXXX+$#%***#############%%*****%%%*****===---====*****%****%%%%%%%%%%%########$$$$$$$$$$$$$$$$$$$XXXXXooooXXooooooooooooooo o        o                                  ooooo         o    ...    ..... ..............................",
"++@#&&&&&&%&&&&#@+++++OOOOOOOOOO+++OOOOOOO........................................++++++++#########++++++++##&*********%%###+++++######$++++++$#######%%%%%###+#####+#+++#####%%%%%##########%%%*%#####+###%***%##******%#####$+XXXX....XXXXXXXX++$##$+XXXXXXXXXXX$###$$XXXXX$$$%%%#$$$#%%%%*===-------------------=$o..X%-----------------------------------------------------------------------=#+OOOO@@@@@@@@@@@@&&@@@@@@@@OOOOOOOOOOOOOOOOOO@@&&@@@O@OOOOOO+%-----------------------------------------------------------------------------------------==&&&@@OO+++OO+++++@@@@@@@@@@@@@&@@&&&&@++X+++++++++++++++++++#+++++++@O@@@@#=----------------------------------------------------------------------------------------------------=%++OX++++++++OOOO@@&&&@@@OO@O@O@@&&&&@@@@@@@@@@&&&&@@@@@@@@@@@&&&&@#=----------------------------------------------------------------------------------------------=%@OOOOOOOOOOOOOOOOOOOOO@@@@OOOOO@@&&&@@@@##&%===--------%OOO@#=----------------------------------------------------------------------------------------=$XX+XXXXXXXXXXXXXXXXX+##****%###############%%%*%****==========***%******%%%%%%%%%%#######$#$$$$$$$$$$$$$$$$$XXXXXXXXXXoooooooooooooooooooo         oo                o                    o   ....... oo  ....ooo.....................................",
"++##&&&&&&&&&&##@++++OOOOOOO...OOOOOOOOO.........................................++++++++##########+++++++###&**********%###+++++########$+++#########%%*%#############+#####%%%%%%##########%%%%%####++###%***%##*******######+XXXX......XXXXXXX+$##$+XXXXXXXXXX$$###$$$$XX$###%=======---------------------------*Xo..X%-----------------------------------------------------------------------=+X@OOO@@@@@@@@@@@@@@@@@@@@@OOOOOOOOOOOOOOOOOOO@@&&@@@@OOOOOOOO%=----------------------------------------------------------------------------------------=%&&&&@@@+##@@#@@&&&&&&&&&&&&&&&&&&&::=&&&&&%&&%%%%%&&&&&&&&&%%%&&&&&@@O@@@@%=----------------------------------------------------------------------------------------------------=%###+#+++@#++@@@@&&&&&&@@@@@@@@@&&&&&@@@@@@@@@@&&&&@@@@@@@@@@@&&&&@%=----------------------------------------------------------------------------------------------=$OOOOOOOOOOOOOOOOOOOOO@OOOOO@O@@@@@&&@@@++++#####%%*====#OOO@#=----------------------------------------------------------------------------------------=$XX+XXXXXXXXXXXXXXX+X$##*****##$$$$$$$######%%*****=====*******%%%*****%%%%%%%%########$$$$$$$$$$$$$$$$$$$$XXXXXXXXXooooooooooooooooooooooo        oo  oo    o                o   ....         .......o................................................",
"++###&&&***&&&##++++XO............OOOOOO...........................O.O..........O++++++++###########++++++###&*********%%###++++++####################%***%#########+++#######%%%%%#########%%%%*%####++####***###******%######+XXX.....X..oXXXXX+$##$+XXXXXXXXX$$##%%###%%%%*=------------------------------------%XX.XX%-----------------------------------------------------------------------%++OOOOOOOO@@@@@@@@@@@@@@@@@OOOOOOOOOOOOOOOOOOO@@&&@@@@OOOOOO@@#=----------------------------------------------------------------------------------------======*====---------------------------------------------------------;=&&@@&&=---------------------------------------------------------------------------------------------------------------------======================*%%%%%%%%%%%%%%#######&@@&&&&@%----------------------------------------------------------------------------------------------=#++OOOOOOOOOOOOOOOOOOO@O@@OOOOO@@@@@@&&@@@@@@@@@@@@+++++++O+@O#=----------------------------------------------------------------------------------------=$X+XXXXXX++XXXXXXXXXX$#*****%##$$$$$$$#####%***=====*****%%%%%%%%%%%%%%%%########$###$$$$$$$$$$$$$$$$$$XXXXXXXXXXXooooooooooooooooooo       ooooo    oooo     o                     ooo oooo ...o ............o........................................",
"++@##&&&***&&&&##+++..............OOOO......................O...O.OOOO..........O+O++++++#####%######+++++##&%**********%###++++++++######%############%%%##########++++######%%%%%#########%%***%####+#####***###******%######+XXX...o.X.XXXXXXX+$###$$XX$$#####%*=====-------------------------------------------%Xo..$*----------------------------------------------------------------------=#++OOOO+O++@@@@&&&@@@@@@@@@@OOOOOOOOOOOOOOOOOOO@@@&@@@O@OOOOOOO+=------------------------------------------------------------------------------------------;;----------------------------------------------------------------;=&&&:&&=;----------------------------------------------------------------------------------------------------------------------------------------;;;;---------;-=----====&&@&&&&&=----------------------------------------------------------------------------------------------%+++OOOOOOOOOOOOOOOOOOOO@@@@@O@@@@@@@@&&&@@@@@@@@+++++++X++OOO+#=----------------------------------------------------------------------------------------=$$+++$$$$$$++XX+++X++##****####$$$$$$$$###%***********%%%%%%%%%%%%%%%##########$$$$$$$$$$$$$$$$$$$$$X$XXXXXXXooooooooooooooooooooooo        oooooo     oo    oo                    o oo  oo ..............o....................................OOO....O",
"+@###%&&**&&&&&##+++......................................OOOOOO....OOOOOO......OOO++++++######%%####+++++##&&**********%###++X+++++###%%%*%%%######################++++++####%%%%%########%%*****##########***###******%#####++XXXXX.o.Xo.XXXXXX$####$$####%%%*=====--=------------------------------------------=#XX+X$*----------------------------------------------------------------------=#@+@OOO++@@@@@@@@@@@@@@@@@@OOOOOOOOOOOOOOOO+++++@@&@@+++++OOO@@+&=-----------------------------------------------------------------------------------=======;;;--------------------------------------------------------------;=::::&&----------------------------------------------------------------------------------------------;-;=========--------------------------------------------------------=#@&&&&&=---------------------------------------------------------------------------------------------*#++@@OOOOOOOOOOOOOOOOOOOOOOOOOOOOO@@@&&&&@@@@@@@@OOOOOOOOOOOOOO#=----------------------------------------------------------------------------------------*#$#$#######$$$++++++$##***#####$$$$$#####%*********%%%%%%%%%%%%%%######$$$$$$$$$$$$$$$$$$$$$$$XXXXXXXXXXXooooooooooooooooooooo ooooo         oo        o       oooo ooooo    o ......oo o .............o.......................................OO....OO",
"++####&&&&&&&&&##+++......................................OOOOOO....OOOOOOO..........+++++#####&%####+++++##&&*********%%###++XX++++###%%****%######################+++++#####%%%%%%######%%%*****%#########***###******%######+XXXXXX..X..XXXXXX+$###$$XX$$$$$#$###%%#$$$#####%%%%%%####$$$$$$$$$$###########%%%%#$XXXXX*----------------------------------------------------------------------*#++@O@@++@@@@@@@@@@@@@&@@@@@@@@@@++++++++++++++@@&&&@@@##@+OOOOO@=---------------------------------------------------------------------------------=*%##$+#&==*%%%%%*========-------------------------------------------------%&&&&&&-----------------------------------------------------------------------------------------------===#&&&&####%%%*==-------------------------------------------------=#@&&&&&---------------------------------------------------------------------------------------------=#X+O@@OOOOOOOOO+OOOOOOOOOOOOOOOOOO@@@@&&&&@@@@@@OOOOOOOOOOOOOOOO$=----------------------------------------------------------------------------------------%################$$$$$##**######$$$$$###%%%%%%%%%%%%%%%%%%%%%%%####$$##$$$$$$$$$$$$$$$$$$$$$XXXXXXXXXXXXoooooooooooooooooooooo    ooo          o               ooooo oooooo  ooo...........................................................OOO..OO....O.",
"++@##&&&&&&&&&&#@+++...................................O....OOOO......OOOO...........X++++###&##%####+++++##&&**********%##+++XX++++##%%*****%####+++#######++++###+++++++###%%%%%%%######%%%%****%####+###%***%##******%######+XXX.X..oX..XXXXX++$###+X+XXXXXXXX+$####$XXXXX$###%%#$$XXXXXXXXXXXXXXXXXXXXXXXXXXXXXXOX.XX%----------------------------------------------------------------------#$++OO+++++++####$$$+###################%%%%%%%**=========%#OO@OO@%-----------------------------------------------------------------------------;;==&@@O@@@@&&&&@@@@@@@+@@#&@&&=:=============-;------------------------------=#&&@&&&--------------------------------------------------------------------------------------------;=:&&&&&&&&&&&@@@@@@@@@&&&====;;;;-;----------------------------------%$@&&&&=--------------------------------------------------------------------------------------------=%$X$$++XXXX++++++++OOOO++++++OOOOOOO@@@@@@@@@@@OOOO..OOO.OOOOOOOO+%----------------------------------------------------------------------------------------#$$###############$$$$###%#############%%%%%%%%%%%%%%%%%########$$$$$$$$$$$$$$$$$$$$$XXXXXXXXXXXooXXXXoooooooooooooooooooooooo      oo                     o oo    oo  ooo   oo.oooo.....................................................OOOOO..OOOO...O",
"++@+##&&&&&&&&&#@+++........................................OOOOOOOOOOOOOO............++++#####%&####+++++##&&**********%###++XX++++##%******%####+++#######++++###+$+++++###%%%%%%%######%%%%****%###++###%***###******%#####$+XXXXX..XX..XXXXX++$###+X+XXXXXXXXX$###$XXXXXXX$##%%#$$XXXXXXXXXXX...X.XXXXXXXXXXXXXXX..XX%---------------------------------------------------------------------=#$++++++#############%%*==============--------------------=%+OOOO@#=-----------------------------------------------------------------------------=%#OOOO@@@@&&&&@OOOOOOOOOO++@&&&&#+#########%======--------------------------=#@@@@@=-------------------------------------------------------------------------------------------=%#@@@@@@&&&&&&@@@OOOOOOO+++##%*=***===--------------------------------%$&&&&&=--------------------------------------------------------------------------------------------==*%%%%####+####+++++++++++++++OO@OO@@@@@&&&@@@@OOOO...OOOOOOOOOOO+%---------------------------------------------------------------------------------------=#$$$$$###########$$$$$##***##########%%%%%%%%%%%%%%%%%%####$$$$$$$$$$$$$$$$$$$$X$$$XXXXXXXXXXXoooooooooooooooooooooooooooooooo      oo              o       ooo    ooooo.o  o... ooo................................................OO...OOOOOO.OO....OO",
"O+++####%&&&&&&&#+++..................................O..O.OOOOOOOOOOOOOOO............++++##&&%%&&###+++++###&**********%###++X+++++##%%*****%####+++######$++++###$++++++####%%%%%%#######%%%****%###++###%***###*******######+XXXX..ooXXXXXXXX++$###+X+XXXXXXXX+####++XXXX+++###*##++++X....XXXX.................X...XX#---------------------------------------------------------------------=%%%%%%*===============-------------------------------------*#XOO@@@&=;------------------------------------------------------------------------==:&&@@@@@@@@@&&&&@@@@@OOO@@@@@&&::&@@@@@@@@@@@@&&&&@@@&&&&&&==========;;;----;;&@@@@@#=--------------------------------------------------------------------------------------===*#@@@@@@@@@@@@&&&&@@@@@@@OOOO@@@&&&&&@@@@&&&&&&=====;--------------------&+&&&&&:---------------------------------------------------------------------------------------------------------======*%%%%#######$$$$$++++##@@++++XXXXXXXX.XXX++O+O@+&---------------------------------------------------------------------------------------*$X++XX$$$$$$$++++++X+$##****%###%%%%%%%%*%%%%%%%%%%%#####$$$$$$$$$$$$XX$$$XXXXXXXXXXXXXXXooooooooooooooooooooooooooooooooooooooooo  oooo             oo      ooo    oo  o...............o.o...................XX...............OOOOOOO.O..OOOOO....O..OO",
"O+++####%&&&&&&#@+++..................................OO.O.OOOOOOOOOOOOOOO............X+++##&&%%&&###+++++###%**********%###++X+++++##%%******%##+++#######$+++####$++++++###%%%%%%########%%%****%###+####%***##%******%######+XXXXXXooXXXXXXXX++###$+XXXXXXXXX++####++XXXX+++$##%##+++XXX....XXX.................X....X#=---------------------------------------------------------------------=-==--------------------------------------------------------%+OOO@@@%=----------------------------------------------------------------------=*%%&&@@@@@@@@@@&&&&@@@@@@@@@@@@@&&::&@@@@@OO@@O@@&&&&@@@@+OO@@&&##########%%*====&@@O@@#=----------------------------------------------------------------------------------=*%%###+++@O@@@@@@@@@@&&&&@@@@@@OOOO@@@&&&&@@@OOOOOO@@&&&&%%%%*===--------------&+&&&&&:----------------------------------------------------------------------------------------=*%%*===------------------------======**&&&&&&&&##++++XXXXXXXXXXO+O+O@+&---------------------------------------------------------------------------------------%$X+++X$+++++XX+XXXXX+$##****%%%%%***%%%%**%%%%%%%%######$$$$$$$$$$$$XXXXXXXXXXXXXoXXooooooooooooooooooooooooooooooooooooooooooooo   o                oo  o   o.o    o  .. ..............oo...........XXX.......X......O.O.OO..OOOOOOOOO..OOOOOO........O",
"OO++++@#&&&&&&##++++O..............O...................OOOOOOOOOOOOOOOOOOOOO.........O++++##%%%%&&###+++++##&&*********&%###++++++++##%%*****%%###+++#####++++####++++++++####%%%%########%%%%****%###++###%***###******#######+XXXXo..oXXXXXXXXX+$###+XXXXXXXXXX+$###$XXXXX++$$##*##$+++X....XXX..............X.X...X.XX#=--------------------------------------------------------------------====;;-;;;;;;;------------------------------------------------%XXO@@&&&==-----------------------------------------------------------------==*&@@&&&&@@@@@@@@@&&&&@@@O@@@@@@@@@&:::&@@@@OOOO@@@@&&&&@@@@@@@@&&&&@@@@@@@@@@@@@@@@@@@@@@@&&:==&&&&&&&&&&&&==&&**&&&&&&==&&&&**&&&&&&&&&&========&&&&====&&============&&&&##@@@@@@@@@@@@@@@@@@@@@@@&&&@@@@@@@@@@@@@&&&&@@@@@@@@@@@&&&&@@@@@@@&&&&:::===---==&@@&&&&&===-----------------------------------------------------------------------------------=%@@O@@@+#&&*===------------------------------------=====**%%%%#$$$XO+@@+#--------------------------------------------------------------------------------------=#$X++++++++XXXX+XXXX$$$##%%%%%**%%***%%%%%%%%########$$$$$$$$$$$$$$XXXXXXXXXXXXXXoooooooooooooooooooooooo oooo  oo ooooooooooooo                   o oo      o    ..............o..............XXX...............OOOO....O......OOO.OOO....OOOOOOOOO...OO",
"OO+++++#&&&&####+@+OOO..........OOOOOO................OOOOOOOOOOOOOOOOOOOOO..........+++++##%&%%&&###+++++##&&*********&%###++++++++##%%******%###+++#####++++##+++++++++#####%%%%########%%%%****%##+++###%***###******#######+XXX.Xo.XXXXXXXXXX+$###+XXXXXXXXX++$####+XXXX++$###*##$++XXXXX.XXX..............X.XXX...XX+*-------------------------------------------------------------------=%%%%%%%%%**===========----------------------------------------*#X@@@@@&@&*=-------------------------------------------------------------=*%#$@@@&&&@@@@@@@@@@&&&&@@@O@@@@@@@@@&:::&&@@@OOOO@@@@&&&&@@@@@@@@&&&&@@@O@OOO@@O@@@@@@@@@@O@@@@+++++++++OO+++++++++++++++++++O+++++++++OO@+++++++++++++++++++++++++++++@@@@++++@@@@@@@@@@@@@@@@@@@@@@@&&&@@@@@@@@@@@@@&&&&@@@@@@@@@@@&&&&@@@@@@@@@@@&&&###%%**%@@@&&&&@$##%==------------------------------------------------------------------------------=%#+@OOOOOO+X+$$###%*===--------------------------------------------=%@+@@+#--------------------------------------------------------------------------------------*$XX++XXX+XXXXXX+++X+$$####%****%%%%%%%%%%########$###$$$$$$$$$$$$$$$XXXXXXXXoXXoXooooooooooooooooooo ooooooo        o oooXXoooooo           ooo    oooo      oo   .............o................XX...............OO......OO....OOOOOO.O....OOOOOOOOOO..OO",
"..++++++@@#####+@+++OOOOOOOOOOOOOOOOOOOOOO...........OOOOOOOOOOOOOOOOOOOOOO.O.......O++++##&&&&&&&###+++++##&&*********&%###++++++++##%******%####+++#####++++##++++++++++####%%%%########%%%%****%###++###%***###*******######+XXXXXXX.XXXXXXXXX+####+XXXXXXXXX++####$+XXXX++$###*##$XXXXXX..........XX....+++++XXX++OOX+%=------------------------------------------------------------------*#@@&@@@@@@@&&&&&&&&####&&*******============-------------------*+@@@@&@@@@@#===--------------------------------------------------;;===&#+@OOO@@@&&&@@@@@@@@@@&&&&@@@@@@@@@@@@@&&&&&@@@@OOOO@@@@&&&&@@@@@@@@&&&&@@O@OOOOOOOOOO@@@@@@@@@@@@@@@@@@@@@@@@@@@@@@@@@@@@@@@@@@@@@@@@@@@@@@@@@@@@@@@@@@@@@@@@@@@@@@@@@@@@@@@@@@@@@@@@@@@@@@@@@@@@@@@@@@@&&&@@@@@@@@@@@@@&&&&@@@@@@@@@@@&&&&@@@@@@@@@@@&&&@@@@@@@@@@@&&&&@@O@@@@&&&===;;;;----------------------------------------------------------------;-==&@@@@@@@@@@O@@@OOOO@@@@###%*==----------------------------------------%#@@@&=-------------------------------------------------------------------------------------%$XXXXXX++XXXXX++$$$####%%%%**%%%%%###########$$$$$$$$$$$$$$$$$$$$$$$$XXXXXXXooooooooooooooooooooooo ooooo           ooooooXoooooo                     o     . ooo......o......o.................XXX.........X.X....OO....OO.XOOOO..........OO..OOOOOOOOOO",
"..+O+++++++++#++++++++OOXXX+OOOOOOOOOOOOOOOO........OOOOOOOOOOOOOOOOOOOOOOOOO.......OO++##&&&&&&&&##++++++##&&*********&%###+++++++###%******%%###+++#####++++##++++++++++####%%%%########%%%%****%###+####%***###*******######+XXXXXXX.XXXXXXXXX+####++XXXXXXXX++#####+XXXX++$##%*##$++++XX...XXX...XXX..XX+XXX+XXX++O.X+#*------------------------------------------------------------------%#&&&&&&&&@@&&&&&&&@@++++#####+#################%%%%*===**=======#@@@@&&@@OOXX$#%=----------------------------------------------===%#++++++OOO@@@&&&@@@@@@@@@@&&&&@@@@@@@@@@@@&&&&@@@@O@OOOO@@@@&&&&@@@@@@@@&&&&@@@@@OOOOOOOO@@@@@@@@@@@@@&&&&&&&&&&&&&&&&&&&&&&&&&&&&&&&&&&&&&&&&&&&&&&&&&&&&&&&&&&&&&&&&&&&&&&&&&&&&&&&&&&&&&&&&&&@@@@@@@@@@@@@&&&@@@@@@@@@@@@@&&&&@@@@@@@@@@@&&&&@@@@@@@@@@@&&&@@OOOOOO@@@&&&&@@OOOOOOO++##%===---------------------------------------------------------------==*##@@@@@@@@@@@@@@@@@OOOOOOOXXX+$$#%%*==----------------------------------%#@@@&=------------------------------------------------------------------------------------=#$XXXXXX++XXX++++$####%%***%%############$##$$$$$$$$$$$$$$$$$$$$$$$$$X$XXXXXXXXooooooooooooooooooooo o               ooooXXXXooooo          oo       .      ..ooo.....oooo.......................X.X........X+.....+++...O+++X++OOOOO.OO...OOOOOOOOOOOOOOO",
"...++++++++++++++++O++++++++++++OOOOOOOOOOOOOO..OOOOOOOOOOOOOOOOOOOOOOOOOO.........OO+++#&&&%%&&&&##++++++##&&&&********%%##++++++####%******%####+++######+++++##++++++++####%%%%########%%%*%***%###+####%***###*******######+XXXXXXX.XXXXXXXXX+####$+XXXXXXX+++$####+XX++X+$###%%#$XXXXXoooooooooXXXXoo$$$$$$$$###XXXXXX#=----------------------------------------------------------------=&#&&&&&&&&&&&&&&&&&@@@@@@@@&@@@@@@@@@@@OOOOO@@@@@@@@&&&@@@@@@+++@@OO@@&&@@@@OOOO++##&===;;--------------------------------===*&&&&&@@OOOOOOO@@@@@&&&@@@@@@@@@@&&&@@@@@@@@@@@@@&&&@@@@@OOOOOOOO@@&&&&@@@@@@@@&&&&@@@OOOOOOO@@@@@@@@@@&&&&&&&&:&::::::::::::::::::::::::::::::::::::::::::::::::::::::::::::::::::::::&&&&&&&&&&&&&&&&&&&&@@@@@@@@&&&&@@@@@@@@@@@@@&&&&@@@@@@@@@@@&&&&@@@@@@@@@@@&&&@@@@@@@@@@@&&&&@@@@@OOOOO@@@@&&&&&&%====------------------------------------------------;-===&&&&&&@@@@@@@@@@@@@@@@@@@@@@@@@@@@OOOOOO@+@##%%===---------------------------#+@@@&=-----------------------------------------------------------------------------------=%$XXXXX++++$$$$######%%%%%############$$$$$$$$$$XXXXXXXXXXXXXXXXX$$$$XXXXXXXXXooooooooooooooooo                         ooXXXXXoooooo oo o    o o..   .  oo..   o............o.............X.....XXX.......+O...XOOXXOOO.OOOO+++OOO..OOOO...OOOOOOOOOOOOOOO",
"...OOO++++++++++OOOO++++++++@+++++OOOOOOOOOOOO..OOOOOOOOOOOOOOOOOOOOOOOOOO..OO....OOO++@&&&&%*&&&&&#++++++##&&&&********%%##++++++####%******%####+++######+++++##++++++++####%%%%########%%%*****%###+####%***###******%######+XXXXXXX..XXXXXXXX+####$+XXXXXXX+++$####+XXXXXX$###*%#$++XXXXXXXXXXX$####%%*=====----=#X+XXX$#=--------------------------------------------------------------=%++&&&&&&&&&&&&&&&&&@@@@@@@@@@@@@@@@@@@@@@@OO@O@@OO@@&&@@@OOOOO..OOOO@@&&@@@@OOOOOO++++#&&&%%%%**==================**%%##$$$$XX++@@@@@O@@OOOO@@@@@&&&@@@@@@@@@@&&&@@@@@@@O@@@@@&&&@@@@@OOOOOO@O@@&&&&@@@@@@@@&&&@@@@@OOOOOO@@@@@@@@&&&&&&&&&&&&&&&&&&&&&&&&&&&&&&&&&&&&&&&&&&&&&&&&&&&&&&&&&&&&&&&&&&&&&&&&&&&&&&&&&&&&&&&&&&&&&&&&&&&&&&@@@@@@@@&&&&@@@@@@@@@O@@@&&&&@@@@@@@@@@@&&&&@@@@OO@@@@@&&&@@@@@@@@@@@&&&&@@@@@OOOOO@@@@&&&++XX+$###%%*===---------------------------------------==%%##+@@@@@@@@@@@@@@@@@@@@@@@@@@@@@@@@@@@@OOOO+++X+XX$$##%%===---------------------#X@@@&=-----------------------------------------------------------------------------------*#$$XXXX++++$$######%**%%%######$$$$$$$$$$$$$$$$$$XXXXX$XXXXXXXXXXXXXXXXXXXXXXXXooooooooooo     oooo                     ooXXXXXXXoooooo  oo      ..  ..oooo....o...oooo..................XXXXXX..XX++.O.OXXOOX+XXOO++OO..++OO+++OOOOOOOOOOOOOOOOOOOOOOOOOOO",
"+OOOOOOOO+OOOO++O+OO++++@@@@@@+++++OOOO+OOOOOOO.OOOOOO++OOOOOOOOOOOOOOOOOO..O.....OO++@#&&&&****&&&##++++###&&&**********%##+++++#####%******%###+++++####++$+++##++++++++####%%%%########%%%%****%###+++##%***###******#######+XXXXXX...XXXXXXXX$####$+XXXXXXXXXX$###$$XXXXX$$##%%%##$$#####%%%%*==-----------------%$oXXXX$%=-----------------------------------------------------------==&+@@@@@@@@&&&&&&&&&&&@@@@@@@@@@@@@@@@@@@@@@@OOOO@@@@@@@&@@@@@@@@OOOO@@@@&&@@O@O@O@OOO@@@@&&&@OOOOOOOO+++++++OO+++OOOOOO...OOOO@O@@@&&@@@@OOOOO@O@@@&&&@@@@@@@@@@&&&@@@@@@@@@@@@@&&&@@@@@OOOOOO@@@@&&&&@@@@@@@@&&&@@@@@@@@@OO@@@@@@@&&&&&&&&@@@@@@@@@@@@@@@@@@@@@@@@@@@@@@@@@@@@@@@@@@@@@@@@@@@@@@@@@@@@@@@@@@@@@@@@@&&&&@@@@&&@&@@@@&&&&&&&@@@@@@@@&&&@@@@@@@@@O@@@@&&&@@@@@@@@@@@&&&&@@@@OOO@@@@&&&@@O@@O@@@@@&&&&@OOOOOOOO@@@@@&&&@@OOOOOOOOOOOO+@@#&&&&*=============----========&&&&&&&&@@@@@&&&&&&&&&&&&&&&&&&&&&&&&&&&&&&&&&@@@@@@@@@@@@OO@@O@@@@&&&&&====-------------=#+@@+@=----------------------------------------------------------------------------------*#$X+++++$$######%***%%######$$$$$$XXXXXXXXXXXXXXXXXXXXXXXXXXXXXXXXXXXXXXXXXXXXXooooooooo                                 ooXXXXXXXoooo    oo            oooo.o......ooo..................XXX..O...XXOOOO.O..OOO+XOOO+OOO++++OO++OOOOOOOOOOOOOO+OOOOO+OOOOO++",
"++OOOOOOOOOOOOOO+OOOO+++@@@@&@#@++++OOO+OO+OOOOOOOOO++++++@+@@OOOOOOOOOOO...OOO.+O++@@@#&&&&***&&&&##++++###%&&**********%##+++++#####%******%###++++#####++$++###++++++++####%%%%#########%%%****%####+###%***###******#######+XXXXX...XXXXXXXXX$####$XXXXXXXXXXX$###$$$$X$$$#%*==========--------------------------=$XXXXXX$%=-------------------------------------------------------=%%$$++@@@@@@@@@@&&&&&&&&&@@@@@@@@&@@@@@@@@@@@OOOOO@@@@@@@@&&&@@@O@@@OOOO@@@@&&@@OOOOO@O@OO@@&&&@@OOOOOOOO...............OO....OOOOOO@@@&&@@@@OOOOO@@@@@&&&@@@@@O@@@@&&&@@@@O@@@@@@@@@&&@@@@@OOOOOO@O@@&&&&@@@@@@@@&&&@@@@@@@@@OOO@@@@@&&&&@@@@@@@@@@@@@@@@@@@@@@@@@@@@@@@@@@@@@@@@@@@@@@@@@@@@@@@@@@@@@@@@@@@@@@@@@@@@@@@@@@@@@@@@@@@@@@@@@&&&&&@@@@@@@&&&@@@@@@O@@@@@@@&&&@@@O@@@@@@@&&&&@@@@O@@@@@@&&&@@@@@O@O@@@&&&&@@@OOOOOO@@@@@&&&@OOOOOOOOOOOOOOOOOOXX+++++$$$$$#############&&&&&&&&&&&&&&&&&&&&&&&&&&&&&&&&&&&&&&&&@@@@@@@@@@@@@@@@@@@@@@@@@@O@O@@@@@@@#####%*==--------=$XO@+@=---------------------------------------------------------------------------------=#$$+++++$$######%**%########$$$$$$$XXXXXXXXXXXXXXXXXXXXXXXXXXXXXXXXXXXXXXXXXXooooooooooooo                                ooXXXXXXXXooo    oo..oo          ........o.oo............XXXX...XXX.......O+OOO++OOOOOO++OOOOOO++++OO++OOOOOOOOOOOOOO+++OOO++OOOO++",
"++++OOOO++.......X+++++@@&&&&&##@@++OO+@O@+OOOOOOOOO++++@@#@@+++@OOOOO........OO++++&&&&&&&&****&&&##+++++#&%&**********&&##++++++####%%*****%%###$$+#####+++++##+++++++++####%%%%%########%%%%%**%###++###%***%##******######$+XXXX.X.X.XXXXXX+++$###++XXXXX$$$$##%%%%%%%%**=====------------------------------------%$XX++++$#*=-------------------------------------------------==%##+++@@@@@@@@@@@@@@@@@@@@@@@@@@@@@@@@@@@@@@@@@@OOOOO@@O@@@@@@&@@@@OOOOOOOO@@@@&&@@@OOOOOOO@@@@@&&@@OOOOOOOOOOOOOOOOOOOOOOOO.OOOOOOOOOO@@@&&@@@OOOO@O@O@@@&&&@@@@@@@@@@&&&&@@@@OOOO@@@@&&&@@@OOOOOOOO@O@@&&&&@@@@@@@@&&&&@@@@@@O@@@@@@@@@&&&@@@@@@@@@@@@@@@@@@@@@@@@@@@@@@@@@@@@@@@@@@@@@@@@@@@@@@@@@@@@@@@@@@@@@@@@@@@@@@@@@@@@@@@@@@@@@@@@@@@&&&&@@@@@@&&&&@@@@@@@@@@@@@@&&&&@@@@@O@@@@&&&&@@@@@@@@@@@&&&@@@@O@O@@@@&&&&@OOOOOOOO@O@@@&&&@@OOOOOOOOOOOOOOOOOOOOOOOOOOOOOO@@@@@@@@@&&&&&&&&&::&&&&&&&&&&&&&&&&&@@@@@@@@@@@@@@@OOOOOOOO@@@@@@@@@@@@@@@@@@@@@@@@@&&@@@@@@@@@##&&*====%+O+O+@=-------------------------------------------------------------------------------=*#$$+++$#######%#########$$$$$$XXXXXXXXXXXXXXXXXXXXXXXXXXXXXXXXXXXXXXXXXXXXooooooooooooooo                                  oooXXXXXXXoooo         . .o   ......ooo...............XXXXXX.....X...X...+++XX...OO...+OOOOOOOO+OOOOOOOOOO.OOOOOOOOOOOOOOOOOOOOOOOO",
"++++OOOOOO.......O+++++@@&&&&&&#@@@++++@@+++OOOO.OO++++@&&&&##@@@+OOOOOO......OO+++#&&&&&&&&*****&%##+++++#&%&**********&&##++++++####%%*****%%##++$+#####+++++##+++++++++####%%%%%########%%%%***%####+###%****##******%#####$+XXXX.X.X.XXXXXX+++#####$$$$######%*============-=-------------------------------------=#+XXXXXX+$#*=--------------------------------------------=%%#$$+X++++@@@@@@@@@&&@@@@@@@@@@@@@@@@@@@@@@@@@@@@@@OOOO@@@OO@O@@&&@@@@OOOOOOOO@@@@&&@@@OOOOOOO@O@@@&&@@OOOOOOOOOOOOOOO.OO.OOOOOO.OOOOOOOOO@@@&&@@@O@OOOO@O@@@&&&@@@@@@@@@@&&&&@@@@OOOO@O@@&&&@@@@@OOOOOO@O@@&&&&@@@@@@@@&&&&@@@@O@@O@@@@@@@&&&@@@@@@@@@@@@@@@@@@@@@@@@@@@@@@@@@@@@@@@@@@@@@@@@@@@@@@@@@@@@@@@@@@@@@@@@@@@@@@@@@@@@@@@@@@@@@@@@@@@@&&&&@@@@@@&&&&@@@@@@@@@@@@@@&&&&@@@@@O@@@@&&&&@@@@@@@@@@@&&&@@@@OO@@@@@&&&&@@O@OOOOO@O@@@&&&@@OOOOOOOOOOOOOOOOOOOOOOOOOOOOOOO@@@@@@&&&&&&&&&&&&&&@@@@&&&@@@@@@@@@@@@@@@@@@@@@@@OOOOOOOOOOOOOOOOOOO@@@@@@@@@@@@@@@&&@@@@@@@@@++++++$$#++OOO+@=-----------------------------------------------------------------------------=*%##$+++##################$$$$$$$XXXXXXXXXXXXXXXXXXXXXXXX$$XXXXXXXXXXXXXXXXXXoooooooooooooo                                   oooXXXXXXXooo.o      o   ..oo  .....ooo..............XXXXXX....XXOOXXXX..OO+XX...OOXX+OOOO+OOOOO+OOOOOOOOOOOOOOOOOOOOOOOOOOOOOOOOOO",
"@@@++OOOO+.......OOO++@@#&&&&&&#@@+++++@@@++++OO.OO+++@@&&&&&&&&@@++OOOOO....OO+++##&&&&&&&&**&&*&%##+++++#&&&***********%##++++++####%%*****%###++$+#####+++++##+++++++++####%%%%%#########%%%**%%########%***%##******%#####$$XXXX..XXXXXXXXX+X+$###+++++$########%%########%%%***%%%%%#######%%%%%%**%%*****=====*==#+XXXX+X+XX##*=------------------------------------==*%#$+X+X++OO@@@@@@@@@@@@@&&&@@@@@@OOOOOO@@@@&&@@@@@@@@@@@@OOOO@@OO@O@@&&&@@@OOOOOOOOOO@@&&@@@OOOOOOO@O@@@&&@@OOOOOOOOOOOOO......OOOOOOOOOOOOOOOO@@@&&@@@O@OOOO@O@@@&&&@@@O@@@@@@&&&@@@@@OOOOOO@@&&&@@@@@OOOOOO@O@@&&&&@@@@@@@@&&&&@@@O@@OO@@@@@@@&&&@@@@@@@@@@@@@@@@@@@@@@@@@@@@@@@@@@@@@@@@@@@@@@@@@@@@@@@@@@@@@@@@@@@@@OO@@@@@@@@@@OO@@@@@@@@@@@@@@@@@&&&&@@@@@@&&&&@@@@@@@@@@@@@@&&&&@@@@@O@@@@&&&&@@@@@@@@@@@&&&@@@@O@O@@@@&&&&@OOOOOOOOOO@@@&&&@@OOOOOOOOOOOOOOOOOOOOOOOOOOOOOO@@@@@&&&&&&&&@@@@@@@@@@@@@@@@@@@@@@@@@@@@@@@@@@@@@OOOOOOOOOOOOOOOOOOOOOOOOO@@OOO@@@@@&@@@@@@@@@OOOO..OO...OOOO@@====;;;;;;;;;;---------------------------------------------------------------=%#$$$+++$###########$$$$$$$$$$$$$X$XXXXXXXXXXXXXXXXXXXXX$XXXXXXXXXXXXooooooooooooooooooo                                       ooXXXXXXXXoooooo       ...........o..o.......X......XXX.X..O..O+O++++OOOOOOOO.OOO++.OOOOO++OOOO++OOO+++++++OOOOOO+OOOOOO++OO+OOOOOO",
"@@@@@++O+O.......OOO++@@#&&&&&&#@@+++++@@@++++OO.O++++@&&&&&&&&&&&#+++OOO....OOO+@#&&&&*&&&*==&&*&%##+++++#&&&***********%##+++++++###%%******###++++#####+++++##+++++++++####%%%%%#########%%%**%%########%***%#*******######$$XXXooo.XXXXXXXXX++####++XXXXXXXX$$####$$$$$$$$$$#%%%#$$$$$$XXXXXooXX$$$X$$$$$$$$$$$$XXXXXXXXX+++XXX$##%*=-----------------------------=%%#$$XXXX..XX++++@@@@@@@@@@@@@@&&@@@@@@@@OOOO@@@@&&@@@@@@@@@@@@OOOO@@@@@@@@&&@@@@OOOOOOO@OO@@&&@@@OOOOOOO@O@@@&&@@OOOOOOOOOOOOOO....OOOOOOOOOOOOOOOOO@@@&&@@@O@OOOO@O@@@&&&@@@O@@@@@@&&&@@@@@OOOOOO@@&&&@@@@@OOOOOO@O@@&&&&@@@@@@@@&&&&@@@OOOOO@@@@@@&&&&@@@@@@@@@@@@@@@&&&&&&&&&&&&&&&&&&&&&&&&&&&&&&&@@@@@@@@@@@@@@@@@@@@@@@O@@@O@@OO@@@@OOOOOO@@@@@@@@@@@@&&&&@@@@@@&&&&@@@@@@@@@@@@@@&&&&@@@@OO@@@@&&&&@@@@@@@@@@@&&&@@@@O@O@@@@&&&&@OOOOOOOOOO@@@&&&@@OOOOOOOOOOOOOOOOOOOOOOOOOOOO@@@@@&&&&@@@@@@@@@@@@@@@@@@@@@@@@@@@@@@@@@@@@@@@@@@OOOOOOOOOOOOOOOOOOOOOOOOOOOOOOO@@@@@&&@@@@@@OOOOOOOOOOOOOOOOO@@####%%**======-------------------------------------------------------------=%#$$$$$++++##########$###########$$$$$++XXXXXXXXXXXXXXXXXXXXXXXXXXXXXXXoooooooooo oo                                             ooXXXXXXXXXoooo.o  ... ...........o.........XX....XXXXX..O.OOOO++++OOOOOOOOOOOOO+++O+OOOO++OOOO++OOOOOO+OOOOOOOO++++++OO+++O++OOOOO",
"@@@@@+++OOO......OOO++@@##&&&&&&@@@+++@+@@@+++OOOO++++@&&&&&&&&&&&##++OOO.....++@@&&&&&=====&&&&*&&&##+++@@&&&***********%##++++++++###%%****%%###+++#####+++++###++++++++####%%%%########%%%%%%%%%#####+##%***###******%#####$$XXXXoXX.XXXXXXX++$####+XXXXXXXXX++####++XX++++$###*%#$+++XXXXXXX..XXXX..XXXXX.XX+XXXXX+++++XXX++++++$$###%*=====-------------====%%##+XXXX..OOOOOOOOOO@@@@@@&&&&@@@@@@&&@@@@@@@@OOOO@@@@&&@@@@@@@@@@@OOOO@O@@@@@@@&&@@@@OOOOOOO@@@@@&&@@@OOOOOOO@O@@@&&@@OOOOOOOOOOOOOOO..OOOOOOOOOOOOOOOOOO@@@&&@@@O@OOOOOO@@@&&&@@@OOO@@@@&&&@@@@O@OO@OO@@&&&@@@@OOOOOOO@@@@&&&@@@@@@@@@&&&@@@OOOOOO@@@@@@&&&&@@@@@@@@@@&&&&&&&&&&&&&&&&&&&&&&&&&&&&&&&&&&&&&&&@@@@@@&@@@@@@@@@@@@O@@@OOOOOOO@OO@@OOOO@@@@@@@@@@@@&&&&@@@@@@&&&&@@@@@@@@@@@@@@&&&@@@O@@O@@@@&&&&@@@@O@@@@@@&&&@@@@@@O@@@@&&&&@@@@OOOOOOO@@@&&&@@OOOOOOOOOOOOOOOOOOOOOOOOOO@@@@@@@@@@@@@@@@@@@@@@@@@@@@@@@@@@@@@@@@OOOOOOOOOOOOOOOOOOOOOOOOOOOOOOOOOOOOOOOOOOOOO@@@@&&@@@@@OOOOOOOOOOOOOOOOOOO@@@@@&&&&&&&&&&&####&%***=========-;;-;;;-------------------------------==*%#$$XX+++++++++$$$$+$$$############$$$$$++++$$XXXXXXXXXXXXXXXXXXXXXXooooooooo oo  oooo                                             ooXXXXXXXXooooo..ooooo...........oo....XX...XX...XX..XX+XO.XX++++O...OOOOOOOOOOOO++OOOOO+++++O+OOOOOO++OOOOOOOOOOOOOOOOOOOOOO+OOOO+",
"@@@+@+++OOO......OOO++@@##&&&&&&@@+++@++@@++++OO.O++++@&&&&&&&&&&&&#@+++OO....O+@@&&&&======&&&&&&&&##+++@#&&************%##+++++++++###%****%%###+++#####+++++###++++++++####%%%%########%%%%%%*%%#####+##%***###******%######$XXXXoXXXXXXXXXX+++####+XXXXXXXX++$####$+XXXX++$###*%#+++++XXXXXX.XXXX...XXXXXXXX..XXXXXX+++++++++++++######$$$############$$$$$$oooooXXXXXOO+O++OOOO@@@@@@@&&&&&&&@@@@&&@@@&&&@@OOOO@@@@&&@@@@@@@@@@@OOOOO@@@@@@@@&&@@@@OOOOOO@@@@@@&&@@@OOOOOOO@O@@@&&@@OOOOOOOOOOOOOOOOOOOOOOOOOOOOOOOOOOO@@@&&@@@O@OOOOOO@@@&&&@@@OOO@@@@&&&@@@@O@OO@@@@@&&&&@@@@OOOOO@@@@@&&&@@@@@@@@@&&&@@@OOOOOOO@@@@@&&&&@@@@@@@@&&&&&&&&&&&&&&&&&&&&&&&&&&&&&&&&&&&&&&&&@@@@@&&&&@@@@@@@OOOOOO@O@@OOOOO@OOO@OOOOOO@@O@@@@@@@&&&&@@@@@@&&&&@@@@@@@@@@@@@@&&&@@@OO@@@@@@&&&&@@@@@@@@@@@&&&@@@@@@@@@@@&&&&@@@OOOOOOOO@@@&&&@@OOOOOOOOOOOOOOOOOOOOOOOOO@@@@@@@@@@@@@@@@@@@@@@@@@@@@@@@@@@@@@@@@@@@OOOOOOOOOOOOOOOOOOOOOOOOOOOOOOOOOOOOOOOOOOOO@@@&&@@@OOOOOOOOOOOOOOOOOOOO@@@@@@@&&&&&&&&&&#++++#####%**%%%%**==========----------------------===%%%#$$$XXXXXX++X+XX+$$$$$$$$$$$$$$$$$$$XXXXXXXXXXXXXXXXXXXXXXXXXXXXXXXXoooooooooo        oo                                             oXX$$XXXXXXXooo....oo.........o........X....XXXX.XX..X+X+OOX+++OO....OOOOOO+O++OO++OOOOOO++++O+OOOOOOO+OOOOOOOOOOOOOOOOOOOOOOOOOOOO",
"@@@@@+++OOO.......X+++@@##&&&&&###+++@@+@+++O+OOOOO+++@&&&&&****&&&&@@++OOO...+++@&&&&&&&==*=&==&&&&#+++++#&%************&##++++XXX+++##%*****%###+++#####+++++###++++++++####%%%%########%%%%%%*%%########%***###******%######$XXXXXXXXXXXXXXX+++####++XXXXXXXX++####++XXXXX++$##**#$++XXXoooooooooo...XXXX.....XXXXXXXX+XX++++X+++$+$#####$+XX+XXXXX..X....X..XXX...OO...OOOO+++OO@@@@@@&&&&&&&&@@@&&&@@@&&&&@@OO@@@@&&&@@@@@@@@@@OOOO@@@@@@OO@@&&@@@@OOOOOO@@@@@@&&@@@OOOOOOO@O@@@&&@@@OOOOOOOOOOOOOOOOOOOOOOOOOOOOOOOOOO@@@&&@@@OOOOOO@O@@@&&&@@@O@O@@@@&&&@@@@OOOOO@@@@&&&&@@@@OOOOOO@@@@&&&@@@@@@@@@&&&@@@@@OO@@@@@@@@&&&&@@@@@@@&&&&@@@@@@@@@@@@@@@@@@@@@@@@@@@@@@@@@@@@@@@@@@@@@@@@@@@@@@@@OO@@@@@@@@@@@OO@@@@OOOOOOOO@@@@@@&&&&@@@@@@&&&&@@@@@@@@@@@@@@&&&@@@OO@@@@@@&&&&@@@@@@@@@@@&&&@@@@@@@@@@@&&&&@@@@OOOOOOO@@@&&&@@OOOOOOOOOOOOOOOOOOOOOOOO@@@@@@O@@@@@OO@@@@OOO@@@@@OOOOOOOOOOOOOOOOOOOOOOOOOOOOOOOOOOOOOOOOOOOOOOOOOOOOOOOOOOOOOO@@@&&@@@OOOOOOOOOOOOOOOOOOO@@@&&&&@&&&&&&&&&&&&@@@&&&&&&&*&&&&&***%#######***%##%%***=========*%####$$+++++XXXXXXXXXXXXXXXXXXXXXXXXXXXXXXXXXXXXXXXXXXXXXXXXXXXoooooooooooooooo  o o  o                                                     oXX#$$XXXXXo.oooo..oo....oo.ooo..............X......OO+XX+O..OO.O....++OO..++++OOOOO+OOO+OOOO+OO+++OOO+OOOOOOOO++OOOO++++OOOOOOOOOO",
"@@#@++++OOO.......X++++@##&&&&####++++@+@+++OOOOOOO+++@&&&&*****&&&&@@++++O...+++#&&&&&&&=======&&&&#+++++#&%************&##++++XXX+++##%*****%###++######+++++###++++++++####%%%%########%%%%%%*%%#########***%##******%######$XXXXXXXXXXXXXXX+++####+XXXXXXXX++$####++XXXX+++$##*%#$+++XXoX..X..XXXX...XXXX..XX..XXXX+XXXX++++++++++######++XXXXXXX...XXX...XX.X.XXX......++++++OO@@@@@&&&&&&&&&@@@&&&@@@&&&&@@@@@@@@&&&@@@@@@@@@@OOOOO@@@@@@O@@&&&@@@@OOOOO@@@@@@&&@@@OOOOOOO@O@@@&&@@OOOOOOOOOOOOOOOOOOOOOOOOOOOOOOOOOOO@@@&&@@@OOOOOOOO@@@&&&@@@@@O@@@@&&&@@@@OOOOO@@@@&&&&@@@@OOOOO@@@@@&&&@@@@@@@@@&&&@@@@@@@@@@@@@@@&&&@@@@@@@&&&&@@@@@@@@@@@@@@@@@@@@@@@@@@@@@@@@@@@@@@@@@@@@@@@@@@@@@@@@@@@@@@@@@OO@@@O@@@@@@@OOOOOO@@@@@@&&&&@@@@@@&&&&@@@@@@@@@@@@@&&&&@@@OO@@@@@@&&&&@@@@@@@@@@@&&&@@@@@@@@@@@&&&&@@@@OOOOOOO@@@&&&@@OOOOOOOOOOOOOOOOOOOOOOOO@@OOOO@@@@@OOO@@O@OOOOOOOOOOOOOOOOOOOOOOOOOOOOOOOOOOOOOOOOOOOOOOOOOOOOOOOOOOOOOOOOOOOOOO@@@&&@@OOOOOOOOOOOOOOOOOO@@@@@&@@@@&&&&&&&&&&&@@@@&&&&&&&*&&%&%***%%#############$$$$$##%**%#####$$$$++XXXXXXXXXXXXXXXXXXXXXXXXXXXXXXXXXXXXXXXXXXXXXXXXXXXXXXXoooooooooooooo      oo o                                                    ooX$#$$XXXXXX.ooo...oo....ooo..........X............OOOOXXOO.O+OOOOOXX++++..++++OOOO++OOOOOOOO++++++OOO+OOOOOO+++OOOOOO+++OOOOOOOOOO",
"##@@@@++O.........O.++@+####&&&&#+@@++++@@@++OO.OO++@+@#&&******&&&&##++++...OO++#&&&&*====&&&==*&&&@+++++#&%&***********%##++++XXX+++##%****%%##+++######+++++###++++++######%%%%##########%%%%**%###++###%****##*******######$XXXXXXXXXXXXXX++++####++XXXXXXX+++#####+XXXX+++$##**#++++XX.........XXX...XXXXXXXXXXXXXXXX++XXX+XX++++#######+XXXX..XXX.....XXXX.....XO.XXOO++++++OOO@@@@&&&&&&&&&@@@@&&&@@&&&@@@@O@@@@&&&@@@@@@@@@@@OOOOOO@@@OO@@&&@@@@OOOOOO@@@O@@&&@@@@OOOOOOOO@@@&&@@@OOOOOOOOOOOOOOOOOOOOOOOOOOOOOOOOOO@@@&&@@@O@OOOOOO@@@&&&@@@@@O@O@@&&&@@@OOOOOO@O@@&&&&@@@OOOOOOO@@@@&&&&@@@@@@@@&&&@@@@@@@OOO@@@@@&&&@@@@@@&&&@@@@@O@@@@@@@@@@@@@@@@@@@@@@@@@@@@@@@@@@@@@@@@@@@@@@@@@@@@@@@@@@@@@@@@@@O@@@@@@@OOOOO@@@@@@@&&&&@@@@@@&&&&@@@@@@@@@@@@@@&&&@@@O@@@@@@@&&&&@@@@@@@@@@@&&&@@@@@@@@@@@&&&&@@OOOOOOOOO@@@&&&@@OOOOOOOOOOOOOOOOOOOOOOOOOOOOOOOOOOOOOOOOOOOOOOOOOOOOOOOOOOOOOOOOOOOOOOOOOOOOOOOOOOOOOOOOOOOOOOOOOOOOOOOOOOOOOO@@@@@&@@@OOOOOOOOOOOOOO@@@@@@&&&@@@@@@&&&&&&&&&&@@@@@&&&&&***&%%&&**&&#####**%###+++++++##**%%#####+$+++XX+XXXXXXXXX..XXXXooXoXXXXXXXXXXXXXXXXXXXoooooooooooooooooooooooo  o                                                                oX$##$$$XXXXX.ooo.................XX.X....X..XXXXX....OOXX..+O+++++XOO.O++OO++++OOOOO+OOO++O+++++OOOOO++OOOOOOOOOOOOOOOOOOOOOOOOOOOO",
"#@@@@+++O.........OX++++###&&&&##+@@++++@@@++OO.OOO+@+@#&&%***&*&&&&##++++...O+++#&&&&*===&&&&=**&&&@+++++#&%&***********%##++++XXX+++##%****%%##+++######++++###++++++++#####%%%%######%%##%%***%%###++####****##*******######$XXXXXXXXXXXXXX++++####++XXXXXXX+++#####+XXXX+++$##**#$+++XX.X.......XXX...XXXXXXXXXXXXX+XX+XXXX+XX++++#######+XXX...XXX.....XXXX....XX++X.OOO+++++OO@@@@@&&&&&&&&&@@@@&&&@@&&&@@@@OO@@@&&&@@@@@@@@@@@O@OO@O@@@OO@@&&&@@@OOOOOO@@@@@@&&@@@@OOOOOOOO@@@&&@@@OOOOOOOOOOOOOOOOOOOOOOOOOOOOOOOOOO@@@&&@@@O@OOOOOO@@@&&&@@@@@@@@@@&&&@@@OOOOOOOO@@&&&&@@@OO@OOOO@@@@&&&&@@@@@@@@&&&@@@@@@@O@OO@@@@&&&@@@@@&&&@@@@@@OO@@@@@@@@@@@@@@@@@@@@@@@@@@@@@@@@@@@@@@@@@@@@@@@@@@@@@@@@@@@@@@@@@OO@@@@OOOOOOOO@@@@@@&&&&@@@@@@&&&&&@@@@@@@@@@@@@&&&@@@O@OOO@@@&&&&@@@@@@@@@@@&&&@@@@@@@@@@@&&&&@OOOOOOOOOO@@@&&&@@OOOOOOOOOOOOOOOOOOOOOOOOOOOOOOOOOOOOOOOOOOOOOOOOOOOOOOOOOOOOOOOOOOOOOOOOOOOOOOOOOOOOOOOOOOOOOOOOOOOOOOOOOOOOOOOO@@@&&@@OOOOOOOOOOO@@@@&&&&&@@@@@@@@@&&&&&&&&&&@@@@@&&&&&**&&&%&***&&####&**%###+++++++##%*%%#####+$+++XX+XXXXXXXXXXX.XXXXXXXXXXXXXXoooXXooXX.ooX..oooooooooooooooo                                                                        oX$###$$X$XXX.oo.....o......X.......XX....X...XXXXOO...OX...OO++++O+OOOO++++++++OOO+O+OOOO+O++++OOOOO+++OOOO++OOOOOOOOOOOOOOOOOOOOOO",
"##@@@++O..........OX++++##&&&&##@@@@++++@@++++O.OOOO++@#&&&*&&&&*&&###++++O.OO+++#&&&***====&&&**&&&@+++++#&&&***********%##+++XXX+++###%****%%##+++######++++##++++++++++####%%%%%#%%%%%%%%%%%**%%###++###%****##******%######$XXXXXXXXXXXXXXX+++####++XXXXXXX++$####$+XXXX+++$##**#$++XXXXX.....XXXX.....X..XXXXXXXXX+++XXXX+++XX+++#######+XXXXX.XX........XXO.XXX+++XXOOO++++++O+@@@&&&&&&&&&&@@@&&&&@&&&&@@@@@@@@@&&&@@@@@@@@&@@@@@O@@@@@@@@@&&&@@@OOOOOO@@@O@@&&@@@@OOOOOOOO@@@&&@@@OOOOOOOOOOOOOOOOOOOOOOOOOOOOOOOO@O@@@&&@@@O@OOOOOO@@@&&&@@@@OO@@@@&&&@@OOOOOOOOO@@&&&&@@@OO@OOOO@@@@&&&&@@@@@@@@&&&@@@@@@@@O@O@@@@&&&&@@@@&&&@@@@@OO@@@@@@@@@@@@@@@@@@@@@@@@@@@@@@@@@@@@@@@@@@@@@@@@@@@@@@@@@@@@@@@@@@@@@@@@@@@@OOOOOO@@@@&&&&@@@@@@&&&&&@@@@@@@@@@@@@&&&@@@@@OOO@@@&&&&@@@@@@@@@@@&&&@@@@@@@@@@@&&&&@OOOOOOOOOO@@@&&&@OOOOOOOOOOOOOOOOOOOOOOOOOOOOOOOOOOOOOOOOOOOOOOOOOOOOOOOOOOOOOOOOOO.O.OOOOOO..OOOOOO....OO..O.OOOOOOOOOOOOOOOOOOOO@@&&&@@@OOOO@@@@@@&&&&@@@@@@@O@O@@@@&&&&&&&&&&@@@@@&&&&&&*&&&&%***%%####%**%####++++++##%%&&#####$$++++XXXXXXXXXXXXXX.XXXXXXXXXXXXoo..oooooooooooooooooooo    oo               o o                                                        oX$###$$X$XXXX.oo...oo......X.........XX.XXX...O+++O..++X+O.OOOOOOOOOOOO++++++OOOO++O+OO++++++OOOOOO+OO+OO++++OO++OOOO++O+++OO+OOOOO",
"##@@@++O..........OX++++##&&&&##@@@@++++++++++O..O++++@&#&&*&&&&*&%##+++++...O+++#&&&***====&&***&&&#+++++#&&&**&********%##++XXXXX++###%****%%###++######++++##++++++++++####%%%%#####%%%%%%%%**%%####+###%****%#******%######$XXXXXXXXXXXXXXX+++####+XXXXXXXX++$####$++XXX+++$##**##++XXXXX.o...XXXX.X.......XXXXXXXXO++XXXX+++X++++#######+XXXXXXX.........XXOXXXX+++XOOO+++++++++@@@&&&&&&&&&&@@@&&&&&&&&&@@@@@@@@@&&&@@@@@@@&&&&@@@@@@@@@@@@@&&&@@@OOOOOO@@OO@@&&@@@OOOOOOOOO@@@&&@@OOOOOOOOOOOOOOOOOOOOOOOOOOOOOOOOO@@@@@&&@@@O@OOOO@O@@@&&&@@@@OO@@@@&&&@@OOOOOOOOO@@&&&&@@@OO@OOOO@@@@&&&&@@@@@@@@&&&@@@@OOOOO@@@@@@&&&&@@@@&&&@@@@@OO@@@@@@@@@@@@@@@@@@@@@@@@@@@@@@@@@@@@@@@@@@@@@@@@@@@@@@@@@@@@@@@@@@@@@@@@@@@@OOOOO@@@@@&&&&@@@@@@&&&&&@@@@@@@@@@@@@&&&@@@@@O@@@@@&&&&@@@@@@@@@@&&&&@@@@@@@@@@@&&&&@OOOOOOOOOO@@@&&&@OOOOOOOOOOOOOOOOOOOOOOOOOOOOOOOOOOOOOOOOOOOOOOOOOOOOOO.OOOOOOOOOO......O.......O.............OO.OOOOOOOOO@O@OOOOO@@&&&@@@@OO@@@@@@&&@@@@@@OOOOOOO@@@@&&&&&&&&&&@@@@@&&&&&*&&&&&%****&####%**%###++++++++##########$++++XXXXXXXXXXXXXXX.XXXXX.XXoooooooooooooooooo.   oooo              oo     ooooo                                                        oX$####$X$XXXX.oo...ooo..................XXXOOO.++OO..O+++OOOO++OOOOOOO+++O+++OOOO++++O++++++OOOOOOOOOOOOO++++++++++++++++++OO++++OO",
"##@@@++OO.........O.++++#&&&####@+++++@+++++OO....O+++##&&&&&&&&&&&##+++++..OO++@&&&&&&&&&&=******%##++++@#&&&&*&&*******%##+++XX++++###%*****%###++#######+++++##++++++++####%%%%%%#######%%%%***%####+###%***###******%######$XXXXXXX.XXXXXXXX++####+XXXXXXXXX+$####++XXXX+++$##**##$+XXXX..o...XX..........XXX..XXXXXXXXX++++++++++#######+X+XXXX............XXXXXXXXXO++O+++++++@@@@&&&&&:&&&&@@&&&&@&&&&&&@@@@@@@@&&&@@@@@@@@&&&@@@@@@@@@@@@@&&&@@@OOOOOOOO@@@@&&@@@OOOOOOO@@@@@&&@@@OOOOOOOOOOO@@@@@@@@OOOOOOOOOOOOO@@@@@&&@@@OOOOOO@O@@@&&&@@@@OO@@@@&&&@@@OOOOOOOO@@&&&&@@OOOOOOOO@@@@&&&@@@@@@@@@&&&@@@@OOOO@@@@@@@&&&&@@@&&&@@@@@OO@@@@@@&&&&&&&&&&&&&&&&&&&&&&&&&&&&&&&&&&&&&&&&&&&&&&&&&&&&&&&&&&&&&&&&&@@@@@@@OOO@@@@@@&&&&@@@@@@&&&&&@@@@@@@@@@@@@&&&&@@@@@@@@@@&&&&&&&&&&&&&&&&&&&&&&&&&&&&&&&&&@@@@OOOOOOO@@@&&&@OOOOOOOOOOOOOOOOOOOOOOOOOOOOOOOOOOOOOOO..OOOOOOOOOO....OOOOOOOO.................................OOOOOOOOOOOOOOOOO@@&&&@@@OO@@@@@@@@@@OOOOOOOOOOOO@@@@@&&&&&&&&&@@@@&&&&&&&&&&&%&&***&#####%%%###++++++++++++++++++++++++XXXX+X+XXXXXXXXXX.....ooooooooooooooooo                        o   oooooooo                                                        oX$####$X$XXXXX.oooo..................XX...OXOOOOOOO.++++O+OOOOOOO++++++O++++OOO++++O++++OOOOOOOOOOOOOOO++++OO+++OOOOOOO++OOO+++OOOO",
"##@@+@+OO.........O.++++#&&&&&##@+++++@@++++OO...X++++##&&&&&&**&&&&#+++++...+++@&&&&&&&&&&*******&&#++++@#&&&***********%##+++XX++++###%*****%###++######++++++##++++++++####%%%%%%%%#####%%%*****%%######%***###******%######$XXXXXXX.XXXXXXX+++####+XXXXXXXXX+$####++XXXX+++$##**##$+XXXXX.o...XXXX........XX...XXXXXXXXX+X++X++++########+++XX.X..........O...XXXXX.+++++O++++++@@@@&&&&&&&&&&@@&&&&@@&&&&&@@@@@@@@&&&@@@@@@@@@@@@@@@@@@@@@O@@&&&@@@OOOOOOOO@@@@&&&@@OOOOOOOO@@@@&&@@@OOOOOOOOO@@@@@@@@@@@@@@@OOOOOO@@@@@@@&&@@@OOOOOO@O@@@&&&@@@@O@@@@@&&&@@@OOOOOOOO@@&&&&@@@OOOOOOO@@@@&&&@@@@@@@@@&&&@@@@OOOO@@@@@@@&&&&@@@&&&@@@@@@@@@@@@&&&&&&&&&&&&&&&&&&&&&:&&&&::&&&&&&&&::&&&&&&&&&&&&::::&&&&::&&&&&&&&&@@@@@@@O@@@@@&&&&@@@@@@&&&&&@@@@@@@@@@@@@&&&&@@O@O@@@@@&&&&&&&&&&&&&&&&&&&&&&&&&&&&&&&&&@@@@OOOOOOO@@@&&&@OOOOOOOOOOOOOOOOOOOOOOOOOOOOO....OOOOOO.........................................................OOOOOOOOOOOOOOOOO@@&&&@@@OO@@@@@@O@OOOOOOOOOOOOOO@@@@@&&&&&&&&&@@@@@&&&&&&&&&%%&&***%#####%*%###+++++++++++++++++++++XXXXXXXXXXXXXXXXXXo..oooooooo oooo  o                             o  oooooooooo                                                       oX$####$X$XXXXX.ooo...................XX....XXO.OOO.++++++OOOOOOOO+++++++++++OOO+O++O++++OOOOOOOOOO+OOOOOOO+O++++OOOOOOO++OOO+++O+OO",
"&&&@@@+OO.........O.++++@&&&&&&&@@++++@@@@@++O...X++++##&&&&****&&&&#++++O..X+++@#&&**&&&&&***&*&&&&#+++++#&%%***********%&#++XXXX+++###%****%%##+++######+++++###++++++++######%%%%#######%%%*********###%%***###*******######$+XXXXXXXXXXXXXX++$####++XXXXXXXX+$####$+XXXX++++##**##$++XX...o....XXXXXXXXXXXXX..XXXXXXXX++X+XXXX+++########++X....X.XX....XXOO..O+XO.XOO+OOOOO++++@@@@&&&&&:&&&&@@&&&&&@&&&&&@@@@@@@@&&@@@@@@&&&@@@@@@@@@@@@@@@@&&&@@@OOOOOOO@@@@@&&&@@OOOOOOO@@@@@&&@@@OOOOOOOO@@@&&&&&&&&@@@@@@@@@@@@@@@@@@&&@@@OOOOOO@O@@@&&&@@@@@@@@@@&&&@@@OOOOOOOO@@@&&&@@OOOOOOOO@@@@&&&&@@@@@@@@&&&@@@@@@@@@@@@@@@&&&&@@@&&&&@@@@@@@@@&&&&&&&&&&&&&&&&&&&&&&&&&&&&&&&&&&&&&&&&&&&&&&&&&&&&&&&&&&&&&&&&&&&&&&&&@@@@@@@@@@@@&&&&@@@@@@&&&&&@@@@@@@@@@@@@&&&&@@O@O@@@@@&&&&&&&&&&&&&&&&&&&&&&&&&&&&&&&&&@@@@OOOOOOO@@@&&&@OOOOOOOOOO.OOOO.OOO..OOOO........................................................................OO.O..OOOOOOOOOO@@&&&@@OOO@@OOOOOOOOO.OO......OO@@@@@&&&&&&&&&@@@@&&&&&&&&%%%%&&****&###&**%###+++++++++++++++++++++++++XX++++XXXX...o.ooo. oooo    oo                               o oooooXXXXXooo                                                      XX$####$X$XXXXX............XX.........XXXX.OXX++.X..++++++XXOO+O++++O+OOOO++OOOOOOOOOO++OOOO+OOOOO+O++OOOOOOOO++OOOOOOOO++OOOO+O++OO",
"&&&@@@+OO.........OOO+++#&&&&&&&@@++++@@@@@+++....++++##&&&*****&&&&#++++O..X++++#&&*&&*&&&***&&&&&&#+++++##%%***********&&#+++XXX++####%****%%##+++#######+++####++++++++#################%%%*****====********###*******######$+XXXXXXXXXXXXXX++$####++XXXXXXX++$####$+XXX+++++##**##$++XX...o...XXXXX.XXXXXXXXXXXXX+++XXXXXXXXXX+++#######+++XX...XXXXXX...XXX.OO++O..OO+OOOOOO+++@@@@&&&&&:&&&&@@&&&&@@&&&&&@@@@@@@@&&@@@@@@&&&@@@O@@O@@@@@@O@@&&&@@@OOOOOO@@@@@@&&&@@OOOOOOO@@@@@&&@@@OOOOOOOOO@@@@@@@@@@@@@@@@@@@@@@@@@@@@&&@@@OOOOOOOO@@@&&&@@@@@@@@@@&&&@@@OOOOOOOO@@@&&&@@OOOOOOOO@O@@&&&&@@@@@@@@&&&@@@@@@@@@@@@@@@&&&&@@&&&&@@@@@@@@@@&&&&&&&@@@@@&&&&@@@@&&&&@@@@@@&&@@@@@@@@@@@@@&&&@@@@@@@@@@@@@@&&@@@@&&&&&@@@@@@@@@@@&&&&@@@@@@&&&&&@@@@@@@@@@@@@&&&&@@O@@@@@@@&&&&&&&&@&@@@@&&&&&&&@@@@@@@@&&&&@@OOOOOOOOO@@@&&&@OOOOOOOO...OOO...OO...O.O........................................................................OOO...OOOOOOOOOO@@&&&@@OOO@@OOOOOOOOOOOOO...OOOO@O@@@&&&&&&&&&@@@@&&&&&&&*&%%%&*****&###%**%###+++++++##########++++++++++++++XXXX..o.oooo    oo                                     oooooooXXXXXXoooo                                                    XX$####$$$XXXXX...........XXX.........XX+..OXXX++X..O+++++XXOO++++++OOOOOO+OOOOOOOOOOO++OOOO+OOOOO+O++OOOOOOOO+OOOOOOOO+++OOOOOO+OOO",
"&&#@+@+O............++++@&&&&&&##@@+@+++@@@+++....++++##&&%***&&&&###+++OO...O+++##&&******&&&&&&&%&#+++++##%&**********&&%###++XX+++###%****%%##+++######++++####+++++++++#################%%******************##******%#######+XXXXXXXXXXXXXX++$###$++XXXXXXXX+$####$+XXXXX++###**##++++XXoo...o..XX.X.XXXXXXXXXXXXXXXXXXX+XXXXX++++#######++X......X........XOO.OXOO+OOO+++OOOOO+@@@&&&&&&:&&&&@&&&&&&@@&&&&&@@@@@@@&&&@@@@&&&&@@OOOO@@@@@@@@@@&&@@@@OOOOOOOO@@@@&&@@@OOOOOOO@@@@@&&@@@OOOOOOOOOOOO@@@@@@@@@@@@@@@@@@@@@@@@@&&@@@OOOOOOOO@@@&&&@@@@OO@@@@&&&@@@OOOOOOOO@@@&&&@@@OOOOOOO@@@@&&&&@@@@@@@@&&&@@@@@@@OO@@@@@@&&&&@@@&&&&@@@@@@@@@&&&&@@@@@@@@@@@@@@@@@@@@@@@@@@@@@@@@@@@@@@@@@@@@@@@@@@@@@@@@@@@@@@@@@@&&&@@@@@O@@@@@&&&&@@@@@@&&&&&@@@@@@@@@@@@&&&&@@@OO@@@@@@&&&&@@@@@@@@@@@@@@@@@@@@@@@@@@&&&@@@@OOOOOOO@@@&&@@OOOOOOOOO....OO.......OOO......OOOO...........................................................OOOO...OOOOOOOOOOOO@@&&&@@OO@@@OOOOO...OOO...OOOOOOO@@@@&&&&&&&&&@@@@@&&&&&**&%&&&*****&&##%**%##++++++####%%%%#################$$XXXXX.....ooo..o                                    oooooo.oXXX$$$$Xo                                                      XX$####$$$XXXXX.....XX...X...X...XXX.X...+O.XXX.OO+XX+..OOOOOO+OOOOO++++++OOOOOO+++OO+O+O+++OO+OOOO+OOOOOOOOOO++OOOOOO+++OOOO+++OOOO",
"&&#@++OO............++++##&&&&###+@+@@++@@@+++....+++++#&&&%%%&&&&##++++++...O+++@&&&***&*&&&&&&&&%&#+++++##&&**********&&%###++XX+++###%****%%#++++######++++####+++++++++#################%%****%%#######%****##******%#######+XXXXXXXXXXXXXX+++###$+++XXXXXXX+$####$+XXXXX++###**##$++XX.oo....ooXX.X..XXXXXXXXXXXXXXXXXXXXXX+X++++#######++X......XX.......XXX.OOOOOOO++++OOOO++@@@&&&&&&::&&&&&&&&&&@@&&&&@@@@@@@&&&&@@@@&&&&@@OOOO@@@@@@@@@@&&&@@@OOOOOOOO@@@@&&&@@OOOOOOO@@@@@&&@@@OOOOOOOOOOOO@@O@@@@@@@@@@@@@@@@@&&@@&&&@@@OOOOOOOO@@@&&&@@@@OO@@@@&&&@@@OOOOOOOO@@@&&&@@@OOOOOOO@@@@&&&&@@@@@@@@&&&@@@@@@@OO@@@@@@&&&&@@@&&&&@@@@@@@@@&&&@@@@@@@@@@@@O@@@@@@@@@@@@O@@@@@@@@@@O@@@@@@@@OO@@@@@@@@@@@@@O@@@@@@&&&@@@@@O@@@@@&&&&@@@@@@&&&&&@@@@@@@@@@@@&&&&@@@OO@@@@@@&&&&@@@@@@@@@@@@@@@@@@@@@@@@@@&&&@@OOOOOOOOO@@@&&@@OOOOOOOOO....OO.......OOO......O..O.........................................................OOOOO....OOOOOOOOOOOO@@&&&@@OO@@@OOO.....OOOO..OOOOOO@@@@@@&&&&&&&&&@@@@&&&&&**%%&&&*****&&##%**%##+++++###%%**%%%%%%%%###########$$+XXXXXXXXXXXXXXooo         o                        oooooooXXX$$$$$Xooo                                                   oXX$####$$$XXXXXX....XX.X.X....XX..XX.X...O+XXXX.OO++X+OOOOOO++++OOOO++++++OOOOOO+O++O+OOO+++OO++OOOOOOOOOOOOOO++OOOOOO++OOOO++++OOOO",
"&##@@+OO............++++#@&&#####+++@+++++@+++OO.O.++++#&&&&%&&&&&##++++OOOOOO++@@&&&**&&&&&*&**&*%&#@++++#&&&**********&&&##+++XX+++##%%****%##+++++#####++++###++++++++++#################%%***%%##########%*%********%#######+XXXXXXXXXXXXXX++$###$+XXXXXXXX++$####++X+XXX++###**##+++XX........XXXXXXX.X.XX.XXXXXXXXXXXXXXX+++++++#######+++XXXX.XXX........XOOOXOOOOO+++++O++++@@@@&&&&&::&&&&@@&&&&@&&&&&&@@@@@@&&&&@@@&&&&&&@@O@@@@@@@@@@@@&&&@@@OOOOOOO@@@@@&&&@@OOOOOOOOO@@@&&@@OOOOOOOOOOOOOOOOOOO@@@@@@@O@@@@@@&&&&&&@@@OOOOOOOOO@@@&&&@@@@OO@@@@&&&@@@OOOOOOOO@@@&&&@@@OOOOOOO@@@@&&&&@@@@@@@@&&&@@@@@O@OO@@@@@@&&&&@@@&&&&@@@@@@@@@&&&@@@O@OOOOOOOOOOOOOOOOOOOOOOOOOOOOOOOOOOOOOOOOOOOOOOOOOOOOOOOO@@@@@@&&&&@@@@O@@@@@&&&&@@@@@@&&&&&@@@@@@@@@@@@&&&&@@@OO@@@@@@&&&&@@@@@@@@O@@@@@@@@@@@@@@@@@&&&@@OOOOOOOOO@@@&&&@OOOOOOOOOOOO.OOOO......OO..O.O......................................................................OOOOOOOOOOOOO@@&&&@@OO@@@OO..OOOOOOOO.OOOOO@@@@@@@@&&&&&&&&&@@@@@&&&&*%&&&&&&&****&%%%**%###+++####%%%%%%%%***%############$+XXXXXXXXXXXXXXXooooo    oooooo           ooo        ooooo.XX$$$##$XXoo                                                    XX#####$$$+XXXXXX...........XXXX....X.X.XXXX.XXOOOO+OOOOOO++++++++OOO+OOOOOO++O+OOOOOOOOOO++OOOOOOOOOOOOOOOOOOO+OOOOOOOOOOOOOO+OOOO+",
"&##@+++O...........XO+++##&&&####++++++++@++++OOOOO++++#&&&&%&&&&&##++++O+OOO+++@@&&&&**&&&&*****&%&#+++++#&%&**********&&&##+++XX+++##%%****%##+++++####+++++##+++++++++++#################%%***%%###++#######%********%#######+XXXXXXXXXXXXXX++$###$+XXXXXXXX++$####++++XXX++###**##$+++XX.......XXXXX.XXX.XXXXXXXXXXXXXXX++X+++++++#######+++XXXXXXXX....OO..OO++X++OOOO+++OO++++@@@@&&&&&::&&&&@@&&&&&&&&&&&@@@@@@&&&@@@@@&&&&&@@@@@@@@@@@@@@@&&&@@@OOOOOOO@@@@@&&&@@OOOOOOOOO@@@&&@@OOOOOOOOOOOOOOOOOOO@@@@@@OO@@@@@@&&&&&&@@OOOOOOOOOO@@@@&&@@@@OO@@@@&&&@@@OOOOOOOO@@@&&&@@OOOOOOOO@@@@&&&&@@@O@@@@&&&@@@@@OOOO@@@@@@&&&&@@@&&&&@@@@@@@@@&&&@@@OOOOOOOOOOOOOOOOOOOOOOOOOOOOOOOOOOOOOOOOOOOOOOOOOOOOOOOOOOOO@@@@@&&&@@@@O@@@@@&&&&@@@@@@&&&&&@@@@@@@@@@@@&&&&@@@OO@@@@@@&&&&@@@@OO@OOOOOOOO@OO@@@@O@@@&&&@@OOOOOOOOO@@@&&&@OOOOOOOOOOOOOOOOO.......OO.OOOO......................................................OOOOO.....OOO.OOOOOOOOOOOOOO@@&&&@@OO@@@OOOOOOOOOOOOOOO@@@@@@@@@@@&&&&&&&@@@@@@@&&&&&&&&&###&%****%%****##+++++###%%%%%#%***%#############$++XXXXXXXXXXXXXXXXoooooooooXXXo           oooo     ooooo.XXXX$$###$XXoo                                                    XX#####$$$++XXXXX..X....X...XXXX....XX.OXX+XXXOOOOO+OOOOOO+++++++OOOOOOOOOOO++++OOOOOOOOOO++OOOOOOOOOOOOOOOO+OOOOOOOOOOOOOOOOOOOO+O+",
"&&#@@+OO...........X++++####&&&&@@++++++++@++OOOO+O+++@@##&&&&&&&&##++++++O.OO++##&&&&&***&&&&**&&&&#+++++#&&&************%##++++++++##%%****%##+++++#####++$++#+++++++++++##########+######%%****%###++########********#######$+XXXXXXXXXXXXX+++$###$+XXXXXXXX++$#####++XXXX+$###**##++++XX.ooo...XXXX.XXXXXXXXXXXXXXXXXXXXXXX+XX+++#######++XX.XXXXXXXXX.OOOXXXXXXXXOO++++O++++OO+@@@@&&&&&::&&&&@&&&&&&&&&&&&@@@@@@&&&&&@@@&&&&@@@@@@@@@@@@@@@@&&&@@@OOOOOOO@@@@@&&&@@OOOOOOOOO@@@&&@OOOOOOOOOOOOOOOOOOO@@@@@@@@@@@@@@@@@@@@@@OOOOOOOOOOOO@@@&&@@OOOO@@@@&&&@@@OOOOOOOO@@@&&&@@OOOOOOOO@@@@&&&&@@@@@@@@&&&@@@@OOO@@@@@@@@&&&&@@@&&&&@@@@@@@@@&&&@@OOOOOOOOOOOOOOOOOOOOOOOOOOOOOOOOOOOOOOOOOOOOOOOOOOOOOOOOOOOOO@@@@@&&&@@@@O@@@@@&&&&@@@@@@&&&&&@@@@@@@@@@@@@&&&@@@OO@@@@@@&&&&@@@@OOOOOOOO@@OOOOOOOO@@@@&&&@@@OOOOOOOO@@@&&&@OOOOOOOOOOOOOOOOOOOOO..OOOOO.O......................................................OOOOOO.......OOO...OOOOOOOOO@@@&&&@@OO@@@OOOOOOOOOOOO@@@@@@@@@@@@@@&&&&&&&@&@&&&&&&&&&&&####&&&&&&&%%****##++++++###%%%###**%##############$$+XXXXXXXXXXXXXXXXXXoooooooooooo          ooooo  o ooooXXXXXX$$####XXooo                                                 o XX######$$XXXXX.XXXX..........XXXX..XXXXX...XXOO.X++++OOOO+++OOO++++OOOOOOOO++OOO+OOOOOOOOOO++OOOOOOOOOOO++O++OO++++++OOOOOOOO+OOOO+",
"&&#@+@+O...........X++++####&&&&@+++++++++@++++O.OO++++####&&&&&&&##+++O++..OO++##&&&&&*****&&**%&&&#+++++##&&************%##++++++++##%%****%##+++++#####++$+++#++++++++++############+####%%****%##+++#####%%%********#######$++XXXXXXXXXXXX+++$###$+XXXXXXXX+++#####+XXXXX+$###**##++++X..ooo...XXX......XXXXXXXXXXXXXXXXXXXXXX+++#######++XX..XXXXXXXX.OOOXXXXXXXXO+++++O+++OO@O@@@&&&&&&:&&&&&@&&&&&&&&&&&&@@@@@@&&&&@@@&&&&&&@@@@@@@@@@OO@@@&&&@@@OOOOOOO@@@@@&&@@@OOOOOOOOO@@@&&@OOOOOOOOOOOOOOOOOOO@@&&&@@@@@@@@@@@@@@@OOOOOOOOOOOOO@@@@&&@@@@OO@@@@&&&@@@OOOOOOOO@@@&&&@@OOOOOOOO@@@@&&&&@@@@@@@@&&&@@@@OOO@@@@@@@@&&&&@@@&&&&@@@@@@@@@&&&@OOOOOOOOOOOOOOOOOOOOOOOOOOOOOOOOOOOOOOOOOOOOOOOOOOOOOOOOOOOOOO@@@@@&&&@@@@O@@@@@&&&&@@@@@@&&&&&@@@@@@@@@@@@&&&&@@@O@@O@@@@&&&&@@@@O@OOOOO@@OOOOOOOOO@@@@&&&@@@@OOOOOOO@@@&&&@OOOOOOOOOOOOOOOOOOOOOOOOOOOOO...O...................................................OOOOO.........OOO..OOOOOOOOO@@@&&&@@OO@@@+OOOOOOO@@@@@@@@@@@@OO@@@@&&&&&&&&&&&&&&&&&&&&&&###########&****####+++####%%%###**###############$$+XXXXXXXXXXXXXXXXXXXXXXXXXXooooo         ooo  ooooooooXXXXX+$#####XXoooo                                                o XX######$$+XXXX.XXXXXX........X.XX..XXXXX..O.OOOXX+++++.OO+++OOO++++OOOO+OOOOOOO++OOOOO+OOOO+OOOO+OOOOOO++++++OO++++++OOOOO+OO++OOOO",
"&&#@@@+O...........X++++#&###&&&@+++++@++++++++O..++++++####&&#&&###+@+O++...O++##&&&&******&&&**&&&@+++++##&&************%##++++++++##%%***%%##+++++#####++$+++#+++++++++++##########+#####%%****%##+$$###%************########$+XXXXXXXXXXXXX+++###$++XXXXXXXX+$#####++XXXX+$$##**##++++X..o......XX......XXXXXXXXXXXXXXXXXXXXXX+++#######++XX....XXXXXXX..XXX..XXOOOO++OOOO++OO@@@@@&&&&&::&&&&&&&&&&&&&&::&&@@@@@@&&&&@@@@&&&&@@@@@@@@@@@OOO@@&&&@@@OOOOOOO@@O@@&&@@@OOOOOOOOO@@@&&@OOOOOOOOOOOOOOOOOO@@@&&&@@@@OOO@@@@@@@@OOOOOOOOOOOOO@@@&&&@@@@OO@@@@&&&@@@OOOOOOOO@@@&&&@@OOOOOOOO@@@@&&&&@@@@@@@@&&&@@@@@OO@@@@@@@@&&&&@@&&&&@@@@@@@@@@&&&@OOOOOOOOOOOOOOOO..OOOOOOOOOOOOOOOOOOOOOOOOOOOOOO....OOOOOOOOOO@@@@@&&&@@@@@@@@@@&&&&@@@@@@@&&&&@@@@@@@@@@@@@&&&@@@OOOO@@@@&&&&@@@@@@OOOOOO@OOOOOOOOO@@@@&&&@@@@OOOOOOO@@@&&&@OOOOOOOOOOOOOOOOOOOOOOOOOOO......OO.................................................OOOO.........OOOO..OOOOOOOOO@@@&&&@@O@@@@+OOO+O@@@@@@@OOOOOOOOOOO@@&&&&&&&&&&&&&&&&&&&&&######++++#&&****####++####%%****#**################$$+++XXXXXXXXXXXXXXXXXXXXXXXXXXooo        oooo ooooooooXXXXX$$#####$Xooooo                                                 XX######$$+XXX....XXXXXX.X......XXXXX.XX+OOOOO...++++XXOOO++++OOOO++++++++OOOOOO+++OOO++++OO++OOOO+OOOOOOOO+++OOOOOO++OOOO++OO++OOOO",
"&&#@@@OO............+++@&&###&&#@+++++@@@@@++++O..++++++#####&#####++++OO+...O++##&&&&&*****&&***%&&#+++++###&************%##++++++++###%***%%##+++++#####++++++++++++++++++#########++#####%%***%###+$$##%%***********%########$++XXXXXXXXXXXX+++###$++XXXXXXXX+$#####$XXX+X+$$##**##+++XXX.oXX.oo.XX...X..XXXXXXXXXXXXXX++++XXXX++$#######++XX....XX..XX....XXOOXO+OOO++OOOO++OO@@@@@&&&&&::&&&&&&&&&&&&&:::&&@@@@@@&&&&@@@@@@@@@@@@@@@@@@@@@@@@&&&@@@OOOOOOO@OO@@&&@@@OOOOOOOOO@@@&&@OOOOOOOOOOOOOOOOOO@@@&&&@@@OOOOO@@@@@OOOOOOOOOOOOOOO@@@&&&@@@@OO@@@@&&&@@@OOOOOOOO@@@&&&@@@OOOOOOO@@@@&&&&@@@@@@@@&&&@@@@@OO@@@@@@@@&&&&@@&&&&@@@@@@@@@@&&&@OOOOOOOOOOOOOOOO..OOOOOOOOOOOOOOOOOOOOOOOOOO..OO....OOOOOOOOOO@@@@@&&&@@@@@@@@@@&&&&@@@@@@@&&&&@@@@@@@@@@@@@&&&@@@OOOOO@@@&&&&@@@@OOOOOOOOOOOOOOOOOO@@@@&&&@@@@OOOOOO@@@@&&&@@OOOOOOOOOOOOOOOOOOOOOOOOOO......OO.................................................OOOO.........OOOOOOOOOOOOOOO@@@&&&@@OO@@@+O++@@@@@OOOOOOOOOOOOOOO@@@@@&&&&&&&&&&&&&&&&&@++++++++++#&&****####+#####%%****%%##################$$++++XXXXXXXXXXXXXXXXXXXXXXXXooo        ooo oooooooooXXXXX$######$Xoooooo                                              o XX##%###$$XXXXX.X.XXXXXXXX.X....XXXX..X+OOOO...OOO+++XX+OO++++OOOO++++++++OOOOOO++OOOO+++++++++OOO++OOOOOO++OOOOOOOO+OOOOOO+OO++OOOO",
"&&@@@+OO............++++@&###&###+++++@+@@++++O...X+++++++########+++++OOO..X++++##&&******&*****%###+++++##%%************%##++++++++##%%%***%##+++++#####+++++++++++++++++#########++######%%%%*%###++$###%***********%########$$+XXXXXXXXXXXX++$###+++XXXXXXXX+$$####+XXXXX++###**##++++XXoo..X..XXo.....XXXXXXXXXXXXXX+++XX+XX+++++######+++XXXXXXX..XXXX..XXOOOOOOO+++++O++++OOO@@@&&&&&:::&&&&&&&&&:&&:::&&@@@@@@&&&&&&@@@@@@@@@@@@@@@@@@@@@@&&@@@@OOOOOOOO@@@@&&&@@OOOOOOOOOO@@&&@OOOOOOOOOOOOOOOOOO@@@&&&@@OOOO@O@@@@@OOOOOOOOOOOOOOOO@@&&&@@@@OO@@@@&&&@@@OOOOOOOO@@@&&&@@@OOOOOOO@@@@&&&&@@@@@@@@&&&@@@@@OOO@@@@@@@&&&&@@@&&&&@@@@@@@@@&&&@OOOOOOOOO.OOO..OOOOOOOOOOO..O.OOOOO.OOOOOO....OOOOOOOOOOOOOOOO@@@@@&&&@@@@@@@@@@&&&&@@@@@@@&&&&@@@@@@@@O@@@@&&&@@@@@OO@@@@&&&&@@@@OO@OOOOOOOOOOOOOOO@@@@&&&@@@@OOOOO@@@@@&&&@@OOOOOOOOOOOOOOOOOOOOOOOOO.....OO....O..............................................OOO...........OOOOOOOOOOOOOO@@&&&@@@@O+@++++++OOOOOOOOOOOOOOOOOOO@@@@@@@@@@@@@@@@@@@@+@+++++++++++#&&****%#######%%**%%***#####%#############$$$$$$$+XX+X++XXXXXX+XXXXXXXXXo.ooo    ooXXoooooooXooXXXXX$$######$Xoooooo                                              ooXX#####$$$++XXXXX.........X.XXXX.....O.....XX+O+OOOOO+++OOOO++O+O+++OOOOOOOO+OOOO+++OOO+OOOOOOOOOOOOOOOOOOOOOOOO+OOO+OOOO+OO++OOOOO+",
"&&#@@++O............++++@&#######+++++@+@@++++O...++++++++########++++++OO..X++++##&&******&&***%%&##+++++###&************%###+++++++###%****%####++######++++++++++++++++++#########+++#####%%%*%##++++###%***********%########$+++XXXXXXXXXXX+++###++XXXXXXXXX+$#####+XXXXX++$##**##++++XXoo.....XXX.X...XXXXXXXXXXXXX++++XX++X+++++######+++XXXXXXX..XXX....XOOOOOOO+++++OO+++OOO@@@&&&&&:::&&&&&&&&::&&:::&@@@@@@@&&&&&&@@@@@@@@@@@@@@@@@@@@@@&&&@@@OOO@OOOO@@@@&&&@@OOOOOOOOO@@@&&@OOOOOOOOOOOOOOOOOO@@@&&&@@@OOO@O@@@@OOOOOOOOOOOOOOOOO@@&&&@@@OOO@O@@&&&@@@OOOO@@@@@@@&&&@@@OOOOOOO@O@@&&&&@@@@@@@@&&&@@@@@OOO@@@@@@@&&&&@@@&&&&@@@@@@@@@&&&@@OOOOOO...O.....OOOOOOOOOO....O.OO.OO.OOOO....OOOO.OOOOOOOOOOO@@@@@&&&@@@@@@@@@@&&&&@@@@@@@&&&&@@@@@@@@@@@@@&&&@@@@@OO@@@@&&&&@@@@OOOOOOOOOOOOOOOOOO@@@@&&&@@@@OOOOO@@@@@&&&@@OOOOOOOOOOOOOOOOOOOOOOOOO............O.............................................OOOO..........OOOOOOOOOOOOOO@@&&&@@@@@@@+++OOOOOO.O...OOOOOOOOOOO@@@@@@@@@@@@@@@@@O++++OOO++++++++#&&****%#####%%%****%**######%##############$##$$$$+$++++XXXXX+++XXXXXXXXoXXoo    ooXXoooooooXXXXXXXX$$######$Xoooooo  o                                           ooXX#####$$$$+XXXXXX......XX.XXXXX...XOO.O..XXX+OOOOOOO+++OOOO++OOO+++OOOOOOOO+OOOO+++OO++OOOOOO+OOOOOOOOOOOOOOOOOOOOOOOOOOOOO+OOOOO++",
"###+@+OO..........O.++++@&&#&&&#@@++++@@+@++O+O.O++++++####&%%&&###@++++OO..OO+++#&&&&****&&&&**&&&&#+++++##&&&***********%%##+++++++##%%*****%#################$$++++++++++#########++######%%%%%###$$$###************#########$++XXXXXXXXXXXX++$###$+XXXXXXX+++$####$++XXXX++$##**##++++X........oXXXXXX...XXXXXXXXXXXX+++XX++X+++++######+++XX...X...XX....++XXOOOOOO++++OOOOO+OO@@@&&&&&&::&&&&&&&&::&&:::&@@@@@@@&&&&&&&@@@@@@@@@@@@@@@@@@@@@&&&@@@OO@@OOOO@@@@&&@@@OOOOOOOOO@@@&&@OOOOOOOOOOOOOOOOOO@@@&&&@@@OOO@OO@@@@OOOOOOOOOOOOOOOO@@&&&@@@@OO@O@@&&&@@@@O@@@@@@@@@&&&@@@OOOOOOO@@@@&&&&@@@@@@@@&&&@@@@@@O@@@@@@@@&&&&@@@&&&&@@@@@@@@@&&&@OOOOOOO...........OO.O..................O......O.....O...OOOOO@@@@@&&&@@@@@@@@@@&&&&@@@@@@@&&&&@@@@@@@@@@@@@&&&@@@@@OOO@@@&&&&@@@@OOOOOOOOOOOOOOOOOOO@@@&&&@@@@OOOOOO@@@@&&&@OOOOOOOOOOOOOOOOOOOOO@@OOOOOO........................................................OO...........OOO.OOOOOOOOOO@@&&&@@@@@@@@O+OOOO........OOOOOOOOOO@@@@@@@@@@OOOOOOOO++++OOOO++OO+++#&&****%#####%***********##%%%%##################$$$$+$++++X++$$$XXXXXXXXooX.oo  ooXX.oooooooXXXXXXX+$$##%%###Xoooooo                                               oXX#####$$$++XXXXX.....XXXXXXXX....XXXX.+..OO.OOO..XXOO++OOOO+OOOO+++++++O+++++OO+OOOOO+++O++OO++OOOOOOOOO+OOOOOOO+OOOOOOOOO+OOOOOO++",
"####@@OO..........O.++++@&&&&&&&@@++++@@+@+++++.++++++##&&&&&&&&&&#@+++OOO..OO+++#&&&&****&&&&**&&&&#+++++###&&&&*********%%%###++++###%%*****%##################$++++++++++#########++#####%%%%%%###$$$###************#########$++XXXXXXXXXXXX++$###$+XXXXXXX+++$#####++XXXX++$##**##++++X........ooXXXXX....XXXXXXXXXXXX++XX++XX+++#######+++X...XX...XX....++XXXOOOOO++++OOOO+O@O@@@&&&&&&:&&&&&&&&&::&&:::&@@@@@@@&&&&&&@@@@@@@@@@@@@@@@@@@O@@&&&@@@OO@OOOOO@O@@&&@@@OOOOOOOOO@@@&&@OOOOOOOOOOOOOOOOOO@@@&&&@@@@OO@OO@@@OOOOOOOOOOOOOOOOO@@&&@@@@@OO@O@@&&&@@@@@@@@@@@@@@&&&@@@OOOOOOO@O@@&&&&@@@@@@@@&&&@@@@@OOO@@@@@@@&&&&@@@&&&&@@@@@@@@@&&&@@@OOOOO....O......OO....................O............O..OOOOOO@@@@@&&&@@@@@@@@@@&&&&@@@@@@@&&&&@@@@@@@@@@@@&&&&@@@@@OOO@@@&&&&@@@@OOOOOOOOOOOOOOOOOO@@@@&&&@@@@OOOOO@@@@@&&&@@OOOOOOOOOOOOOOOOOOO@@@OOOOO......................................................................OO...OOOOOOOOO@@&&&@@@@@@@+OOOO..........OOOOOOOOOO@@@@@@@OOOOOOOOOOO++++OOOOOO++++@#&&****%#####%*****************%%%%%##############$$$$$$$+++$$$$$$XXXXXXXXXX.oo  oooXooooooXXXXXXXXXX$$##%%###$Xoooooo                                               XX##%##$$$++XXXXX.....XXXXXXXX....++XX++.OOO.OOO...XOO+++O++OOOOO+++++++OO++++OOOOOOOOO++++OO+++OOOOOOOOO+OOOOOOOO++OOOOOOOOOOOOOOOO",
"#@@@+++O...........XOO++@&&&&&&#@++++@@++++++++X++++++#&&&%%%%&&&&#@+++OOOO.OO++##&&&*****&&&&**&&&##++++++###&&&&&**********%####++###%%*****%%##########%#######+++++++++##########++######%%%%%##++$####%***********#########$++XXXXXXXXXXXX++$####+XXXXXXX+++$####$++XXXX+$$##**##$+++X..ooX...oXXXXXX.X...XXXXXXXXXXX++X++XX+++$#######++XXXXXXXXXXX....O++XXOOOOO++++OOOO+++@@@@@&&&&&&:&&&&&&&&&::&&:::&@@@@@@&&&&&&&&@@@@@@@@@@@@@@@@@@@@@&&&@@@OOO@OOOOOO@@&&@@@OOOOOOOOO@@@&&@OOOOOOOOOOOOOOOOOOO@@&&&@@@@OOOOOO@@OOOOOOOOOOOOOOOOO@@@&@@@@@OO@@@@&&&@@@@@@OOO@@@@@&&&@@@OOOOOOO@@@@&&&&@@@@@@@@&&&@@@@@OOOO@@@@@@&&&&@@@&&&@@@@@@@@@@&&&@@@OOOOOOOOOO.............OOO.....OOO......OOO....O.O....OOOOOO@@@@@&&&@@@@O@@@@@&&&&@@@@@@@&&&&@@@@@@@@@@@@&&&&@@@OO@@@@@@&&&&@@@@OOOOOOOO@O@OOOOOOO@@@@&&&@@@@OOOOO@@@@@&&&@@OOOOOOOOOOOOOOOOOOO@@@@OOOO.O.............OO....................................................OOOO..OOOOOOOOO@@&&&@@@OO@@@OOOO..........OOOOOOOOOO@@@@@OOOOOOOOOOOOOOOOOOOO+OO+OOO@&&*****%#####%%%%%%####%%##%#######################$$$$$$$$++++$$XXXXXXXXXXooo    oo.oooooooXXXXXXX$+$$##%%###$Xoooo.    oo                                         oXX##%###$$++XXXXXXXX.XXXXXXXX....XX+XXOO..OO..OOOO+XOOOO++++OO+++OOOOOO+O++++++OOOOOOO+++OOOOO+++OOOOOOOO+OOOOOOOOOOOOO+OOOOOOOOOOOO",
"&&@@++++..........O.O+++#&&&&&###+++++++++++++++O+++++#&&&&&**&&&&&@+++OOOOOOO+++#&&&*****&&&&***&%#@+++++++####&&%******===**%%#######%******%%##%%#%%%#%%%%#####++++++++++#########++#####%%%%%%##++$####%***********#########$++XXXXXXXXXXXX++$####+XXXXXXX+++$####$+++XXX+$###**##$$++XX..oX...XXXXXXXXX...X.XXXXXXXXX++X+XXX+++$#######++XXXXXXXXXXXX....++XXOO+O++++OO+O++++@@@@@&&&&&&&&&&&&&&&:::&&:::&@@@@@@&&&&&&&&@@@@@@@@@@@@@@@@@@@@@&&&@@@OO@OOOOOOO@@&&@@@OOOOOOOOO@@@&&@OOOOOOOOOOOOOOOOOO@@@&&&@@@OOOOOOO@@OOOOOOOOOOOOOOOOO@@@&@@@@@O@@@@@&&&@@@@@OOOOOOO@@&&&@@@OOOOOOO@@@@&&&&@@@@@@@@&&&@@@@OOOOO@@@@@@&&&&@@@&&&@@@@@@@@@@&&&@@@@OOOOOOOOOOOOO..OO.O...OOOO...OOOOOO..OOOOOO.OOOOOOOO.OOOOOO@@@@@&&&@@@@O@@@@@&&&&@@@@@@@&&&&@@@@@@@@O@@@@&&&@@@OO@@@@@@&&&&@@@@OOOOOOO@@@@@@@OO@@@@@@&&&@@@@OOOOOO@@@@&&&@OOOOOOOOOOOOOOOOOOOO@@@@OOOOOOOOO........OOOOO...................................................OOOO..OOOOOOOOO@@&&&@@@OO@@OOOOO.........OOOOOOOOOOO@@@@OOOOOOOOOOOOOOOOOOOO+O++OOO@@&&&****%#######################################$$$$$$++++$$XXXXXXXXXXXXXXXXo.oo   ooo.ooooooXXXXXXX$+$$##%%###$XXoooo.   oooo                                       oXX##%###$$++XXXXXXXX..XXXXXX......+++XOO..++XX+OOO++OO+O++++O+++OOOOOOOOO++O++OOOOOOOO++OOOOOO+OOOOO+OOOO+OOOO++++OOO++OOO+O+OOOOOOO",
"&&@@++++..........OXO+++##&&#####+++++@+++++++OOOO+++##&&&***&&&%&##++++OOOO++++@&&&&&****&&&&&***%#@+++++++####%%&*****====***%%%####%%*******%%***%%%#****%#####$+++++++++#########+######%%%%*%%##++####%***********#########+++XXXXXXXXXXXXX+$####+XXXXXXXX++$####$++XXXX+$###**##++++XX..o.....XX.X..XXX.XX..XXXXXXXXXXX++X++++$#######++XXXXX.XXXX........XOOO+++++OOO++++OOOO@@@&&&&&::&&&&&&&&:::&&:::&&@@@@@&&&&&&&&@@@@@@OOOO@O@@@@@@@@@@&&@@@@@@OOO@@OO@@&&&@@OOOOOOOOO@@@&&@OOOOOOOOOOOOOOOOOO@@@&&&@@OOOOOOOOOO@OOOOOOOOOOOOOOOO@@@@@@OOOO@@@@@&&&@@@@OOOOO@O@@@&&&@@@OOOOOOO@O@@&&&&@@@O@@@@&&&@@@@@OOOO@@@@@@&&&&@@@&&&@@@@@@@@@@&&&&@@@OOOOOOOOOOOOOOOOOOOOOOOOOOOOOOOOOOOOOOOOOOOOOOOOOOOOOOOOOOO@@@@@&&&@@@@@@@@@@&&&&@@@@@@@&&&&@@@@@@@@@@@@@&&&@@@OO@@@@@@&&&&@@@@OOOOOOOO@@@@@@@@@@@@@@&&&@@@@@@OOOOO@@@&&&@@OOOOOOOOOOOOOOOOOOO@@@@OOOO.O.OOO.....OOOOOOOOO...................... ...........................OOOO.OOOOOOOOO@@&&&&@@@O@+++OOO.........OOOOOOOOOOOO@@@OOOOOOOOOOOOOOOOOOO+++O+++O@@&***=**&#+#++####++++$$+++$$+++++++++++++++++++++++++XXXXXXXXXXXXXXXXXXXXoXXoooo oooXo.oooooXXXXX$$$$$$##%%%##$XX.oooo.ooooooo                                      oXX##%###$$++XXXX..XX......XX........+OOOXX++X++OOOO+++++++OOOO++++OOOOOO++OOOOOOOO++OOO+OOOOOOOOOOOOOOOOOOOOOOO+OOOOOOOOOO+O+OOOOOOO",
"&&@@++++..........OXO+++##&#####@+++++@+@+++++OO.O+++##&&&***&&&%&##++++OOO.++++@&&&&&****&&&&&***%#@+++++++####%%%******====**%%%%%%%%%******%%**%%##%###%*%%####++++++++++#########+######%%%***%##+#####%***********#########++XXXXXXXXXXXXXX++###$+XXXXXXXXX+$####$++XXXX++###%*##++++XX..o.....X......XXXXX...XXXXXXXXXXX++++++$#######++XXXXX..XXXX.......XX+OO++++OOO++++OO@@@@@&&&&&:::&&&&&&&:::&&:::&&@@@@@&&&&&&&&@@@OO@OOOOO@OOOO@O@@@@&@@@@@@OOOOO@OO@@&&&@@OOOOOOOO@@@@&&@OOOOOOOOOOOOOOOOOO@@@&&&@@OOOOOOOO@@@OOOOOOOOOOOOOOOO@@@@@@@@OOO@@@&&&@@@@@OOOOOOO@@@&&&@@@OOOOOOO@@@@&&&&@@@O@@@@&&&@@@@@@@@O@@@@@@&&&&@@@&&&@@@@@@@@@@@&&&&@OOOOOOOOOOOOOOOOOOOOOOOOOOOO.OOOOOOOOOOOOOOOOOOOOOOOOOOOOOOO@@@@@&&&@@@@O@@@@@&&&&@@@@@@@&&&&@@@@@@@@@@@@@&&&@@@OO@@@@@@&&&&@@@@OOOOOO@O@@@@@@@@@@@@@@&&&@@@@@OOOOOO@@@&&&@@OOOOOOOOOOOOOOOOOOO@@@OOOOOO..OOOO....OOOO@@@OOO....................................OOO..........OOO..OOOOOOOOO@@&&&&@@@O@+++O.O........OOOOOOOOOOOOO@@OOOOOOOOOOOOOOOOOOOOO+++++++@@&****=*%#+++++###++++$$$$$$$$$+++$+XX++++XXXXXXXXXXXXXXXXXXXXXXXXXXXX..oooo..ooo oooX..oooooXXXXX$$$$$$##%%%##$XX.ooo.. oooooo                                      oXX##%%##$$++XXXX...X......X.........++.OXX++X+++OO++++++++OOOO++++OOOOOOO+OOOOOOO+++OOOOOOOOOOOOOOOO+OOOOOOOOOOOOOOOOOOOOOOOOOOOOOOO",
"&&@@+++O..........O.++++@&#######+++++@+++++++OO+++++#&&&&&&****%%&&++++OOOOO++++#&&&****&&&&&**&&&&##++++++###&%%******=====**%%#%%%%%%*******%%%%%*%%%%%%%%%%#####+++++++################%%%****%%#######%%%********%%########++XXXXXXXXXXXXXX++###$+XXXXXXXXX+$#####$XXXXX++#######$$++XX..oo......X.X...XXXXXXXXXXXXX++XXX++XX++$#######++XXXXXX.......O++X.+...X++O++++O+++O+++@@@&&&&&&:&&&&&&&&:::&&:::&&@@@@@&&&&&&&@@@@@@OOOOOOOOOOO@@@@@@&@@@@@@OOOO@@O@@@&&@@@@OOOOOOOO@@@&&@OOOOOOOOOOOOOOOOOOO@@&&&@@OOOO@O@@@@@@@O@@@@@@@@@@@@O@@@@@@@@@@@@@@&&&@@@@OOOOOOOO@@@&&&@@@@OOOOOO@@@@&&&&@@@O@@@@&&&@@@O@@@@@OO@@@@&&&@@@@&&&@@@@@@@@@@@&&&&@@OOOOOOOOOOOOOOOOOOOOOOOOOOOOOOOOOOOOOOOOOOOOOOOOOOOOOOOOOOO@@@@@&&&@@@@O@@@@@&&&&@@@@@@@&&&&&@@@@@@@@@@@@&&&@@@OOOO@@@@&&&&@@@@O@OO@O@@@@@@@@@@@@@@@&&&&@@@@OOOOOOO@@@&&@@@OOOOOOOOOOOOOOOOOOO@@@OOOOOOOO.....OOO.OOO@@@@OO...................................OOOO............OO.OOOOOOOO@@@@&&@@@@O@@OOOOO.........OOOOOOOOOOOO@@OOOOOOOOOOOOOOOOOOOOOO+O+OO@@@&&&****&##+++++++++++++++++++X+X+XXXXXXXXXXXXXXXXXXXXXXXXoo...ooooooooooo  o ooo.ooo.ooooo.XXXXXX++$+$####%%##$XX..oooooo       o                                   oX$##%###$$$XXXX.......XXX............OOO+X..X+++OOOO++++OOOOOO++++OOOOOO++OOOOOOOO++OOOO++OO+OOOO++OOOOOOOOOOOOOOOO+++OOOOOOOOOOOO++",
"&&@@+++O...........X++++@&#&####++++++@@++++++OO+++++#&&&&&&****%&&#++++OOOOO++++#&&&*****&&*&***&&&#+++++++###&%*******====***%####%%%%%*******%%%%****%%%%%%%%########+#################%%%%*****%%#####%%%%%*******%%########++XXXXXXXXXXXXX+++###$+XXXXXXXXX+$#####+XXXXX++$######$$++XX......o.X..X...X.XXXXXXXXXXXX++XXX++XX++$#######++XXXXXX.......O++XX+X.XX++O++++O+++O+++@@@&&&&&&::&&&&&&&:::&&:::&&@@@@@&&&&&&&@@@@@@OOOOOOOOOOO@@@@@@&&@@@@OOOOO@@O@@@&&@@@@OOOOOOOO@@@&&@OOOOOOOOOOOOOOOOOO@@@&&&@@OOOO@O@@@@@@@@@@@@@@@@@@@@@@@@@@@@@@@@@@@&&&@@@OOOOOOOOO@@@&&&@@@@OOOOOO@@@@&&&@@@@O@@@@&&&@@@OO@O@@OO@@@@&&&&@@@&&&@@@@@@@@@@@@&&@@@OOOOOOOOOOOOOOOOOOOOOOOOOOOOOOOOOOOOOOOOOOOOOOOOOOOOOOOOOOO@@@@@&&&@@@@O@@@@@&&&&@@@@@@@&&&&&@@@@@@@@@@@@&&&@@@O@OO@@@@&&&&@@@@O@@O@@@@&&&&@@@@&&@&&&&&&@@@OOOOOOO@@@@&&@@@OOOOOOOOOOOOOOOOOOOO@@OOOOOOOOOOOOOOOO.OOO@&@@OOO..................................OOOO...........OOO.OOOOOOOOOO@@&&@@@@O@@+OOO.O........OOOOOOOOOOOO@@OOOOOOOOOOOOOOOOOOOOOOO+++O@@@&&&**=*&#++++++++++++++++++++XXXXXXXXXXXXXXXXXXXXXXXXXXXXoooo.oooooo.oooo    oo ooooooooo.XXXXXXX$$$+$###%%%##$XX...ooo..    oooo                                   oX$##%###$$+XXXXXXX....XXXX......++++.OO+XXX.XXX+.OOO++OO++OOOO++++OOOOO+++OOOOOOOO++OOOO+++O+OOOO++O++OOOOOOO+++OOOO++OOOOOOOOOOOOOO",
"&&@@@++O..........OO++++@&&&&&##++++++@+@++++++++++++#&&&&&&**&*&&&##++++O+++++++#&&&*************&&##++++++###&&********===**%%#########%%%%*%%%%%%%%%%%%%%%%%%#############%%%%%########%%%*******%%##%%%%%%%*******%%#######++XXXXXXXXXXXXXX+++####+XXXXXXXXX+$####$+XXXX++$$###%##++++XX.......XXXX.XXXX....XXXXXXXXX+XXXX++X++++#######++XXXXXXXX.X..XO+++X+XXXX+OO++OOOO++O+++@@@&&&&&:::&&&&&&&:::&&:::&@@@@@@&&&&&&&&@@@@@@O@OOOOOOOOO@@@@@&&@@@@OOOOOO@@@@@&&@@@@OOOOOOO@@@@&@@OOOOOOOOOOOOOOOOOO@@@&&&@@OOOO@O@@@@@@@&@&&&&&&&&&&&&&&&&&&&&&&&&&&&&&@@@@OOOOOOOO@@@&&&@@OOOOOOOO@@@@&&&&@@@O@@@@&&&@@@OOOO@@@O@@@@&&&&@@@&&&&@@@@@@@@@@@@@@@@OOOOOOOOOOOOOOOOOOOOOOOOOOOOOOOOOOOOOOOOOOOOOOOOOOOOOOOOOOO@@@@@&&&@@@@O@@@@@&&&&@@@@@@@&&&&@@@@@@@@@@@@&&&&@@@O@OO@@@@&&&&@@@@O@O@@@@&&&&&&&&&:&&&&&&&&@@@@OOOOO@O@@@&&@@@OOOOOOOOOOOOOOOOOOOOOOOOOOOOOOOOOOOOOOOOOO@&@@OOOOOOOOOOOOOOOO.....................OOOO..........OOOO.OOOOOOOO@@@@&&@@@O@@@+OOO..........OOOOOOOOOOOO@OOOOOOOOOOOOOOOOOOOOOOOO+++O@@@&*&===*%#++++++++++XXXXXXXXXXXXXXXXXXXXXXXXXXXXXXXX..XXXXoo..oooooo..oooo.        oXXXoooXXXXXXXX$$$$$###%*%##$XXoo.ooooo..   o      o                             ooX$######$$XXXXXXXX....XX......++++++..++++O.X+++OO++OOOO++++OO++OOOOOOO+++++++OOOOOOOOOO+OOOOOOOOOOO++OOOO++OOOO+OOO+++OOOOOOOOOO+OO",
"&&@@@++O..........OO++++@&&&&&&##+++++@@@++++++++++++###&&&***&&%&&&+++++++X++++@#&&&*************&&##++++++####&&*******=****%###++#########%%%%%%%%%##%%%%%%%%%%%%%#%%%%%%%%%%%%%%##%##%%%%******%%%%%%************%%%########++XXXXXXXXXXXXX+++####+XXXXXXXX++$####$XXXXX++$$###%##$+++XX.....oXXXXXXXXXX....XXXXXXXXX+XXXX+++++++#######++XXXXXXXXXX..XX++++++XX++OO++OOOO++O+++@@@&&&&&:::&&&&&&&:::&&:::&@&@@@@&&&&&&&&@@@@@@@@@@@OOOOOOO@@@@&&@@@@@OOOO@@@@@@&&@@@OOOOOOOOO@@@&&@OOOOOOOOOOOOOOOOOO@@@&&&@@OOOO@O@@@@&&&&&&&&&&&&&&&&&&&&&&&&&&&&&&&&&@@@@OOOOOOOOO@@@&&&@@@OOOOOOO@@@@&&&&@@@O@@@@&&&@@@OOOO@@@@@@@@&&&&@@@&&&&&@@@@@@@@@@@@@@@@O@@@@@@@OOOOOOOOOOOOOOOOOOOOOOOOOOOOOOOOOOOOOOOOOOOOOOOOOO@@@@@&&&@@@@O@@@@@&&&&@@@@@@@&&&&@@@@@@@@@@@@&&&&@@@O@OO@@@@&&&&@@@@@@@@@@&&::&&&&&&::&&&&&&&@@@OOOOOOO@@@@&&@@@OOOOOOOOOOO@OOOOOOOOOOOOOOOOOOOOOOOOOOOOOO@@@@OOOOOOOOOOOOOOOO.....................OOOO..........OOOO.OOOOOOOO@@@@&&@@@OO@@++OO.........OOOOOOOOOOOOOOOOOOOOOOOOOOOOOOOOOOOOOOOOOO@@&&=====*%##+++++X+XXXXXXXXXXXXXXXXX...XXXo.ooo..ooooo.ooo.oo....  oo               oXXXXXXXXXX$XXX$$$$####**%##$XXXo.oooooo.o         o                             ooX$######$$XXXXXXX.XX.XXX......O+++++..++++OOOO.OOO++.OOO++++O+++OOOOOOO++++++++OOOOOOO++++OOOOOOOOOO++OOOO++OOOOOOOO++OOOOOOOOOO++OO",
"&&##@+OO..........OOO+++#&&&&&&&@+++++++@@+++++++++++###%%**&&&&&&&#++++++XXO+++@&&&&&&*&&*****&**%###++++++####&&*******=****%##+++++++++###################%%%###%%%%%%%%%%%%%%%%%%%%%%%%%%%***%%%%%%%*************%%#########++XXXXXXXXXXXXXX+$####++XXXXXXX++$#####+XXXX++$$##%*##+++XXX....XXXXXXXXXX.XXX..XXXXXXXXXXXXXXXX+++++#######++XXXXXXXXXXXXXXXXXX++++OOOO+OOOO+++OO++@@@&&&&&::&&&&&&&&::::&:::&@&@@@@&&&&&&&&@@@@@@@@O@@@OOOOOOO@@@&&@@@@@OOOOO@@@@@&&&@@OOOOOOOOO@@@&@@OOOOOOOOOOOOOOOOOO@@@&&&@@@OOO@O@@@@&&&&@@&&@@@@@@@@@@@@&@@@@@@@@@@@@@@@OOOOOOOOOO@@@&&&@@@OOOOOOO@@@@&&&&@@@@@@@@&&&@@@@@@OOO@@@@@@&&&&@@@@&&&&&&&&&&&&&&&&&&@@@@@@@@@@@@@@@@@@@@@@@@@@@@@@@@@@@@@@@@@@@@@@@@@@@@@@@@@@@O@O@@@&&&@@@@@@@@@@&&&&@@@@@@@&&&&@@@@@@@@@@@@&&&&&@@OO@O@@@@&&&&@@@@O@@@@@@&&&&&&&&&&&&&&&&&@@@@OOOOOO@O@@@&&@@@OOOOOOOO@@@@@@@@@@@@@@@@@@@@@@@@@@@@@@OO@@@@@@@@OOOOOOOOOOOOOOOOOOO................OOO..........OOOOO.OOOOOOOO@@@@&&@@@OO@@++OOO........OOOOOOOOOOOOOOOOOOOOOOOOOOOOOOOOOOOOOO++O+@@@&&&*==*###+++++OXXXXXXX........X.ooooo...oooooooo..ooo.                           oXXXXXXXXXX$$XX$$$$####**%##$XXXoXX.ooooo..        o                             ooX$######$$+XXXXXXXXX....XXXXXX++..XX.+++.OOOOOOO++++..++++O+++OOO+++++++OO++++OOOOOOO+++OOOOOOOOOOOOOOOOOOOOOOOOOOOO+++OOOOOOOOOOOOO",
"&&##@@+O..........O+O+++##&&&&&#++++++++@@++++++++++++##%%%*&&&&&&##++++++XXO+++@&&&&&&&&&*****&**&###++++++####&&************###++XX++++++##########################%%%%%%%%%%%%%%%%%%%%%%%%%**%%%%%%%%%*************%%%#######++XXXXXXXXXXXXXX++####++XXXXXXX++$####$+XXXXX+$$###*##+++XXX....ooXXXXXXXX..XX.XXXXXXXX+X+XXXX+X+++++#######++XXXXXXXXXXX.XXXXXX++++O+OO++OOOO++@O@@@@@&&&&&&:&&&&&&&&&:::&:::&&&@@@@&&&&&&&&@@@@@@OOO@@@@OOOOOO@@@&&@@@@@OOOO@@O@@@&&&@@@OOOOOOOO@@@&@@OOOOOOOOOOOOOOOOOO@@@&&&@@@OOO@O@@@@&&@@@@@@@@@@@@@@@@@@@@@@@@@@@@@@@@@@OOOOOOOOOO@@@&&&@@@OOOOOOO@@@@&&&@@@@@@@@@&&&@@@@@@@OOO@@@@@&&&@@@@@@&&&&&&&&&&&&&&&&&&@@@@&&&&@@@@@@@@@@@@@@@@@@@@@@@@@@@@@@@@@@@@@@@@@@@@@@@@@@@@O@@@&&&@@@@@@@@@@&&&&@@@@@@@&&&&@@@@@@O@@@@@&&&&&@@O@@O@@@@&&&&@@@@O@@@@@@&&&@@@@@@@@@@@@&&@@@OOOOOOOOO@@@&&&@@OOOOOO@@@@@@@@@@@@@@@@@@@@@@@@@@@@@@@@@@@@@@@@OOOOOOOOOOOOOOO.OOOO..................O............OOOOOOOOOOOOO@@@@&&@@@OO@@++OOO........OOOOOOOOOOOOOOOOOOOOOOOOOOOOOOOOOOOOOOOO@+@@&&&&*==*###+++++O+XXXXXX......o...oooo..  ..o....o                                ooXXXXXXXXX$$$++$$$$####**%##$XXXXXo.ooooooo..oo                                  ooX$######$$+XXXX.XXXXX...XXXXXX+OO..XOO++++OOOOOOX+++O.++O++O++OOO+++++++OOO+++OOOOO++++++OOOOOOOOOOOOOOOOOOOOOOOOOOOOOOOOOOOOOOOOOOO",
"###@@@OO...........OO+++#&#&##&#@+++++@+@@++++++OO++++@&&&%%&&**&&##++++O.OOO+++@#&&****&&****&&&&%&##+++++++##&&************%##++XXXX++++++++++++++++++++#######################%####%%%%%%%%**%%%%%%%%%%%%%***********%%%#####+++XXXXXXXXXXXXX+$####++XXXXXXXX+$#####+XXXXX++$##%*##+++XXXo.......X.XX....XXXX..XXXXXXX+++XXX+++++$#######++XXXXXX....XX..OOXX..OO++++++OOOOO+@@@@@@@&&&&&&&&&&&&&&&:::&&:::&@@@@@@&&&::&&&@@@@@@OOO@@@@OOOOO@@@@&@@@@@OOOOOOOOO@@&&&@@OOOOOOOOO@@@&@@OOOOOOOOOOOOOOOOOO@@@&&&@@O@OO@@@@@@&&@@@@@@@@@@OO@@@@@@@OOOOO@@@@@@OOOOOOOOOOOOOO@@@&&&@@@OOOOOOO@@@@&&&@@@@@@@@@&&&@@@@@OOOO@@@@@@&&&@@@@@@@@@@@@@@@@@@@@@@@@@@@@@@@@@@@@@@@@@@@@@@@@@@@@@@@@@@@@@@@@@@@@@@@@@@@@@@@@@@@@O@@@@&&@@@@@@@@@@&&&&@@@@@@@&&&&@@@@@@@@@@@@&&&&@@@@@OO@@@@&&&&@@@@O@OO@@@&&&@@@@@@@@@@@@@@@@OOOOOOOOOO@@@&&&@@@OOOOO@@@@@@@@@@@@@@@@@@@@@@@O@@@@@@@@OOOO@OOOOOOOOOOOOOOOOOOO..O................................OOOOOOOOOOOOO@@@&&&@@@@O@+++OOOO.......OOOOOOOOOOOOOO@OOOOOOOOOOOOOOOOOOOO@+OOO@+@@&&&&*==*&##+++++++XXXXXXXX...X.ooo..o..   .   ....                                ooXXXXXXXXX$$$$$$$######%%%%#$XXXXXoooooooo .. o  oo                              ooX$##%###$$+XXXX.XXXXXX....XXXX....+X++++++XX++OO++OOO+++OOOOO+OOOO++++OOOO+++OOOO+++OO+++OO+++OOOO++OOOO++OO+++OOOOOOO+OOOOOOOOOOO++",
"#&#@@@+O..........OXO+++#&#&####@+++++++@@++++++OO++++#&&&%&%***&&##++++OOOO++++##&%****&*****&&&&&&##+++++++##&&************%##++XXXX++++++++++++++++++++++################################%%***%%*********%%%%%%%%*******%%###+++++XXXXXXXXXX++$####++XXXXXXXX+$#####+XXXXX++$###*##++++XXo...............XXXX..XXXXXXX+++XXX+X+++$#######++XX.XXXXX..X..OOO.....O++++++++OOO+@@@@@@@&&&&&&&&&&&&&&&:::&&:::&@@@@@@&&&&:&&&@@@@@@@OOO@@@OOOO@@@@@&@@@@OOOOOOOOOO@@@&&@OOOOOOOOOO@@@&@@OOOOOOOOOOOOOOOOOO@@@&&&@@O@OO@@O@@&&@@@@@@@@@@@@O@@@@@@@@@@@@@@@@@@OOOOOOOOOOOOOO@@@&&&@@@OOOOOOO@@@@&&&@@@@@@@@@&&&@@@@@O@@OOO@@@@&&&@@@@@@@@@@@@@@@@@@@@@@@@@@@@@@@@@@@@@@@@@@@@@@@@@@@@@@@@@@@@@@@@@@@@@@@@@@@@@@@@@@OOO@@@@&&@@@@@@@@@@&&&&@@@@@@@&&&&@@@@@@O@@@@@&&&&@@@O@OO@@@@&&&&@@@@@@O@@@@&&&@@@@@@@@@@@@@@@@@@OOOOOOOO@@@&&&@@@OOOO@@@@@@@@@@@@@@@O@@@@OOOOOOOOOOOOOOOOOOOOOOOOOOOOOOOOOOOOO....................................OOOOOOOOOOOO@@@&&&@@@OO@++OOOOOO.....OOOOOOOOOOOOOOO@OOOOOOOOOOO@@@@@@@@@@@+@O@+@@&&&&===*&#+++++++++XXXXXXX..XX.o....o.o         ..                                ooXXXXXXXXX$$$$$$########%#%#$XXXXoo.ooooooo.. o  o                               ooX$##%###$$+XXXXXXX..XX....XX......+++++++++X++OOOOOO++++OOOO++OOO+++++OOOO+++OOO++++OO+++OO+++OO++++OO++++OO+++OOO++OO+OOOOOOOOOOO++",
"#&@@++++..........OOO+++##&&&&&#++++++@@@@++++OOOO++++###&&&&&%%&&##+++OOOO+++++##&%&&&*********&&%##@+++++++##&&&&**********%##++XXXXX+++++++++++++++++++++++++++++++$$$$$$#++++++++#########%%%%%%**********%%%%%%%%********%##++++++XXXXXXXXX+$####$+XXXXXXXX+$####$XXXX++++$###*##$+++XX.ooo...ooX......XXXX..XXXXXXXXXXXX++XX++++######++XX....XXXXXXXO.O.X.X+++OOOOOO+OOO+++@O@@@&&&&&::&&&&&&&&:::&&:::&&@@@@@&&&:&&&&@@@@@@@@OO@@@OOOO@@@@@&&@@@OOOOOOOOOO@@&&@@@@OOOOOOOO@@@&@@OOOOOOOOOOOOOOOOOO@@@&&&@@OOOOO@@@@&&@@@@@@@@@@@@@@@@@@@@@@@@@@@@@@@@@@@@@@@@@@@O@@@@&&&@@OOOOOOOOOO@@&&&@@@@O@@@@&&&@@@O@OOO@@@@@@@&&&@@@@@@@@@@@@@@@@@@@@@@@@@@@@@@@@@@@@@@@@@@@@@@@@@@@@@@@@@@@@@@@@@@@@@@@@@@@@@@@@@@@@@@@@@&&@@@@@@@@@@&&&&@@@@@@@&&&&&@@@@@@@@@@@&&&&@@@OOOO@@@@&&&&@@@@@@@@@@&&&&@@O@OOOOOOOOOOOOOOOOOOOOO@@@@&&&@@@@@@@@@@@@@@@@@@@@@@@@@@@@@@@@@@@@@@@OOO@@@@OOO@OOOOOOOOOOOOOOOOOOOOO.............................OOOOOO+OOOOO@@@&&&@@@@@@++OO.OOO.......OOOOOOOOOOOOO@OOOOOOOOOOO@@@@@@@@@@@@@@@@@@&&=&*==*%#++++++++XXXX..XXXX....oo..oo.      o                                    ooXXXXXXXXX$$$$X$$######%%*##$XXXXXX.ooooooo..    oo                              ooX$##%###$$+XXXXX.......X..O.OOO+OXX+..++++++OOO+++OO+++OOO++++OOO+++O++OOO++OOOO++++OO++++OOOO++OOOOO+++OOOOO++++OOOOOOOOOOOO++OOOO+",
"&&@@++++..........OO++++##&&&&##+@++++@@@@++++OOOO++++####&&&&%%&&##+++OOO++++++##&%&&&&*********&%%##+++++++###%&**&********%##++XXXX+++++++++#++++++++++++++++++++++++++$$++++++++++++###########%%%%*************%%%*%******%####+++XXXXXXXXX++####++XXXXXXXX+$####$+XXX++++$###%##++++XX.o.o..oooX......XXXX..XXXXXXXXXX+XX+XX++++######++XX....X.XXXX.+O+OXXX++++OO++O++O++++@O@@@&&&&&::&&&&&&&&:::&&:::&&&@@@@&&&::&&@@@@@@@@@@OO@@OOOO@@@@@&&@@@OOOO@OOOOO@@@&&@@OOOOOOOOO@@@&@@OOOOOOOOOOOOOOOOOO@@@&&&@@OOOO@@@@@&&@@@@@@@@@@@@@@@@@@@@@@@@@@@@@@@@@@@@@@@@@@@@@@@@&&&@@OOOOOOOOOO@@&&&@@@@O@@@@&&&@@@OOOOO@@@@@@@&&&@@@@@@@@@@@@@O@@@@@@@@@OO@@@@@@@@@@@@@@@@@@@@@@@@@@@@@@@@@@@@@@@@@@@@@@@@OO@@@@@@@@@@@@@@&&&@@@@@@@@@&&&&@@@@@@@&&&&&@@@@@@@@@@@&&&&@@@OOOO@@@@&&&&@@@@@@@@@@@&&&@@O@OOOOOOOOOOOOOOOOOOOO@@@@@&&&@@@@@@@@@@@@@@@@@@@@@@@@@@@@@@@@@@@@@@@@@@@@@@@@@@@@@@@@@@@@@@@@OOOOOOOOOO..........................OOOOOOOOOOOO@@@&&&@@@@@@++OOO.OO......OOOOOOOOOOOOOO@OOOOOOOOOOOOOOOOO+@@@OO@@@@@@&&&&*==*%##++++++++XXX..X......oo...oooo  oo                                      ooXXXXXXXXX$$$$$$$######%%*##$XXXXoX..oooooo.. o. .o                              ooX$##%###$$+XXXXX....XX.X....OO++OO++..++++XXOO++++OO++++OOOO++OOOO++++OOOO++OOOO++++OO++++OOOO++OOOOO+OOOOOO+++++OOOOOOOOOOOOOOOOOOO",
"&&@@@@++O.........OO++++##&&####++++++@@@@++++OOO++++++####%&&&%%###++++XX++++++@@&&&&**&&*******%%%##++++++###&&*&&*********&##+XXXXXX+++++################++++++++++++++$#####+++++++++++++++#########%%%********************%*%%%###+XXXXXXX+++###$+XXXXXXXX++$####$XXXXX+++$##%%##$+++XX................XXXX..XXXXXXXX+++X++++++++######++XXXXXX.X....XOXO++++++++++++++++++++@O@@@&&&&&&:&&&&&&&&:::&&:::&&&@@@@&&&::&&@@@@@@@@@@@@@@OOOOOO@@@&&@@@@OOO@OO@@@@@@&&@@OOOOOOOOO@@@&@@OOOOOOOOOOOOOOOOOO@@@&&&@@OOOO@@@@@&&@@@@@@@@@@@&&&&@@@@&&&&&&&&&&@@&&&&&&&&&&&&@@@@&&&&@@@OOOOOOO@O@@@&&@@@OO@@@@&&&@@@OOOOOO@@@@@@&&&@@@@@@@@@@@@@@@@@@@@@@@@@@@@@@@@@@@@@@@@@@@@@@@@@@@@@@@@@@@@@@@@@@@@@@@@@@@@@@@@@@@@@@@@@&&&@@@@O@@@@&&&&@@@@@@@&&&&@@@@@@@@O@@@&&&&@@@OOOO@@@@&&&&@@@@@@@@@@@&&&@@OOOOOOOOOOOOOOOOOOOOOOOO@@@&&&&&&&&&&&&&&&&&&&&&&&&&&&&&&&&&&&&&&&&&&&&&&&&&&&&&&&&&&&@@@@&@@@@@@@@@@@OOO..........................OOOOOOOOOOO@@@&&&@@@@@@++OOOOO.......OOOOOOOOOOOOOOOOOOOOOOOOOOOO@OOOOOOOOO@@@@@@&&=&*==*%##+++++++XXXX.X.............o.                                           oXXXXXXXXXXX$$+$$$######***%#$XXXXoo.ooooooo..oo....                              ooX$##%###$$+XXXXX..XX....XXXXXX++OO...OO+..XOOOOO+++O+OO+OO+++OOOO+++++++OOO+OOOO++O+OOO+OOOOOOOOOOOOOOOOOOO+OO+++OOOOOOOOOOOOOOOOOOO",
"&&@@@@++O.........OO++++##&&&###++++++@@@@++++OOO++++++####%&&&%&###+++OX.+++++++#&&&&**&********%%%##++++++###&%*&**********&##+XXXXX++++++####&&&&&&&&&&##+++++++++++++##########+++++++++++++++++++######%%%%****===**=********%%%##+XXXXXXX+++###$+XXXXXXXX++$####$XXXXX+++$###%##$$++XX...o......X.XX....XX..XXXXXXXXX++X++++++++######++XXXXXX......OO+++++++++++++++++O++++@@@@@&&&&&&:&&&&&&&&:::&&:::&&&@@@@&&&::&&@@@@@@@@@@@@@@@OOOOO@@@&@@@@@OOO@OOO@@@@@&&@@OOOOOOOOO@@@&@@OOOOOOOOOOOOOOOOOO@@@&&&@@OOOO@@@@@&&&@@&&&&&&&&&&&&&&&&&&&&&&&&&&&&&&&&&&&&&&&&&&&&&&&&@@@OOOOOOO@@@@@&&@@@OO@@@@&&&@@@OOOOOO@@@@@@&&&@@@O@@@@@@@@@@@@@@@@&&&&&&&&&&&&&&&&&&&&&&&&&&&&&&&&&&&&&&&&&&&&&&&&&&&&&&&&&&&&&&&&&&&&&&&&@@@@@@@@@&&&&@@@@@@@&&&&@@@@@O@@@@@@@&&&@@@OOOO@@@@&&&&@@@@@@@@@@@&&&@@OOOOOOOOOOOOOOOOOOOOOOOOO@@@&&&&&&&&&&&&&&&&&&&&&&&&&&&&&&&&&&&&&&&&&&&&&&&&&&&&&&&@@@@@@@@@@@@@@@@@@@OOOO.........................OOOOO+OOOOO@@@&&&@@@@@@@++OO.........OOOOOOOOOOOOOOOOOOOOOOOOOOOOO@O@@@OO@@@@@@@@&&&&*==*%##+++++++XXXXXX..XX......o..o.                                           ooXXXXXXXXX$$$XX$$######%**##$XXXXo..oooooooo.oooooooooo                          ooX$##%###$$+XXXXX.XXX....XXXXXXXXO....OOO...OO..O++OO++OOOO++OOOOO+++++++OO++++OOOOOOOOOOOOOOOOOOOOOOOOOOOOO+OOOO+OOO+OO+OOOOOOOOOOOO",
"&&@@@@OO..........OX++++#&&&&&&@++++++@+@@+++++OOO++++@@&&&%%%%%#&##++OO..++++++##&&&&**&&****&&*&&&###+++++###&*************%##++XXXX++++++#&&&&&&&****&&&&#+++++X+++++##############++++++++++++++++++++######%%%%**************%%###+XXXXXXXX++####+XXXXXXXX++$####$+XXXX+++$###*##$$++XX......o.o...XXXX...XXXXXXXXXX++XXXX+++++########++XXXX..XXXOXX++++X+XX++++++O+++++++++@@@@@&&&&&&:&&&&&&&&:::&&:::&&&@@@@&&&&&&&&@@@@@@@@@@@@@OOOOOO@@@@@@@@@@OOOOOO@@@@@&&@@OOOOOOOOO@@@&@@OOOOOOOOOOOOOOOOOOO@@&&&@@O@OOOO@@@&&@@@@&&&&&&&&&&&&&&&&&&&&&&&&&&&&&&&&&&&&&&&&&&&&&&&@@@OOOOOOO@@@@&&&@@@@O@@@@&&&@@@@@OOOO@@@@@@&&&@@@O@@@@@@@@&&&&&&&&&&&&&&&&&&&&&&&&&&&&&&&&&&&&&&&&&&&&&&&&&&&&&&&&&&&&&&&&&&&&&&&&&&&&&&&&@@@@@@@@@&&&&@@@@@@@&&&&@@@@OO@@@@@@&&&&@@@OOOO@@@@&&&&@@@@@@@@@@@&&&@@OOOOOOOOOOOOOOOOOOOOOOOOOOO@@@@@@@@@@@@@@@@@@@@@@@@@@@@@@@@@@@@@@@@@@@@@@@@@@@@@@@@@@@@@@@OOOO@@OOOOOOOOO.............................OOOOOOOO@@@&&&@@@@@@@+OOOOO.......OOOOOOOOOOOOO@OOOOOOOOOOOOOO@@@@@@@@@@@@@@@@&&&&===*&###++++++++XXXXXXX...o..o..oo.o..                                        oXXXXXXXXX+$#$$+$$######%%%##$XXXXX.....ooooooooo ooo...                          ooX$##%###$$+XXXX...XX..X...XX...X++O.OOOOOOO+++++OO++.OOO++++++++OOOOOOO++++O++++OOOOO+O+O++O++OOOOO+OOOOOO++OO+++OOOOOOO++OOOOOOOO+O",
"&&@@@@OO..........OX++++###&&&&@+++++@@+@@++++O+O+++++@@&&&&%%%&&&##+++O..O+++++##&&&&**&&****&&*&&&###+++++###&*************%##++XXX+++++++#&&&*&&&=====*&&##++++++++++#######%%########+$$+$$$+$+++++++++#######%#%%%%%%********%%###+XXXXXXXX+$####+XXXXXXXX++$####$+XXXX+++###%*##$$++XX........oo....XX....XXXXXXXX++++XXX+X+++########++XXXX..XXXO..++O+XXX+++++++OO++++++++@@@@@&&&&&&:&&&&&&&&:::&&:::&&@@@@@&&&&&&&&@@@&&&@@@@@@@@OOOOO@@@@@@@@@@OOOOOO@@@@@&&@@OOOOOOOOO@@@&@@OOOOOOOOOOOOOOOOOOO@@&&&@@OOOOOO@@@&&@@@@@@@@@@@@@@@@@@@@@@@@@@@@@@@@@@@@@@@@@@@@@@@@&&&@@@OOOOOOO@@@@&&&@@@@@@@@@&&&@@@@@OOOO@@@@@@&&&@@@@@@@@@@@&&&&&&&&&&&&&&&&&&&&&&&&&&&&&&&&&&&&&&&&&&&&&&&&&&&&&&&&&&&&&&&&&&&&&&&&&&&&&&&&&@@@O@@@@@&&&&@@@@@@@&&&&@@@@OO@@@@@@@&&&@@@OOOO@@@@&&&&@@@@@@@@@@@&&&@@OOOOOOOOOOOOOOOOOOOOOOOOOOOOOO@@@@@@@@@@@@@@@@@@@@@@@@@@@@@@@@@@@@@@@@@@@@OOOO@@@O@@O@@OOOOOOOOOOOOOOOO..............................OOOOOOOOO@@@&&&@@@@@@@+OOOOO.......OOOOOOOOOOOOO@@OOOOOOOOOOOOO@@@@@@@@@@@@@@@&&&&&===*&##+++++++++XXXXXXXX.....o..oo..oo..ooo  o                                oXXXXXXXXX+$#$$$$#######%%%##$XXXXXX....oooooooo  oooo..oo                        ooX$##%%##$$+XXXX...XX..XX..X....O++++OOO.OO++++++++++.OOOOO++++++OOOOOOO++++O++++OOOOO+OOOO++++OOOOO+OOOOOO++OO++OOOOOOOO+OOOOOOOOO++",
"&&#@+++O..........OX++++#&#&#&&#+++++++++++++++OOO++++@#&&&&%%&&&&##++OO..O+++++##&&&***&&***&&&*%&&####++####&&&&**********%%##++XXXX+++++##&%***&&&&*=*&&&##++++++++$############################+++++++++#####%%%#########%%######++XXXXXXXXX++####+XXXXXXXX++$####$+XXXX+++####%##++++XXX.......oX.....X....XXXXXXXXX+XXXX++X+++########++XXX...XX++XXX+.O.X++++OO++OOO++O++@+@@@@@&&&&&::&&&&&&&&:::&&:::&&@@@@@&&&&&&&&&&&&&&@@@@@@@@OOOO@@@@@&@@@@OOOOOOOO@@@@&&@@OOOOOOOOO@@@&@@OOOOOOOOOOOOOOOOOOO@@&&&@@O@OOOO@@@&&@@@@@@@@@@@@@@@@@@@@@@@@@@@@@@@@@@@@@@@@@OO@OO@@@&&@@@OOOOOOOOO@@&&&@@@@O@@@@&&&@@@@@OOOO@@@O@@&&&@@@@@@@@@&&&&&&&&&&@@@@@@@@@@@@@@@@@@@@@@@@@@@@@@@@@@@@@@@@@@@@@@@@@@@@@@@@@@@@@@@@@@@@@@&&&@@@O@@@@@@&&&@@@@@@@&&&&@@@@O@@@@@@@&&&&@@@OOOO@@@@&&&&@@@@OOOO@@@&&&@@OOOOOOOOOOOOOOOOOOOOOOOOOOOOOOOOOOOOOOOOOOOOOOOOOOOOOOOOOOOOOOOOOOOOOOOOOOOOOOOOO...OOOOO.......O....................................OOOOOOOOOO@@&&&@@@@@@@+OOOOOO....OOOOOOOOOOOOOOO@@OOOOOOOOOOOOO@@@@@@&&&@@@&&&&&&&&===*&&##+++++++++XXXXXXXX..XXXXo....oooo..oooo..oo                            oXX+XXXXXX$$#$$$$#######%%%##$XXXXXX.X..oooooo.o.ooo.oooooo                       ooX$##%###$$+XXXX...XX.XXX......OO+XX+OO+X++++++OOOO+++OOOOOOO+O++++OOOOOO++OOOO+++O++OOOO++OO++OOOO++O+++OOO+OOO+OOOOOOOO++OOO+++OOOO",
"&&#@++++..........OO+++@#&###&&#+++++@+++++++++OOO++++##&&&&&%&&&&##+++OO+++++++##&&&***&&**&&&&*%&&##########&&&***********%%##++XXXX+++++##&%***&&&&&*&&&&##+++++++++#################+++############+++++##%%%%%%################+++XXXXXXXXX++####+XXXXXXXXX+$####++XXXXXX+#######++++XXX......XXX...........XXXXXXXXXXXXX++X+++########++XXXX..XX+XXXX+.O.X+++OOOOOOO++O++++O@@@@@&&&&&::&&&&&&&&:::&&:::&&&@@@&&&&&&&&@&&&@&@@@@@@@@@OOO@@@@@@&@@@@OOOOOOOO@@@@&@@@OOOOOOOOO@@@&@@OOOOOOOOOOOOOOOOOOO@@&&&@@OOOO@O@@@&&@@@@@@@@@@@@@@@@@@@@@@OOO@@@@OOO@@@@OOOOOOOOO@@@@&&@@@OOOOOOO@O@@&&&@@@@O@@@@&&&@@@@OOOOOO@@O@@&&&@@@@@@@@@&&&&&@@@@@@@@@@@@@@@@@@@@@@@@@@@@@@@@@@@@@@@@@@@@@@@@@@@@@@@@@@@@@@@@@@@@@@@@@@@&&&@@@O@@@@@@&&&@@@@@@@&&&&@@@@@@@@O@@@&&&&@@@OOOO@@@@&&&&@@@@OOOO@@@&&&@@OOOOOOOOOOOOOOOOOOOOOOOOOOOOOOOOOOOOOOOOOOOOOOOOOOOOOOOOOOOOOOOOOOOOOOOOOOOOOOOOOOOOOOOOOO..OO.......................................OOOOOOOOO@@@&&&@@@@@@++OOOOOO....OOOOOOOOOOOOOOO@@@OOOOO@OOOOO@@@@@@@&&&&&&&&&&&&&&===*&&##+++++++++XXXXXXXXXXXXXXX.......oo.o.oo...oo                           .XX++XXXXX$###$$$$######%%*##$XXXXXXXXX.ooooo....o.o.oo   o   oo.                 ooX$##%%##$$+XXXX...XXXXXX...+..O+++XXOO+X++++++OOOO++++OOOOOOOO+++OOOOOOO++OOOOOOOO++OOO++OOO+OOOOOOO++++OOOOOO++OOOO+OOOO+OO++OOOOOO",
"&###@@++...........X++++#&&&&&&#+++++++++@+++++++O+++###&&%&&&&&&&##+++++++++++@##&&&*****&&****%%&&&&&&&&&&&&%*************&&&#++++++++++++#&&&&&%&&&&&&&&&#+++++++++#################++++#############++$####%%%%%############++++++XXXXXXXXX+++####+XXXXXXXXX+$####$+XXXX+++$##**##++++XXXX..ooo....o.XXXXXXX.XXXXXXXXXXXXXX++++++#######++XX+OXXXXXX...X++..X.+O+O++OO++++OOOO@@@@@&&&&&&:&&&&&&&&:::&&:::&&@@@@&&&&&&&&&&&@@@@@@@@@@@@@OOOO@@@&@@@@@@@OOOOOOO@@@&@@@OOOOOOOOO@@@&@@OOOOO.OOOOOOOOOOOOO@@&&@@@OOOO@O@@@&&@@@@@OOOOOOOOOOOOOOOOOOOOOOOOOOOOOOOOOOOOOOOOOO@@&&@@@@OOOOOO@O@@@&&@@@@O@@@@&&&@@@@OOOOOOO@@@@&&&@@@@@@@@@&&&@@@OOOOOOOOOOOOOOOOOO@@OOOO@@OOOOOOOOOOOOOOOOOOOOOOOOOOOOOOOO@OOOOOOOOOOOO@@@&&&@@@@@@@@@&&&&@@@@@@@&&&&@@@@OOO@@@@@@&&&@@@OOOO@O@@&&&&@@@@@@OO@@@&&&@@OOOOOOOOOOOOOOOOO...OOOOOOOOOOOOOOOOOOOOOOOOOOOOOOOOOOOOOOOOOOOO.....OO...OO.OOO....................................................OOOOOOOOOO@@@&&@@@@@@@++OOOOO.....OOOOOOOOOOOOOOO@@@@@@@@@@@@@@@@@@@@@&&&&&&&&&::::&===*&###+++++++++XXXXXXXXXXXXXXX..oooo.oooooo.ooooo                          o.X$$+XXXXX$##$$$########***%#$+XXXXXXXX.oX.ooooooooo...ooo  o   o    oo           ooX$#%%###$$++XXX.XX.....X....+O..XX+XXX+OOOOO.XX+++OOOOOOX+++++OOO++++OOOOO+O+O+OOOOOO+OOOOO+++++++OOOOOO+OOOOOOO++OOO+++OOOOOOOOOO++",
"&&#@@@+O...........X+++@#&&&&&&@++++++++@@++++++++++###&&&&&&&&&&&##++++++++++###&&&&****&&&*%%%**&&**==========**===********&%#++++XXX+++++##&&&&####&&&&&##+++++++++################+++++#############+++####%%%%%############++++XXXXXXXXXXXX+$$###+XXXXXXXXX+$####$+XXXX+++$##%%##++++XXXX..ooo........XXXXXXXXXXXXXXXXXXXXX+++++#######++XXXOXX.XXX...X++X.O.++++++++++++OOOO@@@@@&&&&&&:&&&&&&&&:::&&:::&&@@@@&&&&:&&&&&&&@@@@@@@@@@@@OOOO@@@&@@@@@@OOOOOOOO@@@&@@@@OOOOOOOO@@@&@@OOOOOOOOOOOOOOOOOOO@@&&@@@OOOO@@@@@&&@@@OOOOOOOOOOOOOOOOOOOOOOOOOOOOOOOOOOOOOOOOOOOO@@&&@@@OOOOOOOOO@@@&&@@@@@@@@@&&&@@@@OOOOOOO@@@@&&&@@@@@@@@@&&@@@@O@OOOOOOOOOOOOOOOO@@OOOOOOOOOOOO@@OOOO@@OOOOOOOOOOOOOOOOOOOOOOOOOOOOOOO@@@&&&@@@@@@@@@&&&&@@O@@@@@&&&@@@@OOO@@@@@@&&&@@@OOOO@O@@&&&&@@@@@@OO@@@&&&@@OOOOOOOOOOOOOOOOOOOOOOOOOOOOOOOOOOOOOOOOOOOOOOOOOOOOOOOOOOOOOOOOOOOOOOO.......OOOOOOOOOO....OO.......................................OOOOOOOOO@@@&&@@@@@@@++OOOOOO....OOOOOOOOOOOOOOO@@@@@@@@@@@@@@@@@@@@@&&&&&&&::::::&===*&###+++++++++++XXXXXXXXXXXXXX..o....oooooo... o                          oXX$$+XXXXX$###$$#######%***##$XXXXXXXXXXX.oooooooooo...oooo o.    . oo            ooX$#%%%##$$++XX.XXXX....X....+...XXXXXXXXOOOO..X+++OOOOXOOO++++OOO+++OOOO+O+++OOOOOOO++OOOOOO++++O+OOOOOO+OOOOOOO+OOOO+++OOOOOOOOOO++",
"###@@@+O..........OX+++@#&&&&&##@++++++@@@++++++++@+&#&&&&%%&&*%&&##++++++++++@@#&&&&&****&&*&&&%%**====================*&*&*&&#++++++++++++######+#++##&&&#+++++++++++##############+++++#############$+++####%%%%%############+++XXXXXXXXXXXX++$+###++XXXXXXX++$####$+XXXXX++$######++++XXX....o...o.....X..XXXXXXXXXXXXXXXXXXX+++++######++XXXX..X.XXX.+XO+..++OOOO++++++++++++@@@@@&&&&&&:&&&&&&&&:::&&&::&&@@@@@&&&&&&&&:&&@@@@@@@@@@@@O@OO@@@&@@@@@@OOOOOOOO@@@&@@@@OOOOOOOO@@@&@@OOOOOOOOOOOOOOOOOOO@@&&@@@OOOO@O@@@&&@@@OOOOOOOOOOOOOOOOOOOOOOOOOOOOOOOOOOOOOOOOOOOO@@&&@@@OOOOOOOOO@@&&&@@@OO@@@@&&&@@@OOOOOOO@@O@@&&&@@@@@@@@@&&@@@@OOOOOOOOOOOOOOOOOOOOOOOOOOOOOOOOOOOOOOOOOOOOOOOOOOOOOOOOOOOOOOOOOOOOOOO@@@&&&@@@@@@@@@&&&&@@@@@@@@&&&@@@@@OO@@@@@@&&&@@@@OOO@O@@&&&&@@@@@@OO@@@&&&@@OOOOOOOOOOOOOOOOOOOOOOOOOOOOOOOOOOOOOOOOOOOOOOOOOOOOOOOOOOOOOOOOO.....OO.............................................................OOOOOOOOOO@@&&@@@@@@@@+OOOOOO..OOOOOOOOOOOOOOOOO@@@@@@@@@@@@@@@@@&@@@&&&&&&:::::::&===*&###++++++++++++XX+XXXXXXXXXXXXX.....ooooooo..oo                         oXX$$$+XXX+$###$$######*****%#$+XXXXXXXXo....o.oo..........oo..                    ooX$##%%##$$++XXXXXX....XXXX..++..XX+OXXXXX+O+.X+++++O+X+XOOOO+OOO++++++++OO++OOOOOOO++OOOOO++OOOOOOOOOO+O++OOOOOO++OOOO++OO+OOOOOOOOO",
"###@@@+O..........OO+++@#&&&&&##@+++++@@@@++++O+++@#&&&&%&*****%&&###++++++++#@@##&&&&****&&&&&&%*&*=====;;=;;============*&*&##++++++++++++###+++++++++###+++++++++++++############++++++############$+++#####%%%%%############+++XXXXXXXXXXXX++$####+XXXXXXXX++$####$+XXXXX+$$######++++XXX....ooo...o...X..X.XXXXXXXXXXXXXXX+X+++++######++X+XX....XX.X++++..++OO+O++++++++++++@+@@@&&&&&&:&&&&&&&&:::&&:::&@@@@@@&&&:&&&::&&@@@@@@@@@@@@@@@@@@@@@@@@@@OOOOOO@O@@@&&@@OOOOOOOOO@@@&@@OOOOOOOOOOOOOOOOOOO@@&&@@@OOOOOO@@@&&@@@OOOOOOOOOOOOOOOOOOOOOOOOOOOOOOOOOOOOOOOOOOOO@@&&@@@OOOOOOOOO@@@&&@@@OO@@@@&&&@@@OOOOOOO@@O@@&&&@@@@@@@@@&&@@@@OOOOOOOOOOOOOOOOOOOOOOOOOOOOOOOOOOOOOOOOOOOOOOOOOOOOOOOOOOOOOOOOOOOOOOOO@@&&&@@@@@@@@@@&&&@@O@@@@@&&&@@@@@OO@@@@@@&&&@@@OOOO@O@@&&&&@@@@O@OO@@@&&&@@OOOOOOOOOOOOOOOOOOOOOOOOO...OOOOOOOOOOOOOOOOOOOOOOOOOOOOOOOOOOOOOOOOOOOOO.....OO..O..O................................................OOOOOOOOO@@&&@@@@@@@@+OOOOO....OOOOOOOOOOOOOOOO@@@@@@@@@@@&@@@@&&@@@&&&&&&:::::::&===*&###++++++++++++++++XXXXXXXXXXXXXXX....oooooo..oo                       ooX+##$$+++$$###$$#####%*****%#$XXXXXXXXXX....oo.oo......o.. o..                    ooX$##%%##$$++XXXXXX.X..XXXX..++...X++XXXX++++OO++++OO+XX+OOOO++OOO+++++++OOOOOOOOOOO+OOOOOOO+OOOOOOOOOO++++OO++OOOOOOOOOOOO++OOOOOOOO",
"&&@@+++O..........OO+++@##&&&&##@+++++@@@@+@++++++##&&&&**&&&&**&&###+++++++++#@#&&&&&%%*&&&&&&&&&**========;;============***&&##+++++++++++##++++++++++++++++++++++++++##########+++++++++##########+++++###%%%%%%%############$++XXXXXXXXXXXX+++$###+XXXXXXXX++$####$+XXXXX+$#######++++X............oXX....XX..XXXXXXXXX+XX++X+++########++X+XXX..X.XX+O+.XX.++OOO+++O+++++++++@@@@@&&&&&&&&&&&&&&&&::&&:::&@@@@@@&&&&&&&::&@@@@@@@@@@@@@@@@@@@@@@@@@OOOOOOOOOO@@@&&@@OOOOOOOOO@@@&@@OOOOOOOOOOOOOOOOOOO@@&&&@@OOOOOO@@@&&@@@OOOOOOOOOOOOOOOOOOOOOOOOOOOOOOOOOOOOOOOOOOOO@@&&@@OOOOOOOOOO@@@&&@@@OO@@@@&&&@@@OOOOOOO@@@@@&&&@@@@@@@@@&&@@@@OOOOOOOOOOOOOOOOOO@@O@OOOOOO@@@@@@@@OOOOOO@OOOOOOOOO@O@@OOOOOOOOOOOOOOOO@@&&@@@@O@@@@@@&&&@@O@@@@@&&&&@@@@OO@@@@@@&&&@@@OOOO@O@@&&&&@@O@OO@@@@@&&&@@O@OOOOOOOO@@@@OOOOOOOOOOO.OOOOOOOOOOOOOOOOOOOOOOOOOOOOOOOOOOOOOOOOOOOOOOOOOOOOOOOOOOOOOOOOOOOOOOO...................................OOOOOOOOOOO@@@&@@@@O@@@OOOOO....OOOOOOOOOOOOOOOO@@@@@@@&&&&&&&@@&&&&@@&&&&&&:::::::&&==*%#####++++++++++++++XXXXXXXXXXXXXXXX..X.oo.ooooo  oo                   oooX$###$$$$$$###$$#####*==**%%#$XXXXXXXXXXXoo.o..oooo...oo..ooo                     ooX$##%%##$$+XX..........XXXX.+XX.XOOOXXXXXX+++++OOO++++X..+O+OOOOOOOOOOO+++++OOOOOO++OOOOOOOOOOOOOOOOO+++OOOO+OOOOOOOOOOO++++OO++OOOO",
"&&@@@+++O.........O++++@##&&&&##@+++++@@@+++++O+++##&&&&****&&*&&&###++++++++#####&&&&&&&&&&&&&&&&&&*====================*****&####@############@#++++++++++++++X+++++++###########+++++++#######+++++++++###%%%%%##############$++XXXXXXXXXXXXX++####+XXXXXXXX++$####$+XXXXX+$$######+$++X............oX.....X...XXXXXXXXX+XX++X++++#######++X+XXXX...XXO++++XXX++OO+++OO++++++++@@@@@&&&&&&&&&&&&&&&&:::&::&&&@@@@@&&&&&&&::&@@@@@@@@@@@@@@@@@@@@&@@@@OOOOOOOOOO@@@&&@@OOOOOOOOO@@@&@@OOOOOOOOOOOOOOOOOO@@@&&&@@OOOO@O@@@&&@@@OOOOOOOOOOOOOOOOOOOOOOOOOOOOOOOOOOOOOOOOOOOO@@&&@@OOOOOOOOOO@@@&&@@@OO@@@@&&&@@@OOOOOOO@@@@@&&&@@@@@@@@@&&@@@@OOOOOOOOOOOOOO@@@@O@@OOOO@OOO@@@@OOOOOOOOO@@@@OOOOOOOO@@@@OOOOOOOOOOOOOO@@&&&@@@OO@@@@&&&&@@O@@@@@&&&&@@@@OO@@@@@@&&&@@@OOOO@O@@&&&&@@O@OO@@@@@&&&@@O@OOOOOOOO@@@@@@OOOOOOOOOOOOOOOOOOOOOOOOOOOOOOOOOOOOOOOOOOOOOOOOOOOOOOOOOOOOOOOOOOOOOO..OOOOOOOOOO..............................OOO...OOOOOOOOO@@@&@@@@OO@+OOOOO....OO.OOOOOOOOOOOOO@@@@@@@&&&&&&&@@&&&&@&&&&&&&:::::::&===*%#####+++++++++++++++XXXXXXXXXXXXXXXXXX.oo...ooo.oooo                 ooooX#####$$$$##########%*==***%#$+XXXXXXXXXXXoooo..ooooooooo.oo.      o              o.X$#%%%##$$+XXX........XXXXX.+X..X.OOXXX.XXO+++OOOOO+++OOO+OOOOOOOO+OOO++++++++OOOO++OOOOOOOOO+OOOOOOOO++++OO++OOO+OOOOOOOO++OO++OOOO",
"&&&@@+++O.........+++++@##&&&###@++++++@++@+++O++#&&&&****&*&**&%####++++++@####&#&&#&&%&&&&######&&&&&**==============&**&*&&&&&&&##&&&&&&&#&&&&&####+++++++++XX++++++############################++++++####%%%#################++XXXXXXXXXXXXX+$####+XXXXXXXX++$####$+XXXX+++$######++++X............oXX....XX..XXXXXXXX++XXXXX+++++######++XXXXXX..XXXX++++++XXOO++++OO+++++O++@@@@@&&&&&::&&&&&&&&:::&&:::&@@@@@&&&&&&&&::&&@@@@@@@@@@@@@@@@@@@@@@@@OOOOOOOOOO@@@&&@@OOOOOOOOO@@@&@@OOOOOOOOOOOOOOOOOOO@@&&&@@OOOOOO@@@&@@@OOOOOOOOOOOOOOOOOOOOOOOOOOOOOOOOOOOOOOOOOOOOO@@&&@@OOOOOOOOOO@@&&&@@@O@@@@@&&&@@@OOOOOO@@@@@@&&&@@@@@@@@@&&@@@@OOOOOOOOOOOO@@@@@@@@@@@@@@@@@@@@@@@@@@@@@@@@@@@@@@@@@@@@@@@@@@@OOOOOOOOO@@&&&@@@OO@@@@&&&&@@@@@@@@&&&@@@@@OO@@@@@@&&&@@@OOOO@O@@&&&&@@@@OO@@@@@&&&@@O@OOOOOO@@@&&&&@OOOOOOOOOOOOOOOOOOOOOOOOOOOOOOOOOOOOOOOOOOOOOOOOOOOOOOOOOOOOOOOOOOOOOOOOOOOOOOOOOOOOOOOOO........................OO...OOOOOOOOO@@&&@@@OOO@OOOOOOO...OOOOOOOOOOOOOOOO@@@@@@@&&&&&&&&&&&&&@&&&&&&&:::::::&===*&&#####++++++++++++++XXXXXXXXXXXXXXXXXXX..oooo.oo.ooo                 .oooX#####$$$$##########%*==***%#$XXXXXXXXXXXXXXo.oXo.ooooooo. oo     oo o .          o.X$#%%%##$$+XXX..XX...XXXXX+X......O.++O.OOOO++OOOO++OOOO+++OOO++++++OOOO+O+O+++OOOO+OO+O++OO+++OOO+OOO+++++OOOOOO++O++OOOOOOOO++OO++",
"&&&@++++O.........+++++@##&&&###@+++++++++@@+++++##&&&*****&&&&&&#####+++++@####&&&&#&&&&&&&###########&&&&***&&&&&&&&&&&&&&&&&&#&&###&&&&&&&&&&&&&&###+++++++++X+++++#############################++++######%%#################$++XXXXXXXXXXXXX+$####+XXXXXXXX++$####$+XXXX+++$######++++X......o.....oXX.X..XX..XXXXXX++++XXXXX+++++######++XXXOXX.XXXX+++++++XX++O+++OO+++++O++@@@@@&&&&&:&&&&&&&&&:::&&:::&@@@@&&&&&&&&&::&&@@@@@@@@@@@@@@@@@@@@@@@@OOOOOOOOOO@@@&&@@OOOOOOOOO@@@&@@OOOOOOOOOOOOOOOOOO@@@&&@@@OOOOOO@@@&@@OOOOOOOOOOOOOOOOOOOOOOOOOOOOOOOOOOOOOOOOOOOOOO@@&&@@OOOOOOOOOO@@@&&@@@O@@@@@&&&@@@OOOOOO@@@@@@&&&@@@@@@@@@&&@@@@O@OOOOOOOOO@@@@@@@@@@@@@@@@@@@@@@@@@@@@@@@@@@@@@@@@@@@@@@@@@@@@@@@OOOOO@@@&&&@@@OO@@@@&&&&@@@@@@@@&&&&@@@@OO@@@@@@&&&@@@OOOO@O@@&&&&@@@@OO@@@@@&&&@@O@OOOOO@@@@&&&&@OOOOOOOOOOOOOOOOOOOOOOOO@@@@@@@@@@@@@@@@@@@@@@@@@@@@@@@@@@@@@@@@@@@@@@@@@@@@@@@@@@@@@@OOOO............................OOOOOOOOO@@@&@@@@O@@OOOOOOOO..OOOOOOOOOOOOO@OO@@@@@@@&&&&&&&&&&&&&@&&&&&&&::::::&&===*&&######+++++++++++++XXXXX+XXXXXXXXXXXXX..oo...oooo..                 .oo.+#####$$$$##########%*==***%#$XXXXXXXXXXXXXX..oX..ooooooo.ooo     o  o .          o.X$#%%%##$$+XXXX.XXX..XXXXX+X........XXOOOOOOXX..OO++OOOO++++OO++++++OOOO+O+O++++OOO+OOOO+++++++OOO++O++++++OOOOOOO+OO+++OOOOOOOOOO++",
"&&#@@@+OOO.........+++++##&&&&##@+++++@@++@@+++++@&&&&**&&&&**%&%&####+++++###&#&&&&&&&&&&&&&&#################&&&%&&&&&&&######@@#@@@#&&&&&&&&&&&&&##@++++++++++++++++##############################+#######%##########++#######+++XXXXXXXXXXXX++####++XXXXXXX++$####+++XXXX++$######+$++XX..ooo.....oo.X...XXX..XXXXXXXX++XXXXXX+++######++++XXXXXX..OOOOOO+O+XX+++++O+OO+++++++++@@@&&&&&&&&&&&&&&&:::&&:::&@@&&&@&&&&&&&::&&@@@@@@@@@@@@@@@@@@@@@@@@OOOOOOOOOO@@@&&@@OOOOOOOOO@@@@@@OOOOOOOOOOOOOOOOOOO@@&&@@@OOOOOO@@@&@@O@OOOOOOOOO@@@@@@@@@@@@@@@@@@@@@OOOOOOOOOOOOOO@@&&@@OOOOOOOOOO@@@&&@@@@O@@@@&&&@@OOOOOOOOO@@@@&&&@@@@@@@@@&&@@@@OOOOOOOOO@@@&&&&&&&&&&&&&&&&&&&&&&&&::&&&&&&&&&&&&&&&&&&&:&&:&&&@@@OOOO@@@&&&@@@O@@@@@@&&&@@@@@@@@&&&@@@O@OO@@@@@@&&&@@@OOOOO@@@&&&&@@@@O@@O@@@&&&@@O@OOOOOO@@@&&@@@OOOOOOOOOOOOOOOOOOOOOOOOOOOO@@@@@&&&&&&&&&&&&&&&&&&&&&&&&&&&&&&&&&&&&&&&&&&&&&&&&&&@@@@@@OO...........................OOOOOOOOO@@@&&@@@O@@OOOOOOOOOO..OOOOOOOO@@@@@@O@@@@@@&&&&&&&&&&&&&@&&&&&&&:::::::&===*&&##+@+++#+++++++++++++++XXXXXXXXXXXXXXXXX..oo.oooo..    o..          .o.X$#####$$$$##########%*==***%#$+XXXXXXXXXXX.X..XXoooo......  ooo                 o.oXX$#%%%##$$XXXXX.XXXXX.XXXXXX...XO+X.XOOOOOO+OO++.++XOOOO++++OO+++OOOOO++++OOO+O++O+O++++++OOO++O++++OO+++++O+++O++OO+OO+O++OOOO+OOOO",
"&&#@@@OOOO.........++++@###&&&##@@++++@+++@@@++++#&&&&**&&&&*%%&&#####+++++##&&&&&&&&&&&&&**&&&##+++++#########&&&&&&&&&@@#+++++++++++#@@@####&&&&####+++++++++++++++++######################################%%#########$$#######+++XXXXXXXXXXXX+$####+XXXXXXXXX+$#####++XXX+++$######+$++X.X..oo......oXX...XXX..XXXXXXXXX+XXXXXX++++#####++++XXOOXXXOOOOO+X+XXXXO+++OO++++++++++++@@@&&&&&&&&&&&&&&&:::&&::&&@@&&&@&&&&&&&::&&@@@@@@@@@@@@@@@@@@@@@@@@OOOOOOOOOO@@@&&@@OOOOOOOOOO@@@@@OOOOOOOOOOOOOOOOOOO@@&&@@@OOOOOO@@@&@@OOOOOOOO@@@@&&&&&&&&&&&&&&&&&@@@OOOOOOOOOOOOOO@@&&@@OOOOOOOOOO@@@&&@@@@O@@@@&&&@OOOOOOOOOO@@@@&&&@@@@@@@@@&&@@O@OOOOOOOO@@@&&&&&&&&&&&&&&&&&&&&&&&&&&&&&&&&&&&&&&&&&&&&&&&&&&&&&&@@@OO@@@@&&&@@@O@@@@@@&&&@@@@@@@@&&&@@@O@OO@@@@@@&&&@@@OOOOO@@@&&&&@@@@O@@O@@@&&&@@OOOOOOOOO@@&&@@@OOOOOOOOOOOOOOOOOOOOOOOOOOOOOO@@@@@&&&&&&&&&&&&&&&&&@&&&&&&&&&@@@@&@@@@@@@@@@@@@@@@@@@OOOO.............................OOOOOOO@@@@&&@@@O@@OOOOOOOOOO..OOOOOOOO@@@@@@@@@@@@&&&&&&&&&&&&&&@&&&&&&&:::::::&=:=*&&#@+++++++++++++++++++XXXXXXXXXXXXXXX....X..o.oooo...  ...           .o.X$#####$$$$##########%*==***%#$++XXXXXXXXXXXX.o...oooo..o... ooo       o         o.o.X$#%%%##$$XXXXX..XXX..X.XXXX....X+.XX+OOOOOOOOXO.O++OOOO+++OX.++OOOO+++++OOOOOOO++O+OOOOOOOOOOOO+O++OO++++OO+O+OO+OOOOOO++OOOOO+OOOO",
"&&#@@++O...........++++@##&&&&##@@++++@++++@+++++##&&&***&*&%%&&&&#####@@@@&&&&&&&&&**&&&&&&&&&#+++++++++#######&&%&&&&&@@@+++++++++++++@@+#+@@@##+##+++++++++++++++++++############################+########%%########++$#######++XXXXXXXXXXXXX+$####+XXXXXXXXX+$#####++XXX+++$######+$++X.X.o.oo...........XXX.XXXXXXXXX++XXXXXX++++######+++X+XXX+XOOXOXX+XXX++++++++++++O+++++++@@@&&&&&&&&&&&&&&&:::&&:::&&@@&&@&&&&&&&::&@@@@@@@@@@@@@@@@@@@@@&@@@O@OOOOOOOO@@@&&@OOOOOOOOOO@@@@@@OOOOOOOOOOOOOOOOOO@@@&&@@@OOOOOO@@@&@@OOOOOOO@@@&&&&&&&&&&&&&&&&&&&&&@@@OOOOOOOOOOOO@@&&@@OOOOOOOOOO@@@&&@@@OO@O@@&&&@@@OOOOOOOO@O@@&&&@@@OO@@@@&&@@@@OO@@OOO@@@@&&@@@@@@@@@@@@@@@@@@@@@@@@@@@@@@@@@@@@@@@@@@@@@@@@@&&&&@@@@@@@@&&&@@@O@@@@@@&&&@@@@@@@@&&&@@@O@O@@@@@@@&&&@@@OOOO@@@@@&&&@@@@OOOO@@@&&&@@O@OOOOOOO@@&&@@OOOOOOOOOOOO@@@@OOOOOOOOOOOOOOOOOO@@@@@@@@@@@@@OOO@@@OOOOOOOOOOOOOOOOOOOOOOOOOOOOOOOOOOOOO............................OOOOOOOOO@@@@&@@@OOOOOOOOOOOOOO..OOOOOOO@@@@@@@@@&&@@&&&&&&:&&&&&&&&&&&&&&&:::::::&===*&&##++#+++++++++++++++++XXXXXXXXXXXXXXXXXXXX.ooooooo      o           oo.X$#####$$$$########%%%*==***%#$++XXXXXXXXXXX..oo.oooooo..oo.o   o      oo        o o.X$#%%%##$$XXXX............XX....X+++..OO....XXXXOOOOOOOO++OOXXX+OOOO+OOOOOOO++OO+O+OOO+++++O+++OOOOOOOOOOOOOOOOOOOOOOOOOOOOOOOOOOOOO",
"&&&@@+++...........O++++##&&&&##+@++++@++@++@++++##&&******%%%&&&######@@@@&&&&&********&&&&&&&#+@++++++@@######&&****&&&@++++OO++++++++@@####&&####++++++++++++++++++++++++#+++++##+++############+++######%%#######+##########$++XXXXXXXXXXXXX+$####+XXXXXXXXX+$####+++XXXX++$######+$++XXX...ooo..........XXXXXXXXXXXXXXXXX++XX++++######+++XXXXX+XOOXXXXXXXX++++++++++++O+++++++@@@&&&&&&&&&&&&&&&:::&&:::&@@@@@@&&&&&&&::&@@@@@@@@@@@@@@@@@@@@@&@@@OOOOOOOOOO@@@&&@OOOOOOOOOO@@@@@@OOOOOOOOOOOOOOOOOO@@@&&@@OOOOOOO@@@&@@OOOOOOOO@@@@@@@@@@@@@@@@@@@@&&&@@@OOOOOOOOOOOO@@&&@@OOOOOOOOOO@@@&@@@@@O@O@@&&&@@@OOOOOOOO@O@@&&&@@@OO@@@@&&@@@@O@@@OOOO@@@@@@@@@@@@@@@@@@@@@@@@@@@@@@@@@@@@@@@@@@@@@@@@@@@@@@&&&&@@@@O@@@&&&@@@@@@@@@@&&&@@@@@@@@&&&@@@@@@@@@@@@@&&&@@@OOOO@@@@@&&&@@@@OOOO@@@&&&@@O@OOOOOO@@@&&&@@OOOOOOOOOO@@@@@@OOOOOOOOOOOOOO@@OOOOOOOOOOOOOOOOOOOOOOOOOOOOOOOOOOOOOOOOOOOOOOOOOOOOOO................OOO...........OOOO+OOOOOO@@@&@@@OOOOOOOOOOOOOOO.OOOOOOO@@@@@@@@@&&@@&&&&&&::&&&&&&&&&&&&&&::::::&&===*&&#####+++++++++++++++++XXXX+XXXXXXXXXXXXXXX..o.ooooo                 oo.X$######$$#########%%**==***%#$+XXXXXXXXXXXX...o..oooooo.oo.   oo.o    o      oooooo.X$#%%%##$$XXXX.X...X........X..XX++OX..O...XXXXXOOO+++X+++OO+++++OOOOOOOOOOO++OOOOO+OO++OOOO+++OOOOOOOOOOOOOOOOOOOOOOOOOOOOOOOOOOOOO",
"&&##@+++..........O+++++##&&&&##@+++++@@@@@@@+++@@##%******%&&&&########+##&&&&&==&&*=====*&&&&#@+++++++@###&&#%&******%##+++OOO.OO+++++#&&&&&&&&&&&@@##+++++++++++++++++++++++++++++++++####$++++++++######%%#################+$++XXXXXXXXXXXXX++####$+XXXXXXXX+$#####+XXXXX++$######++++XX....oo.........X......XXXXXXXXXXXXX++++++++#####+++XXXXXXXXXXXXX..XX++O+++++++++++++++@O@@@&&&&&&&&&&&&&&&&::&&:::&@@@@@&&&&&&&:::&@@@@@@@@@@@@@@@@@@@@@@@@@OOOOOOOOOO@@@&&@OOOOOOOOOO@@@@@@OOOOOOOOOOOOOOOOOO@@@&&@@OOOOOOO@@@&@@OOOOOOOOOOOOOOOOOOOOOOOOOO@@@&&&@@OOOOOOOOOOOO@@&&@@OOOOOOOOOO@@@&@@@@@@OO@@&&@@@@OOOOOOOO@@@@&&&@@@OO@@@@&&@@@@OO@@OOOO@@@@@@@@@@@@OOOO@@@@OOOOOO@@@@OOOOOO@O@@@@@@OO@@@@@@@@@&&@@@O@@@@@&&&@@@@@@@@@@&&&@@@@@@@@&&&@@@@@O@@@@@@@&&&@@@OOOOOO@@&&&&@@@@OOOO@@@&&&@@O@OOOOOO@@@&&@@OOOOOOOOOOOO@@@@OOOOOOOO@@@@@OOOOOOOOOOOOOOOOOOOOOOOOOOOOOOOOOOOOOOOO..OO..............................OOO............OOOOOOOOOOO@@&@@@OOOOOOOOOOOOOOO.OOOOOO@@@@@@@@@@&&@@&&&&&&&&&&&:&&&&&&&&&::::::::&:==*&&##@@++#++++++++++++++++XX+XXXXXXXXXXXXXXXX....oooo.    .oo          oo.X$#####$###########%%%*==***%##++XXXXXXXXXXX.XX...ooooooooooo.. o        oooooo oooooX$#%%%##$$+XXXXXXXXX........XXXX..X+XXOOOOXXXXOOO+X++XX+OOOO+OOO+++++++O+OOO+OOOOOOOOO++++OO++OO++OOOOOOOOO+OOOOOOOO+OOOOO++OO+OOOOO",
"&&#@@+++..........OO++++##&&&&##@++++++@+@@@++++@@##%**&***%&##########@+##&&&&&=========**&&&&#++++++++####&&&&*****&*&##++++++.OO++++#&&&*=====*&&&&##########++++++++++++++++++++++++++$$+++++++++++#########################$++XXXXXXXXXXXXX++####$+XXXXXXXX+$#####+XXXXX+$$######++++XX....oo.........X....XXXXXXXXXX++XXX+X++++++#####+++XXXXXXXXXX+XX..X+++OO++++++++++++++@O@@@&&&&&&&&&&&&&&&:::&&:::&@@@@&&&&&&&&:::&&@@@@@@@@@OO@O@@@@@@@@@@@OOOOOOOOOO@@@&&@OOOOOOOOOO@@@@@@OOOOOOOOOOOOOOOOOO@@@&&@@OOOOOOO@@@&@@OOOOOOOOOOOOOOOOOOOOOOOOOO@@@&&&@@OOOOOOOOOOOO@@@&@@OOOOOOOOOO@@@&@@@@@@OO@@&&@@@@@OOOOOOO@@@@&&&@@@OO@@@@&&@@O@OOO@OOO@@@@@@@@@@O@@OOOOOO@@OOOOOOO@@@OOOOOOOO@@OOOOOOOOOO@@@@@&&@@@OO@@@@&&&@@@@@@@@@@&&&@@@@@@@@&&&@@@@@O@@@@@@@&&&@@@OOOO@@@@@&&&@@@@O@OO@@@&&&@@O@OOOOOO@@@&&@@OOOOOOOOOOO@@@@OOOOOOOOO@@@@OOOOOOOOOOOOOOOOOOOOOOOOOOOOOOOOOOO................O.OOO..................................OOOOO..OOOO@@&&@@OOOOOOOOOOOOOOOOOOOOOO@@@@@@@@@@&&&@&&&&&&:&&&&:&&@&&&&&&::::::::&&==&&&##@+++##+++++++++++X++XXXXXXXXXXXXXXXXXXXXXX...ooo. o o o         o o..X$#####$###########%%%*==***%##++XXXXXXXXXXXXXX....oooooooooo..o    ooo  oo o  ooo ooX##%%%##$$+XXXXXXXXX.....OX.XXXX..XOXX+OOOXXOO+O+++++XX+OOOO+OOO++++O+OOOO++++OOOOOOOO++OOOOOOOO++OOOOOOOO++++OOOOOO+OOOOO++OO+OOOOO",
"####@+OO..........++++++&&&&&&&&+++++++++@@@++++@@#&%*&&&&&&#########&######&&&&==&&&&&&***&&&&#+++++++#####&&&&&*****&&&#+++O..+++++++#&&&*========&&&&&&&&%###+++++++++++######++++++++++++++++++++++++###%%###################$++XX..X.XXXXX+++####++XXXXXXX++$#####+XXXX+++$######++++XX..........o...XXXXXXX.XXXXXXXX++XXXXX++++$+####+++++XXXXXXXXO+O+++++XXOO++++++++++++++@O@@@&&&&&&&&&&&&&&&:::&&:::&&@@@&&&&&&&&:::&@@@@@@@O@OOOOO@@@@@@@@@@@@OOOOOOOO@@@@&@@OOOOOOOOOO@@@@@@OOOOOO..OOOOOOOOOO@@@&&@@OOOOOOO@@@@@@OOOOOOOOOOOOOOOOOOOOOOOOOO@O@&&&@@OOOOOOOOOOOO@@@&@@OOOOOOOOOO@@@&@@@@@O@O@@&&@@@O@OOOOOO@@@@@&&&@@@@@@@@@&&@@O@OO@OOOO@@@@@&&@OOOOOOOOOOOOOOOOOOOOOOOOOOOOOOOOOOOOOOOOOOOOO@@@@&&@@OO@@@@&&&@@@@@@@@@@&&&@@O@@O@@&&&@@@@@OO@@@@@@&&&@@@OOOOO@@@&&&&@@@@OOOO@@@&&&@@O@OOOOOO@@@&&@@OOOOOOOOOOO@@@@OOOOOOOOO@@@@OOO..OOO......OOOOOOOOOOO..................................................................OOO...OOOO@@&&@@OOOOOOOOOOOOOOOOOOOOOO@@@@@@@@@@@@&@&&&&&:&&&&&:&&&&&:&&&::::::::&===*&&###++++++++++++++++X+++++XXXXXXXXXXXXXXXXXX.Xooo.... o  .      .     ..X$################%%%**==***%##++XXXXXXXXXXXXXX..X..o..ooooooo.o.   ooo oo     o   ooX###%%##$$XXXXX.XXXX....X+XXOOX...++X+O+O++OOOOO++++OO+O+O++++OOOO++OOOOOO++OOOOOOOOOOO++OOOOOOO+++O++OOOO++++OOOOO+OOOOOO+OO+OOOOO+",
"@###@@+O..........+++++@@&&&&&&&#++++++++@@+++++@@#&&&&&&&&&#########&#@####&&&&*=&&&&&&***&&&##+++++++####&&&&&&*****&&&#+++++X++O++++##&&***&===&&&&&&&&&&%###++++++++++#########+++++++++++++$++++++++####%#########$$########$++XX.X..XXXXX++$####++XXXXXXX++$####$+XXXX+++$######++++XXXX........o...XX..XX.XXXXXXXXX++XXXXX++++#######+++XXXOOOOXXOOO+++++X+++++++++++++++++@+@@@&&&&&&&&&&&&&&&:::&&::&&&@@@&&&&&&&::::&@@@@@OO@@OOOOOO@@@@@@@@@@@@OOOOOOO@@@@@@@OOOOOOOOOO@@@@@@OOOOOO..OOOOOOOOOO@@@@&@@@OOOOOO@@@@@@OOOOOOOOOOOOOOOOOOOOOOOOOOO@@&&&@@OOOOOOOOOOOO@@&&@@OOOOOOOOOO@@@&@@@@OO@O@@&&@@@OOOOOOOO@@@@@&&&@@@@@@@@@&&@@O@O@@@OOO@@@@&&&@OOOOOOOOOOOOOOOOOOOOOOOOOOOOOOOOOOO.OOOOOOOOOO@@&&&@@OO@@@@&&&@@@@@@@@@@&&&@@O@OO@@&&&@@@@@OO@@@@@@&&&@@@OOOOO@@@&&&&@@@@OOOO@@@&&&@@O@OOOOO@@@@&&@@OOOOOOOOOOO@@@@OOOOOOOOO@@@@OOO...........OOOOOOOOOOO...O................................................O.............OOOO..OOOO@@&&@@OOOOOOOOOOOOOOOOOOOOOO@@@@@@@@@@@&@@&&&&::&&&&&:&&&&&:&&&::::::::&===*&####++++#++++++++++++++++X+++XXXXXXXXXXXXXX..ooXooo...ooo.    o .     .oX+################%%%**==***%#$++XXXXXXXXXXXXXX.XX..o..ooo..oo.o.oo   ooo  o       ooX###%%##$$XXXXX..XXX...X++++.XX...++XXO+O+++O+O+++++OOOO++++++OOOO+++++++OOOOOOOOOOOOOOOOOOOOOOO+++O++OOO+++++OOOOO+OOOOO+OOO+OOOOO+",
"@@&##+++..........++++++#&&&##&#++++++@@++@@++++++@&&&&&&&&######&&&####+++@#&&&&&****&&&***&&##+++++++####%&&&&&&*****&&#++++++.O+++++@&&&&&&&&&&**&&&&##&&####+++++++++###&&%%%##++++++++#++++++++++++++###########$$+$########$+XXX.XXXXXXXXX+$####++XXXXXXX+++####$+XXXXX++$######$$++XXoo.o..............XXXX.XXXXXXX+XXX+XX+++++#####+++XXXX.OOOXXXXX++++++++++++++++++++O++++@@@&&&&&&&&&&&&&&&:::&&::&&&@@@@&&&&&&&&::&@@@@@@OOOOO@@OO@@@@@@@@@@@OOOOOOO@O@@@@@@OOOOOOOOOO@@@@@@OOOOOOOOOOOOOOOOOOO@@@&@@OOOOOOO@@@&@@OOOOOOOOOO.....OOOOOOOOOOOOO@&&&@@@OOOOOOOOOOO@@@&@@OOOOOOOOOO@@@&@@@@OO@@@@&&@@@@OOOOOOOO@@@@&&&@@@@OO@@@&&@@@@O@O@OOOO@@@&&&@OOOO..................................OOO.OOOOO@&&&@@OO@@@@&&&@@@O@@@@@@&&&@@O@@@@@&&&&@@@OOO@@@@@@&&&@@@OOOOOO@@@&&&@@@@OO@O@@@&&&@@OOOOOOOO@@@&&@@OOOOOOOOOOO@@@@OOOOOOOOO@@@@OOO.......OOO.OOOOOOO......O...........................................................OOOOO....OOOOO@@&&@@OOOOOOOOOOOOOOOOOO@@@@@@@@@@@@@@&&&@&&&&:::&&&&&&&&&&::&&::::::::&===*&#@##+##++++++++++++++++++XXXXXXXXXXXXXXXXXX..Xo..ooo...   .    ..     ..X+################%%%%*==***%#$+X+XXXXXXXXXXX....XX...ooo..ooooooooo   oo          o.X$#%%%##$$XXXX.X.......XXX.......XX+O..O++++O+XX+OOOOOO+OOOOOO+++++O+++++OOO++++++++++OOOO++OOOO+++O+++OOOOOOOOOOOOO+OOOOO+OOOOOOOOO",
"@@#@#+++..........+++++@@&&&####+@+++++@++@@++++++@@&&&&&&&########&####@@+@#&&&&&&***&&&***&&##++++++##&##%%&&&&&&****&&#++++++.O+++++@&&&&&&&&&***&&&&##&&####+++++++++###&&%%&&##++++++#####++++++++++############+++$########$+XXXXXXXXXXXXX++####+XXXXXXXXX++####$+XXXXX++$######$$++XX........oXX.....X.XXXX.XXXXXXXXXXX++X+++++#####+++XXXX.OOOXXXX++++++++++++++++++++O+++++@@@&&&&&&&&&&&&&&&:::&&::&&&@@@@&&&&&&&&::&@@@@@@OOOOOOOO@@@@@@&@@@@OOOOOOOOOO@@@@@@OOOOOOOOOO@@@@@@OOOOOOOOOOOOOOOOOOO@@&&@@OOOOOOO@@@&@@OOOOOOOOOO..O.OOOOOOOOOOOOOO@&&&@@OOOOOOOOOOOO@@&&@@OOOOOOOOOO@@@&&@@@OO@@@@&&@@@@OOOOOOOOO@@@&&&@@@@OO@@@&&@@@@O@OOOOOO@@@&&&@OOOO....................................OOOOOOO@&&&@@OO@@@@&&&@@@O@@@@@@&&&@@O@@@@@&&&&@@@OOO@@@@@@&&&@@@OOOOOO@@@&&&@@@@OO@O@@@&&&@@OOOOOOOO@@@&&@@OOOOOOOOOOO@@@@OOOOOOOOO@@@@OOO...O..OO...OO@@OOO..................................................................OOOOOO...OOOOO@@&&@@OOOOOOOOOOOOOOOO@@@@@@@@@@@@@@@@&&&@&&&&:::&&&&&&&&&&::&&::::::::&===*&#######++++++++++++++++++XXXXXXXXXXXXXXXXXX..X...oooo..  ..    ...  .o..X+################%%%%*==***%#$+++XXXXXXXXXXX........oooo..oooo oooo   oo         oo.X##%%%##$$XXXXXX.......XXX....+OX.++O.O.X+++X++XOOOOOO++X+OOOO++++OO++++OOOO++++++OO++OOO+++OOOO+++OOOOOOOOOOOO+OOOO++OOOO++OOOOOOOO",
"@@@@@@++O.........++++++@&&&####+@+++++@++++++O+O++@####&&&############@+++@+#&&&&&&&&&&&***&&&&+++++@##&&%%%*********&&&@++++++OO+++++##&**&&&=======&&##&&&&###++++++++##&%%*%&&&##+++++#####++++++++$++##########++++$$#######$+XXXXX..XXXXXX++####+XXXXXXXXX++####$+++XX+++$######$$++XX..oo......XX..XXXXXXXXXXXXXXXX+XXX++X+++++$####+++XXXXX+OOXXO+++OOX++++++++++++++++++++++@@@&&&&&&&&&&&&&&:::&&&:&&&@@@@&&&&&&&&::&@@@@@@@@@OOOOO@@@@@@@@@@@OOOOOOOOOO@@@&@@@OOOOOOOOO@@@@@@OOOOOOO....OOOOOOOO@@&&@@OOOOOOO@@@@@@OOOOOOOOOOOOOOOOOOOOOOOOOOOO@&&&@@@OOOOOOOOOOO@@&&@@OOOOOOOOOO@@@&&@@OOO@@@@@&@@@@OOOOOOOOO@@@&&&@@@OOO@@@&&@@@@OOOOOOOO@@@&&&@OOO......................................OOOOOO@&&@@@OO@@@@&&&@@@O@@@@@@&&&@@O@@@@@&&&&@@O@OOOOO@@@&&&@@@OOOO@O@@@&&&@@@@OOOO@@@&&&@@O@OOOOOO@@@&&@@OOOOOOOOOOO@@@@OOOOOOOO@@@@@OOOOO........OOO@@OOO...................................................................OOOOO...OOOOO@@&&@@OOOOOOOOOOOO@@@@@@@@@@@@&@@@@@@@&&@@&&&&&&:&&&&:&&&&&::&&::::::::&===*&&@#####++++++++++++++++XXXXXXXXXXXXXXXXXXXX......o.oo..o .     ..oo..ooXX+################%%%**==***%#$+++XXXXXXXXXXXXX....Xooooo.. o .o ....   o        oooXX##%%###$$XXXXX.XX.X....XXX.XX++....OO..XX+++OX+O+OOXXX+++++OOO+OOOOO+OOOOOO++++++OO++OOOOO+O+OO++OOOO+O++++OO++++OOO+OOOOO+OOOOOOOO",
"@@@@@@+OO........X++++++&&&#####+++++++@++++++++++++###################@++++++##&&&&&&&&&*&&&&&&++++++##&&%%%*&&******&&&#++O++OOO++++@##&*============&##&&&&&##+++++++###&%***&&&#+++++######+#++++++$+####%######++++$$#######++XXXXX.XXXXXXX+$####+XXXXXXXXX++####$+++XX+++$######$$++XX..oo.....XX...X.XXXXXXXXXXXXXX+XX++++++++$$####+++XXXXXXOOXX.+++XXXXO+O+++++O+++++++++++++@@&&&&&&&&&&&&&&:::&&&:&&&&@@@&&&&&&&:::&@@@@@@@@@@OOOO@@@@@@@@@@@OOOOOOOOOO@@@@@@@OOOOOOOOOO@@@@@OOOOOOOO...OOOOOOOO@@&&@OOOOOOOO@@@@@@OO..OOOO.OOOOOOOOOOOOOOOOOOO@@&&@@@OOOOOOOOOOO@@&&@@OOOOOOOOOO@@@&@@@OOO@@@@@&@@@@OOOOOOOOO@@@&&&@@@OOO@@@&&@@@@OOOOOOOO@@@&&&@OOO......................................OOOOOO@&&@@@OO@@@@&&&@@@O@@@@@@&&&@@O@@@@@&&&&@@O@OOOO@@@@&&&@@@OOOOOO@@@&&&@@@@OOOO@@@&&&@@@@OOOOOO@@@&&@@OOOOOOOOOOO@@@@OOOOOOOO@@@@@OOOOOOO......OOOO@OOO........................................................OOO........OOOOOOOOOOOOO@@&&@@OOOOO@@@@@@@@@@@@@@@@@@@&@@@@@@@@&@@&&&&&&&&&&&:&&&&&::&&::::::::&===*&&#####++++++++++++++++XXXXXXX+XXXXXXXXXXXXX.....o..oo..o ..ooo ..o ..ooXX+################%%%**==***%#$++++XXXXXXXXXXXX.....ooooo..ooo   ....o  o    .   oooXX##%%###$$XXXXXXXXXX....XX..XX++....++....++OOXX++OOXX++++++OO++OOOOOOOOOOOOO++++OOOO+OOOOOO++OOOOOOOOOOOOOOOO+++OOOOOOOOOOOOOOOOOOO",
"@@+@@+OO..........+++++@####&&##+++++++@@@++++++++++++#################@++++++####&&&&&&&&*%%%&&++++++##&&&%%%*&******&&&#+++OOO++O+++###**============&%&&&&&&##+++++++##%%%&&&%%##+++++######++++++++$+####%#####$+++++#######$++XXXXX.XXXXXX+++####$XXXXXXXXX+$####+++XXX++$$######$+++X...ooooo.....o........XXXXXXXXXX+XXX+++++++$####+++XXXXXXXXXX..++++XX.OO+++++O+++++++++@+@@@@&&&&&&&&&&&&&&&::&&::&&@&@@@&&&&&&&:::&@@@@@@@@@@@OOOO@@@@@@@@@@OOOOOOOO@@@@@&@@OOOOOOOOOOO@@@@@OOOO.....OOOOOOOOOO@@&&@OOOOOOOOO@@@@OOO........OOOOOOOOOOOOOOOO@@@&&&@@@OOOOOOOOOOO@@&&@@OOOOOOOOOO@@@&@@@@OO@O@@@&@@@@OOOOOOOOO@@@&&&@@@OO@@@@&&@@@@OOOOO@O@@@@&&&@OOO........................................OOOO@&&@@@OOO@@@&&&@@@O@@@@@@&&&@@O@@@@@&&&&@@O@OOOO@@@@&&&@@@OOOO@O@@@&&&@@@@OOOO@@@&&&@@@@OOOOOO@@@&&&@OOOOOOOOOOO@@@@OOOOOOOO@@@@@OOOOO........OOO@@OOOO.......................................................OOO........OOOOOOOOOOOOO@@&&@@@@@@@@@@@@@@@@@@@@@@@@@@@@@@@@@@&&&@&&&&&&::&&&:&&&&&::&&::::::::&===*&&@##++#++++++++++++++++XX++++++XXXXXXXXXXXX..oo...oooo..o..oo   o    .oXX$################%%%**==***%#$$$XXXXXXXXXXX.XXXXXoXo.ooo..oooooo    o.  ooo.. o . oXX##%%###$$XXXXXXXXXX.XX.X.XXXX.XX+..+X+X...+OOOOXXXXX+OOO.++OOOOO+++OOOOOOOOOO++++OO+OOOOOO+++OOOOOOO++OOO++OO+++OOOOOOOOOOOOOOOOOOO",
"@++++OOO.........O+++++@####&###+++++++@@@+++++++++@++#####+#+++#######@+++++++#####&&&&&&&&%#&#++++++##&&%%%%&&&*****&&##++OOOO++O+++##&***===========&%#&&&&&#++++++++##%%**&&%%##+++++#######++$++++$+####%#####$+++++#######$$+XX.XXXXXXXXX++$####++XXXXXXXX+$####+++XXX++$$######++++XXX.oooo.....oo........XXXXXXXXXX+XXXXXX+$++$####++XXX.XXX..XX..X+O++XXO++++++O+++++++++@+@@@@&&&&&&&&&&&&&&&::&&::&&@@@@@@&&&&&&:::&@@@@@@@@@@@@OOO@@@@@@@@@@OOOOOOOO@@@@@&@@OOOOOOOOOOO@@@@@OOOO.....OOOOOOOOOO@@&@@OOOOOOOO@@@@@@OO........OOOOOOOOOOOOOOOO@@@&&&@@@OOOOOOOOOOO@@@&@@OOOOOOOOOO@@@&@@@@OO@O@@&&@@@OOOOOOOOOO@@@&&&@@@OO@@@@&&@@@@OOOOO@O@@@@&&&@O..........................................OOOO@&&@@@OO@O@@&&&@@@O@@@@@@&&&@@O@@O@@&&&&@@O@@OOO@@@@&&&@@@OOOO@O@@@&&&@@O@OOOO@@@&&&@@O@OOOOOO@@@&&&@OOOOOOOOOOO@@@@OOOOOOOO@@@@@OOOOO....OO..OOO@@@OOO.......................................................OO.........OOOOOOOOOOOOO@@&&@@@@@@@@@@@@OOOOOOOOOOOO@@@@@@@@@@&&&@&&&&&&::&&&&&&&&&::&&::::::::&===&&&##@++++++++++++++++++++X++++++XXXXXXXXXXXX.o.o...oo.o..o..oo   oo  ..oXX#################%%%**==***%#$$$XXXXXXXXXXX.XXXXXXXX.oooo..oooo.    o. .ooo..     oX$##%%%##$XXXXXXXXXXXXXXXXXXXXX..+++++XX+..OOOOX+XX+++++O+++O+OOOOO++OOOOOOOOOO+O++OO++OOOOOO++OOOOOOOOOOOOOOOOO++OOOOOOOOOOOOOOOOOOO",
"@@++++O...........+++++@##&&&&##@+++O++@@@@@+O++++@++@@####+++++#######++++++@#&####&#&&&&&&%###++++++#####%%%%%&&&&**&&##++++++O+OO++###&******=====**&&&&&####++++++++##%%&*&&%%##+++++########++++++++####%#####$+++++$######$+XXX...XXXXXXXX++####+XXXXXXXXX++####+++XXXX++$######++++X...oooo..oX.o....XXXXXXXXXXXXXXXXXXX+X+++++$####++XXX...OXXXXXXXOOO+XOO++++++++++++++++@+@@@@&&&&@@@@&&&&&&:::&&::&&@@@@@@&&&&&&:::&@@@@@@@@@@@@O@@@@@@@@@@@@OOOOOOOO@@@@@@@@@OOOOOOOOO@@@@@@OOOOOO.OOOOOOOOOOO@@@&@@OOOOOOOO@@@@@OOOOO.OO.OOOOO@@@OOOOOOOOOOO@@&&&@@@OOOOOOOOOOO@@@&@@OOOOOOOOOO@@@&@@@@OO@O@@&&@@OOOOOOOOOOO@@@&&&@@@OO@@@@&&@@@@OOOOOOO@@@@&&&@OOO.....................................O..OOOO@&&@@@OO@O@@&&&@@@@@@@@@@&&&@@O@@@@@&&&&@@@@@OOOO@@@&&&@@@OOOO@O@@@&&&@@O@OOOO@@@&&&@@O@OOOOOO@@@&&&@OOOOOOOOOOO@@@@OOOOOOOO@@@@@@OOOO...OOO..OOO@@@OOO.........OO............................................OO.........OOOOOOOOOOOOO@@&&@@@O@@@OOOOOOOOOOOOOOOOO@@@@@@@@@@&&&&&&&&&:::&&&&&&&&&::&&::::::::&&==&&&##++++++++++++++++++++++++X+XXXXXXXXXXXXXXX..oo...oo...oo.oo   .o   ..XX#################%%%**==***%##$$XXXXXXXXXXXXXXXXXX....oooo.ooooooo ooo    oo    o oX$##%%%##$$XXXXXXX.X.XXXXXXXX....++++..XX.O++++++++OOO+++OOOO++OOOO++++++OOOO+OO+++OOOOOOOOOOOOOO+O++++++OO++OO++OOOO+O+OOOOO+OOOO++O",
"+++++++...........+++++@#&&&&&##@+++++@+@@@@OO+OO++++@@####++++++######+++++@@&&&&&&#&&&&&&&&%##++++@+#######&&%&&&&**&&##+++++++OOO++##&********&&&%%###&&&#&##+++XX++++#%%&&&&%%##+++++########+++++$++####%####$$+XXX++######$+XX......XXXXXX++####+XXXXXXXXX++####+++XXXX++$#######+$++XXX..oo..X......XXXX.XXXXXXXXXXXXXX++++++$+#####++XXX...OXXXXXXXOOOXX+O+++++++++++++++++O@@@@&&@@@@@@&&&&&&:::&&::&&@@@@@@&&&&&&:::&@@@@@@@@@@@@@@@@@@@@@@@@@OOOOOOOO@@@@@@@@@OOOOOOOOO@@@@@@OOOOOOOOOO..OOOOOO@@@&@@OOOOOOOO@@@@@@OOOOOOOOOOOOOO@@@OOOOOOOOOO@@@&&@@@OOOOOOOOOOO@@@&@@OOOOOOOOOO@@@&@@@@OO@O@@@&@@OOOOOOOOOO@@@@&&&@@@OO@@@@&&@@@@OOOOO@OO@@@@&&@OOO.....................................O..OOOO@&&&@@OO@@@@&&&@@@@@@@@@@&&&@@O@@@@@&&&&@@@O@O@OOO@@&&&@@@OOOO@O@@@&&&@@OOOOOO@@@&&&@@O@OOOOOO@@@&&@@OOOOOOOOOO@@@@@OOOOOOOO@@&@@@OOOO..OOOO.OOOO@@@OOO........OOO............................................OO..........OOOOOOOOOOOO@@&&@@OOOOOOOOOOOOOOOOOOOOOO@@@@@@@@@@&&&&&&&&&:::&&&&&&&&&::&:::::::::&===&&&#######+++++++++++++++++++XXX++XXXXXXXXXXXXX.o....o.o.....o.   .oo oo.XX#################%%***==***%##$$XXXXXXXXXXXXXXXXo.......oo..oooooooooo    o       oXX##%%%##$XXXXXXXX.........XX....X+++.XXX.++++++++++O+OO+OOOO++OOO+++++++++O+OOOO++OOOOOOO+OOOOOO++++OOOOOOOOOOOOOOOO+++OOO+++OOOO+++",
"@@+++++O.......X..O++++@#&&&&###+++++++@@@@+OOOO++++@######++++++@#####+++++@&&&&&&&&&&&***&&&##+++++++#####&&&#&&&**&&&##++++OO++O+++#&&*====***&&&&&@@##&%####+++XX++++#&&&%**%%##++++++#######++++++++####%####+++XXX$$#######++XX.....XXXXXX++####+XXXXXXXXX+$#####+XXXX+++$######$++++XX......XXX...XXXXXX...XXXXXXXXX+XXX+++++$+#####+++XX....XO+OXX++XXXX+X+++++++++++O++++++@@@@&&@@@@@@@&&&&&::&&&::&&@&@@@@&&&&&&&::&&@@@@@@@@@@@@@@@@@@@@@@@@@OOOOOOOO@@@@@@@@@OOOOOOOOO@@@@@OOOOOOOO....OOOOOOO@@&@@OOOOOOOO@@@@@OOOOO...OOOOOOO@@@OOOOOOOOOOO@&&&@@@OOOOOOOOOOO@@@&@@@OOOOOOOOO@@@&@@@@@O@O@@@&@@OOOOOOOOOO@@@@&&&@@@OOOO@@&&@@O@OOOOOOOO@@@&&&@OOO.....................................O..OOOO@&&&@@OOOO@@&&&@@@@@@@@@@&&@@@OO@O@@&&&&@@O@OO@@@@@@&&&@@@OOOO@@@@@&&&@@@@@OOOO@@&&&@@@@OOOOOO@@@&&@@@OOOOOOOOO@@@&@OOOOOOOO@@&&@@OOOOOOOO..OOOOO@@@OOO.......OOOOOO..........................................OO.......O.OOOOOOOOOOOO@@&&&@@OOOOOOOOOOOOOOOOOOOOOO@@@@@@@@@@&&&@&&&&&:::&&&:&&&&&::&&::::::::&===&&&#@###+##+++++++++++++++X++++XXX+XXXXXXXXXXXX.X..o......o...   ..   ooo.X################%%%%*==****%##+++XXXXXXXXXXXXoooX.....ooooooo..     o      o    oooXX##%%###$$XXXX..XXXXXXXXXX.X....XXX+.O++X+X.O+X+++OO+++OXXXX++OOOOOOOOOOOO+OO+OO++++O+OOOOOOOOOOOO+OOOOOOOOOOO+OOOOOOOOOOOO+OOOOOOOO",
"@@+++O+........X..++++++##&&&&##++++++@@@@@+OOO++++@@######+++++++#####@++++@&&&&&&&**&****&&###++++++++#####&#&&&&***%&##+++++O++++++#&&======***&&&&#@#&##%#&#+++XX++++#&&&**%%&##++++++######+++++++$+#########+++XX+$#######+++XX.....XXXXXX++###$+XXXX.XXXXX+####$+XXXX+++$######$++++XXX......oo..XXX.XXX..XXXXXXXXXX+XX++X+++++$####+++XX....XX++XX+OXXX+XX++++++++++OO+++++++@@@&&&&&&&@&&&&&&::&&&::&&&&@@@@&&&&&&:::&&@@@@@@@@@@@@@@@@@@@@@@@@@OOOOOOOO@@@@@@@@@OOOOOOOO@@@@@@OOOOOOOO..OOOOOOOOO@@&@@OOOOOOOO@@@@@OOOOO....OOOOOOO@@OOOOOOOOOOO@@&&@@@OOOOOOOOOOO@@@&@@@OOOOOOOOO@@@&@@@@OOOO@@&&@@OOOOOOOOOOO@@@&&&@@@OOOO@@&&@@OOOOOOOOOO@@@&&&@OOO.....................................OOOOOO@@&&@@@OOOO@@&&&@@@@@O@@@@&&@@@OO@O@@&&&&@@OOOO@@@@@@&&&@@@OOOO@@@@@&&&@@@@OOOOOO@&&&@@@@OOOOOO@@@&&@@@OOOOOOOOO@@@&@OOOOOOOO@@&@@@OOOOOOOO..OOOOO@@@OOO.......OOOOOO..........................................OO.......OOOOOOOOOOOOOOO@&&&@@OOOOOOOOOOOOOOOOOOOOOO@@@@@@@@@@&&&@&&&&&::&&&&:&&&&&:::&::::::::&===*&&#@@@#+++++++++++++++++XXXXXXXXXXXXXXXXXXXXXXX..........o..... oo   oooXX################%%%%*===***%##++XXXXXXXXXXXXXXoXX......oooooo...  o oo          o oX$##%%###$$XXXX....XXXXXXX.......XXX+OO++X+OXOOXX+XOO+++OXXXX++OOOO+OOOOOOO+++OOO++++++OOOOOO+++OOOOOOOOOOOOOOOOOOOOO++O+OOO++OOOO+++",
"@@++++OOO......OXO++++++##&&&&##++++++++++@+@OO+++@@#&##&&###++++#######++++##&&&&&********&&&##++++++++++####&&&&****%&##+++++++++++@#&&=========**%###&&&&%&&#++++++++@#&&%%**&&&#+++++++####+++++++$$+#########$++XX++#######$++XXXXXXXXXXXXX+$####+XXXXXXXXXX$####$+XXXX++$$######$$$++XXX......oo.XXX.XXXXXXXXXXXXXXXX++XXXX+++++$####++XXXXXX+O+++XXXOXX++XXO+O+++++++OO++++++@@@@&&&&&&&&&&&&&&:::&&::&&&&@@@&&&&&&&:::&&@@@@@@@@@@@@@@@@&&&&@@@@@OOOOOOOO@O@@&@@@OOOOOOOOO@@@@@@OOOOOOO.OO.OOOOOOOO@@&@@OOOOOOOO@@@@@OOOO....OOOOOOOO@@OOOOOOOOOOO@@&&@@@OOOOOOOOOOO@@@&@@@OOOOOOOOO@@@&@@@@OOOO@@@&@@@OOOOOOOOOOO@@&&&@@@OOOO@@&&@@O@OOOOOOOO@@@&&&@OOO.....................................OOOOOO@@&&@@@OOOO@@&&&@@@@@O@@@@&&&@@O@OO@@&&&&@@O@OO@OO@@@&&&@@@OOOOO@@@&&&&&@O@OOOO@@@&&&@@@@OOOO@@@@@&&@@@OOOOOOOOO@@@&@OOOOOOOO@@@@@@OOOOOOO.O.OOOOO@@@OOO.......OOOOOO..........................................OOO......OOOOOOOOOOOOOOO@&&&@@OOOOOO..OOOOOOOOOOOOOO@@@@@@@@@@&&&@&&&&&&:&&&&:&&&&&::&&::::::::&===*&&##@+++++++++++++++++++XXXX+++XXXXXXXXXXXXXXXX.........oo..o..oo o  o.oXX################%%%%*==****%##$$+XXXXXXXXXXXXX..XX....ooo.ooo..oooo oo ooo  o     oXX##%%###$$XXXX..XXXXXXX......XX.XXOOO+O+O++OOOOO+++O+O+OOOXX+OOO++++++++O+++++OO+++O+O+OOOOO+OOOOOOOOO+OOOOOO+OOOOOO++OOOOOOOOOOOO++",
"@@++OOOOO......+X+++++++##&&&###++++++++++@+@OO+++@@##&&&&###++++######@++++#&&&&&&********&&&##++++++++++#####&&&***&%%##+++O+++OO+++#&&&===****=**%%##&&&&%&&#++++++++##&&****&&&#+++++++####+++++++$$+#########+++XXX+#######+++XXXXXXXXXXXXX+$####+XXXXXXXXX+$####$+XXXX++$$######$$$++XX..........X.XXXX..XX.XXXXX+XXXXXXXXX++++++####++XXXXX++O+X+XXXXXX+OXX+++++++++O+++++++++@@@&&&&&&&&&&&&&&::&&&::&&&&@@@&&&&&&&:::&&@@@@@@@@@@O@@@@@@@&&@@@@@OOOO@OO@@@@@&@@@@OOOOOOOOO@@@@@OOOOOOO.O.OOOOOOOOO@@&&@OOOOOOOO@@@@@OOOO.....OOOOOOO@@OOOOOOOOOOO@@&&@@@OOOOOOOOOOO@@@&@@@OOOOOOOOO@@@&@@@@OOOO@@&&@@@OOOOOOOOOOO@@&&&@@@OOOO@@&&@@O@OOOOOOOO@@@&&&@OOO....................................OOOOOOO@@&&@@@OOOO@@&&&@@@@@O@@@@&&&@@O@OO@@&&&&@@O@OO@OOO@@&&&@@@OOOO@@@@&&&&&@O@OOOO@@@&&&@@@@OOOO@@@@@&&@@@OOOOOOOOO@@@&@@OOOOOOO@@@@@@OOOOOO..OOOOOOO@@@OOO......OOOOOOO..........................................OOO......OOOOOOOOOOOOOOO@&&&@@OOOOO...OOOOOOOOOOOOO@@@@@@@@@@@&&&@&&&&&&:&&&&::&&&&::&&::::::::&===*&###@+++++++++++++++++++XXXXXXXXXX+XXXXXXXXXXXX.ooX.....ooooo.oooo.  oooXX#################%%%**==***%##$$+XXXXXXXXXXXXoo.XX..X.ooo...oo.ooooo  ..o.  o     oXX##%%###$$XXXX..XXXX........XXXXXXOO+OOOOOOOO+OO++O+OO++++++++O++++++++++O++++OOOO+++++OOOOO++OOOOOO+++OOO++OOOO+OOOOOOOOOOOOOOOOOOO",
"+@@+++OOOO.....+OO++++++##&&&&##++++@@+@++@@@+++++@@#&&&&&###++++#######++++##&&&&&*******&&&&&#+++++++++#####&&&****&&%##++O+++O++++@##&&*********%%&&&##%&&&&#++++++++@#&&&&&&&&##++++++#####++++++++++#########$$+XXX++######+++XXXXXXXXXX++++$###$+XXXXXXXXX+$####$++XXXX+$$#######$$++XX.o...Xo...X..XXXX..X..XXXXXXXXXXXXXX++++++###++++XXXXO+XXXXXXX.OOOXXX+++++++++O++++++++O@@@&&&&&&&&&&&&&&:::&&::&&&@@@@&&&&&&&:::&&@@@@@@@@@@@@@@@@@@@&@@@@@OOOOOOO@@@@@@@@@OOOOOOOOOO@@@@@OOOOOO..OO..OOOOOOO@@&@@OOOOOOOO@@@@@OOOOO.......OOO@@@OOOOOOOOO@@@@&&@@@OOOOOOOOOOO@@@&@@OOOOOOOOOO@@@&@@@OOO@@@@&&@@OOOOOOOOOOOO@@&&&@@@OOOO@@&&@@O@OOOOOOOOO@@@&&@OOO...................................O.OOOOOOO@&&@@@OO@O@@@&&@@@@@@@@@@&&&@@@@OO@@&&&&@@O@OO@@O@@@&&@@@@OOOOOO@@&&&&@@OOOOOOO@@&&&@@OOOOOO@O@@@&&&@@OOOOOOOOO@@@&@OOOOOOOO@@@@@@OOOOOOO..OOOOOO@@@OOO......OOOOOOO......................OO..................OOOO....OOOOOOOOOOOOOOOO@&&&@@OOOOOO..O.OOOOOOOOOOO@@@@@@@@@@@&&&@&&&&&&:&&&&:&&&&&::&&::::::::&&==*&#####+++++++++++++++++X+X++++++++XXXXXXXXXXX.X..X...o..o...oo...o.  .ooXX################%%%%**==***%#$$$+XXXXXXXXXXXXo..XX.oooo.o...oooooo o  ..o.        o.X##%%###$$XXXXXX........X..OX+XXXX.OOOOOO+O+XX++O+X+++++OOO+++X++++OOOO+++O++++++OOOO++OO+++OOOO+OOOO++++++OO+OO+OOOO+OOOOOOOOOOOOOO",
"@@++++OOOO.....+.O++++++##&&&###++++@@+@+@@@@+++++@@#&##&&###+++########+++###&&&&&*******&&&&##++++++++@#####&&&****&&&#+++O+O++++++@+#&&&&&&%%%%%%%#&&#%%%&&&#+++++++##&&%&&&%%%##++++++#####+#$+++++++#########$+++++++######$$+++XXXXXX+++++++####$+++XXXXXX++####$+++XXXX+$#######+$++XX......X......XXXX..X.XXXXXXXXXXXXX+X++++++###+++XXXX.XXXXXXXXO.OOO+XXXOO++++++++++++++OO@@@&&&&@@@@&&&&&&:::&:::&&&@@@@&&&&&&&&::&&@@@@@@@@@@@@@@@@@@@@@@@@@@OOOOOOOO@@@@@@@OOOOOOOOOO@@@@@OOOOOO..OO.OOOOOOOO@@&@@OOOOOOOO@@@@@OOOO.........OO@@@OOOOOOOOO@@@&&&@@@OOOOOOOOOOO@@@&@@OOOOOOOOOO@@@&@@@OOO@@@@@&@@OOOOOOOOOOOO@@&&@@@@OOOO@@&&@@O@OOOOOOOOO@@@&&@OOO...................................O.OOOOOOO@&&@@@OOOO@@@&&@@@O@@@@@@&&&@@@@OO@@&&&&@@OOOOOOO@@@&&@@@@OOOOOO@@&&&@@@OOOOOOO@@&&&@@@@OOOOOO@@@&&&@@OOOOOOOO@@@@@@OOOOOOOO@@@&@@OOOOOOO..OOOOOO@@@OOO.......OOO@OOO.....OO..........OOOOOOOOOOOO............OOO....OOOOOOOOOOOOOOOOO@&&&@@OOOOOOOOOOOOOOOOOOOO@@@@@&@@@@@@&&@@&&&&&&:&&&&:&&&&&::&&::::::::&===&&#@###+++++++++++++++++++X+XXXXXXXXXXXXXXXXXX.XX.Xo.oo..o... o..... o..oXX################%%%%**==***%#$$++XXXXXXXXXXXXXXXXX...oooooooo.oooooo o  ..      o oXX##%%###$$XXXXXX........X...X+XXXX...OOO++X+XX++O+++OOOOOOOO+X+++OOOOOOO+++O+++++OOOO++OOOOOOOOO+OOOOOOOOO++O++O++O+OOOOOOOOOOOOOOOO",
"@@@++OOOOO..XXOO..++++++##&&&###+++++@@@+@@@+++++++@#&##&####+++########+++##&&&&&&&****&&&&&&&##++++#########&&*****&&&##++++++++++++++####&&###&###&&&###&&&###########&%%**%%%%##+++++######+++++++$$++########$$+++++++######$++++++++++++++++#####++++++XX++$#####+++XXX++$########+++XX....X..o..X...XXX....XXXXXXXXXXXXX+X++++++###+++X.X....XXXXOOOOOOXXXXOOOO++++++++++O+OO@@@@&&@@@@@@@@@@&&::&&&::&&&@@@@@&&&&&&&::&&@@@@@@@@@@@@@@@@@@@@@@@@@OOOOOOOO@@@@@@@@OOOOOOOOOO@@@@OOOOOO...OOOOOOOOOOO@@@@@OOOOOOOO@@@@@OOOO.........OO@@@OOOOOOOOOO@@&&&@@@OOOOOOOOOOO@@@&@@OOOOOOOOOO@@@&@@@OOO@@@@&&@@OOOOOOOOOOOO@@&&&@@@OOOO@@&&@@O@OOOOOOOOO@@@&&@OOOO.....................................OOOOOO@&&@@@OO@O@@@&&@@@O@@@@@@&&@@@OOOO@@&&&&@@OOOOOOOO@@&&&@@@OOOOOO@@@&&@@@OOOOOOO@@&&&@@@@OOOOOO@@@&&&@@@@@@OO@O@@@@@@@OOOOOOO@@@&@@@@@OOOOO..OOOOO@@@OOOO.....OOOO@OOOOOOOOOOOOOO.....OOOOOOOOOOOOOOO..........OO....OOOOOOOOOOOOOOOOOO@&&&@@OOOOOOOOOOOOOOOOOOO@@@@&&&@@@@@@&&&@&&&&&:::&&&::&&&:::&&:::::::&&===&&&@@##+#++++++++++++++++++++XXXX++XXXXXXXXXXXXXX..oo.o..o....o.o..o ooo.XX################%%%%**==***%#$+++XXXXXXXXXXXXo.XXoo...ooooooo.o.o .oo o oo      oooXX##%%%##$XXXX.XXXX..XXXXXX....XXXXXX.+.OX+XXO++OOO++++OO++OO++++OOOOOOOO++OOOOOOOOOO++OOOOOOOO++++OOOO++OOOOOOO+OOOOOOOOOO+OOOOOOOOO",
"@@@@++OOOO..XXOOOO+++++@##&&&###++++@@@@@@@@+++++++##&##&####+++########++++##&&&&&&&*&&&&&&&&&###++#######%%&&&*****&&&##++++++++++++++#########&###&&&####&&%#######%&&&%****%%%###++++######+#+++++++++########$$+XXX++++$####$+++++++++###++++#########++++++$#####+++X+X+$$########$++XX...XXX.oXXX....XX..XXXXXXXXXXXXXXX+X+++++$###+++XXX....XXXXOOOO..XXXXOOO+++++++++++OOOO@@@@@@@@@@@@@@@&&&::&&&::&&&@@@@@&&&&&&&::&&@@@@@@@@@@@@@@@@@@@@@@@@OOOOOOOOOO@@@@@@@OOOOOOOOOO@@@@OOOOOOO..OOOOOOOOOOO@@@@@OOOOOOOO@@@@@OOO.........OOO@@@OOOOOOOOOO@@@&&@@@OOOOOOOOOOO@@@&@@OOOOOOOOOO@@@&@@@OOO@@@@&&@@OOOOOOOOOOOO@@&&&@@@OOOO@@&&@@O@OOOOOOOOO@@@&&@OOOOO....................................OOOOOO@&&@@@OOOO@@@&&@@@O@@@@@@&&@@@OOOO@@@&&&@@OOOOOOO@@@&&&@@@OOOOOO@@&&@@@@OOOOOOO@@&&&@@@@OOOO@O@@@&&&@@@@@@@@@@@@@@@@OOOOOOOO@@@&@@@@@@OOOO..OOOOO@@@OOOOO....OOOO@OOOOOOOOOOOOOOOOOOOOOOOOOOOOOOOOOO..........OOO...OOOOOOOOOOOOOOOOOO@@&&@@OOOOOOOOOOOOOOOOO@@@&&&&&&@@@@@@&&&@&&&&&:::&&&::&&&:::&&:::::::&&===&&&@@####++++++++++++++++++XXXXXXXXXXXXXXXXXXXXX..Xo.....oo.....o.oo  o.XXX################%%%%**==***%#$+++XXXXXXXXXXXXo.XXXo...ooooooo.oo....oo  ooo     oooXX##%%###++XXX.XXX...XXXXXX....XXXXXX++.XX++XX++OOOX+XX++++OOOXXOOOOOOOO+++OOOOOO+OOO+++OOO++OOOOOOOOOOOOOOOOOOOOOOOO+++OOO++++OOOOOO",
"@@@@+OOOOO......OO+O+++###&&&###++++++@@+@@@@++++++#&&&&&&&##++++#######@++##&&&&%****&&****&&####+##&&&&******&******%##@+++++++++++++++++++++#################&%%%%%%&&&***&&&%&&#################+++++#########++++XXXXX++####+$++++++#######+####++++++###++#######+++++$$$########+$++XX.XXX....XXX....XXXX..XXXXXXXXXXXXXXX++$+++###++++XXXXX.XO++XXXXXXXX+++OO+++++++O++++++++@@@&@@@@@@@@@&&&&::&&&::&&@@@@@&&&&&&&:::&@@@@@@@@@@@@@@@@@@@@@@@@@@OOOOOOO@@@@@@@@OOOOOOOOOO@@@@@OOOOO..OOOOOOOOOOOOO@@&@@OOOOOOOOO@@@@OO.........OOOO@@@OOOOOOOOOOO@@&&@@OOOOOOOOOOOOO@@&@@OOOOOOOOOOO@@&@@@OOOOO@@@&@@OOOOOOOOOOOO@@&&&@@@O@@@@@&&@@OOOOOOOOOOO@@@&&@O.OOO.................................OO...OOO@@@&@@@OOO@@@&&&@@@OO@@@@@&&&@@OOOO@@@&&&@@OOOOOOO@@@&&&@@OOOOOOO@@&&&@@@OOOOOOO@@&&&@@@@O@OOOOO@@&&&@@@@@@@@@@@@@@@@@OOOOOOO@@@@@@@@@@OOOOOOOOOOO@@@OOO........OOOOOOOOOOOOOOO.........OOO..OO.................O......OO.OOOOOO.OOOOOO@@&&@@OOOOOOOOOOOOOOOO@@&&&&&&&&@@@@@@&&&&&&&&&&&:&&&::&&&&::&&&:::::::&&=**&###@@++#+++++++++++++++++XX++++XXXXXXXXXXXXXXX........oo... .oo. . o.o.XX$###############%%****==***%#$$++XXXXXXXXXXXXXXXXX...ooooo..oooo..ooo     oo    ooXX$##%%###$XXXXX.XXXXXXXXX.XX.XXXOOO.XXXXX++OO++++++++OOO+++++++OO++++OO+++OO+++++++++OOOOOOOOO+OOOOOO++++++OOO+++OOOOOOOOOOOOOOOOOOOO",
"@@@@+OOO.O......O+++++#####&&###++++++@@+@@@@+O++++#&&&&&&&##++#@###&###++++#&&&%%&*&*&&****&&######&&**============**%&&#++++++++++++++++++++++++###############%%%%%%%%%********%&&&%%##########################+++XXXXXX++##$+++++++++############++++++++############++############++++XXXX.X.X..X..XXX.X.XXX..XXXXXXXXXXXXXX+++++####++++XXXXXX..XOXXXXXXXXO+++O+++++++O+++++++@@@@&&@@@@@@@@&&&&::&&&::&&@@@@@&&&&&&&&::&&@@@@@@@@@@@@@@@@@@@@@@@@@OOOOOOO@@@@@@@@OOOOOOOOOO@@@@@OOOOO..OOOOOOOOOOOOO@@&@@OOOOOOOOO@@@@OOO.........OOO@@@OOOOOOOOOOO@@&&@@@OOOOOOOOOOOO@@&@@@OOOOOOOOO@@@&@@@@@@OO@@@&@@OOOOOOOOOOOO@@&&&@@@O@OO@@&&@@OOOOOOOOOOO@@@&&@OOOOO.................................O.OO.OOO@@@&@@@@OOO@@&&&@@@OOOO@@@&&&@@OOOO@@@&&&@@OO@OOOO@@@&&&@@OOOOOOO@@&&&@@@OOOOOOO@@&&&@@@@OOOOOOO@@&&&@@@@@@@@@@@@@@@@@OOOOOOO@@@@@@O@@OOOOO..OOOOOO@@OOO.......OOOOOOOOOOOOOOOO.........OOOOO.........................OOOOOOOOOO..OOOOO@@&&@@OOOOOOOOOOOOOOO@@&&&&&&&&&@@@@@@&&&&&&&&&&&:&&&::&&&&::&&::::::::&&==*&#####++###+++++++++++++XXXX++++XXXXXXXXXXXXXXX.o..X...o.o....oooo . ...XX$##########%####%%%%**==***%#$$++XXXXXXXXXXXXXXXXXo..ooooo..oooo ..oo     oo    o XX$##%%%##$XXXXXXX.X.XXXXX.XX.XX.OOOXX..XX++OO++++XXX+..OO++++OOOOO+O++++++OO+++++++OOOOOOOOO+++OOOOOO+O+OOOOOO+++OOOOOOOOOOOOOOOOOOOO",
"@@@@++OO....X...O+O++++###&&&&##++++++@@++@@@@OO+++##&#&&#&##+##########++++##&&%%&&&&&&&&%&&&&&###&&**==============*&%&@+++O+O+OOOOX++++++++++++++++++++########%%%%%%%%**********%%%%%%%&%%%%%%%%%%%####%######+++XXXXXX+++##+++++$++####%%#######+++XX+++++##########################+++++++XXXXXXXXXX.X..X....XXXXXXXXXXXX+X+++++$###++++XXXXX...OO..XXXXOO++++O++++++++OO+++OO+@@@&&&@@@@@@@&&&:::&&&::&&@@@@@@&&&&&&:::&&@@@@@@@@@@@@@@@@@@@@@@@@OOOOOOOO@@@@@@@@OOOOOOOOOOO@@@@@OOOO..OOOOOOOOOOOOO@@@@@OOOOOOOOO@@@@OO.O........OOO@@@OOOOOOOOOOO@@&&@@@OOOOOOOOOOOO@@&&@@OOOOOOOOO@@@&&@@@O@OO@@&&@@OOOOOOOOOO@O@@&&@@@O@OO@@@&&@@@@OOOOOOOOO@@&&&@OOOOOO.....OOOO........OOOOOO....OO.OOO.OOOOOOO@&&@@O@OOO@@&&&@@@OOOO@@@&&&@@OOOO@@@&&&@@OOOOOOOO@@&&&@@OOOOOOO@@&&&@@@OOOOOOOO@&&&@@@@OOOOOOOO@&&&@@OOOOOOOO@@@@@@OOOOOOOO@@@@@@OOOOOOO...OOOOOO@OOOOOOOOO..OOOOOOOOOOOOOOOOOOOOOOOOOOOOOOOOOOOOOOOOOOOOOOOOOOOOOOOOOOOOOOOOO.OOOOOO@@&&@@OOOOOOOOOOOOOO@@&&&&&&&&&&@@@@@@&&&&&&&&::&:&&&::&&&&::&&&:::::::&&==*&&@@@###++#+++++++++++++++XXXXXXXXXXXXXXXXXXXXXX.XXX...X.o.....oooo...oXXX################%%*%**==***%#$$++XXXXXXXXXXXXXXXXX....oooo..oooo .oooo    oo    o XX$##%%###$$XXXX.....X....XXXXXXXOXXXX..O++++++++++++X.OOOO+++++OOOO+O++++++OOOOOO++++O+O+OO+++++O+++OOOOOOOOOOOOOOO+++++OOOOOOOOOOOOO",
"@+@++OOOO.XXX...O+++++@@##&&&&##++++++@@+@@@@+OO@++##&##&#&##+##########@++@##&&&&&&&&&&&&&&&&&#####%*=====;;;=======*&&&@+++O.OXXX.X...++X+++++++++++++++#######%%%%%%%%%%********%%%%%%%%%%%%%%%%%%%%%%%%%######++XXXXXXX+++##++++$$++#####%#######++XXXXXXX++####%####################$++++++++XXXXXXXXXX.XXXX..XXXXXXXXXXXXXX+++++$###++++XXXXX...OOXXXXXOOO+++++++++++++O++++OO++@@&&&@@@@@@@&&&:::&&&::&&@@@@@@&&&&&&:::&&@@@@@@@@@@@@@@@@@@@@@@@@@OOOOOOO@@@@@@@@OOOOOOOOOOO@@@@@OOOOOOOOOOOOOOOOOO@@@@@@OOOOOOOOO@@@@OOOO........OOO@@@OOOOOOOOOOO@@&&@@@OOOOOOOOOOOO@@&@@@@OOOOOO@@@@@&&@@@@@@@@@&&@@@OOOOOOOOO@O@@&&@@@@OOO@@@&&@@@@OOOOOOOOO@@&&&@OOOOOOO....OOOOOO......OOOO......OOOOOO.OOOOOOO@&&@@@@OOO@@&&&@@@OOOO@@@&&@@@OOO@@@@&&&@@OO@OOOO@@@&&&@@@OOOOOO@@&&@@@@OOOOOOOO@&&&@@@@OOOOOOOO@@&&@@OOOOOOOOO@@@@@OOOOOOOO@@@@@@OOOOOOOO..OOOOOO@OOOOOOOOOOOOOOOOOOOOOOOOOOOOOOOOOOOOOOOOOOOOOOOOOOOOOOOOOOOOOOOO...OOOOOOOOOOOOOO@@@@&&@@OOOOOOOOOOOOO@@&&&&&&&&&&&@@@@@@&&&&&&&&:&::&&&::&&&&::&&&:::::::&&=*&&&&@@@#+++#+++++++++++++XXXXXXXXXXXXXXXXXXXXXXX..X.XXXXXXXXX..oooooo...XXX################%%*%**==***%##$+++XXXXXXXXXXXXXXXXX...o.oo..o.o ..oooo..  oo    ooXX$#%%%###$$XXXX....X.....XXXXXXXOXXXXOOOO+++O++++++++OOOOO+++OOOOOOOO+O+++++OOOOO+OOOOOO+OOO+++OO+++OOOOOOOOOOOOOO++++++OOO++O+O++OOO",
"@++@++OOO.......OO+++++####&&###++++++@+@@@@@+++++@@###%#####++##########+++###%&&&&&&&&&&%&########%*=====;;;;======&&&##+++O...X..X..XXXXXXXXXXXXX++++++$$########%%%%%%%%%%%%%%%%%%#############%%%%%%########+++XXXXXXX++++#$+++++++#####%#######+++XXXXXXX++###%%%#########%%%%%%#########++++XXXXX.XXXX.XXXXXXXXXXXXXXXXXXX+++++$####+++....XXXXOOOOXXXX++XOO+O+++OO+O++++++OOO@@@&&&@@@@@@@&&&&::&&:::&&@@@@@@&&&&&&&:&&@@@@@@@@@@@@@@@@@@@@@@@@O@OOOOOOO@@@@@@@@OOOOOOOOOOO@@@@@OOOOOOOOOOOOOOOOOOO@@@@@OOOOOOOOO@@@@OOOO......O..OO@@@OOOOOOOOOO@@@&&@@OOOOOOOOOOOOOO@@@@@@@@@@@@@@@@&&&&@@@@@@&&&&@@OOOOOOOOOOOO@@&&&@@OOOO@@@&&@@@@OOOOOOOOOO@&&&@@OOOOO.....OO..O..O........OO....OO...OOOOOOOOO@@&@@OOOOO@@@&&@@@@O@@@@@@&&@@OOOO@@@&&&@@OOOOOOO@@@&&&@@OOOOOOO@@&&&@@OOOOOOOO@@&&&@@@@OOOOOOOO@&&&@@OOOOOOOO@@@@@@OOOOOOOO@@@@@@OOOOOOOOOOOOOOO@@@OOOOOOOOOOOOOOO@OOOOOOO.OOOOOOOOOOOOOOOOOOOOOOOOOOOOOO..OOOOO.......OOOOOOOOOOOOO@@@&@@@OOOOOOOOOOOO@@&&&&&&&&&&&&@@@@@@&&&@&&&&&:::&&&::&&&&::&&:::::::&&&==&&&&###@++++++++++++++++++X++++X+++XXXXXXXXXXXXXXXXXXXX++++XXX.o.oooo...XXX############%###%%*%**==***###$+++XXXXXXXXXXXXXXXXo...oooooo.   .. o....    oooooooX$##%%###$$XXXXX.......XXXXXXXXXXXOOO+++O.OOOOOXXX+OOOO..O++++++X++OO+++++++++OOOOOOOOOOOOOOO++++OOOOOOOOOOOOOO+OOOO+O+++OOOOOOO++OOO",
"#++@++OOO....X..OO++++@@##&&&&##++++++++@@@+@++++++##&#%######+#@########+++###&&&&&&&&&&&%####@#####%*==============&&&##++++XX........X...XXXXXXXX++++++++++#########%%%%%%%%%%%%%%###########################+++XX.XXXX++++++$++++++++############++XXXXXXXXX+++###%%########%%%%%%%%###########+++XXXXXXXXX.XXXXXXXXXXXXXXXXX++++$$###++++....X.X.OOOOXXXX++XO++O+++++++++++++OO@@@@&&&@@@@@@&&&&&::&&:::&&@@@@@@&&&&&&::&&&@@@@@@@@@@@@@@@@@@@@@@@@@OOOOOOO@@@@@@@@@OOOOOOOOOO@@@@@OOOOOOOOOOOOOOOOOOO@@@@@OOOOOOOOO@@@@OOO..........OO@@@OOOOOOOOOO@@@&&@@OOOOOOOOOOOOOO@@&&&&&&&&&&&&&&&&&&&&&&&&&&&&@@OOOOOOOOOOOO@@&&@@@OOOOO@@&&@@@@OOOOOOOOOO@&&&@@OOOOO....O....OOOO....O...OO....OO...OOOOOOOOO@@&@@OOOOO@@@&&@@@@O@@@@@@&&@@OOOO@@@&&&@@OOOOOOO@@@&&&@@OOOOOOO@@&&&@@OOOOOOOO@@&&&@@@@OOOOOOO@@&&&@@OOOOOOOO@@@@@@@OOOOOOO@@@@@@OOOOOOOOOOOOOOOO@OOOOOOOOOOOOOOOOOOOOOOO..O..OOOO..OO.OOOOOOOO..O...........OOO........O.......OOO@@@@&&@@OOOOOOOOOOOO@@&&&&&&&&&&&&@@@@@@&&&@&&&&&&&:&&&::&&&&::&&::::::::&&==&&&&####++++++++++++++++++++++++XXXXXXXXXXXXXXXXXXXXXX+++++XXXXX..ooo...XXX#######$####%###%%*%**==***##$$+++XXXXXXXXXXXXXXXX...o.ooo.o..    o   ..  oooooooooX$##%%###$$XXXXXX...X..XX.X.X+XXXXOOO+++OXOO.OO++++OOOOO.O++++++X+O++++++++++++OOOOOO++OOOO+++++OOOOOO+OOOOOOOO++OOOO++++OOOOOOO++++O",
"@@++++OO.........+++++###&&&&&&@+++++++++@@@@@+++++@#&&&&&###+++@##&#####++##&#&&&%&&&&&&&&##########&&*=============&&&##++++XX+++X........XXXXXXXXXXXXXX+++$$$########%%%%%%******%%####+++++++++++++#+###+$+++X.X.o...X+++++#$+++++++#####%%##%###+++XXXXXXXX+++###%%%#############%%#####%%*%#####+XXXXXXXXXXXXXXXXXXXXXXXXXX++++$$###+++X..XXXXXX.OOXOXXO++XX+++++++++++++++++O@@@@&&&@@@@@@&&&&&::&::::&&@@@@@&&&&&&&&:&&&@@@@@@@@@@@@@@@@@@@@@@@@OOOOOOO@OO@@@@@@@OOOOOOOOOO@@@@OOOOOOOOOOOOOOOOOOOO@@@@@OOOOOOOOOO@@@OOO..........OO@@@OOOOOOOOOO@@@&&@@OOOOOOOOOOOOOOO@@@@@&&&&&&&&&&&&&&&&&&&&&@@@@@OOOOOOOOOOOO@@&&&@@OOOO@@@&&@@OOOOOOOOOOO@@@&&@@OOOOOOOOOOOO...OOOOOOOOO..OOO...OO..OOOOOOOOO@@@&@@OOOO@@@&&&@@@OO@@@@@@&&@@OOOO@@@&&&@@OOOOOOO@@@&&@@OOOOOOOO@@&&&@@@OOOOOO@@@&&&@@@@OOOOOO@@@&&&@@@OO@OOOO@@@@@@@OOOOOOO@@@@@@OOOOOOOOOOOOOOOOOOOOOOOOOOOOOOOO@@OOOOOOOOOOOOOOOOOOOOOOOOOOOO..............OOO...............OOOO@@@@&&@@OOOOOOOOOOOO@&&&&&&&&&&&&&@@@@@@&&&@&&&&&&::&&&::&&&&:::&::::::::&&==&&&####+++++++++++++++++++++++++XXXXX+++XXXXXX+++++++++++++XXXXXXXXoooo.XX+###########%%###%%%%**==***##$$$XXXXXXXXXXXXXXXXXX....ooooo...oooooo    oooo o   .XX$#%%%###$XXXXXXX..XX.XXX...++OXXXXOOXXXXOO+++++++OOOOO..++++++OOO+++++O+OO+O+++++++O++++O+++OO+OOOOO++++OOOOOO++OOOOOO+OOOOOOOOO++OO",
"@@@+++OO........++++++###&&&&&&@++++++++@+@@@++++++@#&&&&####+++###&#&###+++#&&&%%%%%%&&&&%#####@@####&&&*===========&&&##++++++++++XXX.....XXXXXXXXXXXXXX+X++++++#######%%%%%%%******%###+++++++++XXX+++++++++XX.......XXX+++##++++++++#####%%%%%###+++XXXXXXX++++####%%#########%*****************##++XX....X..XXXXXXXXXXXXXXXX++++$$###+++X..XXXXXXXOOOXXX+++XXXOO++++++++++++++OO@@@&&&@@@@@@@&&&&::&:::&&&@@@@@&&&&&&&&:&&@@@@@@@@@@@@@@@@@@@@@@@@@@@@O@@@@OO@@@@@@@OOOOOOOOO@@@@@OOOOOOOOOOOOOOOOOOO@@@@@@OOOOOOOOO@@@@OOO..........OO@@@OOOOOOOOOO@@@&&@@OOOOOOOOOOOOOOOOO@@@@@@@@@@@@@@@@@@@@@@@@@@@OOOOOOOOOOOO@O@@&&@@@OOOO@@@&&@@OOOOOOOOOOO@@@&&@@OOOOO.OOOOOO...OO.OOOOOO..OOOO..OOOOOOOOOOOOO@@@&@@OOOOO@@&&&@@@OO@@@@@@&&@@OOOO@@@&&&@@OOOOOOO@@@&&@@OOOOOOOO@@&&&@@@OOOOOO@@@&&&@@@@O@OOOO@@@&&&@@@OOOOOO@@@@&&@@OOOOO@O@@@&@@@OOOOOOOOOOOOOOO@OOOOOOOOOOOOOOO@@@OOOOOOOOOOOOOOOOOOOOOOOOOOOO............OOO................OO@@@@@@@@@@OOOOOOOOOOO@@&&&&&&&&&&&&&@@@@@@&&&&&&&&&&&:&&&::&&&&:::&::::::::&&==&&&#@@#++++++++++++++++++XXXXXXXXXXXXXXXXXXXXX++++++++++++XXXXXXXXXXX...XX+#######$###%%###%%%%**==***###$$XXXXXXXXXXXXXXXXXX....oooooo..ooooooo  . ooo     .XX$#%%%###$XXXXXXX..XXXXXX...+OOXXX.++XXXXX++X.OXX+OOOOO.XXX++++OOOOOO++O+OOOO++++++O+++O+OO++OO++OOOO++++OOOOOO++OOOOOO+OOOOOOOOOOOOO",
"@@++++++.....X..X++++++##&&&####++++++@@@@@@@++++++##&&&&&##++++##########+@#&&&&&&&&&&&&&%%&&&########%&&****=======**&&&###+++++++++++XXXX...XXXXXX++X+XXXXXXX++++$####################$XXXooo..ooX...........oo...o...XX+++$$+++++++$####%%%%#%##++++XXXXXX++++$#####%###+#####******************##+XXX...XXXXXXXXXXXXXXXXXXX++++++$###+++X........XXXOOOXXXXXXXX+++++OO+OO+++++++@@@&&@@@@@@@&&&&:::&:::&&&@@@@@&&&&&&&&:&&&@@@@@@@@@@@@@@@@@@@@@@@@@@@@@@@@@@@@@@@@@@@@@@OO@@@@@@@@OOOOOOOOOOOOOOOOOO@@@@@@OOOOOOOOO@@@@OO..........OOO@@@OOOOOOOOO@@@@&&@@OOOOOOOOOOOOOOOOOOOOOOOOOOOOOOOOOOOOOOOOOOOOOOOOOOOOOOOOOO@@&&@@@OOOOO@@&&@@OOOOOOOOOOO@@@&&@OOOO.OOOOOOOO.OOOOOOOOOOO..OOOOOOOO.OOOOOOOOOOO@&&@@OOOOOO@@&&@@@OOO@@@@@&&@@OOOO@@@&&@@@OOOOOOOO@@&&@@OOOOOOOO@@&&&@@OOOO@@@@&&&&&&&&&&&&&&&&&&&&&&&&&&@&&&&&&&&&&@@@@&&&@&&&&&&&&@@@@@@@@@@&&&@@@@@@@@@@&@@@@@@@&@@@@@@@@@@@@@@@@@OO@@@@@@@OOOO............OOOO...OOO......OOOO@@@@@@@&@@OOOOOOOOOO@@&&&&&&&&&&&&&&@@@@@@&&&&&&&&&&::&&&::&&&&:::&&::::::&&&&=&&&@@@+####+++++++++++++++++++++++XXXXXXXXXXXXXXX++++XX++++XXXXXXXXXX..XXX+###########%%###%%%%*===***##$$++++XXXXXXXXXXXXXXXXXooo.oo.....o  o     oo o o  oooX$#%%%###$XXXXXXXXXXXXXXXXXXXXXX+++++XXXOOO++XXX+OO++++++++++++++OO+OOOOO+++++++O++++++OO++++++++OOO+OOOOOO++OOOO++++OOOO++OOOOOOOOOO",
"@@++++++.....X.++++++++##&&&####++++++@@@+@@+@+++++##&&&#####+++####&#####+##&&&&&&&*&**&**%&&&&&&&####%&&&&***=*=====**&&######@@##++++++XX++++++++++++++XXXXXXXXXXX+++++$$$$$$$$##$$$$+XX..oooo.oooooo....X...oo......XXX+++#$+++++++$######%##%##++++XXXXXX++++$+########+$$$###%****************##+XXX....XX.XXXXXXXXXXXXXXX++++++$###+++XXX.X..X.XXXOOOXXXXOXO+++++OO++O++++++++@@@&&@@@@@@@&&&&&:&::::&&&@@@@@&&&&&&&&:&&&&&&@@@@@@@@@@@@@@@&&&&&&&&&&@@@@@@@@@@@@@@@@@@OOO@@@@@@@OOOOOOOOOOOOOOOOOOO@@@@@OOOOOOOOOO@@OOO..........OOO@@@OOOOOOOOOOO@@&&@@OOOOOOOOOOOOOOOOOOOOOOOOOOOOOOOOOOOOOOOOOOOOOOOOOOOOOOOOOO@@&&@@@@OOOO@@&&@@OOOOOOOOOOO@@@&&@OOOO...OOOOOO.OOOOOOOOOOOOOOOOOOOOOOOOOOOOOOOO@@&&@@OOOOO@@@&&@@@OOOO@@@@&@@@OOOO@@@&&&@@OOOOOOOO@@&&@@OOOOOOOO@@&&&@@OOOOO@@&&&&&&&&&&&&&&&&&&&&&&&&&&&&&&&&&&&&&&&&&&&&&&&&&&&&&&&&&@@@&&&&&&&&&&@@@@&&&&&&&@@&&&&@@@@@&&&&&&&&@@@OO@@@@@@@@OOOO............OO.....OO..O.OOOOOOO@@@@@&&@@OOOOOOOOO@@@&&&&&&&&&&&&&&@@@@@@&&&&&&&&&:::&&&:::&&&:::&&::::::&&&&=&&&@@@+#++++++++++++++++++XXX++++XXXXXXXXXXXXXX++++++XXXXXXXXXXXXXXXX..XXX$###########%####%%%%*===***##$+++XXXXXXXXXXXXXXXXXXX..oooo....o.ooo o o  o  o   oooX$#%%%###$XXXXXXXXXXXX.XXXXXX.XXX++OOXXXXOO+++++X++++++XX++++XX.O++O+OO+OO+OO+++++O+++++O++++++++OOOOOOOOOO++OOOO+++OOOOO++OOOOOOOOOO",
"@@@+@O+O.....+OOOO++++@#&&######++++++@@@@+@@++++++@##&&######++####&&####+##&&&&&**********&&*%*&&&%%&&&&&*&&*=*====***&&&&&&&&&&&&##++++++++++++++++++++++XXXXXXXXXXXX+XXXXXXXXXXXXXXXXXoo..oo..oooo....oooooo....oo....X+++++++XX+++$######%##%###+++XXXXX+++++$$+###%###+$+$########%%**********##++XXX.X.XX.XXXXXXXXXXXXXXX++++++$###+++XXXXXXXXXXXXXXOXXO+OO++++++++O+O++++++++@@@@@@@@@@@@&&&&&&&:::&&&@@@@@@&&&&&&&&:&&&&&&@@@@@@@&&&&&&&&&&&&&&&&&&&&&&&&&&&&&&&&&&&&&&@@@&&&&@@@@@@@@@@@@@@@@@@@@@@&@@@OOOOOOOOO@@OOO..........OOO@@@OOOOOOOOOOO@@&&@@@OOOOOOOOOOOOOOOOOOOOOOOOOOOOOOOOOOOOOOOOOOOOOOOOOOOOOOOOO@@&&@@@OOOO@@@&&@@OOOOOOOOOOOO@@&&@OOOOOOOOOOOOOOOOOOOOOOOOOOOOOOOOOOOOOOOOOOOOOO@@&&@@OOOOO@@@&&@@OOOOO@@@@&@@@OOOO@@@&&&@@OOOOOOOO@@&&@@OOOOOOOO@@&&@@@@OOOOOO@@@@@@@@@@@@@@@@@@@@@@@@@@@@@@@@@@@@@@@@@@@&&&&&&&&&&&@@@@@@@@&&&&&@@@@@@@@@@@@@@@@@@@@@@@@@@@@@@@@@@@OOOOOOOOOOOOOO..........OOOOOOOOOOOOOOOOOOOOOOO@@@@@&&@@OOOOOOOOO@@&&&&&&&&&&&&&&&@@@@@@&&&&&&&&&&::&&&:::&&&:::&&::::::&&&==&&&###++++++++++++++++++++XXXXXXXXXXXXXXXXXXX++#####$XXXXXXXXXX..ooXoX.XXX$################%%%%*===***##$+$XXXXXXXXXXXXXXXXXX...oooooo.oooo oooo oo    oo  oooX$##%%###$XXXXXXXXX.XXXXX..XX.XXX..OO+X+OO+++X+O+OOXXXXXX++O++O.O+OO+OO++O+OO+++O+OOO++OOOO++OOO++OOO++++O+++++OO+OOO++OO++OO++OO+OOO",
"@@@+@++OX....XOOOO+++++@&&&#####+++++++@#++++++++++##&&&%####+++####&&####+##&&&********&&*********&*&*&****&***&&====*******&*&&&&&&##++++++#+#####++++#+++++XXXXXXXXXXXX.XXXXXXXXXXXXXoo....  . oooo......oo......ooo...X+++++++XXXX+$######%%%%###+++XXXXX++++++++###%##$+++X++$$$########%%*****##++XXX.XXX..XXXXXXXXXXXXXXXX+++++$###+++XXXXXXXXXXXXXXXXXO+OOO++++X+++++++++++++@@@&@@@@@@&@&&&&&:::::&&&@@@@@@&&&&&&&&:&&&&&@@@@@@@@@&&&&&&&&&&&&&&&&&&&&&&&&&&&&&&&&&&&&&&&&&&&&&&&&&&&&&&&&&&&&&&&&&&&&@@OOOOOOOOO@@OO...........OOO@@@OOOOOOOOOO@@@&&@@@OOOOOOOOOOOOOOOOO...OOOOOOOOOOOOOOOOOOOOOOOOOOOOOOOOOOOOO@@&&@@@OOOO@@@&&@@OOOOOOOOOOOO@@&&@@@@OOOOOO@OOOOOOOOO@@@@OOOOOOOOOO@OOO@O@@@@@@@@@&&@@OOOOOO@@&&@@@OOOO@@@@&&@@OOOO@@@&&&@@OOOOOOOO@@&&@@OOOOOOOO@@&&@@@OOOOO@OOOOOOO@@@@OOOO@@@@@@@@@@@@@@@@@@@@@@@@@@@@@@@@@@@@@@@@@@@@@@@@@@@@@@@@@@@@@@@@@@@@@@@@@OO@@@@@@@@@@@@@OOOOOOOOOOOOOOO.........OOOOO@OO@@@@@@@@@@@@@O@@@@@@&&@@OOOOOOOOO@@&&&&&&&&&&&&&&&@@@@@@&&&@&&&&&&::&&&&:&&&&&:&&&::::::&&&&*&&&###+++++++++++++++++++++XXXXXXXXXXXXXXXXX++###$$$XXXXXXoooooooooooXXXXX$################%%%%*===***%#$$$XXXXXXXXXXXXXXXXXX...oooooo.oooo  oo...o    oo  ..oX$#%%%##$$XXXXXXX.....XXX..XX..XX..OO++++O+++O+O++OXXXXXXOOO++++O+OO++++++++OO+OO+++O++OOOO++OO+++OOO++++O+++++OOOOOO++OOOOOOO+OOOOOO",
"@@@@@OOO+O......++O+++######&###++++++++@@+++++++++###%%&####+++###&&########%%*******************&***&&**&&****&&&&***********=***&&&#####################++++XXXXXXXX...oo....o.. o....   . .     oooooooo..oo....o.o.XXX+++++++XXX+++++####%%#%###++XXXXXXX+++++++##%###$+XXXXXXX++$$$#######%*%*###$XXXXXX....XXXXXXXXXXXXXXX++++++###+++XXX.XXXXXXXXXXXOOOOO+X++++X++O++++++++O+@@@&@@@&&&&&&&&&&:::&&&&@@@@@@&&&&&&&&::&&&@@@@@@@@@@@@@@@@@@@@@@@@@@@@@@@@@@@@@@@@@@@@@@@@&&&&&&&&&&&&&&&&&&&&&&&&&&&&&@@@OOOOOOOOOOOOOOO...........OO@@@OOOOOOOOO@@@@&&@@@OOOOOOOOOOOOOOOO...O..O.OOOOOOOOOOOOOOOOOOOOOOOOOOOOOOOOO@@&&@@@OOOO@@@&&@@OOOOOOOOOOOO@@&&&&&&&&&&&&&&&&&&&&&&&&&&&&&&&&&&&&&&&&&&&&&&&&&&&&&&@OOOOOO@@&&@@@OO@@@@@@&&@@OOOO@@@&&&@@OOOOOOOO@@&&@@OOOOOOOO@@@&@@@OOOOOOOOOOOOOOOOOOOOOOOOOOOOOOOOOOOOOOOOOOOOOOOOOOOOO@@@@OOOOOOOOOOOOOOOOOOOOOOOOOOOOOOOOOOOOOOOOOOOOOOOOOOOOOOOOOOOOOOOOOO.O.....OOOOOOO@@OOOOOOOO@@@@OOOO@@@@@@&@@@OOOOOOOO@@&&&&&&&&&@@@@@@@@@@@@@&&&@&&&&&&&:&&&&&&&&&&&&&&:::::::&&==&&&##@@+++++++++++++++++++XXX++++++++XXXXXXXXXXXXXXXXoooo.oooooo.oooooXXXX$######$$########%%%%*===***##$$$++XXXXXXXXXXXXXXXXX.oXoooooooooo...ooo.   ooo o ooXX$#%%%##$$$XX.X.XX.........XXXXX..XXX+OO+++++++++++++OO+X++++++OOOO++++++++++OO++++OO+++OOOO+++O+++++OOO++++++++OOOOO++OOOOOOOO++++OO",
"@@@@@OOO+O......+O++++######&###++++++++@@@++++++++@##%%&&###+++###&&&########%%&&******&&******&*&&*&&&&&&&****&&&&&&*******&*****&&&&@###################+++++XXXXXXX..o.o.o  oo   o...   ..    . ooo oo  .   o....oo.XXX+++++++XXXX++++#####%#%###++XXXXXX+++++++++#####$XXXXXXXXXX++$$$$#######%###$XXXXXXX..XXXXXXXXXXXXXXXX++++++###++++....XXXXXXXXXXOOOO+OXX+++++++++++++++O+@@@&@@@&&&&&&&&&:::&&&&&@@@@@@&&&&&&&&::&&@@@@@@@@@@@@@@@@@@@@@@@@@@@@@@@@@@@@@@@@@@@@@@@@@@@@@@@@@@@@@@@@@@@@@@@@@@@@@@@@@OOOOOOOOOOOOOO............OO@@@OOOOOOOOOO@@@&&@@OOOOOOOOOOOOOOOOOOOOOOOOOOOOOOOOOOOOOOOOOOOOOOOOOOOOOOOOOO@@&&@@@@OOOO@@@&@@OOOOOOOOOOOO@@&&&&&&&&&&&&&&&&&&&&&&&&&&&&&&&&&&&&&&&&&&&&&&&&&&&&&@OOOOOOO@@&&@@@OO@@@@@@&&@@OOOO@@@&&&@@OOOOOOOO@@&&@@OOOOOOOO@@@&@@@OOOOOOOOOOOOOOOOOOOOOOOOOOOOOOOOOOOOOOOOOOOOOOOOOOOO@@@@OOOOOOOOOOOOOOOOOOOOOOOOOOOOOOOOOOOOOOOOOOOOOOOOOOOOOOOOOOOOOOO..O......O.OOOOOOOOOOOOOOOOOOOOOOOOOO@@@@@@@@@OOOOOOOO@@&&&&&&&&@@@@@@@&@@@@@@@&&@&&&&&&&&&&@&@@@@@&&&&&::::::&&&:*&&###@@+++++++++++++++++++XXX++++++++XXXXXXXXXXXXXXoooooXoooooo..oooo.oXX+######$$$###%####%%%%*===***##$$$++XXXXXXXXXXXXXXXX..oooooooooooo....oo.. ooo    ooXX$#%%%###$XXXXX..XX........XXXXX.XXXXO.OO+++++++++O++OO+O++++++OO++++++++++++OO++++OO++OOOOOO+++O++++OO++++++++OOOOOO++OOOOOOOOOO++OO",
"@@@@++++OOO.....+++++@####&&&&##+++++++@@+@+@++++++@&&%%&&###+++###&&&&&##+@##%%&&&&**&&*&&*&&&&&%&&%&%&&&&&%%%***&&&&&&%%&&&&&&*%*&&&#@###+################+++++XXXXXXXX..ooooooo o.o...   ...  .....oooo....    ....o.XXX+++$++XXXXXX++++###%%%%###+++XXXXXX+$##$+$$#####$XXXXXXXXXX+++$$$######%*%##$XXXXXX..XXXXXXXXXXXXXXXX++++++$###+++X.X....XXXX.OXOXXXX+XXX++++++++++++++++++@@&&@&@&&&&&&&::::&&&&&@&&@&&&&&&&&&&::&&@@@@@@@@@@@@@@@OOOOOO@O@@@@O@O@@@@@@@@@@@@@@@@@@@@@@@@@@@@@@@@@@@@@@@@@@@OO@@@@OOOOOOOOOOOOOOOO............OOO@@OOOOOOOOOOO@@&&@@OOOOOOOO...OOOOOOOOOOOOOOOOOOOOOOOOOOOOOOOOOOOOOOOOOOOOOOO@@&&@@OOOOOO@@@&@@@@OOOOOOOO@@@@&&@@@@@@@@@@@@@@@@@@@@@@@@@@@@@@@@@@@@@@@@@@@@@@@@@@@@OOOOOOO@@&&@@OOO@@@@@@&&@@OOOO@@@&&&@@OOOOOOOO@@&&@@OOOOOOOO@@@&@@OOOOOOOOOOOOOOOOOOOO..OOOOOOOOOOOOOOO.OOOOOOOOOOOOOOOOOOOOOOOOOOO.....OO....OO.....O.O..........OO....O.....OO.O....................OO..............OOOOOOOOO@@@@&&&@@OOOOOOOO@@&&&&&&&@@@@@@@&&@@@@@@&&&@&&&&&&&&&&@&@@&&&&&&&&::::::&&&:=&&##@@@+#+++++++++++++++++++XXX++XXXXXXXXXXXXXXXXXoXooooooooooo..oo...oXX+#######$$###%####%%%%*==****##$$+++XXXXXXXXXXXXXXXXX..oooooooo..oo..ooo    oo    ooXX$#%%%###$XXXX...XXXXXXXX..XXXXX.++XXXXXXX+OO..OOOOOOO++++++++++O+++++O++++O+++OOO++O++OO+OO+++OOOO++OOOO++O+OOOOOO+++OOOOOOOOOOO+OOO",
"@@@@++++OOO.....+++++@###&&&&&##++++++@@@@+@@++++++#&&&&&###++++###&&&&###++####&&&&%&&&&&&%&&&&&&&&######&&####%&&&&&&#&#&&&&&&###&##@++++++++###+++########++++++XXXXXX..ooooooo .    o   ...  o..o..X..Xo..o oo.....oXXX+++#++XXXXXXX+++###%%%%##++++XXXXX++$###$+$#####+XXXXXXXXXX++$$########**%##$XXXX.XX.X.XXXXXXXXXXXXXX++++++$###+++X.......XXXXOOOXXXXXXXX++OOO++++++++++O+@@@&&&&@&&&&&&::::&&&&&&&&&&&&&&&&&&&&:&&&@@@@@@@@O@@@@OOOOOOOOOOOOOOOOOOOO@O@@@@@@O@@OOOOOOO@O@@@@@@@@@OOO@O@@@@@@OOOOOOOOOOOOOOOOOOOOO............OOOO@@OOOOOOOOOOO@@&&@@OOOOOOOO...OOOOOOOOOOOOOOOOOOOOOOOOOOOOOOOOOOOOOOOOOOOOOOO@@&&@@OOOOOO@@&&@@@@OOOOOOOOO@@@&@@@@@@@@@@@@@@@@@@@@@@@@@@@@@@@@@@@@@@@@@@@@@@@@@@@@OOOOOOOO@@&&@@OOOOO@@@@&&@@OOOO@@@&&&@@OOOOOOOO@@&&@@OOOOOOOO@@@&@@OOOOOOOOOOOOOOOOOOOOOOOOOOOOOOOOOOOOOOOOOOOOOOOOOOOOOOOOOOOOOOOOOO...OOOOOOOOOOO....O.O.....................O.......................................OOOOOOOOO@@@@@@@@@OOOOOOOO@@&&&&&&@@@@@@@@@@@@@@@@&&&@&&&&&&&:&&&&@@&&&&&&&&&:::::&&&:=*&##@@@+#+++++++++++++++XXX+XXXXXXXXXXXXXXXXXXooooooooooooooooo..ooX...XX+#######$####%####%%%%*==****##$$+++XXXXXXXXXXXXXXXXXXXoo.oooo...ooooooo    oo    ooXX$#%%%###$$XX....XXXXX..X...XXX.O++++X..XX+.O+++++OOOO+O+++++++++OO++OO+++++++++OOO++OOOOOO++++OOOO++OOOOOOOOOOOO++++OOOO+OOOOOOO+OOO",
"#@+++++O.......O+O++++##&&&&&&##+++++++@##@#+++++++##&%%%###++++##&&&%####+++#############&##########++++###########++++++##########++++++++++++++++##########+++++XXXXXX..o..    ..            ...oo.XXXXX..    .. .o.o.XX++##$+XXXX.XX+++######%###+++XXXXXX+$####$$$###$XXXXXXXXXX$$###########%*###+XXXXXXXX.XXXXXXXXXXXXXXX++++++$###++++XXXX....XO.XXO++XXOOOOXXX++++++++++++++@@&&&&&&&&&&::::&&&&&&&&&&&&&&&&&:&&&&::&&@@@@@@@@OOOOOOOOOOOOOOOOOOOOOOOOOOOOOOOOOOOOOOOOOOOOOOOOOOOOOOOOOOOOOOOOOOOOOOOOOOOOOOO....................OO@@OOOOOOOOOOOO@&&&@@OOOOOOOO.O.OOOOOOOOOOOOOOOOOOOOOOOOOOOOOOOOOOOOOOOOOOOOOOO@@&&@@OOOOOO@@&&@@OOOOOOOOOOOO@@&@@OOOOOOOOOOOOOOOOOOOOOOOOOOOOOOOOOOOOOOOOOOOOOOOOOOOOOOOOOO@@&&@@@OOOOO@@@&&@@OOOOO@@&&&@@OOOOOOOO@@&&@@OOOOOOOO@@@&@@OOOOOOOOOO...OOOOO...OOOOOOOOOOOOOOO..OOOOOOOOOOOOOOOOOOOOOOOOOO..........OO......OOO.OOOOO.........OO..............................................OOOO..OOO@@@@@&&@@OOOOOOO@@@&&&&&@@+@@@@@@@@@@@@@@&&@@&&&&&&&&&&&&&&&&&&&&&&&&::::&&&&=&&&@@#@+++++++++++++++++XXXXX+X++XXXXXXXXXX.X..oooooooooooooooooooo..oXXX+$######$$########%%%%*==****##$$+++XXXXXXXXXXXXXXXX....X.ooo......       ooo     ooXX$##%%###$XXXXX..X.X.XXX....XXX...X....XXXX++O+++++++.OO+XXOO+++OO++++OO++++++++O++++++++OOOOOOO++OOO+OOOOOOO++OOO+++OOOOOOOOOOOOOOOO",
"##++++++O.....O+++++++##&&&&&&##+++++++#@@@@+++++++#&&&%%###++++##&&&&####++++++++############++++++++++++########+++++++++++#######++++++XXXX++++++##########++++++XXXXX...oo    .               o..o..X...    .. ..ooo.XX+++#$+XXX..XX+++######%###+++XXXXXX+$###$++$###++XX++X+$$$#############%*###+XXXXXXXX..XXXXXXXXXXXXXX+++$+++###+++XXXXXX...XXXXX+++XXOOOXXXXO+++++++++++++@@@&&&&::::::::&&&&&&&&&&&&&&&&:&::&&&:&&&@@@@@@@@OOOOOOOOOOOOOOOOOOOOOOOOOOOOOOOOOOOOOOOOOOOOOOOOOOOOOOOOOOOOOOOOOOOO.O.OOOOOO......................OO@@OOOOOOOOOOOO@&&&@@OOOOOOOOOO.OOOOOOOOOOOOOOOOOOOOOOOOOOOOOOOOOOOOOOOOOOOOOOO@@&&@@OOOOOO@@&&@@OOOOOOOOOOOO@@&@@OOOOOOOOOOOOOOOOOOOOOOOOOOOOOOOOOOOOOOOOOOOOOOOOOOOOOOOOOO@@&&@@@OOOOO@@@&&@@OOOOO@@&&&@@OOOOOOOO@@&&@@OOOOOOOO@@@&@@OOOOOOOOOO.....OOOO...OOOO.OOOOOOOOOOOOOOOOOOOOOOOOOOOOOOOOOOOOOOOOOO.............OOO.OOOOO.........OOOO......OOOO.O................................OOOO..OOO@@@@@&&@@OOOOOOO@@&&&&&@@++OO@@@@@@@@@@@@@&&&&&&&&&&&&&&&&&&&&&&&&&&&&&:&&&&&&&&&@#@+++++++++++++++++++XXXXXXXXXXXXXXXXXX.XXXXoooooooooooooo.ooo.o.oXXXX+######$########%%%%%*==****##$$++XXXXXXXXXXXXXXXXX....X.oooo...o..oo.           ooXX$##%%###+XXXXXXXX...XX......XXXXX.+...XXXXOO.X++XXOX.O++X+O++++OO+++++OO+++++++OO+++++++++OOOO++OOOO++OOOOO+++OOOO++OOOOOOOOOOOOOOOO",
"@@++++OOO.....OOOOO+++@###&&&&##++++++@@@####+++++@#&&%%&&##++++###&%%%###++++++++++###&#####+++++++++++########+++++++X++++########++O...X..XXX++++#####%####+++++++XXX..oooo                     . ooo...       ...ooo.XX++$+$+XXX..XX++++####%%###+++XXXXXX++$#$+++$###$++$$#########%%****%%#***###++XXX.XXX..XXXXXXXXXXXXX++++$+++####++++XXXXXXXXX.X.++O+XOOXXXXOO+++++++++++++@@@&&::::::::::&&&&::::&&&&&&&&::::&&&:&&&@@@@@@@OOOOOOOOOOOOOOOOOOOOOOOOOOOOOOOOOOOOOOOOOOOOOOOOOOOOOOOOOOOOOOOOOO..................................OO@@OOOOOOOOOOOO@@&&@@OOOOOOOOOOOOOOOOO@@@@@@@@@@@@@&&@@@@@@@@@@@@@OOOOOOOOOOOOO@@&&@@OOOOOO@@&&@@OOOOOOOOOOOO@@&@@OOOOOO.....OOOOOOOOOOOOOOOOOOOOOOOOOOOOOOOOOOOOOOOOOOOOOOO@@&@@@OOOOO@@@@&&@@OOOOO@@&&&@@OOOOOOOO@@&&@@OOOOOOOO@@@&@@OOOOOOOOOOOO.O..OOO...OOO...OOOOOOOOOOOOOOOOOOOOOOOOOOOOOOOOOOOOOOOOO.....OO..OOOOO...O.O.....OO......OO..OOOO.O..O..OOOO.O.........................OOOOO.OOO@@@@&&@@@OOOOOOO@@&&&&&@@+OOOOO@@@@@@@@@&&&&&&::&&&&&&&&&&&&&&&&&::::&&&&&&&&&&&&##@@++++++++++++++++XX+X++++XX++XXXXXXXXXXXXXXXXXoooo..ooo.oooo.ooXXXXX+######$#####%##%%%%%*==****##$$++XXXXXXXXXXXXXXXXX....Xooooooooooooooo          ooXX$#%%%##$+XXXX.XXXX..........XXXX+X++OO+OXX+XXX++++++++++X+O+++++OO+++++++++++++OOO++OO++++OOOOO++OOO+++OOOO+OOOOOOOOOOO+OOOOOOOO++OO",
"@@+++OOOOO....X.OOO+++@##&&&&&##+++++++@@@@@@++++@#&&&&&&&&##+++###&%%###+++++++++++##&&#####+++++++++++###&&&##++++XXOO+++####&&&##++OO.....XXX+++####%%%%###+++++++XXX..oooo                                     ...o..XX++++$+XXX..XX++++####%%%%#+++XXXXXX+$$++XXX$$##+++$$##########%%%*%%#****%##+++XX.XXX.XXXXXXXXXXXXXX+++#$++####++++XXXXXXXXXX...X++XXXXXXXXO++++++++++++++@@@&&::::::::::&&&&:::::&&:::&::::&&&&&&&&@@@@O@@OOOOOOOOOOOOOOOOOOOOOOOOOOOOOOOOOOOOOOOOOOOOOOOOOOOOOOOOOOOOOOOOO...............................OO.OOO@@OOOOOOOOOOOO@@&&@@OOOOOOOOOOOOOOOO@@&&&&&&&&&&&&&&&&&&&&&&&@@@@@OOOOOOOOOOOO@@&&@@OOOOOO@@&&@@OOOOOOOOOOOO@@&@@OOOOO.......OOOO...........OOOOOOOOO.OOOO..OOOOO.OO.OOOOOO@@&@@@OOOOO@@@@&&@@OOOOO@@&&&@@OOOOOOOO@@&&@@OOOOOOOO@@@&@@OOOOOOOOOOOOOOO.OOOO.OOOO...OO.OOOOOOOOOOOOOOOOOOOOOOOOOOOOOOOOOO...OOO.O..O...OO.............OOOO...................O.O...........................OOOOOO.OOO@@@@&&@@@OOOOOOO@&&&&&&@@++OOOO@@@@@@@&&&=:::::::::::::::::::&:&&&&&&&&&&&&&&&&&&#+@++++++++++++++++XXXXX+XX++++XXXXXXXXXXXXXXXXXoo...oooXX....ooXoXXXX+$#####$$########%%%%%*==****##$$+XXXXXXXXXXXXXXXXXX.....oooooooooooooo.          ooXX##%%%##$+XXXX.XXXX...XX....XXXXX+++++O+XXXXXXX++++++++++++++++OOO+++++OO+++O++OOOO++OOO++++++++++++O+++OOOOOOOOOOOOOOO++OOOOOOOO++OO",
"@@++++OOOOO...XX++++@+####&&&&##++++++@@##########&&%%%&&&###+++###%%&&&#+++++++++++##&&&&###+++XX++++++#&&&%&##++++X++++++##&&&%&##++XX....XXX+++####%%%%%####++++++XXXX.oooo                        oo             .oo..XX+$+++XXX..XX+++######%####++XXXXXX+++$++++$###++++$$########%%%*********###+XXXX.XXXXXXXXXXXXXXXXXX++++++++###++++XXOXXXXX..XXXXXXXXXXXXOO++++++++++++++@@@@&&::::::::::::::::&&&&::::::::&&&&&:&&&@@@@OO@@OOOOOOOOOOOOOOOOOOOOOOOOOOO.OOOOOOOOOOOOOOOOOOOOOOOOOOOOOOOOOOO..O.................................OO@@OOOOOOOOOOOO@@&&@@OOOOOOOOOOOOOOO@@&&@@@@@@@@@@@@@@@@@@@@@@@@@@@@@OOOOOOOOOO@@&&@@OOOOOO@@@&@@OOOOOOOOOOOO@@&@@O.OOOOO.O....OOOOOO...........OOO.................O.OOOOOO@@&@@@@OOOO@@@@&&@@OOOOO@@&&&@@OOOOOOOO@@&&@@OOOOOOOO@@@&@@OOOOOOOOOOOOOOOOOOOOOOOO..OOOOOOOOOOOOOOOOOOOOOOOOOOOOOOOOOOOOOOO.....OOOO......OO........................................................OOOOOOO...OOOOO.OOO@@@@@@@@@OOOOOO@@&&&&&@@OOOOOOOO@@@@@&&&:=:::::&&&&&&&&&&&&&&&&&&&&&&&&&&&&&&&&&&#@+++++++++++++++++XXX++++++++++++++++++++++XXXXXXXXXXXXXXXXXXXXXX.XXX++#####$$$###%####%%%%*==****##$$$XXXXXXXXXXXXXXXXXX....ooooooooooooooo.o.o       oooX$#%%%##$+XXXXXXXXXX..XX...XX....XX++XXXXXX+XX+++++++++++++++++++O+++++++OOOO+++OOO++OO++++++++++++++OOOOOOOOOOOOOOOOOOO+++++++OO++OO",
"@@++++OO.OO...XX++++@+@###&&&&##+++++++####&&#&#&&&&&%&&&%%####+###%%&&&#++++X++++++###&&&##++++X.X++++#&&&&%%##++++++++++##&&%**%%##+X...X.XXX++###%%%%**%####+++++++XXXX.o.o                     o ...             ..o..XX+$+++XXXXXXX+++###########++XXXXXX++$$++X+$$###++$$$########%%%*********###$XXX..XXXXXXXXXXXXXXXXXX++++++++####++XXXXXXXXXXXXXXXOXXXXXXXXO++++++++++++++@@@@&&::::&&::::::::::&&::::::&&::&&&&&&&&&@@O@@O@OOOOOOOOOOOOOOOOOOOOOOOOOOOOO.OOOOOOOOOOOOOOOOOOOOOOOOOOO.....OO...............................O...OOO@@OOOOOOOOOOOO@@&&@@OOOOOOOOOOOOOOO@&&&@@@OOOOOOOOOOOOOOOOOOOO@@@@@@OOOOOOOOOO@@&&@@OOOOOO@@@&@@OOOOOOOOOOOO@@&@@O.OOO.O..O....O.O.O............OOO.....O..........O.OOOOOOO@&@@@@OOO@@@@@&&@@OOOOO@@&&&@@OOOOOOOO@@&&@@OOOOOOOO@@@&@@OOOOOOOOOOOOOOOOOOOOOOOOOOOOOOOOOOOOOOOOOOOOOOOOOOOOOOOOOOOOOOOOOO....OOOO.O...OOO........OO...............O..........................O.OOOOOOOOO...OOOOO.OOO@@@@@@@@@OOOOOO@@&&&&&@@+O+OOOOO@@@@@&&&:==::&&&&&&&&&&&&&&&&&&&&&&&&&&&&&&@@@@#&#+++++++++++++++++XXXX+++++###++++++#####+++++++XXXXXXXXXXXXXXXXXXXXXX+$#####$$$###%####%%%%*==****##$$$XXXXXXXXXXXXXXXXXX....oooooooooooooooo..oo      oooX$#%%%###+XXX....XXXXXXXX.XXXX...XXXXXX++++++++++++++++++++++X++++O+++++O++OO++OOOO++OO+++++O++++++++OOOO+OOO+OOOOOOOOOO+++++++++++OO",
"@@++++OO..O...XX++++@@####%&&###++++++####&&#&&%%%%%**&&*%%#########%&&##+++X.++++++####&&##++++..X+++###&&%&%##+++++++++@##%%****%%#++X.XXXXX++###%%%%**%%%###++++++XXXX....                   ooo.....             .oo..XX+++++XXXXXXX+++##########+++XXX++X+++$++++$####$$$$$########%%%*********%##++XXXXXXXXXXXXXXXXXXXXXXX+++++++###++++XXXXXXXXXOXXXO++XXO+XXXOXXXX+++++++++O+@@@&&&:::&&:::::::&&&&&::::&&&&&&&&&&&&&&&@@OOOOOOOOOOOOOOOOOOOOOOOOO..OOOOO....OOOOO.O..........O............................................OO.O..OOO@@@OOOOOOOOOOO@&&&@@OOOOOOO.OOOOOOO@&&&@@OOOOOO.OOOOOOOOOOOOOO@@&&@@OOOOOOOOOO@@&&@@OOOOOO@@@&@@OOOOOOOOOOOO@@&@@O.OO.O.OOO.......OO..OOO......OOO......OOOO......OO.OOOOOO@@&@@@@OOOO@@@@&@@@OOOOO@@&&&@@OOOOOOOO@@&&@@OOOOOOOO@@&&@@OOOOOOOOOOOOOOOOOOOOOOOOOOOOOOOOOOOOOOOOOOOOOOOOOOOO@OOOOOOOOOOOOOOO..OOOOOOOOOOOOOOOOOOOOOOOOOOOO.O.O..OOOOOOOOO.O.OOOO.....O.......OOOOOOOOOOOO...OOOOO..OO@@@@@@@@@OOOOOO@@&&&&#@++O+OOOOO@@@@@&&&&====&&&&&&&&&&&&&&&&&&&&&&&&&&&&&&@@+@@@@@@+++++++++++++++XXXO+++++##+++++++####+++++++XXXXXXXXXXXXXXX..XXXXXX+$#####$$$########%%%%*==****##$$$XXXXXXXXXXXXXXXXXXX.oooXooooo.o.oooo....ooo     oooX$##%%###$XXXXX...XXXXXX.XXXXXX.XXXXXXXXX+++++++++++++###++++++++OO++++++++++++OOOOOOOO++++OO++++OOOOOO+++OOO++OOOO++OOO+OOOOOOOOO+OO",
"@@++++OO..OOOX+X++++@@####%%&####+++++####&&&%%%%%%***&&*%%%#########&###+++..X+++++##&&&###++++..X+++###&&*&&##+++++++++##%%*****%##+++XXXX.X++##%%******%%###+++++++XXXX..                    o.oo....            ..oo..XX+++++XXX.XXX+++##########$++XXXX++++$$+XX+$###$++$$$$########%%*********%##$+XXXXXXXXXXXXXXXXXXXXXXX+++$++$###++++XXXXXXXXXXXXXO++XXOXXXXXXXXX+++++++++O+@@@&&&&&&&&&&&&&&&&&&&&&&&&&&&&&&&&@@&&&&&@O@OOOOOOOOOOOOOOOOOOOOO..................O............OO...........................................OOO...OOO@@@OOOOOOOOOOO@&&&@@OOOOOOOOOOOOOOO@&&&@@OOOOOO...OO.OOOOOOOOO@@@@@@OOOOOOOOOO@@&&@@OOOOOO@@@&@@OOOOOOOOOOOO@@&@@O.O..O...........OO..OOOOOO.....O......OOOO..........OOOOOO@&@@@@OOOO@@@@&&@OOOOOO@@&&&@@OOOOOOOO@@&&@@OOOOOOOO@@&&@@OOOOOOOOOOOOOOOOOOOOOOOOOOOOOOOOOOOOOOOOOOOOOOOOOOOOOOOOOOOOOOOOOOOOOO.OOOOOOOOOOOOOOOOOOOOOOOOOOOOOOO..OOOOOOOOOO..OOOOO...OO.OOO..OOOOOO....OOOO..OOOOO.OOO@@@@@@@@@OOOOO@@@&&&&@@+OOOOOOOO@++@@&&&&====&&&&&&&&&&&&&&&&&&&&&&&&&&&&@@++++++@@@+++++++++++++++XXX+++++++++++++++##+++++++XXXXXXXXX..XXXXX..XXXXXXXX+#####$$$#######%%%%%*==****##$$$XXXXXXXXXXXXXXXXXXXooooo.oooo.o...oo. o ooo     oooX$##%%###$XXXXX..XXXXXX..XXXXXXXXXXXXXXXXX++++++++++++###++++++++OO+++++++++++++OOOO+++++OOOO++OOOOOOOOO++OOO++OOOO++OOO+O+OOOOOOOOOO",
"@@@++OOO..O...XX++++++####%%&####+++++@###%%%%*********&**%%#######&%%#&#+++..XX++++###%%&##++++..X++++#&&&&&&##+++X+++++##&******&&#+++...XX+++##%%******%%##+++++++++X......                  ooo..o...           ...oo.XX+++++XX.X.XXXX+++#########++++++++$$#$++++$###$++++$$$$$######%%*********##$XXXXXXXXXXXXXXXXXXXXXX+++++$+++####++++X.OXXXXXX+++++X+XX+XXX++X+++X++++++++++@@&&&&&&&:::&&&&&&&&&&&&&&&&&&&&@@@@@&&&@@+OOOOOOOOOOOOOOOOOO.OO..............................................................OO..................OOOO@@@OOOOOOOOOOO@@&&@@OOOOOOOOOOO.OO@@&&@@OOOOOO.....O....OOOOOO@@&@@@OOOOOOOOOO@@&&@@OOOOOO@@&&@@OOOOOOOOOOOO@@&@@O.O.......O..........OO.....OOOOO..OO......OO.....O..OOOOOO@&@@@@OOOOO@@@&@@@OOOOOO@@&&@@OOOOOOOO@@&&@@OOOOOOOO@@@&@@@@@@@@@@@@@@@@OO@@@@@@@@@@@@@@@@@@@@@@@@@@@@@@@@@@@@@@@@@@@@@@@@@@@@@@@@@@@@@@@@@@@@@@@@@@@@@@@@@@@@@@@@@@@@@@@@@@@@@@@@@@OOOOOOOOOOOOOOO......O....OOOOO.OOOO@@@@&@@@OOOO+@@&&&&&@+OO++OOOOO+@@@@@&&&===&&&&&&&&&@@@@@@@@@@@@@@@@@@@@++++OOOOOO+++++O+++++++++++X++++++#############+++++++++XXXXXXXXXXXo..XXXXXXXXX+#####$$$########%%%%*==****##$$$XXXXXXXXXXXXXXXXXXXX...o....oooo..ooooooooo      ooX##%%%##$XXXXXXXXXX.X..XXXXXXXXXXXXXXXXXX++####+++++++####+++++++++++++++++++++OOOO++++++++OO++O+++++OOOOOO+OOOOO+++OOO+++OOOOOOOOOOO",
"@@@++OOO..O...XX+O++++####%&&####+++++##&#%%**************%%#######&%&###+++..XXX+++###%%###++XX..X++++#&%&&&&##+++X++++###&******&&#++XX..XX+++##%*******%%##++++++++XXX.....                  o.o..oo..           ...oooXX++++XXXX.XXXXX+++####################$$X++$###++XX+++++$$$$#####%%*******###+XXXXXXXXXXXXXXXXXXXXX+++++$+++####++++XXOXXXXXX++X+++XXXXXXX+X+++++++++++++++@@&&&&&&&&&&&&&&&&&&&&&&&&&&&&&@@@@@@&&@@@OOOOOOOOOOOOOOOOOOO................................................................................O...OOOOO@@@OOOOOOOOOOO@@&&@@OOOOOOOOOOO.OO@@&&&@OOOOOO....OO.O..OOOOOO@@&&@@OOOOOOOOOO@@&&@@OOOOOO@@&&@@OOOOOOOOOOOO@@&@@O.O..................OO............OO......OO....OO..OOOOO@@@@@@@OOOOO@@@&@@@OOOOOO@@&&@@OOOOOOOO@@&&@@OOOOOOOO@@&&&@@@&@&&&&&&&@@@@@@@@@@@@@@&&&&&&&&&&&&&&&&&&&&&&&&&&&&&&&&&&&&&&&&&&&&&&&&&&&&&&&&&&&&&&&&&@@&&&&&&&@&&@@@@@@@@@@@@@@@@@@@@@@@@@@@@@@OOOOO......OOO.OO+OOO.OOOO@@@@@@@@OOOO++@&&&&@@+OOOOOOOOOOOOO@@&&&&==&&&&@@@@@@@@@@@@@@@@O@@@@@@OOO+OO++OOOOO+++OOO...XXX.X...XXX+++####&&#######+++####++XXXXXXXXXXXXXXXXXXXXXXX+$####$$#########%%%%*===***##$$$XXXXXXXXXXXXXXXXXXXX........ooo.  oooo ooooo    ooXX##%%%###$XXXX.XXXX.X..XX...XXXX.XXXXXXXX++#####++++++####+++++++++######+++++OOOO+++++++OOOO++OOO+++OOOOOOOOOOOO+++OOO++++OOOOOO++OO",
"@@++++OO......X+OO+++++###&&&&###++++@##&&&*&&*********&**%########&%%###+++..XXXX++##&&&&##++XX.XX++++##%***%##++++++++###%******%##+++..XXX+++##%%******%%##++++++++XXX......                oooo.X.o..            .....XX++++XXXXXXX.XXX+++###################$+XX+$###+XXXX+XXXX+$$$$#######%****###++XX.XXXXXXXXXXXXXXXXX+++++$++$####+++XXXXXXXXXXXXXXX++XX++XX+++X++++++++++++@@@&&&&&&&&&&&&&&&&&&&&&&&&&&&@@@@@@@@@@@@@OOOOOOOOOOOOOOOOOO....................................................................................O.OOOO@@OOOOOOOOOOO@@@&&@@OOOOOOOOOOOOOOO@&&&@OOOOO.......O.OOOOOOOO@@@@@@OOOOOOOOOO@@&&@@OOOOOO@@@&@@OOOOOOOOOOOO@@&@@O.OOO..............OOOOOOOOOOOOOOO.OO..OOO..O.....O..OOOOO@@@@@OOOOOOO@@@&@@@OOOOO@@@&&@@OOOOOOOO@@&&@@OOOOOOOO@@@&&&&&&&&&&&&&&&&&&&&&&&&@@&&&&&&&&&&&&&&&&&&&&&&&&&&&&&&&&&&&&&&&&&&&&&&&&&&&&&&&&&&&&&&&&&&&&&&&&&&&&&&&&&&&&&&&&&&&&&&&&&&&&@@@@@@@@@@@@OOO....OO....OOOOO.OOO@@@@@&@@@OOOO+@@&&&&@@OOOOOOOOO.OOO+++@&&&&==&&&@@&&&@@@@@@@@@@@@@@@@@@@+@O++++++OO++OOO.O..............O++#&&&&&&%####++###%%##++++XXXXXXXXXXXXXXXXXXXXX$####$$$#######%%%%**===***##$$$++XXXXXXXXXXXXXXXXXX.....o.oooo.    o   oo      ooXX##%%%###+XXX.....XX...XXXXXXXXXXXXXX++++++#######++#+######++#++###%%&&&#+++++O+++++++++OOOO+OOOOO++OOO+O++OO+OO+OOOOOO+OOOOOOOO+OOO",
"@@++++OO.......X++++++@###&&&&###++++###&&&*%*********&&**%#########%%###+++...XXX++##&&&&##++XX..X+++##%%***%##++++++++##%&******%##+++..XXX+++##%%******%%##+++++++XXXX....                  ..oo.X.o..           ..oo.XXX++++XXXXXXXXX+++++###################$+XX+$##$+XXX$$$$$$$$$$$#######%****%##++XXXXXX.XXXXXXXXXXXXX++++$+++$####+++XXXXXXXXXX.XXX+++XXXXXX+++X++++++++++++@@@&&&&&&&&&&&&&&&&&&&&&&&&&&@@@@@@O@@@@@@@OOOOOOOOOOOOOOOOOOO..................................................................................OO.OOOO@@OOOOOOOOOOOO@@&&@@OOOOOOOOOOOOOOO@&&&@OO..O.......OOOOOOOOOO@@@@@@OOOOOOOOOO@@&&@@OOOOOO@@@&@@OOOOOOOOOOOO@@&@@O.OOO..............OOOOOOOOOOOOOO..OOO...OO...O..OOO.OOOO@@@@@@OOOOOOO@@@&@@@OOOO@@@@&&@@OOOOOOOO@@&&@@OOOOOOOOO@@@&&&&@@@&&&&&&&@@@@@&&&@@@@@&&&&&&&&&&&&&&&&&&&&&&&&&&&&&&&&&&&&&&&&&&&&&&&&&&&&&&@&@&@@@&&&&@@@@&&@@@@&@@@@@@@@@@@@@@@@@@@@@@@@@@@@@@@@@OOOO....OO....OOOO..OOO@@@@@&@@@OOOO+@#&&&&@+OOO.OOOO...OOOO+@#&&&==&&#@@&&&&&&&&&&&&&@@@@@@@@@@@@@@++++++++OOOOOOO.X..........O++##&&&&&##########%%##+++++XXXXXXXXXXX+$$+$$+++$####$$$#######%%%%%*===***##$$$++XXXXXXXXXXXXXXXoXXX.XXoo.oooo.                ooXX$#%%%##$+XXX.....X...XXXXXXXXXXXXXXXXX++++######################%%*****&#+++++O+++++O++++OO+OOOOO+++O+++++++++OOOOOOOOOOOOOOOOO+++OO",
"@@++++OO......OO++++++###&&&&&###++++###&&&&&%**********&&&########%%%&##+++..XXX+++##&&&&##++XX..O+++##&&**%%##++++++++#&&&******%##+++.XXX++++##%%******%%##+++++++XXXXX..                  ...o.XXX..         ...oo..XXXX++++++XXX++++++++++#################$$XXX++$#$+++$$################%****%###$+XXXXX.XXX.XXXXXXXXXXX+++++++$####+++XXXXXXXXXX.XXXX+XX.XXXXXXXX+++++++++++O@@@&&&&&&&&&&&&&&&&&&&&&&&@@@@@OOOOO@@@@@@@OOOOOOOOOOOOOOOOOOO................................................................................OOO.OOOOOO@OOOOOOOOOOO@@@&&@@OOOOOOOOOOOOOO@@&&@@OO.OOO........OOOOOOOO@@@@@@OOOOOOOOOO@@&&@@OOOOOO@@@&@@OOOOOOOOOOOO@@&@@O.OOO....OO........OOOOO@@@@@@@@@OOOOOO...........O.OOOOO@@@@@@OOOOOO@@@@&@@@OOOO@@@@&&@@OOOOOOOO@@&&@@OOOOOOOOOOO@OOOOOO@O@@@&&@@@@@@@@@@@@@@@@@@@@@@@@@@@@@@@@@@@@@@@@@@@@@@@@@@@@@@O@@@@OOOO@@@@OOOOOOOOOOOOOOOOOOOOOOOOOOOOOOOOOOOOOOOOOOOOOOOOOOOOOOOOOO......OOO...OOOOO.OOO@@@@@@@@OOOOO+@&&&&&@+OOOO......O+++++@@#&&&&&&@@@@&&@@@@@@&@@@@&@@@@@@@@@@@@@@++@@@@+++++++.XXX.X.....O++@#&&**%%##########%%###++++++XXXXXXX+$$#####$$$$####$$$#######%%%%**===***##$$$+XXXXXXXXXXXXXXXXXX.XoXXoooo.oo.     ooo        ooXX$##%%##$+XXXXXX......XXXXXXX...XXXXX+++++###################&&&&*=====*##+++++++O+++OO+O++++OO++OOOO+O++++++OOOOOOOOOOOOO+++OO++++OO",
"@@+++++O....O.OO++++++###&&&&&###++++####&&&%%%%%%%*%%%%&&#########&%&&##+++..XX++++##&&&&##+++X..O+++##&&**%%##++++++++#&&&******%##+++XXXX++++##%%******%%###++++++XXXX...                  ..oo.XXX...         ......XXXXXXXXXXXXXXXXXXXX++++++$$$$$+++++++++$++XX++$#$+++$##########################+XXXXXX.XXXXXXXXXXXXXXXX++$+++$####++XXXXXXXXXXXXXXXXXXX.XX+XXXXX++X++++++++O@@@&&&&&&&&&&&&&&&&&&&&&@@@@@@@OOOOO@@@@@@OOOOOOOO@OOOOOOOOOO.................................................................................O.OOOOOOOO@OOOOOOOOOOO@@@&&@@OOOOOOOOOOOOOO@@&&@@OO.OOO.........O.OOOOO@@&@@@OOOOOOOOOO@@&&@@OOOOOO@@@&@@OOOOOOOOOOOO@@&@@O.OOO....OOOO....OOOOOO@@@@@@@&&@@OOOOO..........OOOOOOOO@@@@@OOOOOOO@@@@&@@@OOOOO@@@&&@@OOOOOOOO@@&&@@OOOOOOOOOOOOOOOOOOOO@@@@&@@@@@OOOOO@OOOO@@@@&&@@@@@@OOOO@@@@OOOOOOOOOOOOOOOOOOOOOOOOOOOOOOOOOOOOOOOOOOOOOOOOOOOOOOOOOOOOOOOOOOOOOOOOOOOOOOOOOOOOOOOOOO......OO....OOOOOOOOOO@@@@@@@OOOOO+@&&&&&@OOO+O.....OOOO+OO++@&&&&&&@@@@@@@&@@@@@@@@@@@@@@@@@@@@@@@@@@@@@@@++++O+XXX.......XO++@&&&***%######+######++++XXXXXXXXXXX+$########$$####$$$#######%%%***==****##$$$+XXXXXXXXXXXXXXXXXX.XXXXoXXoooo.    oooooo      ooXX$##%%##$+XXXXXX....X..XXXX.X...XXXXXXX+++#################%%&**=======*##++++++++++++++O++++OOO+OOOOOO++++++OOOOOOOOOOOOO+++OO++++OO",
"##++++OOOO...OOO++++++###&&&&&###+++#####%&&%%%%%%&&%%%%############%&###+++XXXX++++##&&&&##++++.X++++##&&&&%%##++++++++##&&******%##+++XXXXO+++##%%******%%####+$++++XXX.o.                  ....o.XX.o..        o o ....oo...XX......X..X.XXXX+++++++++++++++++++X+++$$$+XX+++++++++$$$$$$$$$#######++XXXXX..XXXXXXXXXXXXXXXXX++$+++$####++XXXXOXXXXXXXXXXXXXXXXX+++XXX++O++++++++O@@@&&&&&&&&&&&&&&&&&&&@@@@@@@@OOOOO@@@&&@@OOOOOOOO@OOOOOOOOOOO..............................................................................OOO...OOOOOO@OOOOOOOOOOOO@@&&@@OOOOOOOOOOOOOO@@&&@@OOOOOO....O......OOOOO@@&@@OOOOOOOOOOO@@&&@@OOOOOO@@@&@@OOOOOOOOOOOO@@&@OOOOOO....OOOOO....O.OOOOO@@@@@&&&@OOOOOO...O......OOOOOOO@@@@@OOOOOOO@@@@@@@OOOOOOO@@&&@@OOOOOOOO@@&&@@OOOOOOOOOOOOOOOOOOOOO@@&&@@@OOOOOOOOOOOOOO@@@@@@OOOOOOOOOOOOOOOOOOOO..OO....OO...OOOOOOOOOOOOOOOO.OO....OOOO..............OO...............................O.O....OOOOOOOOOO@@@@@@@OOOOO+@&&&&&@OOO+OOO...OOOOOOOO++@#&&&#@@@@@@@&@@@@@@@@@@@@@@@@@@@@@@@@@@@@@@+++++O++OXX......XX++#&&**=**&###++++#####$++XXXXXXXXXXXXX+$###$++++$$###$$$#######%%%%**==****##$$$++XXXXXXXXXXXXXXXXX.X.....oooooo     oooo  o    ooXX$#%%%##$$XXXXX....X.XXXXXXXXXXXXX+++++++###########%%%%%%%%***========%#+++++++++++++++O++OOOO++++++OOOOOO++OOOOOO++O+OOOO++OOOOOOOO",
"##++++OOOO...O+O+O+++@###&&&&&###+++#####%&%&%%%&&############++########++++XXXX++++##&&&###++++.X++++##&&&&%%##++++++++##&&******%##++++XXXO+++##%%******%%####++++++XXX.o..                 ....o.XX.o..                ..o.........o....XXXXXXX++++++++++++++++XXXX+$#$+XXXXXXXXXX+XX$$$$$$$$####$$++XXX....XXXXXXXXXXXXXXXXX+++++$$####++XXXXOXXXXXXXXXXXXXXXX+++++XX++OO+++++++O@@@&&&&&&&&&&&&&&@@@@@@@@@@@@@OOOO@@@&&@@@OOOOOOOO@OOOOOOOOOOO...............................................................................OO..OOOOOOO@OOOOOOOOOOOO@@&&@@OOOOOOOOOOOOOO@@&&@@OOOOOOO...OO.....OOOOO@@&@@OOOOOOOOOOO@@&&@@OOOOOO@@@&@@OOOOOOOOOOOO@@&@OOOOOO....OOOOOO....OOOOOO@@@@@@&&@OO.OO....O......OOOOOOO@@@@@OOOOOOOO@@@@@@OOOOOOO@@&&@@OOOOOOOO@@@&@@OOOOOOOOOOOOOOOOOOOOOO@@&@@OOOOOOOOOOOOOOO@@&@@@OOOOOOOOOOOOOO.OO....OOO...OOO...OOOOOOOO.......OOOO....................OOOO.....................OOOOOOOOOOOO+O...OOOOOOOOOO@@@@@@@OOOOO+@&&&&&@+OOO.OOOO.OO.OOOOO++++#@@@@@@@@@@&&@@@@@@@@@@@@@@@@@@@@@@@@@@@@@@+++++++OOX......XX+##&&**=**&##++++++####++XXXXXXXXXXXXXXX+$++XXXXXX$##$$$$#######%%%%**==****##$$$++XXXXXXXXXXXXXXXXX.XXX..ooooooo     oooo oo    ooXX$#%%%##$$XXXXXX....XXXXXXXXX.XXXXX++X+++###########%%%%%%%***=========%#+++++++O+++++++++++OOO++++++OOOOOO++OOOO++++O+OOO+++OOOOOOOO",
"@@+@++++......++++++++@&#&#&&####++++##&&&%%%%%&&#############++#########+++...X++++##%%###+++X+..++++##&&&*%%##++++++++##%&******%#++++XXXX+++###%*******%%####++++++XXXX...                 ...o.XXX.o...             .. oooo.oo..oooo..XX...XXX++++##########$+XXX+$$$$+++++++++XX+++$#######++++++XXXXXX.XXXXXXXXXXXXXXXXX++++$+++$###++++XXOXOXXXXXXXXXXXXXXX+++++XXX++++++++++++@@&&@@@@@@@@@@@@@@@@@@@@@@@@OOOO@@@@&&@@OOOOOOOOOOOOOOOOOOOOOO.................................................................................OOOOOOOO@@OOOOOOOOOOO@@&&@@OOOOOOOOOOOOOO@@&&@@OOOO....OOO.....OOOOOO@@@@@@OOOOOOOOOO@@@&@@OOOOOO@@@&@@OOOOOOOOOOOO@@@@OOOOOOO...........OOOOOOOO@@&&&&@@OO....OOOO......OO.OOOO@@@@@OOOOOOOOOO@@&@@OOOOOO@@@&&@@OOOOOOOO@@@&@@OOOOOOOOOOOOOO...OOOOO@&&@@OOOOOOOOOOOOOOOO@@&@@OOOOOOOOOO.O......................................................................................OOOOOOOOOOOOO..OOOOOO.OOOO@@@@@@@OOOOO+@&&&&#@+OOOO.....O.OOOOOOOO+O++O@@@@@@@@@@@@@@@@@@@@@@@@@@@@@@@@@@@@+@@@@+++OOOOXX........+++##&&%%####+++++###+$+XXXXXXXXXXXXXXXXXXXXXXXXXX$###$$$########%%***==***%##$$$++XXXXXXXXXXXXXXXXXXooX.X.ooo...o..oo     ooooo ooXX##%%%##$XXXXoo....XX.XXXXXXXXXXXXXX++++++$##########%%*%%****=========&#+++++++++++++++++++++++++OOOOOO+++++O+OOO+++OOO+++OOOOO+OOOO",
"@@@@++++.O....++++++++@##&&%%####++++##&&&%%%%%%&##############+########++++X..X++++##%%###+++X+XX++++##&&&&%%##++++++++###&******%#++++XXXX+++###%*******%%###+++++++XXXX...                 ...o.XX.oo...            ... .oo.ooo..o.o..XXX...XXX++++###%%%%###$++X++$$#$$++$$$$++++++$##########$++++XXXXX..XXXX.XXXXXXXXXXX++++$+++####+++XXXOOXXXXXXXXXXXXXXXX+++OXXX+++++++++++++@@&&@@@@@@@@@@@@@@OO@@@@@@@@O@@@@@&&&@@@OOOOOOOOOOOOOOOOOOOOOO.................................................................................OOOOOOO@@OOOOOOOOOOOO@@&&@@OOOOOOOOOOOOOO@@&&@@OOOO....OOOO....OOOOOO@@&@@@OOOOOOOOOO@@@&@@OOOOOOO@@&@@OOOOOOOOOOOO@@@@OOOOOOOO..........OOOOOOOO@@&&&&@@OO.....OOOOOO...OOOOOOO@@@@@OOOOOOOOOO@@&@@OOOOOOO@@&&@@OOOOOOOO@@@&@@OOOOOOOOOOOOOO....OOOO@&&@@OOOOOOOOOOOOOOOO@@@@@@OOOOOOOOO..................................................................................................OOO..OOOOO..OOOO@@@@@@@OOOOO+@&&&&@@+O+O......OOOOO+++++++++@@@@@@@@@@@@@@@@@@@@@@@@@@@@@@@@@@+@++@+@@+++OOOOXXX.......O+++++#####++++++++++XXXXXXXXXXXXXoXXXXXXXXXXXXXXX$###$$$########%%***==****##$$+++XXXXXXXXXXXXXXXoXoXX..oooooo.o...ooo    oooo  ooXX##%%%##$XXXXoo....XX.X.XXXXXXXXXXXX+++++++$$$$######%%%*****=========*&#+++++++++++O++++++O+++++++OOOO++++++O+OOO+++OO++++OOOO+OOOOO",
"@@@@+O+OOOO..OO+OO++++###&%%&&&##++++####%%%%%&%&#######################++++X..X++++##%%###+++XXX+++++##&&%*%%##++++++++###%******&#++O+..XX+++###%*******%%###+++++++XXXX....                  oo.XXXo.              oo......oo..........XXXXXXXXX+++###%****##$+++++$###$$$####$+++++$###########$$++XXXXXX...XXX.XXXXXXXXXXXX+$++++####++++XXXXXXXXXXXXXXXXXXXX++XXXX++++++++++++++@@@&@@&&@@&@@@@@@@@@@@@@@@@@@@@@&&&@@@@OOOOOOOOOOOOOOOOOOOOOOO.............................................................................O...OOOOOOO@@@OOOOOOOOOOO@@&&@@OOOOOOOOOOOOOOO@&&@@OOOO......OO..OOOOOOOO@@&@@@OOOOOOOOOO@@&&@@OOOOOOO@@&@@OOOOOOOOOOOO@@@@OOOOO.OO.....O..OOOOOOOOOO@@&&&@@OO......OOOOOOOOOOOOOOO@@@@@OOOOOOOOOOO@@@@@OOOOOOO@@&&@@OOOOOOOO@@@&@@OOOOOOOOO.OOOO....OOOO@&&@@OOOOOOOOO.OOOOOO@@@@@@OOOOO@@OO........................................................................................................OOOOOOOOOO@@@@@@@OOOOO+@&&&&#@+++OO.....OOOOO++++++++@@@@@@@@@@@@@@@@@@@@@@@@@@@@@@@@@@+@@++@++++++OO+OXXXX......X++++++++++++++++XXXXXXXXXXXXXooooo.o..ooooooXXXXX$###$$$#######%%%***==****##$$$+XXXXXXXXXXXXXXXoooooo..oooooooooo.ooooo   o    ooXX##%%%##$XXXXXo..oXXX..XXXXXXXXXXXXXXXX++++++$$######%%******=========*&#++++++++++OO++++++O+OO++++++++++OOOOOOOOOO++OOOO+OOOOO++++++",
"@@@@+++OOO+OOO++OOO+++##&&&%%&&##++++####%%%%%%%&&####%%%%##############++++XX.++++###%&&##+++XX++++++##&%&*%%##++++++++###%******&#++O+...X++++##%*******%%###+++++++XXXX....                  oooXXXoo        .... ooo..................XXXXXXXX++++##%*****%#$$+X++$###$$$#####$++++####%########$++XXXXX....X...XXXXXXXXXXXX+$++++####++++XXXXXXXXXXXXXXXX++XX++XXXX+++++++++++++++@@&&&&&&&&&&&&&@@@@@@@@@&&@@@@@@@@@@@OOOOOOOOOOOOOOOOOOOOOOOO..........................................................................OOOO...OOOOOOO@@@OOOOOOOOOOO@@&&@@OOOOOOOOOOOOOO@@&&@@OOOO.......O.OOOOOOOOO@@&@@@OOOOOOOOOO@@@&@@OOOOOO@@@&@@OOOOOOOOOOOO@@@@OOOO..OO....OOOOOOOOOOOOOO@@@@@@OOOO.....OOOOOOOOOOOOOO@@@@@OOOOOOOOOOOO@@@@@OOOOOOO@@&&@@OOOOOOOO@@@&@@OOOOOOO..OOOOO.....OOO@&&@@OOOOOOOOOOOOOOO@@@@@@@OOOOO@@OO......................................OOOOOOOOO.........................................................OOOOOOOOOO@@@@@@@OOOOO+@&&&&#@++OOO.....OOOOOOOOO+O+++OOOO+@@@@@@@@@@@@@@@@@@@@@@@@@@@@@@@+++++++++OO+OXXXX......XX++++++++++XXXXXXXXXXXXXXXXXXXXXXooooooooooXXXXXX$###$$$#######%%%**===****##$$$+XXXXXXXXXXXXXXXooooX...oooooooooooooooo   o    ooXX##%%%##$XXXXXX..oXXX..XXXXXXXXXXXXXXXX++++++$$######%%%%%****========&##++++++++++OO+OO+OOOOOOO+++++++++OOOOOOOOOOOOOOOOO+OOOOO++++O",
"@@@++OOOOOOOOOOO++++++##&&&&&&####+++#####%%%%&#&##&%%%%%%######+#######++++XX.X+++##&&&%&#+++X+++++++##%%**%%##++++++++##&&*&****%#++++..XX+++###%%******%%####++++++XXXX....  .             o .o.XXXo.oo      ..o  .oo.....oo......oo...XXXXXXX+++$+##******%#$$+++$#####$######$++$$#############$+++XXXXXX..X...XXXXXXXXXX++++++++#####++++++XXXXXXXXXXXXXX++XXXXX++XX+++++++++++O+@&&&@@@@@@@@&@&@@@@@@@@@@@@@@@@@@@@@OOOOOOOOOOOOOOOOOOOOOOO..............................................................................OOO...OOOOOO@@@OOOOOOOOOO@@@&&@@OOOOOOOOOOOOOO@@&&@@OOOO........OOOO.OOOOO@@&&@@OOOOOOOOOO@@@&@@OOOOOO@@@&@@OOOOOOOOOOOO@@@@OO.O......OOOOOOOOOOOOOOOOOOOOOO.O.....OOOOOOOOOOOOOOO@@@@@@OOOOOOOOOOOO@@@@@OOOOOOO@@&@@@OOOOOOOO@@@&@@OOOOO...OOOOOO...OOOOO@&&@@OOOOOOOOOOOOOOO@@&&@@OOOOOO@@@OO.....................................OOOOOOOOOO........................................................OOO..OOOOO@@@@@@@OOOO++@&&&&@@+OOOOO.....O.....OOOOOOOOOOO++@@@@@@@@@@@@@@@@@@@@@@@@@@@@@@@++++@@@++++..XXXX....XX.XXX+++XXXXXXXXXXXXXXXXXXXXXXXXoXXXXXXXXXXXXXXXXX$##$$$$#######%%%%**==****##$+$XXXXXXXXXXXXXXXXXXXXXooo..ooooooooo   oo     oooooXX$#%%%##$XXXXoooX......XXXXXX.XXXXXXOXX+++++++####%%%%%%%%%***======**&##++++++++++++OOOO+OOOOO++++++++O+++OOOO++OOOO+++OOOOOOO++++OO",
"@@@++OOO..OOOOOO+++++##&&&&&&&####++###&&&%%%%#&#&##%%%%######++++++###+++++XXXX+++##&&&&&#+++++++++++##%%**%%##++++++++###&******%#++++XXXX++++##%%******%%####++++++XXXX....             .  o.oo.XXXo.oo    . oo.o..........oo.oo..ooo..XXXXXXX+++$$##******%#$++++$#####$######+++$$###############++XXXXXX..XX.XXXXXXXXXXX++++++++#####++++++XXXXXXXXXXXXXXXX+XXXX++XX+++++++++++O+@&&&@@@@@@@@@@@@@@@@@@@@@@@@@@@@@OOOOOOOO..OOOOOOOOOOOOOOOOO..O........................................................................O.OOO...OOOOOO@@@OOOOOOOOOO@@@&&@@OOOOOOOOOOOOOO@@&&@@OOOO........O..O.OOOOO@@&@@@OOOOOOOOOO@@@&@@OOOOOO@@@&@@OOOOOOOOOOOO@@@@OO.O......OOOOOOOOOOOOOOOOOOOOOOOOOO.OOOOOOOOOOOOOOOO@@@@@OOOOOOOOOOOOOO@@@@@OOOOOOO@@&@@@OOOOOOOO@@@&@@OOOO....O.O.OO...OOOOO@&&@@OOOOOOOOOOOOOOO@@&&@@OOOOOO@@@OOO....................................OOOOOOOOOO.............O....................................O.....OOO...OOOO@@@@@@@OOOO++@&&&&@+OOOOOO..........O.OO..OO.OOO++@@@@@@@@@@@@@@@@@@@@@@@@@@@@@@@+++++@@++++.XXXXX....XXXXXXXXXXX..XXXXXXXXXXXXXXXXXXXXXXXX$$$XXXXXXXXXX$$##$$$$#######%%%%**==****##$+$XXXXXXXXXXXXXXXXXXXXoXoo..oooooooooo  o       ooooXX$#%%%##$XXXX.ooX......XXXXXX..XXXXXOXX++++++++#####%######%%******&&%##+++++++++++++OOOO+OOOOO++O+++++OO++O++OOOOOOO++OOOOO+OO++OOOO",
"@@@++++OO..OO+OO++++##&&&&**%%%########&&&&%%%###############+++++++++++++++XXXX+++##&%%%###++X+++++++##&%&&&&##++++++++###&******##++++XXXX++++##%%******%%####$$++++XXX.....             .  ooo.XXXX.ooo.o..o.oo....oooo..oooo.....X.oXXXXXXXXXX++$$##******%#$+++$$############$++$$###%#%###########+XXXXXXXXXXXXXXXXXXXXX+X++++++####++++XX+XXXXXOOXXXXXXXXX+XXXXX+XX+++++++++++OO@@&&@@@@@@@@@@@@@@@@@@@@@OOOOOOOOOOOOOO.O..OOOOOOOOOOOOOOOOO.OO............................................................................O...OOOOOOO@OOOOOOOOOOOO@@&&@@OOOOOOOOOOOOOO@@&&@@OOOO..O.OO.O.....OOOOO@@&@@@OOOOOOOOOO@@@&@@OOOOO@@@@@@@OOOOOOOOOOO@@@@@OOOOOO.....O..OOOOOOOOOOOOOOOO.O.O.OOOOOOOOO@@@@@@@@@@@@@OOOOOOOOOOOOOOO@@@@@OOOOOOO@@&@@@OOOOOOOO@@@&@@OOOOOO.....OO...OOOOOO@&&@@@@@@@@@@@@@OOOO@@&&@@OOOOO@@@@OOO..........................................................OO......OO............................OOO..OOOO...OOOO@@@@@@@OOOOO+@&&&&@+OO.OOOO....OO.............OO++@@@@@@@@@@@@@@@@@@@@@@@@@@@@@@@@++@@@@++OOOOXXXX..XXXX..XXXXXXXXXXXXXXXXXXXXXXXXXXXXXXX+$##$$+XXXXXXXX$$##$$$$########%%%*===****##$+$XXXXXXXXXXXXXXXXXXXXoooo..ooooooooooo    o  ooooooXX$#%%%##$XXXX..oXXX......XXXX.XXXXXXOXXX++++++++#################&&####++++++++++++++++++++OO++++OOOOOOOO+++++O++OOO+++OOOO++OOO+OOOO",
"@@@+++OOO..OO+O++++##&&&&&***%%########&&&&&%###############++++++++++++++++XXXX+++##&%%%###++++++++++##&&*&&&##++++++++###&*****%##++++XXX+++++#%%%**%***%%####$+++++XXX....                o.o.XXXXXXo...ooo..ooo...oooo...oo......Xoo..XXXXXXX+++$$##******%#$$++$$############$++$$###%%############$+XXXXXXXX.XXXXXXXXXXXXX++++++####++++XX+XXXXXXOXXXXXXXXXXXXXXXXXX+++++++++++O@@@@@@@@@@@@@@@@@O@@@OOOOOOOOOOOOO..........OOOOOOOOOOOOOOOOO.O.............................................................................O..OOOOOOOO@OOOOOOOOOOO@@@&&@@OOOOOOOOOOOOOO@@&&@@OOOO..OOOOOO.....OOOOO@@&@@@OOOOOOOOOO@@&&@@OOOOOO@@@&@@OOOOOOOOOOOO@@@@@OOOOOOO.OOO.OOOOOOO.OOOO.OOOO.O.OOOOO@@@@@@@@@@@@@@@@@@OOOOOOOOOOOOOOOO@@@@@OOOOOOO@@&@@@OOOOOOOO@@&&@@OOOOOOOOO.OOO...OOOOOO@&&@@O@@&&&&&&&@@@OO@@&&@@OOOOO@@@@OOO.........................................................OOOO....OOO..............O...OOOO....OOOOO..OOOO..OOOOO@@@@@@@OOOOO+@&&&&@+OOOOOOO+X.OO..............+OO+@@@@@@@@@@@@@@@@@@@@@@@@@@@@@@@@+@@@@@+OOOO.XXXX..XXXX..XXXXXXXXXXXXXXXX++++XXXXXXXXXXXX++$+XXXXXXXXXX$$###$$$########%%%*===****##$$$XXXXXXXXXXXXXXXXXXXXoXXo..ooooooooooo   oo   oooooXX$#%%%##$XXXX..ooX......XXX..XXXXXXXOXXX++XXX++++++++++++++++++++##++++++++++++++O+O+++++++++++++OOOOOOOO++++OO++OO++++OOOO++OOO+OOOO",
"#@#+++OOOOOOO+++++##&&&&****&&&#########%&&##%###########+++++++++++++++++++XXX++++###%%&###++X+.+++++##&&**&&#+++++++++##%%*****%%#++++XXX++++##%%*****%*%%####$++++++XXX...                o....XXXXXXXXXX$$######################%###%%#######$$$####*******%%###%%%%%%%##%%%%########%%#############$XXXX...XXXXXXXXXXXXXXXX+$++++#####+++XXXXXXXXXXXXXXXXXXXXXXXXXX+++++++++++++O@@@@@@@OOOOOOOOOOOOOOOOOOOOOO.........OOO...OOOOOOOO...OOOOOO...............OO....O..................................................O...O.OOOOOOOOOOOOOOOOOOOOOOOOO@&&&@@OOOOOOOOOOOO@@@@&&@@OOOO.............OOOOO@@&&@@OOOOOOOOOO@@@&@@OOOOOO@@@@@@OOOOOOOOOOOO@@&@@OOOOOO.OOOOOOOOOOOOOOOOOOOOOOOOOOOOOOOOOOOO@@O@@@@@@OOOOOOOOOOOOOOOOOOOO@@@@@OOOOOO@&&&@@OOO++OOO@@&&@OOOOO......OO.....OOOOO@&&@@O@@@@@@@@@@@@@O@@@@@@OO++OO@@+++XXX..oXXX..XXXXXXXX.X......................................OOOOOOOOOOOOOO..OOOOOOOOOOOO@@@@@OOOOOOOO...OOOOO.OOOO@@@@@@@OOO.OO@&&&&@++OO..XX+OOO...............O+++@@@@@@@@@@@@@@@@@@@@@@@@@@@@@@@@@+@@@+OOO+O+OX.......XXXX+++++++++++++$$++$$$$+XXXXXXXXXXXXXXXXXXXXXXX$####$$$########%%**===****##$+++XXXXXXXXXXXXXXXXoXXo.o.oooooooooooo    ooooo   ooXX$#%%%##$XXXX..o.........XXXX.XXXXXXX+XXXX+O++++++++++++++++++++++++++++++++++++++++++++++++OO+++++++OO++++OOOO+O+OOO++OOOO+O+OOO++++",
"####++OOOOO++++++###&&&******&&########&#&&%%%#######@##++++++O.++++++++++++XXXX+++###%%&###++.+.+++++##&&**&##+++++++++##%%*****%%#++++XXX++++##%******%*%%####$+++++XXXX...                 ..o.XXXXXXXXXX+$#####%%%%*%*******************=**######%%*******=**********************%%%**%%############+XXXX.X.XXXXXXXXXXXXXXXX+$$+++#####+++XX++XXXXXXXXXXXXXXXXXXXXXX+++++++++++++OO@@@@OOOOOOOOOOOOOOOOOOOOO..................OOOOOO.O...OOOOOO...............OO............................................................OOOOOOOOOOOOOOOOOOOOOOOOOO@&&&@@OOOOOOOOOO@@&@@@&&@@OOOOO...........OOOOOO@@&&@@OOOOOOOOOO@@@&@@OOOOOO@@@@@@OOOOOOOOOOOO@@&@@OOOOOO.O.OOOOOOOOOOOO@@@@@@@OOOOOOOOOOOOOOOOOOOOOOOOOOOOOOOOOOOOOOOOOOO@@@@@@@+++@@&&&&@@+@+++++@@@&&&@@@@@+++++++++++++++++@@&@@@@@@@@@@@@@@@@@@@@&&@@@@@@@@@@########################+X.................O..................OOOOOOOOOOOO....OOOOOOOOOOOOOOOOOOOOOOOOO...OOOO..OOOO@@@@@@@OOO.O+@&&&&@+OOOO...OOOOO.O............O+++@@@@@@@@@@@@@@@@@@@@@@@@@@++@@@@@@@@++++++O.......XXX++++++++++++++$$$$$$$$$$$$++++XXXXXXXXXXXXXXXXXX+$####$$$#######%%%%**==****##$+++XXXXXXXXXXXXXXXXoooX.oooooooooooooo    oooooo  ooXX##%%%##$XXXX..oo.....X..XXXX.XXXXXXXX.XXXX+++++++++++++++++++++++++++++++++OO+OO+++OOOOO++OO++OO++++OOOO++OOOOOOO+OO++OOOO++OO+OOOOO",
"#@#+@+++++++++++####&&********&########&%%%%%&#######+##++++++++++++++++++++XXXX+++##&%&&###++++.X++++##%%*%%&##++++++++##%%&****%&#++++XXX++++##%********%%####$+++++XXXX...                 ..o.XXXXXXXXXXXXXX+$#######%%%***************==**####%%*****=*====**==*****=***=**====*******%%#######$##$+XXXXXXX.XXXXXXXXXXXXXXX+$$+++####+++XXXXXXXXXXXXXXXXXXXXXXXXXO+X+++XXX+++++++O@@@OOOOOOOOOOOOOOOO.OOOOO..................OOOOOOOOOOOOOOOOOOOOOOOO...O...OOO.O..OOOO....................................OOOO....OOOOO.O...........OOOOOOOOOOOOOOOO@@&&@@@OOOOOOOO@@&&@@@&&@@OOO.OOO.OOOO..OOOOOOOO@@&@@@OOOOOOOOOO@@@&@@OOOOOO@@@@@@@OOOOOOOOOOO@@&@OOOOOOO...OOOOOOOOOOOO@@@@@@@OO@@@@@@@@OOOOOOOOOOOOOOOOOOOOOOOOOOOOOOOOO@@&&@@####&&&&&&%&%%**********************************&&&@@&***********************=**=*****==****==*******=**=*#+.................O.....OOO..........OOOOOOOO@@OO..........OOOO....OO.....O..O...OOO....OOO@@@@@@@OO..O+@&&&&@+++XO....OOOO.O............O+++@@++@@@@@@@@@@@@+@+@@+@@@@@++@++++@OO++O++OO....XXXX+++#####%%**%%%%%%%%%%%%###########$$$$$$$XXX+++$$######$########%%%%*===****##$$$XXXXXXXXXXXXXXXXooXXoooooooooooooooo       oooooooXX##%%%##$XXXXXXXo.....XXXXXXX...XXXXXOXXXXXOO+++++++++++++++++++++++++++++++O++++++++OO++++++++OO++++O+++++OOO++OOOOO+++OOOOO++OOOO++",
"@@#+++++++++++++###&&*********%####++###%%&&%&%##########++++++++++++++++++XXXXX+++##&%&&###++++XX++++###%*%%###++++++++##%%*****%&#++O+XXX++++##%*****%**%%####$+++++XXXX....                ..o.XXXXXX..oooo.XXXXXXXX$$#####%%%%%%%**********###%%******=*===*************=*****=****=*****%#####$$$$$+XXXXXXX.XXXXXXXXXXXXXXX+$++++####+++XXXXXXXXXXXXXXXXXXXXXXXXXX+XX++XXX++++++++@@@OOOOOOOOOO..OOOOOOOOOO..................OOOOOOOOOOOOOOOOOOOOOOOOOOOOOOOOOOOO..................................................................OOOOOOOOOOOOOOOOOO@@&&@@OOOOOOOOOO@@@@@@&&@@OOO.OOO..OOOOOOOOOOOOO@@&@@@OOOOOOOOOO@@&&@@OOOOOO@@@@@@OOOOOOOOOOOO@@&@OOOOOO.....OOOOOOOOOOOOOOOOOOOO@@@@@@@@OOOOOOOOOOOOOOOOOOOOOOOOOOOOOOO@@@@@@@@++++##&&&&%&#********=*=**=***************======&&&@#*=======**=====*****=======*=======****==****====**=*#X................OOOOO.OOOOO.........OOOOOOOO@@OO................................OOO...OOOO@@@@@@OOO..O+@&&&&#@O+X.....+++OOO............O++++O++++@@@@@@@@@@@@@@@@@OOO+++++++++++++O+OOO...XXXXX+++###%*****===========*******%########$$$$$#####################%%%%*==*****##$$$XXXXXXXXXXXXXXXXoXXXoXoooooooooooooooooo   oooooooXX##%%%##$XXXXXXX.o.XXXXXXXXXX..XXXX..XOXXXX+++++++++++++++++++++++++++++++++O++++++++O+++++++++OOOO++OO++++OOOO++++++++++OOOO++OOOO++",
"@@#+++++++O+++++##&&&*********%###++#####%%%&&&############+++++++++####++++XXXX+++##&&%%##+++X+XX++++###%**%##++++X++++##&&*****%##++++XXX++++##%****%%**%%####++++++++XXX....         .     o.o.XXXXXX...ooo.Xo.XXXXXXXXXXXX+$$$########%***####%******====********=**=*====****==**********%####$#$$#+XXXXXXXXXXXXXXXXXXXXXXX+++++++###++++++XXXXXXXXXXXXXXXXXX+XXXX+XX++++X++++++++@@@OOOOOOOOO.....OOOOO.....................OOOOOOOOOOOOOOOOOOOOOOOOOOOOOOOOOOOOOOOOOOOOOOOOOOOOOOOOOOOOOOOOOOOOOOOOOOOOOOOOOOOOOOOOOOOOOOOOOOOOOOOOOOOOOOOOOOOOOO@@@@&&@@OOOOOOOOOOOOOO@@&&@@OOO...O.....OOOOOOOOOO@@@@@@OOOOOOOOOO@@@&@@OOOOOOO@@@@@OOOOOOOOOOOO@@@@@OOOOOOO..OOOOOOOOOOOOOOOOOO@@@@@@@@@@@@OO@O@@@@@@@@@@@@@@@@OO@@OOOOOOO@@@@@@OOOOOOO@@&&@@++######&***************************&&&@#=**=**==*===*************************====**==*******%X..................OOOOOOOOOOOO.......OOOOOOOOOOOO.........................O......OOOO...OOO@@@@@@OO+..X+@&&&&@+OO..........OOOXOX........O+++OOO+O++++++@++@+@@++++OOOOOOOO++OOO+++++O+O+++.XXXXXXX+++######%******======******%#####$$$$$$$$$###########$$#######%%%*====***%##$$$XXXXXXXXXXXXXXXXXXXXXoXXoooooooooooooooo  ooooo ooXX##%%%##$XXoXXoX.X.XX.XXXXX.X..XX..X.X+++XXXX++++++++++++++++++++++++++++++OO+++++O++++++++++++OOOOO+++++++++++++O+++OOOO+++O++OOOOO+",
"#@#+@++O++++++++##&&&*********%###+++####%%%&&%#####&&######+++++++#####++++XXX++++##&%%###+++XXXX++++##&&**%##++++X++++##&&&****%##++++XXX++++##%%****%**%%####++++++++XX......              ..o.XXXXXXX..oooooXXXXXXXXXXXXXXXXXXXX$$$$##########%***************====**=**===****==***********%###$$$$#$+XXXX.XXXXXXXXXXXXXXXXX++$++++###$+++XXXXXXXXXXXXXXXXXXXXXXXX++XX++++X++++++++@@@OOOO.OOOO...O.OO.OO....O................OOO@OOOOOOOOOO@OOOOOOOOOOOOOOOOOOOOOOOOOOOOOOOOOOOOOOOOOOOOOOO..OOOOO.OOOO..OOOOOOOOOOOOOOOOOOOOOOOOOOOOOOOOOOOOOOOOOO@@@@&&@@OOOOOOOOOOOOOO@@&&@@OOOO..........OO.OOOOO@@&&@@OOOOOOOOOO@@@&@@OOOOOO@@@@@@OOOOOOOOOOOO@@@@@@OOOOOOOOOOOOOOOOOOOOOOOOOOO@@@@&&@@@@OOOOOOOOOO@@@@@@@@@@@@@@@@@@@@@@@@@@@@OOOOOOO@@&&+OX+++++++##%%%####%%%****************&&&&%=*=************=***********=*********************==*#X ..................OOOOOOO@@@OO.....OOOOOOOOOOOOO..........................OO....OOOO..OOOO@@@@@@OOO+.X++&&&&@+OO.............XO.....X..XO++++O+++++@@@++++@@@@++++++++++O++++++++++++++++++++XXXXXXX+++$$#################%%#######$$$$$$$$$$$$#########$$######%%%**===****%#$$$$XXXXXXXXXXXXXXXXXXXXoo..oooooooooooooooo  ooo   ooXX##%%%##$XXXXXoXXX.....XXXXX.XXXXXXXX++++XXX++++++++++++++++++++++++++++++++++++OO+++++++++++++OOOOOO++++O+OOOO+O+OOOOOOO++OO++OOOO+O",
"@#@+@++O+OO+++++##&&*********&&##+++++##&&%&&&%#####&%%%%&####++#########+++XX+++++###%%###+++XXX+++++##&&&&%###+++++++###&&%***%%##++++.XX++++##%%****%**%%####+++++++XXX.o....              ..o.XXXXXX..o...o.o..........XXXXXXXXXXX++++$$$$#$##%*****=*****==***==******====*===**===*=*******##$$$$##++XXXXXXXXXXXXXXXXXXXXX+++++$+###+++++XXXXX+XXXXXXXXXXXXXXXXX++XXX+++++XX+++++@@@OOO.OOOOOO.O.OOOOOO...OOO...............OOOOOOOOOOOOOOOOOOOOO@@@@OOOOOOOOOOOOOOOOOOOOOOOOOOOOOOOOOOOOOOOOOOOOOO@@OOOOO@OO@@@@@@@@@@@@@@@@@@@@@@@@@@@@@@@@@@@@@@@@&&&&@@OOOOOOOOOOOOOO@&&@@OOOO..O.O........OOOOO@@&&@@OOOOOOOOOO@@@&@@OOOOOO@@@@@@OOOOOOOOOOOO@@@@@@OOOOOOOOOOOOOOOOOOOOOOOOOOOOOO@@@O@@@@@@@@@&&&&&&&&&&&&&&&&&&&&&&&&&&&&&&@@@OOOOOO@@&&@OOOOOOOOOO@&&@@@O++++#########%%%****&&&&*=*==*====*****=**=*********=**********=****====****#$.....................OOOOOO@@@OO....OOOOOOOOOOOOOO........................OOOOOO..OOOOOOOOOO@@@@@@@OOO.XO@@&&&@+OO............................OOOOOOOOOOOOOOO+OOOOOO+O++OOOO+OOO+++++++++++++++XXXXXXXXXX+++XX++$$$$$$$$$$$$$$$$####$$$$XXXX$$$$$#################%%*=====****%#$$$$XXXXXXXXXXXXXXXXXoXXXX..oooooooooooooo   ooo    ooXX##%%%##$XXXXXXXX....X..X.XXXXXXXXXXXXX++XXX++++++++++++++++++++++++++++++++++++++O++++O+++++O+OO+O++++++++++O+OOOOOOOOOO++O+OOOOOOOO",
"###@@+++OOOO++++##&&*&*******&&###++++##&&&&&&&%##&&&%%%%%&##############+++XXX+++####%%###+++X+++++++##&&&&%###+++++++####%&***%%##++++.XX++++###%***%%**%%####++++++XXXX.o.o..              ....XXXXXXX.ooooooooXXX...X...XXXXXXXXXXX+++$$$$$$##%********==*******===*==********=====**==*==***##$$+###$+XXXXXXXXXXXXXXXXXXXXX+++++$$###++++XXXX+++++XX++XXXXXXXX+XX++XXX+++++XX+++++@@@@OOOOOOOOOOOOOOOOOOO.OOOOO..O.O..........OOOOOOOOOOOOOOOOOOOO@@@@@@OOOOOO@@@@@@@@@@@@@@@@@@@@@@@@@@@@@@@@@@@@@@@@@@@@@@@@@@@@@@@@@@@@@&@@@@&&&&&&&&&&&&&&&&&&&&&&&&&&@@OOOOOOO..OOOO@@&&@@OOOO..OOO........OOOOO@@&&@@OOOOOOOOOO@@@@@@OOOOOO@@@@@@OOOOOOOOOOOO@@@@@@OOOOOOOOOOOOOOOOOOOOOOOOOO@@OOOOO@@@&&&&&&::::::::::::::::&&:::&::&&&&&&&@@@OOOOOO@@&&@@OOOOOOOOO@&&@@OOOO++++++$$$#######%#&&&&*=******=*=**=**************==**************====****#X ... .............O.OOOOOOOO@@OOOO..OOOOOOOOOOOOOO........................OOOOOO..OOOOO..OOO@@@@@@@OOOOOO@@&&&@+OO..................................O....O.O........OOOOO...OOOO........XXXXXXXX.o....XXXXXXXXXXXX$X$++$$$$$$$$$$$$$$$XXXXXXXX$$$$$$##$$#$$######%%*======****%#$$$$XXXXXXXXXXXXXXXXXoXXXoo.oooooooooooooo    oo    ooXX##%%%##$XXXXXXX......XXX...XXXXXXXXX.XX+XX+++++++++++++++++++++++++++++++++++++++++++OO+O++++OOO++++++++++++O+O+OOOOOOO+++OOOOOOOOOO",
"##@@++++++++++++###%%&*******&&##+++++###%%%*%%%&#%%%&&%*%%&######%%%%&##++++X+++++###%&&##+++XX++++++##&&**%###++++++++##%%*****%##++++X+X++++###%%*%*%***%####+++++++XXX....                 oo.XXXXXXo.o..oooooXXXXXXXXXXXXXXXXXXXXX+X+$#$$$$##***************===********===*=***********=*****#######$+XXXXXXXXXXXXXXXXXXXXX++++++####++++++++++XXXXXXXXXXXXXXXXXXXX+XXX+X++XX++++++@@@OOOOOOOOOOOOOOOOOOOOOOOOO..O.................OO........OOOOOOOOOOOOOO@@@@@@@@@@@@@@@@@@@@@@@@@@@@@@@&&&&&&&&&&&&@&&&&@@&&&&&&&&&&&&&&&&&&&&&&&&&&&&&&&&&&&&&&&&&&&@@@OOOOOOOO...OOO@@&&@@OOOOOO......OO..OOOOOOO@&&@@OOOOOOOOOO@@@@@@OOOOOOO@@@@@OOOOOOOOOOOO@@@@&@&&&&&&&&&&&&&&&&&&&&&&&&&&&&&@@OOO@@@&&&&&&&&&&&&&&&&&&&&&&&&@@&&&&@&@@@@@@OOOOOOO@@&&@OOOOOOOOOO@@@@@OOOOOOOOOOOOOOOOOO++@@@&&&*=**======******************************************+X....................OOOOOOOOOOOOOOOO@@@@OOOOOOOOOOOO....OO.OO.....OOOOOOOOOOOOOOOOOOOOOOOOOO@@@@@@OO++OOO@@&&&@+.+.................................       ............... ..                ....  ..........oooXXXXXooXXXXoXXoXXXXXXXXXXXXXXXXXXXXXXXXXX$$$$$####%%*=====****%%#$$$$$$$XXXXXXXXXXXXXooooooo.oooooooo.oooo   oo      ooXX##%%%#$$XXXXoXX...XX...XXXXX..XXXXO+..++++++++++++O++++++++++++++++++++++++++++++++++++++++++++++O++OO+++++++O+OOO+++OOOOOO+OOOOOOOO",
"#&@@@++O++++++++###%%&*******&&##+++++###%%%**%%&##%%&&%*%%%######%%%%&##+++++X++++##%%%&##+++XX++++++##&&*&%&##++++++++##%%*****%##++++XXXX+++##%%%*%*****%####+++++++XXX....                .o..XXXXXXXoo..o..XXXXXXXXXXXXXXXXXXXXXXXX+++$$$$$##***************=**********==**==********====**=*%######$+XXXXXXXXXXXXXXXXXXXXX++++++$$##++++++++++XXXXXXXXXXXXXXX+XXXXXXXXX+++XX+++O++@@@OOOOOOOOOOOOOOOOOOOOOOOOO....OO...........................OOOOOOOOOOOOOO@@OOOOO@@@@@@@@@@@@@@@@@@@@@@@@@@@@@@@@@@@@@@@@@@@@@@@@@@@@@@@@@@@@@@@@@@@@@@@@@@@@@@@@@@@@@OOOOOOOOO..OOOO@@&&@@OOOO.......OOO..OOOOOOO@@@@@OOOOOOOOOO@@@@@@OOOOOO@@@@@@OOOOOOOOOOOO@@&&&&&&&&&&&&&&&&::::&&&&&&&&&&&&&@@OOOOO@@@@@@@@@@@@@@@@@@@@@@@@@@@@@@@@@OOOOOOOOOOOOO@@&@@OOOOOOOOOO@@&@@OOOOOOOOOOOOOOOOOOOOO@@&&&*=**====**===********=************=*************==*%+X..........................OOOOOOOOOO@@@@@@OOO@@OOOOO.OOOOOOOOOOOOOOOOOOOOOOOOOOOOOOOOOO..OOO@@@@@@OOO+OOO@@&&&@O..........X.........................        ...    .  ...  .                 .    . o.oooo.....o..ooooo.ooooo...oooooXX.oXooXXXXXoXXXXXX$$$$$$###%%*=====***%%%###$$$$XXXXXXXXXXXXXXoooooooooooooooo.oooooooooo  oooooXX##%%%#$$XXXXX.o...X...XXXXXX.XXXXX++.X++++++++X+XX++++++++++++++++++++++++++++++O+++++++++OO++++OO++OO++++++++OOOO+++OOOO+++OOOOOO++",
"&&#@+++O++++++++###%&&*******%&##+++++###&%%**&&&#%%%%%&***%&####&%%%%%##+++XXXX+++###%%%##+++XX++++++##&&*%%##++++X++++##%%&****%##++++XXXX+++##%%%***%***%#####$++++XXXXX.oo o              .o.XXXXXXXXXXXXXXXXXXXXXXXXXXXXXXXXXXXXXXX$$$###$$$#********====**************==**=**=====*=====**=**%###$##$+XXXXXXXXXXXXXXXXXXXX++++++####$+++++X+XXXXXXXXXXXXXXXXOOXXXXXXXXX.XX++O++O@@@@@@OOOOOOOOOOOOOO+OOOOOOOOOOOOOOOOO....OOOO....OOOOOOOOOOOOOOOOO....OOOOOOOOOOOOOOOOOOOOOOOOOOOOOOOOOOOOOOOOOOOOOOOOOOOOOOOOOOOOOOOOOOOOOOOOOOOOOOOOOOOOOOOOOOOOOOOOOOOOOOOOOOO.OOOOO@@&&@@OO..O....OOOO...OOOOOOO@@@@@OOOO.OOOOO@@@&@@OOOOOOO@@@@OOOOOOOOOOOOO@@@&&&&&&&&&&&&&&&&&&&&@&@&&@@@@@@@@OOOOOOOOOOOOOOOOOOOOOOOOOOOOOOOOOOOOOOOOOOOOOOOOOOOO@@@@@@OOOOOOOO@@@@@OOOOOOOOOOOOOOOOOOOOOO@@&&&*=***=****===********===****=*======*====***======*#Xo............................OOOOOOOO@@@@@@@@@@@@@@@@@@@OOOOO@@@@@@@@@@@@@@@@@@@@@@@@@@OOOOO@@@@@@@OO++OO++@&&&@+XXX.........oo................................     . .o     .o...   ooooo         ooooooooXXoooXXXXXXXXXXXXXXXXXXXXXooXXXXXX$$$$$$$$$$$#########%%*======*****%%%###########$$XXXXooooooooooooooooooooooooooooooooooooXX$#%%%#$$XXXX........XXXX.XX..XXXXX++.X++XXXX++++++O+++++++++++++++++++++++++++++O+O++++++++O++++OO++++++++++++++OO+++OOOO+++O+++++++",
"&&#@++++O+++++++###%&&*******%###++++++#&&&%%%&&##%%%%****%%%####%%%%%%##+++XXXX+++###%%%##+++++++++++##&%&*%##+++++++++##%%&****%##++++XXXX+++##%%%***%***%#####$$+++XXXXX..o.o        .  .  ..XXXXXXXXXXXX+$$$################$$$$$$$$#######$##********====**********=***==******====*=======***%##$$#$$++XXX++XXXXXX+X+X++XX++++++$##$++XXXXXXXXXXXXXXXXXXXX+XO+++XX++XXXX+++++OOOO@@@@@OOOOOOOOOOOOOOOOOOOOOOOOO...OOOOOOOOOOOO....OOOOOOOOOOOO..OO.......OOOOOOOOOOOOOOOOOOOOOOOOOOOOOOOOOOOOOOOOOOOOOOOOOOOOOOOOOOOOOOOOOOOOOOOOOOOOOOOOOOOOOOOOOOOOOOOOOOOO.......OOOO@@&&@@OOOOO.....OOO..O.OOOOOO@@@@@OOOOOOOOOO@@&&@@OOOOOOO@@&@@OOOOOOOOOOOOOOO@@@@@@@@@@@@@@@@@@@@@@@@@@@@@O@@OOOOOOOOOOOOOOOOOOOOOOOOOOOOOOOOOOOOOOOOOOOOOOOOOOOOO@@@@@OOOOOOOOOO@@@@OOOOOOOOO@@@OOOOOOOOOOO@&&&*=*******************===***=========*====**=======*#Xo.............................OO....OOOO@OOOO@@@@@@@@@@@@@@@@@@@@@@@@@@@@@@@O@@@@@OO@@OOOOOOO@@@@@@OOOOOO+@@&&&@O............... ...............................   ...    .........oo....o.oooX..  XXXXXXXXXXXX$$$$++XXXX$$$$$$$$$$$$$$$################%%%%%%%%%%**=====**====***********%%###$XXXooooooooooooooooooooooooooooooooooooXX##%%%#$$XXXX..ooXX....XX..X....XXXXX.X++XX+X+++++OO++++++++++++++++++++++++++++OOOOO+++++++O++++OO++OOOOOOOO++++OOO+OOOOO+++OO+++O++",
"&###++++OOO+++++###&%********%####+++++#&&%%**&&#%%%%%****%%%####%***&%##+++XX+++++###&%%##+++++++++++###%%%%##+++++++++##&&&&*%%%##++++XXX++++##%*****%**%%#####$++++XXXXXXo..         .    .o.XXXXXXXXXXX+$######%%%%%%********************%####****=**=====*******=**=====****=****============**%%#########################$#$$$$#######$$$$$$$X$XXX++++XXXX++++XXXX+XXXXXXX++++++++++@++++++OOO++++++++++++++++++OO....X..XOO..........O.........XXXX...XXX.XXXX..........X..............................OO....O...........OO+++++++++++++++++XXXXX........OO........OOOO@@&&@OOO..........O.O...OOOOO@@&@@OOOOOOOOOO@@&&@@OO+++++@@@@+O+O.OOOO+O++OOOOOOOOOOOOOOOOOOOOOOOOOOOOOOOOOOOOOOOOOOOOOOOOOOOOOOOOOOOOOOOOOOOOOOOOOOOOOOOOOOOOOOOO@@@@@@OOOOOOOOO@@@@OOO.OOOO@@@@@OOOOOOOOOO@&&&*=******************===*******=***=*******====*===%#XXo..o......ooo......................OO+OOOOO+OO++OOOOOOO@@@@@@@@@@@@@@@@@+++++++++++++++++++++####+++++++###%%###++XX+XXXX.XX$$$$$$$$$$$$$$$$$$$$$$$$##########################################+XoX##%%%%*****************************%*******************===*%%%**==============***===*******%##$XXoooooooooooooooooooooo oooooooooooXX$##%%%#$$XXXXXo.........X..XXXXXX..XX.XXXXX++X....X.O+++++++++++++++++++++++++++++++++++++++++++OO+O+++OOOO++O+O+++++O+++OOOOOOO+OOOO",
"&###++++++O+++++###&%********%####+++++##&%%**%%%%%%%*****%%%%###%***&%##++XXX+++++##&&%###+++++++++++##%%%%%###++++++++##&%&**%%%##++X+XX+++++##%********%%####+$++++XXXXX...             oooo..XXXXXXXXXXXXX$$######%%%%********************####****=***====******==**==******==*=**==========*=****************************%###$$####%%%#################################################################++++#####+OO.+++++++++++OO++O+++++++OOOO+++XX++++++++++++++O++O++X++++++++++++++++++++++++++OOOO++OOOOOOOO....OO.O++++###############+++++++OOOOO.OO..........OOOOO@&&@OOO.................OOOO@@@@@OOOOOOOOOOO@&&@@@+++##@&&&&##@@@++++++++OOOOOOOOOOOOOOOOOOOOOOOOOOOOOOOOOOOOOOOOOOOOOOOOOOOOOOOOOOOOOOOOOOOOOOOOOOOOOOOOOOOOOOO+@@@@@OOOOOOOOOO@@@@@OO.OOOO@@@@@OOOOOOOO@O@&&*********==*********====*******=***********=*======##XXXXXXXX++XX++++++++++++++++++++++O..OO@@@+++++++++@@@@@OOOOOOOOOOOOOO@O@@####&&&&###########&&%&%%%#%%%%&%**=**%%%%%%%%&#X.+#%%%%%%%%***************************************************==*=*=%+Xo+%=****===****======****===========*%%%***********=========*%%**===============*=**==****=****%#$Xoooooooooooooooooooooo oooooooooooXX$##%%%#$$XXXXXX............XXXXXXXXX+.XXX.X+O++X++X++++++++++++++++++++++++++++++++++++++++++++OOOOO+++OOOO++OOO+++++O+++OOOOOO+++O++",
"###@++++++++++++###&%*******%%####++++##&%%***%%%%%%%*****%%%%%%#%%**%&##++++++++++###%%###+++++X+++++##&%*%%###++++++++###%***%%%##++++XXX++++##%********%%####++++++XXXXX...        ....o.ooo..XXXXXXXooooooXXXXXX$#######%%%***************%##%*=****************==******========**====*=*******************=****=======*=***%####*=====**=======****=========**********%%%%%%*************==============*********#++X+#%**%%**%%%*******%%%%%%%%%%%%%%%%%%%%%%%#%%##############%%%%%%%%%%%%%%%%%%%%###########+O...XXX+$#####%*****************%%%%######$################%&&##########################%%%##++OOOOOOO@@&&%%*********************%%####+++++OOOOOOOOOOOOOOOOOOOOOOOOOOOOOOOOOOOOOOOOOOOOOOOOOOOOOOOOOOOOOOOOOOOOOO+++@+###&&&&&&############%%#%#######%***%########@O@&**********==********=*==*******===****=*********==*==**%%*%%%%%%%***%%****************%*#+.O#%***************##+...OOO.....OOO#%********=***********=====*====================*#XX$#*===**====**===*****====********=====*====****=================*=%+XX#*===****==*****===*====**=**=====*#$$$######%%%%*******==**%%**==================*==**********%#Xoo..oooooooooooooooooooooooooooooooX$##%%%##$XXXXXoXX......XXXXXXXX....XX.X+X+++O+++++++++++++++++++++++++++++++++++++O++++++++++++++O+++OO++++++OOO+++OOO+++OOOOOOOO++++",
"&##+++++++X++++++##&%********%###+++++###%%%**%%#%%%%*****%&%%%%%%%*%&&##++++++++++##&%%###+++++X+++++##&%*%%###++++++++##%%%%%%%%##++++XXX++++##%********%%####++++++XXXXX....       ......oo..XXXXXXooooooooXXoXXXXXXX$$$$$###%%%%**********%##%*=************************===*==*=****==******=**=**%%*****************=******%###%=================================*****###########*****==========================*#+++#*====================*****=**==*====*=**===*########%******%*%***********************=*#++OOO+++##******===*=**===***=***********%%%%######%%%%*****=====****====***==***====*======*&#+OOOOOO@@&*==****======*=====***==******%%#####@++OOOOOOOOOOOOOOOOOOOOOO@@@OOOOOOOOOOOOOOOOOOOOOOOOOOOOOOOOOOOOOO@@@@@@##&&&&&&&=====*==**===*======**===========****%#O@&**=*******=********************===****===*********=*********=*=*************====*====***#X.O#*===============*#+............OO#%**==*=**======*************===================*#XX#%================**=******=**============**%##%%%%%*****==========%XXX#*===***===****==****==*******====*#$XXX$$$$$$#####%%%%%%%%%%%*==============**===**===*******=*#$XX.ooooooooooooooooooooo.ooooooooooX$##%%###$XXXXXXXX...XX.XXXXXXXXX...X..X+++++O++X+++.++++++++++++++++++++++OOO++O++++++++OOOO+++++++++++++++++OOO+++OOOO++O+OO+OOOOO+O",
"&###++++OOOXX+++###&%%******%%####++++###&%%**%%&#%%%*****%%%####%%***%##++++++++++###%%%##+++XX++++++##%&&&&###++++++++##%%%*%%%%##++++XXX++++##%********%%#####+++++XXXXX.....  o       ..oo..XXXXXX....oo......XXXXXXXXXXXXX++$$######%****%##%****==******=*******===***==**=*==******======*****%##%%%%%#%%%%%*************%%%%**========**===============*========****%%##++++#########%%%******===*===========*++X+%***==*===**==*=======*****====***====*==*=*#X++++++############%**********************#++OO++##****====**========****====**===*==******%##+#######%&*&=*********===*****===**========&#OO..+###**======**======******======**===*****%*##OO.OOOOOOOOOOOOOOO@@@@@@@@@@OOOOOOOOOOOOOOOOOOOOOOOOOOOOOOOOOOOOOOO@OOO@@@&&&&*%*%*****===========================**@O@&*=*=********************=***=********=======****==*%##+#######%************============*#+X+#***==***=======**#$XX...........X#**===*=*=*=**=*=**%#############**=======*****=#$XX#%===*==========*=**=*****==***=======**=*=%$XXXXXXXXX$########%%*%#XXX#*===****==*=*===**====**=***==*==%$XXXXXXXXXXXXX$$$$$$$###%%%**=====**======***===***=*=**====**#$..ooooooooooooooooooooooooooooooooX$##%%###$XXXX.o..oXXX.XXXXXXX..XXX.XX++++++++++++++++++++++++OO++++++O+O+++++++++OO+++++++++O++++++++++++++OOOOO+OOOOO+++OOO+++++++OO",
"&&#++++O+OOXX+++####%%******%%####++++###&%***&%##%%%*****%%%####%%*%%%##++++++++++##%%%%##+++XX++++++##%%&&%###++++++++##%%%**%%%##++++XXX++++##%********%%#####+++++XXXXX.....  o       ...o.XXXXXXXoo..oooo....XXXXXXXXXXXXXXXXX+$$$$#########%****==********=**************=*******=**========***%######################%%%*%%%***======*===******==***==*******====**===*%##+++++##++++##########%%***********=*#+++#%***==*==*********==****===*******=*==*****%#XXXXXXXXXXXX+++######%%%%%***************#+OOOO+#******===****======*****==****=***********##XX+++++++++#&&####%%%%%**********=*=*=====*%++OO++##**=======***======*=****====*=**===*******%#OOO.OOOOOOOOOOO@@@@@@@@@@@OOOOOOOOOOOOOOOOOOOOOOOOOOOOOOOOOOOOOOOOOOOOOO@@&&&&##########%%*********=============*=**@O@&****************************==*===**======*********#+XXXXX++X$$$####%%%%************=***+XX+%***==***======***%#XX..........X+#**======*****=****%#$+++#$$$+$$###%%***%#******#XXX#**=***=======********=****=***=====*=**=**#XXooXoooooXXXXXXXXXX$$$XXX$#**==****=======***====***=**==***%XXXXXXXXXXXX$$$$$$$$$$###%%*========*=====****==****==*====***#$.oooooooooooooooooooooooooooooooooX$##%%###$XXXXo.....XXXXXXXX.........X.+++XX+O++++++++++++++++OOOOOO++O+O++O+++++O++++++++++OO++++++++++++++++OOOOOOOOOO++OO++++++++OO",
"&##+++++++OXX+++####&&*******&###+++++####&***%%%%%%%*****%%#####%%**%%###++XX++++###%%%%##++++X++++++##%%%%%%##++++++++##%%%&&%%%##++++XXX+++###%%*******%%#####+++++XXXXX..o.o            oo.XXXXXXX..ooo.ooo..oXXXXXXXXXXXXXXXXXX+XX++$$######%*****=**************************=*==********======*%##################$$$#####%****=======*===========****==************=*==*%##++++++OOO@@@@@+OOOO+@@@@++#####%%*&#OO+#*****=**=*==*=*==***==**=====********=*=***#+X.....OOOOOOOOOOOOO@@@@+@@##&&&&&&*****&&@OOO+##***=****===****=======***===***************#+..OO..OOOOO@&&@@OO+++++########%******====&@OO++##****=**=====**=*========***=********=*******%#O.O.OOOOOOOOOO@@@&&&@@@@@@@@@@@@@@@@@@@@@@@@@@@@@@@@@@@@@@@@@@@@@@@@@@@@&&&&@@OOOOOO...O+++@@#######%%%************%@O@&*=********=***********************==***====**=*****#O...............X++++++#########%*%#+OO+**=*==****=====*==*%+XO..........+#******==*=====****#+XOO+++++O..O++#######+######XXX%*******=**=********====*****=*=======*****#Xo..o ........oooooXXXooXX$#**=*=*======**=***==****==**==***#XXXXXXXXXXXXX$$$$$$$#####%%*========**====**====**========****%#XoooooooooooooooooooooooooooooooooX$##%%%##$XXXXoo..oXX..XXXXXX.XX.X..XXXX++X+++++++++++++++++++++++O+O++O++++O++++O+++++O++++++++++++++++O++++++++++O++O+++OOOOOO++OOOO",
"&##++++++O+XX++++###%&*******&###+++++####&***%%%%%%%*****%%%####%****%###++XX+++++##%%%%##++++X++++++##%%%%%###++++++++##%%*&*%%%##++++XX+++++##%%********%#####+++++XXXXXX.ooo          oooo.XXXXXXXX.oo.o.XXXoo..XXXX.XXXXXXXXXXXX++++$$######%******===*************************===********=====*%#################$$$$$####%%***=======**==*======***====**==*=*********==*##++++++@O@@@@@@+OOOO@@@++++++++#####+OO+#*****=***===***********=====**===****=*****#+X...OOOOOOOOO@O@@O@@@O+++++++############@@@@#&*****==*====****========***==***************#+..OO..OOOOO@&&@@OO..XXX+X+++$##########%&&@+OO+##**=*=========****==========******************#+OOOOOOOOOOOOOOO@@@&&&&&&&&&&&&&&&&&&&&&&&&&&&&&&&&@&@@@@@@@@@@@@@@@@&&&&&&@@@OOOOOOO....OOO+@@+++++++####%%%%%%%%%%%OO@&*==******==*********************====**=====*=*****%#................oXXXXXXXXXXX++$$####+O++**======**=====*==*%+X..O.O......+*==***===***===***%#++OO++++++OO+++#####++++XX++XoX$%*******************====*****=*==*===*****%#.o.       ....  ....ooo.oX#%***=****==**************===*=***%#oXXXXXXXXXXXXX$$$$$$$####%%*======****====**=============****=*#XoooooooooooooooooooooooooooooooooX$##%%##$$XXXXo...XXX...XXXXXXXXXX.X++X+++XX++XXXXX++XX+++++++++++O++++O+++++OO++++++++++++++O++++OO++O+++O+++++++++++O+++OOOOOO++OOOO",
"###+++++XXXX+++++###&&*******%####+++++##&%***%%%##%%%*****%%###%%**%%%###++XX++++###%%%###+++XX++++++##&&*%%##+++++++++##%%*%%%%%##++XXXXX++++##%%********%#####++++++XXXX..ooo         oo..o.XXXXXXXXXooooXXXXoXXXXXXXXXXXXXXXXXXXXXX++$$######*********=*==******%%##%%%%%%******===***=****=***==*#################$++++$###%%***=====***=======*****=*===**********====**=**##+++@@OOOO@@@@OOOOOO@@@@OOOOOOOOO+OOOO+#*****=*=**===*====*======**========*******%#OOOOOOOOOOO@@@@@@@@@@@@@@@@@@@@@@@&&&&&&&&@@#&*==****=========***=========******==*********%+O......OOOOO@&&@@OO..OO........OOO+++O+@@&&@OOO##*****==========*****========*****************%++OOOOOOOOOOOOOOOOO@@@@@@@@@@@&&&&&&&&&&&&&&&&&&&&&&&&&&&&&&&&&&&&&&&&&&&@@@@@OOOOOO..OOOOOOO@@@@OOOOOOOO@@&&&@++++#++OO@&*==******==*********=*********==******====********#+.................................O++OO+#*=====*=**====***=**#+...O.....O+#*===**=**=**=*===**#+OOO@@+OOOOOO+@@@&#@++XXXX.X..X#*******************=====*****=*********=**#$oo.            ......o..oX#*****==*******===*******==*=*****#$XXXXXXXXX$$$$$$$$$######%%**======*=**=======***========*****=*#XooooooooooooooooooooooooooooooooXX$##%%###$XXXXoo.XXX..XXXXXX..XX....XX..++++XXXX++++XX..++++++++OOO+++++++++OO++++++++O+++++++++OOOO++O+++++++++++OO+++++OO+++OOOOOO++",
"###+++++XXXX+++++####&%******%%###+++++##%****%%%##%%%*****%%###%%***%%###+++X++++###%%%###+++XX++++++##&&*%%##++++++++###%%**%%%%##++XXXX+++++##%%%*******%#####++++++XXXX..ooooo       o..o.XXXXXXXXXXooooXXXXXXXXXXXXXXXXXXXXXXX+++++$$+#####%*********=*=*******%#$#######%******==****=*******==*#################$++++$$##%%***=====**=*=====*****===*==********===**=*****%#+++++@OOO@@@@@OOOOOO@@OOOOOOOO+++OOOO+#*****=****************=*******************##OO..OOOOOO@@@@@@@&@@&&&&&&&&&&&&&&&&&&&&&&&&&&====***=***===*=***====*==*****=*************#+OOO.O..OOOOO@&&@@OO..O.....O.OOOOOOOOOOO@@&@@O@#****=*****=====********=*==**==**********===**#+OOOOOOOOOOOOOOOOOOOO@@@@@@@@@@@@@@@@@@@@@@@@@@@@@@@@@@@@@@@@@@@@@@@@@@@@@@@OOOOOOOOOOOOOOOOOO@@OOOOOOOOOO@&&@@+++++++O@#&*==******==**********=***************************##+..................................OOOO+#*=*===****====**==**%#OOOOOOOOOO+#*===**==********=*##OOOO@@OOOO..O+@@@@@@++XX..X.X.X#********************====*****=********=***#$oo   .          .. ......X#****===******=*=*********=*****=*#$oXXXXXXXXX$$$$$$$$######%%*=======****======****====*===*******#XooooooooooooooooooooooooooooooooXX$##%%###$XXXXoo...X....XXXX..XX..X.XX..XXX+..+++++++++++++++++++++++++O++++OO+++++++++++++++O++OO++++++O++++++++O+O++OOOO++++OO+OOOO+",
"###+++++XXX++++++###%&******%%####+++++##%*****%%%#%%******%%###%%***%%%##+++++++++##&%%%##+++XX++++++##&&*%%##++++++++###&%&*%%%%##++XXXX+++++##%%%*%******#####++++++XXXXX..o..o        ..o.XXXXXXXXXXXXXX+$$$$$$$$$$$$$$$$$$$$$$$$$$$$#######%***=***************%#$$$#$$$$#%*****==***=*==*=***==*##################$+$$$###%%***=====**==*=======**=====*==*****=====****===*##++@@OOO++@@@@OOOOO@@@OOOOO+OOOOOOOOO$#******==****==*=**************************#+..OO...OOOOOOO@@@@@@@@@@@@@@@@@@@@@@@@@@@@@#****====*=====********==*******=*=****=*******%#OO.....OOOOOO@&&@@OOOOOO...OOOO.OOOOOOOOO@@@@@##*****=*****===*******===******====**=*==**===**#OOOOOOOOOOOOOOOOOOOOO@OOOOOOOOOOO@@@@@@@@@O@OO@OOO@@@@OOOO@@@@@@@@@@@@OOOOOOOOOOOOOOOOOOOOOOOO@@@OOOOOOOOO@&&&@@OOOOOOO@#&==*******=*=************%%&&%%%&&&&%%%%%&&########@O...................................OO.+#***==*=****==***===**#++@@@@@@@@#%*=====**********=*##OO++@+++OOOO+++@@@#+++XXX.....$#*=**==========****======****====*****===**#X.o....ooooooooooooooXX...X#*****===***======**=*************#$$$$$$$$$########%%%%%%%%%%*=======*****=====**********====***=*#XooooooooooooooooooooooooooooooooXX$##%%##$$XXXXooXX.....XXXX...XXXXXXXX..XX++++++++++++++++++++++++++++++++O++++++++++++++++++++++O++++++++++++++OO++++OOO++++++O++O+O+",
"###+++++XX+++++++###%&******%%####++++###%*****%%%#%%******%%###%%***%%%##++++++++###&%%%##+++X+++++++##%%*%%###+++++++####%&*%%%%##++++XXX++++##%%%*%******####+++++++XXXXX.ooo..o       ..o.XXXXXXXXXX$$$#####################################%***=**=***=********#$$$##$$#$#%******=***======***=**%#################$$$$$###%%***=====***=========**=======*========***=**=*=*##++@+OOO++@@@@OOOOO@@@@OOOOO+OOOOOOOO$#*****=====*=====*=====***=****==******=**%#X..........OOOO@@@@@@@OO@@@@@@@@@OOOOOOOOO@+#***=******************==*****=********=*****=*##OO.....OOOOOO@&&@@OO.OOO......O...OOOOOOO@@@@@#%*====******===********==******====**=*======**%#@@@@@O@@@@@@@@@@@OOO@@@@@@@@@@@@@@@@@@@@@@@@@@@@@@@@@@@@@@@@@@@@OOOOOOOOOOOOOOOOOOOOOOOOOOOOOO@@@OOOOOOOOO@&&&@OOOOOOOO@#*=***********=****=***=**###################+####++O.......................................+#***=************=*==**#+@@@@@@@@#%**=*=***===*******##O+OOO+++OOOO+++@@@@@++........$#*==*============*=======****====*=***===**#XXXXXX.o.XXXXXXXXXXXXXX.oX+%*****===***===***===***=*********########%%%%%%%%%%%%*%**%%%%*========****=*===**********===******#XooooooooooooooooooooooooooooooooXX$##%%##$$XXXXoo....X...XXX....X.XXXXX.XXX++++XX+++++X..++++++++O+++++++O++O+++++OOOOO+++++++O+++O++++++++++OO++++OOO+OOO+++++++++O+++",
"##@+++++XXXX+++++###%%*******%###+++++###%%***%%%%%%%%****%%####%%%***%###++++++++###%%%%##+++++++++++##%%*%%##++++++++###%%**%%%###++XXXXX++++##%%*******%%####++++++XXXXX..o.ooo   .. oo.o..XXXXXXXXXXXXX$$######%%%*****%%****************%%%*******==***********##$$$##$$$##********====**********%%%%%%%%%%%%%%%%%####$###%%%****===**=====**======******===**=***===******=**#+++#+++++@@@@OOO+@@@@+++++++++++OOOO##****=*==*****=**=*==*****===**==******==*#+X............OOO@@@OOOOOOOOOOOO....OOOO..OO#**********=***=********==******=*******=**=****#+OO..O...OOOOO@&&@O.O.O........O.....OOOOO@@@@#*********=*****==*****==*=*===******=**===******&@@@@@@@@@@@@@@@@@@@@@@@@@@@@@@@@@@@@@@@@@@@@@@@@@@@@@@@@OOO@@OOOOOOOOOOOOOOOOOOOOOOOO.OOOOOOO@@@@@OOOOOOOO@@&&@OOOOOOOOO@#*=**=*******=***********%&&&&&&&&&&&&&&&@@@@@@@@OOOO.......................................$#****=**************=**#X.....O.+#*********===***=***##++++++++++++++#######+++XXXX..$#*=*=************=**********===*******==***%%#%%%%%##%%%%%%%%%%%%%#XXX#%*****====***=****=**==*********=*%%%%%%%%*****************%%%*=========*==***==**==*=*****==******#XoXooooooooooooo...ooooooooooooooXX$##%%##$$XXXoooo...XXXXXX........XXXXXXXX++++++XX+++O+XXX++++XOOO++++++++++OOOO++++++++++++O+O++++++++++++OOOOO++OOOO++++++O++OO+OOOO",
"##@@+++++XXX+++++###%%*******%###++++####%%%**%%%%%%%%****%%####%%%**%%##+++++++++###%%%%##+++++X+++++##%%*%%##++++++++###%%*%%%&%##++XXXXX+++###%%%******%%####++++++XXXXX..o.oo.   .  o...o..XXXXXXXXXXXXXXXX$$$#####%%%%%%****************%%%******===***********#$$$####$$##********==******===*********************%%#####%%%**=*=*========**====********==********==*******=*%##########@@@@++@@@@++++++++++++OOOO#%****====****==**=*==****====*************#++OO........OOOOO@@@OOOOOO.OOOOO....OOOO...O#************************=****=*=*******=*******#+OO..O.OO.OOOO@&&@@OO.O......OOOOOOOOOOOO@@&@@&*****=*****=**===*****==****==**====**====*=****&@@@@@@@@@@@@@@@@@@@@@@@@@@@@@@@@@@@@@@@@@@@@@@@@@@@@@OOOOOOO@OOOOOOOOOOOOOOOO..OOOOO.OOOOOOOOO@@@@@OOOOOO@@@&&@OOOOOOOOOO#*==*********=**********&&&&&&&&&&&&&&&&&&&&&&&&@@@@OOOOOX..................................#%********==****==***=**#$.......+#*********===*******%#################%%%%#######X..#%====**********====********=**====****===****%%*******************%$XX#*******=**********==*****=*******%####%%%%%%***************%%%*============**==****===*****=*****=*#Xooooooooooooooo...ooooooooooooooXX$##%%##$$XXXXXoo...XXXXXX....XXXXX+X++XXX.XX++++X++++++++X+++XOOO++++++++++++OO++++++++O+++++++++++++O++++OOOOOO+OOOO++++OOO+++++OOO+",
"##@@+++++X+XX++++###%%*******%&##+++++###%****%%%%%%%%*****%%%##%%*%**%###++++++++###%%%%###++++XX++++##%%*%%##++++++++###%%**%%%%##++++XXX+++##%%%*******%%####+++++XXXXXXX.ooooo     ..oooooXXXXXXXXXXXXXXXXXXXXXXX$$$######%%%************%%%*******=************#$$$$##$$$##************==***==***************====******%*%*%%**==****====***===******===*==******=====*====*=******%*%%*%%%**######%##%##%%%%%#+++O#%****=*=***====****=****====**************%######################++$++$++$+$+$$++++..X#*****************=====*=*===***==***************##+++++++++++++@&&@+++++++++++++++++++++OO@@&&#&*******===****=*=****===**=====*====****=**=****@@@@OOOO@@OO@OOOOOOOOOOOOOOOOOOOOOOOOOOOOOOOOOOOOOOOOOOOOOOOOOOOOOO+++++++++++++++$+++$+++++++######++++++++#&&######+OOOO#**=********************#+@@@@&@@@@@@@&&&&&&&&&&&#@#####################################+X..#********=******==**==**%#......XX#*=******************%**************************#$..#*=====*==****========****========**=======*%%%%%******************%Xo$#******=*****====**=*****======*=%#XXXX$$$####%%%%**********%%%*=============*******===*****=****==*#oooooooooooooooooooooooooooooooooXX$##%%##$$XXXoXX....XXXXXXXX..XXXXXXX...XXX+XX++XX++++++++OO++X+XO++O+OOO+++++OO+++++++++++++++++++++++++++++OOO++++O++O++OO+O++++O+++",
"##@@++++++XXX++++###%%*******%###+++++##%%*****%%%%%%%*****%%%%%%%*%**%%##++++++++###%%%%###++++XX++++##%%*%%##++++++++###%%***%%%##++++XXX+++##%%********%%####+++++XXXXXXX.ooo..      o.oooXXXXXXXXXXXXXXXXXXXXXXXXXXXX$$$$$###%%%%********%%%********************#$$$$##$$$##*************===*===**%%***********===***********%**==****=====***==******==***=*******===*=====************************************++OO#***********==*****===**************=******%####%#########%%%**%&&%###############+...+#********=*******=======*=======***********==****################&&&###########++########@@@@&&%********====*****==**====****===*====****=*==****@@@@O@OOOOOO@OOOOOOOOOOOOOOOOOOOOOOOOOOOOOOOOOOOOOOOOOOOOOOOOOOOOO@@@@#########################%%%%%&&###&&&&&&&%%%%%#+OO+#**=******************=*#+@@@@@@@@@@@@@@@@@@@@@@@@########%%**%%******%%%%****%%*******#+..O#*********==***===**==*=*%X.....X+%*******************%%%**********=============**%$oX#*==========*=========*****=*=============*%######%%%%%**********=*%Xo$#******===**========*=***===***=*#$XXXXXXX$$###%%%%%%%%%%%*%%%****===========*********=**==*==***==%#oooooooooooooooooooooooooooooooooXX$##%%##$$XXXXXX....XXXXXXXXXXXXXXXX+XXX.XXXXX++XXXX++.+XXXX++X+++++OO++++++++OO+++++++++++++++++++++O++++++++O++++++++++++++++++++O++",
"##@@++++XXXXX++++###%%*******%####++++###%****%%%%%%%******%%%%%%%****%%##++++++++###%%%####+++XX+++++##%%*%%###+++++++###%%**%%%%##++++XXX+++###%%*******%%####+++++++XXXXX..oo..      oo oo.XXXXXXXXXXXXXXXXXXXXXXXXXXXXXXX$$$#######%%%***%%%*****=*************%#$$$$$#$$$#%**************==*===*%#####%%******************%%%**====**====**=*******====*=*===****=*======*****%####%&%%************=********=**++++#*=*==**********====**===****=====**====***#####%*%%****************************%#+XX.#%******====******=====*****======******==**==***%#####%***********=***********%%*%****%%*#+@@&&*=****=***==***===**===*******====****=***=*====*#OO@@@@OOOOOOOOOOOOOOOOOOO@@@OOOOOOOOOOOOOOOOOOOOOOOOOOOOOOOOOOOOOOOO+++#########%%*************************=*********#X.++%=**=*****************=*#+OOOOOOOOOOOOOOOOOO+++@+++########%**************=************%+.X+%*********=*******=**=*==*$X....X$%***===************%########*******==**=======**#X.+#*==*====***=====*====****==********======*#XXXXXXX+XX$#########%%##X.#%*********===**==**=*****=*******#$XXXXXXXXX$###########%%%%%%****====*=====*=**%%%%%********=*****%#Xooooooooooooooooo ooooooooooooooXX$##%%###$XXXooXX...XX...XXXX..XXXXXXXX.XXXX+X++X+++X+XXX+X++++++++++O+OOO++++O++++++++++++++++++++++O++O+++++OOO+++OOOO++++++OOOOO+++",
"##@@++++XXXXX+++++##%%*******%####++++###%%***%%%%%%%******%%%#%%%****%%##++++++++###%%%####+++XX++++###%%*%%###+++++++###%%**%%%%##++++XXX+++###%%*******%%####+++++X+XXXXX..oooo      oo  oXXXXXXXXXXXXXXXXXXXXoooXXXXXXXXX$$######$####%%%#%%*****=**==*********%#$X$$$#$$$#%********=*==**==*****%#######%%%%%****%%%%%%%%%%%%**=====*====********==**===**===****========**=**%#++++#####%%%*%*****************++O+#*=*==***===****==*****=*********==*==*==*##++#######%%%%%***********************%+.XX#******==*******========****========*****=****=*%#########*******=*==*********************&+@@&&*=****=**********=**===******======****===*=====%#OO@@@@@O@@OO@OOO@@@OOOOOOO@@O@OOOOOOOOOOOOOOOOOOOOOOOOOOOOOOOOOOOOOOOOO++++########%%%%*******************=====*==***#X.X+%***=*******************++OOOOOOOOOOOOOOOOOOOO.X+++++++$+########%%*******=************%+.X+**********=*********===*=*#X....X#****=*=*=******=***#$X++##########%************##XX+%*******=**=**==**====****===****=**====**%$X.oo.o.XXXXXXXXXXX$$$$$X.o#***********==*****%%%%%%%%%%%%%%##$XXXXXXXXX$##%%########%%%%%**=**===*==*==*=*%%###%***=****=*****%$oooooooooooooooooooooooooooooooooXX$##%%###$XXXooX...XXX...XXXXX...X..X.XXX++++X++XX++XXXXXO+X++++++++++++++++++O+++++++++++++++++++++++++++++++OO+++++O++++++++OO+O++++",
"###@++++XXXX++++++##%%*******%####++++###%%***%%%%%%%******%%#%#%%****%%##++++++++##%%%%####+++X+++++###%%*%%###+++++++###%%%%%%%%##++++XXX+++###%%*******%%####$$+++XXXXXX..ooooo   .  oo o..XXXXXXXXXXXXXXXXXoXooooooooXXXXXX$#$$$$$$$$#######*******==****==****%#$XX$$$$$$#%****==***===****====*%############%%%###########%%**====***===**===**===******=====****==**=****=**%#+++O@@@@@@@@@@@####%%%********#++++%*=*=*****==*****=*****=****************=*#+......O+++++####&&&&%%%**************#+.X+#*******=******===***=********======****=*****=*##++++++++######&&&&*%%*******************#+@@&&====**==**==****==**===********===*****===*=*==*&#@@@@&&&&@@&@&@@@@@@@@@@@@@@@@@@@@@@@@@@@@@@@@@@@@@@@@@@@@@@@@@@@@@@@@@@@@@@OOOO+++++++########%%***********====*==***#X.X#******=****************%+X..O.........................O........O++++####%%%%**********=#..X+*********=*********====***##X...$#***************=***#X..O+O++++++++++############+XX#%******************===***===********%%#%###X...............  ...  ..oX#****************%#######$+$$$$$$$XXXXXXXXXX$$##%%%%#%%##%%%%%%**=****=**====*=*%####%**==****=*****#$ooooooooooooooooooooooooooooooooooX$##%%###$XXXo....XXXXXXXXXXXXX+X+XX++++++OOX+XXXX+++++XXOX+++++++++++++++++++++++++++++++++++++++++++++++++++++++++++O+OO+++++O++++O+",
"###+++++XXX+++++++##%%*******%####+++####%%***%%%%%%%******%%###%%****%###++++++++##%%%%####+++X+++++###%%*%%###+++++++###%%%%%%%%##++++XXX+++###%%*******%%####$$$++XXXXXXX.oo.oo      oo  ..XXXXXXXXXXXXXXooooooo.ooooXoXXXX$$$$$$$$$$$$#####%*******===****==***%#$X$$$$$$$#%****==**====******==*#############%%%###$$$$$###%%**====**====**===**===*********===***=********==**#+++@@@@@@@@@OO+++##########**##+X++%*==***=**===*********==******************#+........XXXX+++++###########%%%*****%#+.X+%*******====****==************=*====********==**#+O.OO+++X+++++++#&&######%%%%************#+@@&&====**==**=***====**=*=***********=***====***===*&&&&&&&&&&&&&&&&&&&&&&&&&&&&&&&&&&&&&&&&&&&&&&&&&&&&&&&&&&&&&&&&&&&&&&&&&&&&@@+OOOO++X++++++++#########%%%%**********%#..+#***=**==***************#+XO.O...O..................................XXXX++#########%***%#..X#*********=*=*******=**===**#X...$#***********==**=**%#....+++++++++++++#####+++$$XX.X+#%%*%%%%%%%*******=*==***===*=*%####$#$$$$X...............o......o..oX#*****=*****=****%#X$$$$XXXXXXXXXXXXXXXXXXXX$$##%%%%%%%%%%%%%%***=****=**====*=*%####%*==***======**#$XoooooooooooooooooooooooooooooooooX$##%%###$XXXXX...XXXXXXXXXXXXX..XXXX++++++++XXXXXXXX++XXXXX+++++++++++++++++++++++++++++OOO++++++++++++++++++++++++++O+OOOOO++OOOOOOO",
"###+++++++XXX+++####%%*******%####++++##%%*****%%%%%%******%%###%%%***%%###+++++++###%%%####+++++++++###%%*%%##++++++++###%%%%%%%###+++XXXX+++###%%********%####$++++XXXXXXX..ooooo     oo .oXXXXXXXXXXXXXXoooXooXXXoooXooXXXX$$$$++$$$$$######%**********==*******%#$X$$$$+$$#*****=*******====*=***#############%%####$$+$$$##%%*===*=====**==*==*=***####%#%*****==****======***%#++++++O@@@@@OOOOO@@OO@OO+++++++OO+#**===*******======***********************##X..............OO@@@@OOO.O++++++++###++...+******************=***=*****===*************=*=*+O....OO..OOOOOOO@&&@@OO+O++++#######%%%%#@+O@*===****==**====*******************===****=======*&&&&&&&&&&&&&&&&&&&&&&&&&&&&&&&&&&&&&&&&&&&&&&&&&&&&&&&&&&&&&&&&&&&&&&&&&&&&&&&&@OOOOOO...OO...OOO@@OOOO+++++@&&&&&#&%#+X.X#**********==***********#$XXXXXXXX+XX++++++++++++................................O++++++X..X#***********=******======***%#X..$#*****=***===******#$..OO++++OO....OO@@##++OO......XX++++++X+++##***=***=***==******#XXXo................................oX%*****==****=*=**#XXXXXXXXXXXXXXXXXXXXXXXXX$$$##%%%%%%%%%%%%%%*****========***=*%####*****====**=*=*#$XXoooooooooooooo  oooooo oooooooooX$##%%%##$XXXXXo...XXXXX..XXXXXXXXXX+O++XXX+++XXXXXX+++OXXX+XXXX+O++++++++++++++++++++++++++++++++++++++OO++++O++++OOO+OOOOOO+OOO+++OO",
"###+++++++XXXX++####%%*******%####++++##%%*****%%%%%%*****%%%###%%****%%###+++++++###%%%####+++++++++###%%*%%##++++++++###%%%%%%%###+++XXXX+++###%%********%####$++++XXXXXXX.ooooooo     o ..XXXXXXXXXX$XXXXXXXooooXooXXoXXXXXXXX+++$$$$$######%**********==*******%$$+$$$$+$$#*****==*=****===***=**#$###########%%####$$++$###%%*===*=====***=*****%##$$$$$##%****==****=====*=**%#++++++OO@@@OOOOO@@@@OOOOO++++OO.O+#**===*********===****%%%##################+X..............OO@@@@OO.....O.XXXXXX++X..O+***********************%####%%##########%%*****%+.....OOOOOOOOOOO@&&@O.O..OX+++++++++#####+OO@*===****==**====*********%%#########%#%%%****====%@@@@@@@@@@@@@@@@@@@@@@@@@@@@@@@@@@@@@@@@@@@@@@@@@@@@@@@@@@@@@@@@@@@@@@@@@@@@&&&@@OO...OO......OOOO@@OOOOOOO.OO@&&#+++++O..$#**********=************%#######################+O....................................X....$#***=******==*******=====****#X..$%****==**===*******#$...OOOOOO.....OO@@@#@+OO.......XXXXX..oX..$#***=*******===*****#XXX.............................ooX.X$%*****==****=****#XXXXXXXXXXXXXXXXXXXXXXXX$$$$##%%%%%%%%%%%%%%****=========***=*%####*****====**===*$XXoooooo.oooooooo  ooooooooooooooooX$##%%##$$XXXXXXoXXXXXXX..XXXX..XXX...X+XX++++XXXX+X++++++++XXX++X++++++++++++++++++++++++++++++++++++++++++++OO++OOOO++++OO++OOO+++++",
"##+++++++++X++++####%%********####+++####%*****%%%%%%******%%##%%%****%%###++++++####%%%%###+++++++++###%%*%%##++++++++###%%%%%%%%##+++XX+++++##%%%*******%%####$+++++XXXXX..o.ooooo       ..XXXXXXXX+$$$$$$$$############################%%%%%********************%$$+$$$$+$$#****=======**===******#$#$$#######%%%%###$$$$$$##%%**==**==****===****%$$+++++$#*****==*****=*******%#++++OOOO@@@OOOOOO@@@@@OOOOOOO....+#**=*==*=====*=******##+++++++++++X++X+++#+O................O@@@@OO...............OOO+#************==****==**##+O@@@&@@OOOOOO++++###%&#OO....OOOOOOOOOO@@&&@@OOOOOOOOOOOOOOOOOOOOOO@&*===****===***==**=**=*%#+OOOOOOO@@@++@@++###%%*&#@OOOOOOOOO@@@@OOOO@@@@OOOO@@@@@OOO@@@@OOOO@@@@@@OOOOOOOOOO@O@@OOOOOOOOOOOO@@@@@OOOOOOOO..O....OOO@@@OOOOOOOOOO@&&@OOOOO...##***===**************=*************************%#O.........................................#%====*****====*====**=******=%#XX#***=====****==*==**#+OOOO+++OO.....OO@###++++XX..........X.....+#******=***====**=*%$XXX.X.....o..oo...oooooooooooooXXXooX#********=****=**%#XXX+$$####################%%%%%****%*****%%%**===========*****%###%****=*=****===%$XooooooooooooooooooooooooooooooooooX$##%%##$$XXXXXXXXX..X.X.XXXXXXX+O++++.XXXX++++++++++++++++++++++++++++++++OOO++++++++++++++++++++++++++OO++++++OOO++O++++++++OOOO++++",
"##+++++++++X++++####%%********####+++####%*****%%%%%%******%%#%%%%****%%###$++++++##%%%%%###++++++++####%%*%%##+++++++####%%%%%%%%##+++XX+++$+##%%********%%###+$++++XXXXXX...oooooo  ..   ..XXXXXXXXXXX$$$$$#######%%%%%%%%%****************%%********************%$$+$$$$+$#%********===******=****#############%%####$$$$$###%%*===**===****==****#$$++++X$#***====*****=****==*%#+++OOOOO@@@OOOOOO@@@@@OOOOOOO....+#**====**====********##++++XXX..XXXXXXXX+++O................O@@@@OO.............OOOOO##********=*******=**==*##OOO@@&@@OOOOOO..XX++##++.O....OOOOOOOOOO@@&&@@OOOOOOOO.OOOOOOOOOOOOO@&==*=***====*******==*=*%++OOOOOOOOOOOOOOO++++#####OOOOOOOOOOOOOOOOOO@@@@OOOO@@@@OOOOOOOOOOOOOO@@@@@OOOOOOOOOOOOOOOOOOOOOOOOOOOOOOOOO.OOO.........OO@@OOOOOOOOOOO@@&@@OOOO...#*==*=*=****************===***********==**=******#O.........................................#%==******====**====*********=*#XX#*=**====**=**===*=*#+OOOO+OOOO....OOO@###++O...X...............$#****===*=****===**#$XXXXXXX.XXXXXXXX..XXXXXXXXXXXX$$$XooX#********=***==**%#XX++$###########%%%%%%%%%%*******************=======*====*****%###%**=*=****=****%XXooooooXXooooooooooooooooooooooooooX$##%%##$$XXXX...X....XXXXXXXXXXX.X+XXXXXXX+++++++++++X++++++++++++++++O++++++++++++++++++++++++++++++OOOO++++++OOOO+O++++++++OOOO++++",
"###+++++++XX+++++###%%********%###++++###%****%%%%%%%******%%%%%%%*****%###+$+++++##%%%%%###+++++++++###%%*%%###+++++++###%%%%%%%###+++XX+++$+##%%********%%###+$$+++XXXXX...ooo .     . o  .XXXXXXXXXXXXXXXXX$$$#####%%%%*****************************************%$$+$$$$$$#%****=**=====*=***=****%%%%%%%%%%%%%%%%%%#########%%**====*****===*****#++++++$$%****=*=*********===*%#+++X+OOOOOOOOOOOO@@@OOOOOOO+O....+#****==******==***=**#$OO........OOO...OO++OO..............OO@@@@OO............OOOOO@#%************==***=****##OOO@@&@@@OOOOOOOO...OOOOOOOOOOOOOOOOOOOO@@&&@@OOOOOOOOOOOOO@O@OOOOOO@&==*=====***=****======*#++OOOOOOOOOOOOOOOOOO.OO+++.O.OOOOOOOOOOOOOOOOOOOOOOOOOOOOOOOOOOOOOOOOOOOOOOOOOOOOOOOOOOOOO..OOOO....OO....OO...........OOOO@@@OOOOOOOOOO@&&@OOOO...+#*====**=*****=***********==*===========********%#.........................................+#*=*********======**=**=***==**%$$#*====**=***===***=*#XX+++++++XXXX+++#######$$$$$$$$$$$$$$$$+X.X##*****==*=*===***=*##++$$##############%%%%%%%%%%%%**%%XX$#********=*******#$X+++++++$$#######%%%%%%%**********************=======***=*****%###%=***===*****=*#XXooooooXXooooooooooooooooooooooooooX$##%%##$$XXXX...XXXXXXXXXXXXXXXX+++++XXXXXXX++++++++++O++++++X++++++++++++++++++++++++++++++++++++++++++O++++++OOO+O++++O+++++++O++++",
"###+++++++XX+++++###%%********%###+++####%*****%%%%%%******%%%%%%%*****%###+$++++###%%%%####++++++++####%%*%%###+++++++###%%%%%%%%###+++++++$+##%%********%####+$$+++XXXXX...ooo..     . o  ..XXXXXXXXXXXXXXXXXXXXX$$$###%%%%******==***************************=**%$$$$$$$$##%***========******************************%%%%##%%%****===****=*==*==**#+++++++#%***==*=********==***%##+++++OO@@@++++++@@@O+OOO++++O...$#****==******==**==**#+OO........OOO...OO+++OO.....OO......OO@@@@OOO..........OOO@@@@%*=***********==**==****%#++@@@&&@@@OOOOOOOO.OOOOOOOOOOOOOOOOOOOOO@@&&@@OOOOOOOOOOOO@@@@OOOOO@@&==**====***=****=====**##+OOOOOOOOOO..OOOOOO....OOOO..O.O...OOOOOOOOOOOOOOOOOOOOOOOOOOOOOOOO...OOOOOOOOOOOOOOOOOOOOOOOO......O..OOOO.............OOO@@@OOOOOOOOO@@@@@OOO...+#*===********==*************==****======****==*=#+......O..............................O...+#***********======**=******==***##%=**==*===**=*****=*###################%%%###############%#%#+XX#%***=*===**===***=*#########%*************************%XX#%********=*******#$+$+#$$$$$####$$$$########%%%%*****************=======***=*****%#%%*=***===****==*#XXooooooXoooooooooooooooooooooooooooX$##%%##$$XXXX.o.XXXXXXXXXXXXXXX..X+XXXXXXXXXXXX++++++O+++++X+X+++++++++++++++++++++++++++++++++++++++++++++++++OOO++O+++O+++++++O++++",
"###+++++++XXXX+++####%********%####+++###%****%%%%%%%******%%%##%%*****%###+$+++++##%%*%####++++++++####%**%%###+++++++##%%%%%%%%%###+++++++$###%%********%#####$$+++XXXXXX..ooo..       oo oXXXXXXXXXXXXXoo.oooooooooXXXX$$####%%**********************=====*===**%########%%******==*=****=**********************=*********%%%%*****====**********%#++#+++$#%***======****======**##############################++..$#****==*=****=*=*****#$OOO..O++++++##++++###++++++$+#+++++++++#@+++++++++++++++++&@@@%*=***********==********=***%%%&&@@@@@@@@@@@OOOOOOOOOO@@@@OOOOOO@@@&&&@@@@@@@@@@@@@@@@@@@@@@@@@&*=====****====******=*****%#######++++O..OOO.....OOOOOOOO.OOOOOOOOOOOOOOOOOOOOOOO..OOOOOOOOO..OOOOOOOOOOOO....O.....OOOOOOO+....XXXXXXXXXXXX++X+++++@+++OOO+++++@@&@@+OOO.X+%*=*=***=*****=**=*****===********=********=====##+++++++++++++++++$$$+###$$$$#$########O.X+%**=******=*====****==**==*=**=*%%*=******==*********%##%%#****************=******************%#XX#**===***=**===****%#$+#######%%***********************%XX#***********==****%%####%%%%%%%%##X+XX$$XXXX$$$##%%**%%*****%%%*****======**=*****%%****=**====**==*%#XXoooooooooooooooooooooooooooooooooXX$##%%##$$XXXXoo..XX..XXXXXXXXXXXX++XXXXX+++++XXX+++XX++++XXXX+++++++++++++++++++++++++++++++++++++++++++++++++O+OO+++++OO++++++++OOO+",
"###+++++++XXXX++++###%*******%%####++####%*****%%%%%%******%%%%%%%*****%###++++++###%%*%%###+++++++$####%%*%%##+++++++###%%%%%%%%%###$++++++$$##%%********%#####$$+++XXXXXX..oooo.        oooXXXXXXXXXXXXXooooooooXXooXXXXX$$$$$####%%************===***=========*=*%%##%%****=*************==******%%%%%%********==*********%%%%***=*====******=*=*%#++++++$#%*=========***====**********%%%%*******************##+OO+#****==*=****===*=***#+OOOOOO+++@#######&%%##################&&&################@&&@@%*====*******===***=****===*=***&&&&&&&&&&&&@&&&&&&&&&&&&&@@&@@@&&&&&&&&&&&&&&&&&&&&&&&&&&@@&&&&===*******=====******=***=*******%###++OOO.....OOOOOOOO........O....OOOOOO.OOOOOO..OOOOOOOOO..OOOOOOO..O....OOOO..OOOO+++++++++++++++++++++++++++++@@@@+++++++@@&&&&@@@++.X+****=***=***===*==****====***===**==*******===**%########################%##########%%##O.X+***====***==********=****=****==**==******==***=*****#######%%************==***=**=*=*********#$X+#***==******===****%$XX.XX$$$$######%%%%**************%%XX#************=******************#$X+XX$$XXXXX$$$#%%%%%%%%%%%%%%*****======**==*************===***==*#$XXoooooooooooooooooooooooooooooooooXX$##%%##$$XXXXoo...X..XXXXXXXXXXXXX+XXXX++++++XXXX+++XXXX+XXXXX+++++++++++++++++++++++++++++++++++++++++++++O+O++++++OO+++++++++O++OOO",
"###+++++XXXXX++++###%%*******%####+++####%%*****%%%%%******%%%#%%%****%%###++++++###%%%%%###+$+++++$###%%**%####++++++####%%**%%%%###+++++++$$##%**********%####$$++++XXXXXX..ooooooo     oo.XXXXXXXXXXXXXooooooooooooXXXXXXXX$$######%%******%***=====**===****==****************==****=====******%######%%%%**************%%%%%*****========**=**=%#+$++++$#***====*=*=====****=*########%%****====*************#+..##***==*******==******##++++++++++#######&%%%####%**************************%***%%&@@&#***=***********===**===*******************&&&&&&&&&&&&===&&======******==============**&&&&&&====*=**====******==**===****=*********%###$XX.....O..........OOO.OOO.OO..OOOOO...OOOOOOOOOOOOOOOOOOOOOO...O...OO..OOO+++##################%%%%%%%%%**%***%*************%#O.+#**=*****=*******==***===******===******========*&&&&****&&*=*=*************************#..X#*===*******=*********=***********=*********=====*****#X...++###########**********************=%+X+%****==****=**==***#XX.. o......XX+++++++##########%**##$$%*******=**********************%#$XX$+XXXXXoXXX$##%**%%%%%%%%%****=====*======**************===*==**#$oXXXooooooXooooooooooooooooo  oooooX$$##%%###$XXXXXX......X..XXXXXXXXXXXXXXX++XXXXXX++++XXXXXX++O++++++++++++++++++++++++++++++++++++++++++++++++++++O+++++++OOO++++O+O+++",
"###+++++XXXX++++####%%*******%#####++####%%*****%%%%%******%%##%%%****%%###++++++###%%%%%###+$++++$$###%%**%###+++++++####%%**%%%%###+++++++$$##%**********%###+$$++++XXXXXXX.Xooooooo    oo.XXXXXXXXXXXXXooooooooooooXXXXXXXX$$$#####%%%***********====*===****************=*****==****==*=*******%##########%%%%**********%%%%%**=*=========**===*##++++++#%****==*=*=====******%#++########%%******************#+..#%***==*******====****##+++++++++++++++++##########%**********=*=***=*=***=******%&@@&%**==*****==****==*=*===**********====*===*&&&&&&&&&&&&==================================*&&&&&=====**====******==**===****=====********%#++...OOO.OOOOOOOOO....OO......OOOO....OOOOOO....OOOOOO.....OO..OOO......OO+++++++###########%%%%%%**********=*********======*#OO+#********==******==***===**==**===*******=======*&&&&&&&&&&&&***************************#..+#*===**==***=********==**********====*********=******##X....X+++++++$$#####%#######%%%%%*******#+X+*****==*****=******#XX.. .......+XXXXXXXXXXX$$$$$$$$###XX$%*******==****=****************%#$$$$$XXXXXoooXX$#%**%%%%%%%%%****====**======***************==*****#XXXXXooooXoXooooooooooooooooooooooooX$$##%%###$XXXXXX....X.XXXXXXXXXXXXXXXXXX++X+XXXXX+++XX++XX++++++++++++++++++++++++++++++++++++++++++++++++++++++++++++++++O++++++++O++",
"###+++++XX++++++####%%*******%####+++####%%*****%%%%%******%%%#%%%****%%%##+$$+$+###%%%%%###+$++$+$$###%%**%###+++++++###%%%***%%%###++++++$$$##%*********%###++$$++++XXXXXX...o.oo oo     ooXXXXXXXXXXXXXoooooooooooXXXXXXXXXXX$$######%%****%*******======******=*==**==**===***==**************%###############%%%%%%########%**==**=**=====*===*%#######%******=**=*==******=*##+++++++++++#+####%%%**********#+.+#*********=******=*****%%%#############++O++++OO++@@#########%************==***=**&@&&%***=*****==****====**==***********=*=====**%#@@&@@&@@@&&&&&&&***********=*===**====*=*==*&@@@&&====***=********===*==*****=**==**********%#++OOOOOO............OOOOOO..OOOOOO..OOOOOO..OOOOOOOOO..O........OOOOOOOOOOOO+++++++++#########%%*************==*==========*#+X+#**********************======*===****=*========**&&&&&&&&&&&&&&&&&&&&&&%%***************#..+#**===**=****==*****=======****========*****=***=****#$.....XOO........++####++++++++XX+#######+XX#*****===*****==***%$X.... ...................X........XXX#**************==***************%#$XX+XXXXXoooXXX##%**%%%%%%%%%****==************==*****=***=**=****%$XXoXXooXXXXoooooooooooooooooooooooooXX$##%%###$XXXXXXXoXXXX.X.XXXXXXXXX++++XX++++++XX++XXXX+++++++++++++++++++++++++++++++++++++++++++++++++++++++++++++++++++++OOO+O++OO++",
"###+++++XX++++++####%%*******%####+#+###%%%*****%%%%%******%%%#%%%*****%%###$$$$####%%%%%###+$++$$$####%%**%%##+++++++###%%****%%%####+++++$$$##%*********%###++$$+++XXXXXXXX..o oo oo    oooXXXXXXXXXXXoooooooXoXooooXXXXXXXXXX$$$$####%%%************====****====*==*=***=====**===*************%###############%%%%##########%*====*=****====*===*%##%#%%*************=******=*##+++++++++++++++++#######%%***%#XX+#****************=*******************%##+@+++OOOOO++@+++++#########%%*************&@&&%***==*********=====**==***=****************&#@@@@@OOOOO+++++#########%%**********==****=*@OO@&&====***********====********=**====***=******#+OOOOOO.......OOOOOOOOOOOOOOOOOOOOOOOOOOOOOOOOOOOOOOOOOOOOOOOOOOOOO.OOOOOOOOOOO++++++++++#########%%**************=====*=*#+X+#*****==**************=====****=*****==========*%@@@@@@@@&&&&&&&&@@########%%#%********#$..$#=***=*******===****=======*****=======******====****#X.....++++.....X+++@###+++XXXXXXXXXXXXXXXXXX#****====*****==***%$oo................................o.$#**************==***************%$++$$$XXXXXXXXXX##%**%%%%%%%%%***====***********===***====**==***=*#XXXoXXooXXXXoooooooooooooooooooooooooXX$##%%###$XXXXXXXXXXXXXXXXXXXXXXXXX+++X+++++++XX+++XXX++++++++++++++++++++++++++++++++++++++++++++++++++++++++++++++++++++++OO+O+++++O",
"####+++XX+X+X++++###%%%******%#####++####%******%%%%********%##%%%*****%%###++$$####*%*%%###+$++++++##%%***%%###$+++++###%%****%*%####+++++$++###%********%#####$$++XXXXXXXXX.oo  oo       oooXXXXXXXXXXXXXXoXXXXXXXXXXXXXXXXXXXX$$$####%%*************=****===*=====******===**==**====**********##$##############%%###$$$$$###%*=*=*****======*=********************==****=***=*#++OOOOOOOOO@@OOOOO@@@@@O+++####+OX+#*****==*=***=*************************%@@@@OOOOOOO@@@OOOOOOOO+++++++#######%%**&&&@&&************====**********====**********==****##++O.........OOOOO+++O++++######&%%********#+O@&*==*=*****=======**==*******=*==**=**==*******##+OOOO@@@@@@@@@OOO@@@@@@@@@@@@@@@@@@@@@@@@OOOO@@@@@OOO@@@@OOOOO@O@OOOOOOOOOOOO@@@@OOOO@OOOO@@@@@@@@@@@&&####%%##%*******&+XX$#***====*******==********===***==*=****==*=====*#OOOOOOOOOOOOOOOO@OOOOOOOO@@@@+########++..#%****==****====****==*====***====**====****==*****=**#X.....OOOO.......O+@@@@++O.................X#****===***=**=****#$....................................$#****=*=*********===************#$$$$$$$XXXXXXX$$#%%%%%%%%%%%%%****=========**===============***=*=%$XXXXXXXXXXXooooooooooooooooooooooooooX$$##%%%##$XXXXXXX.XXXX.XXXXXXXXXXXXX++XX++XXXXXXXXX++++++++++++++++++++++++++++++++++++++++++++++++++++++++++O++++++++++++++OO+++++++O",
"###+++++XXX+X++++###%%*******%%###+++####%******%%%%********%%#%%%******#####$++####***%%###+$+++++###%%****####++++++###%%***%%%%###$+++++$++###%********%####$$$++XXXXXXXXX.oo  o        oooXXXXXXXXXXXX$$$$$$+++XXXXX$$$$$XX$$$$#####%%****%****=********============****=***===*====*=*******%##$###################$$$$$###%*=*=*****========********************==**********#+++++OOOOOO@@OOOOO@@@@OOOO+++++O.X+#*****======*=******==******************@@@@OOOOOOO@@@@O......O+++++++++++$#######&&&&**=*********====**********====*************==**##+..........OOOO..O.OO.OXX++++++#######%%#++O@#&=====****=======***=******==****===*=******=***&@@@@@@@@@@@@@@@@@@@@@@@@@@@@@@@@@@@@@@@@@@@@@@@@@@@@@@@@@@@@@@@@@@@@@@@@@@@@@@@@@@@@@@@@@@@@@@@@@@@@##++++++######&&%##+..##**=======*****==***=***********===****==***===*#OOOOOOOOOOOOOOOOOOOOO...OOO@@++++++++++X.X#%****==****====****==*=====**====*=====****==**====**+X.....+++O.......O+@@@@++..................+#***=====**=*******#X..................................oX$#****=*=*********==*************##$#####$$$$$$###%%*****%%*%%%%****=*=======**=***=**====******=***#$XXoXXXXXXXoooooooooooooooooooooooooooX$$##%%###$XXXXXXX.XXXX..XXXXXXXXXXXXX+XX++X+XXXXXX++++XX+++++++++++++++++++++++++++++++++++++++++++++++++++++++++++++O+++++++++++++++O",
"###+++++XXXXX++++###%%********%###++++###%******%%%%********%##%%%******####+++$####****%###$$+$+++###%%****####+$++$####%%****%%%###$++++++$####*********######++++XXXXXXXXX.ooooo        oo.XXXXXXXXXXXX$$##########%%%%%#######%%%%%%%%%%%%%***====*=***===***===***=**=*===*==****=*====*****%##$###################$$$$$###%*=====**====***==******==**==*=*=****===*====**=%#+++++++OOO@@@@OOOO@@@@@OOOOOOOO..X+#*****==*=***=**======*=*************==*&#@@@OOOOOO@@@OO.....OOOOOOOOOO....O..OOOO@&&&********====******=**=*=***************===**===*##XX......OOOOO....OOOO.....OOOOO+++++++++OOOO#&======****====****===********============**=====&&&&&&&&&&&&&&&&&&&&&&&&&&&&&&&&&&&&&&&&&&&&&&&&&&&&&&&&&&&&&&&&&&&&&&&&&&&&&&&&&&&&&&&&&&&&&&&&&&&&&@@@@OOOOOO@@@@@@@OO.+#***==****==***===**====********======***=***==**#O.......................OOOO@@OOOOO.....XX#*****=*=*=======***==**==****==****====***==========%+X...OO+++O.......O+#@@@++OXX..X.X...X.....X$#**========**=*****#X.X..o....XXX+X.XX..XXXXXXXXXXXXXXXXX#%***=**=***====****=***********%%%%%%%%%%%%%%%%*******************=***======**********************#$XXXXXXXXXoooooooooooooooooooooooooooooX$$##%%##$$XXXXXXXX..XXXXXXXXXXXXX+XXXXXXX++XXX++XXX+++XXXX+++++++++++++++++++++++++++++++++++++++++++++++++++O++++++++++++++++++++++++",
"###+++++XXXXX+++####%%********%####+++###%******%%%%*******%%###%%******####+++$####****%###+$+$++####%%****####$$+++####%%****%%%###$++++++$####*********######$+++XXXXXXXXX.oo  o        oooXXXXXXXXXXXXXXX$$#####%%%%***%*%%%%***********%%%***======***===**====****===**=====******===*****%%######################$$######**====***===****==*==*=**==*==*===***=========***#++++++++OOO@@@@OOOO@@@@@OOOOOOOOOOX+%*****==**==*=****=*********************&#@@OOOOOOO@@@OO......OOOOOOOOO.........OO@&&&*******=====******======*=****==*====**==***=**=*#+..........O.......OOO..O.OO.OOOOO+OO+O+OOOO#&======****==******=*=********=========*=========&&&&&&&&&&&&&&&&&&&&&&&&&&&&&&&&&&&&&&&&&&&&&&&&&&&&&&&&&&&&&&&&&&&&&&&&&&&&&&&&&&&&&&&&&&&&&&&&&&&@@@@OOOOOOOOO@@@@OOOO.+#***==***===****==**====********======***=**==*=%#O.......................OOOO@@@OOOOO.....+#*=*=****=======****==**************====**========*=*%+X...OO+++O......OO+#@&@++O............X...+#*=**=======**====**#XXXXXXXXXXX+++++++++++++#######+$+XXX#****=**=***======***************%%%*****%********===**************=***=====****==****************%$XXXXXXXXXoooooXooooooooooooooooooooooooX$$#%%%%#$$XXXXXXXX.XXXXXXXXXXXXXXXXXXXXXXXXXXX++XXX+++XXXX++++++++++++++++++++++++++++++++++++++++++++++++++++++++++++++++++++++++++++",
"###++++XXXXXX+++####%%********%####++###%%*******%%%%*****%%####%*******####++$$####%***%###++++++#####*****####$$+$+####%*****%*%###$++++++$####*******%######+++++XXXXXXXXXXooo       oooo..XXXXXXXXXXXXXoXXXXX$$#####%%%*****************%#%***========***************====***=***=***********%%%%%%%%%%%%%%%%%%%%%%##########%**====*====***==***==**===***=====*******=***=**#$+++++++OO@@@@OOOOOOO@@@OOOOOOOO..X+%***==******=****=*****=****************#+OOOO..OOOOOOOO.......OOOOOO..........OOO@@&&#*=*=*******==========****===******************=**#X.....................................OOOOO#&========*****=*****===*********===**===****=====*%@+@@@@@@@@@@@@@@@@@@@@@@@@@@@@@@@@@@@@@@@@@@@@@@@@@@@@@@@@@@@@@@@@@@@@@@@@@@@@@@@@@@@@@@@@@@@@@OOOOOOOOOOOOOOO@@@@OOOOX+%*********==*******=***********==*****====**=*==%$..........................OOO@@@@OOOOOOOX+****==****==**====**=***==****===***==*****==**=====*%XXXXX+++++++XXXXX++######+++$$$$$$$$$$$$+XX+#*=======****=*=**=%$$$########%%%%%%%%%*%************#$X+%****************************%###############%%%*************%*******=***********=*********=***=*%$XXXXoXXXXXooooooooXoooooooooooooooooooooX$$##%%%#$$XXXXXXXXX...XXXXXXXXXXXXX+XX++XXX+++++X+++++++++++++++++++++++++++++++++++++++++++++++++++++++++++++++++++++++++++++++++++++",
"###++++XXXXXX++++###%%********%####+$###%%*******%%%%*****%%####%*******#####+$$####****%###+$+++$#####*****####$$$$+####%*****%*%###$++++++$####*******%#####++$+++XXXXXXXXXXoooo o     oooo.XXXXXXXXXXXXXXXXXXXXX$$$$$####%%%%%***********%#%***=======*************=*======***************=***%%%%%%%******%%%%%***%%%%%%####%***==*=====***=****===*==****=====*=***=*=====*%#+++++++++@@@@@OOOOOOOO@@OOOOOOOO..X+%****=****=*=****====******************##+OOO..OOOOOOOOO.......OOOOO............OO@@&@#&*****===**==*=======****====****==****=***=**==*#$......................................OOOO#&*=*****=****==******==*=********==**===****=====**#+OOOOOO@@OOOOOOO@@@@@@@@@@@@@@@@@@@@@@@@@@@@@@@@@@@@@OOOO@O@@OO@@OOOOOOOO@@@@OOOOOOOOOOO@OOOOOOOOOOOOO...OOOO@@&@OOOOX+%*****=***=**=*=***=******************===***====#$...........................OOO@@@@@@@OOOX#**=**=***==***====*=****==****===***==****=*==*=*****%++++#######++########%%##################+X+#*=*=====****===***%$$#####%%%************************#$X$%****=******===****%%%%%%#%####$$$#####$$$######%%%********%%%*******=**=***********==*******==*%#XXXXXoXXXXXoooXoooXXoooooooooooooooooooooX$$##%%%#$$XXXXXXXXX.XXXXXXXXXXXXXXX+XX+XXXXXX+XXXXX+XX++++++XXX+++++++++++++++++++++++++++++++++++++++++++++++++++++++++++++++++++++++",
"###++++++XXXX++++###%%********%####+$####%%******%%%*******%%###%*******#####+$$####%***%###+$++$$#####*****%###++$+$####%*****%%%###$+++X+$$###%********#####$$$$$+XXXXXXXXX.oo  oooo  ooooooXXXXXXXXXXXXXXXXXXXXXXXXXXXX$$$$###%%%%%******%#%***====******=*====*****=======******==**=====**%%%%%%%%*********************%%%%%***========**===****==*==*****=**=*==========***%###############################+..X#********==*=*****=*********************##++++++++++++++XXXXXXXX++++++XXXXX..XOXXXX@@&@#&***************=**=***=======****=**====******==%#O.......................................OO@&*=*******************=====******=***==******===*=*#+OOOOOOOOOOOOOOOOOOOOOOOOOOOOOOOOOOOOOOOOOOOOOOOOOOOOOOOOOOOOO.O.OOOOOOOOOOOOOOOOOOOOOOOOOOOOOOOO+++X....O+OO@@&@@OOOX#%***========*=**==*==*==**************==****=*=*#$XXXX.XXXXXXXXXXXXXXXXXXX++++++++#####++O+#**==*=**====**===***==***=****====********====*******#######%**%#%*********=******************#+X+%*==****=***====*=*#XX$#######%%************=*********#XX#*=***=**=*=*====*%####++##$+XXXXXX$###$$XXXXXXX$##%%*****%%%%%*******=**===*=******====********%#$XXXXXXXXXXXoXXXXoooooooooooooooooooooooooX$$##%%%#$$XXXXXXXXXXXXXXXXXXXXXXXXX+XX++XXXX++++++++++X+XX+XXX++++++++++++++++++++++++++++++++++++++++++++++++++++++++++++++++++++++++",
"###++++++XXXX++++###%%*******%%####$$####%%******%%%%******%%##%%*******#####+$$####%***%###++++$$#####*****%###$+$+$####******%%%###$++++$$$###*********#####$$$$$$+XXXXXXXXooooooo o  ooooo.XXXXXXXXXXXXoooXXXXXXXXXX$$$$$$$$$$#####%%%%%%##%**====***=***========***======*******==**====**%#######%%%%%******************%%%%**=====*==***=====**===*************===*=====***%%**************%%%%%****%%######..+#********==*******=***=*=***************###+++++###################++++++++++++++++@&&@@#*=*********===********=======****=**====***=***=*#+OOO..OOOO++OOOOO...............O...OO..OO@&*=*********=*******=*=*===******==********====**==%#OOOOOOOOOOOOOOOOOOOOOOOOOOOOOOOOOOOOOOOOOOOOOOOOOOOOOOOOOOOOOOOOOOOOOOOOOOOO++++OOOOOOOO+OOOOOO++++++XXX++++@@&&@OOO+#%***========****=====*=**=****************=*=***##++++++++++++++++#################&&%&+OO$%**==*=**====**===***==**===***===*****===*==****=*=*%#$######**%*********===================**#+X#**==*********===*=*#XXXXXXXX$$#######%%%**************#XX#********===**===*%#$++++#$$XXXXXXXX$##$XXXXXXXX$$##%%%%*%%%%%%**********===********====*******%#$XXXXXXXXXXXXoXXXXoooooooooooooooooooooooooX$$##%%%#$$XXXXXXXXXXXXXXXXXXXXXXXXX+XXX+XXXX++XXXXXXXXXXXX+XXX++++++++++++++++++++++++++++++++++++++++++++++++++++++++++++++++++++++++",
"####++++++XXX++++###%%********%####$$####%*******%%%*********##%********#####$$$####%***#####$++$$#####*****####+$++#####******%%%###+++++$$$####********#####$$$$$$+XXXXXXXX.oooo  oo     oooXXXXXXXXXXXooooooooXXXXXXXXXX$$$$$$$$$$#########%***====**==****====****==**====********=*****%%#####$#########%%%*************%%%***==**=****========********=*****=***==*==*==*%####%****************************#+.+#********==********==******************##++++############%%%%%%%%%%%%%%%%%%%%%%%%%%%&&@O@#***********====**====********==****===******=*=*%##+###################################$++O@&&=********==******====*========*****=***===**=====%#OOOOOOOOOOOOOOOO...............OOO....OOOO....OOOOOO.OOOOOOO+++++++++#######################################%%&&@+OO$#**====**===******=***=**%#%%##############%%%%#%########%%%%%%%%%%%%%%%%**************%#OO##*******====*********=====*====****===*======***====*#$..X+++############**===*******==*=====**#X$#********=*****==*=%$...........+++++++++++##########*#+X$#****==**===*==*=*#+++++++++XXo.XXXX###$XXXooooXX$$##%%%*%%%%%%**********===********====***===*#$XXXXXXXXXXXXXXXXXoXXXooooooooooooooooooooooX$$##%%%#$$XXXXXXXXXXX..XXXXXXXXXXXXXXXXXXXXXXX++X+++++XXXXXXXX++++++++++++++++++++++++++++++++++++++++++++++++++++++++++++++++++++++++",
"####+++++XXXXX++####%%********%####$$###%%*******%%%*********###********#####$$$####%***%####$++$$####******####$$$$#####%*****%%%##++++++$$$$####****########$$$$$$$+XXXXXXXX.ooo         oooXXXXXXXXXXXoooooooooXXXXXXXXXXX$$$$$$$$$$#$#####%***====**==*=**====****==**=*==**==****=*****%##$####$$$$$$$######%%%%%%*****%%#%**===*==****========********=***=*==**====**=*%#########%%%%********==***********#+.+#********==****************************##XXXX+++#######%%%%%%************************&@@O#%*==****=**=*==**====********==****===****=*==***###############%%%%%%###%%%%%%%%%%%**%##@O@&&=********==******========*=====*=*=******==*=====%#OO......OOOOOOOO...OOOOO.....OOOOOOOOOOOOOOOOOOOOOOOOOOOOOOOOO++++##########%%*%%%%%%%**%%%%*%%%%%%%***********&#+OO$#***===***==*******=*==*%$$$XXXXXXXXX$$X$$$$$##########%%**%**********************===**%#++#%*=******====********=====*==*=****===*====*=*=*====*#Xo...XX+++++++++$$###%%%####%%%%%%******%#X$#*======*=**=****=*#$.....X..XXX+++++++++XX++++++$$$##$XX$#****==**=====***%#+++++++++XXXXXXXX$#$XXXXXoooXX$$##%%%*%%%%%%**********===*********==****===*#$XXXXXXXXXXXXXXXXXoXXooooooooooooooooooooooXX$$#%%%%#$$XXXXXXXXXXX.XXXXXXX+XXXXXXXX++XXX+++XXXXXX++++XXXXXXXX++++++++++++++++++++++++++++++++++++++++++++++++++++++++++++++++++++++",
"####+++++XXXX+++####%*********%####$+###%%*******%%%********%##%*********###########%****#####+$$#####******####$$$$#####******%%%###$++++$$$#####%***#######$$$$###$$+XXXXXXX.ooo        ooo.XXXXXXXXXXXooooooXXXXXXXXXXXXXXX$$$$$$$$$#$#$###%****==***====**=====*====****=***====******%%##$####$$#$$$$$$$$##################****=*=====**=****====******==**=*==*****=***%#$++++++++++++####%%%**************#+O+#****==***=**====*****%#%%#%%%%#%%%%**##+....XXX++############%********====**====**==&&@@+#**=****=****==**=*==******====****=*=*******=***#++###########%%%*********=******=******#+@@&&*********=====****==*=****==****===**********=**%#OOOOOOOOOOOOOOOOOOOOOOOOOOOOOOOOOOOOOOOOOOOOOOOO........O.OOOOOOOOO+++++#############%%%************************#++O##***=****==********====#$o .....................XXXXX++++#######%%%%%%%%******=****===*%+O+#*==*=***=========******=*********====****==**===*==*%+X......OOOOOO.....XO@@&##+++++++++++$###+XX##*========**=****=*#X...........OO+++OOOOOOOO+.OOOOXX+XXX#%****==**********##+++++++++XXXXXXX$$#$+XXXXXXXXX$##%%%%*%%%%%%**********===**********=****=***#$XXXXXXXoXXXXXXXXXoXXoooooooooooooooooooooooX$$##%%##$$XXXXXXXXXXXXXXXXXXXXXXXXX+XXXXXXX+++++X++++++++++++X++++++++++++++++++++++++++++++++++++++++++++++++OO++++++++++++++++++++++",
"####+++++XXXX+++####%*********%####$+###%%*******%%%********%##%*********###########%****#####+$$$####******%###$$$$#####******%%#####+++$$$$######%**########$######$$+XXXXXX.ooo        ooo.XXXXXXXXXXXXooooXXXooXXXXXXXXXXXXX$$$$$$####$#$#%*****==**====**====**====****==**====*****%##$$$$##$$$#####$$$$##################******===*==******===***==*===**====********%#$X++++++++++++++++########%%%*****%#OO+#***===***==*=====***##################++.......XX+++++XXXX$$######%%****==**==******&&@@O+#***==******==****===******===*********=*=******+++++++$#########%%**************==*****#+@@&&**********====***===******==****=*=**********=*=*#OOOOOOOOOOOOOOOOOOOOOOOOOOOOOOOOOOOO..OOOOOO...OOOOOOO........OOOOOOO+++++++++++#########%%%%***************=***#+OO##********==********==**#$....................o....o....XXXXXXXXX$$$#######%%%%*********#$++#**====**========******************===*********==*==*%+X......OO++OO....XXO@@&##++XXXXXXXXXXXXXXXX#%*=**=====*******=*#X...........OOOOOOOOO......OOO...XXXX#*=********=****=*#$+++++++++XXXXXXX+$#$+XXXXXXXXX$##%****%%%%%**********====*********=*=*******#$XXXXXXXXXoXXXXXXXoXXooooooooooooooooooooooXX$$##%%##$$XXXXXXXXXXXXXXXXXXXXXXXX+++XXXXXXXXX+XXXXXXX+++X+++++++++++++++++++++++++++++++++++++++++++++++++++++O++++++++++++++++++++++",
"####++++XXXXX++$+###%%********%####$$####%********%********%####********%###$#$#####*****#####+$$#####******%###$$$$#####*******######$$####################$$#######$$$XXXXXXooooo ooooooooooXXXXXXXX$$$$$$$$$$$$$$$$$$$$$$$$$$$$$$$######$$#%**=****======**=**===**=**===***********%###$$$#########$#$$$$$$##########$$$####**=*==*=*******===**********==***===*******##$++++++++++++..OOO@@OOOO++@+++++####+OO$#******************=*#+..............OO........................OOOO++++###&&%%%%%****&&&@OO++#%********=====*****=*=*********====**********+X...........XX++++++########%********==*#@@&&&&%***********======*=****===***===*==*******=***#OOOOOOOOOOOOOOOOOOOOOOOOOOOOOOOOOOOOOOOOOOOOOOOOOOOOOOOOOOOOOOOOOOOOOOOO...OOOOOOOOOOO++++@++#####&&%%%%*******%#+O+#%**========*==*****=***#X..................................................XX+++########+X+%*====*=****====*===*%====**===********************=*%+OOOOOOO+++++......O++@##@++++.....X....X.XX#**=******=****=*==%+X...........XOOOOOOOO...O..OO.X.X..XX#***=====******==*###$+++$$$$+X$$$$$$$###$$$$$$$$###%******%%%%***********=*=**%%*******===*=***%#XXXXXXXXXXXoooooXoooooooooooooooooooooooooXX$$##%%##$$$XXXXXXXXXXXXXXXXXXXXXXXXXXXXXXXXX+XXXXXXXXXX+X+XXXX++XXXX++++++++++++++++++++++++++++++++++++++++++++++++++++++++++++++++++",
"####++++XXXXXX+$####%%********%####$$###%%********%*******%#####*********###$#$####%*****####$$$$#####*******###$$$$#####*******############################$$########$$+XXXXXooooo   oooooooooXXXXXXX$$####################################$#%******=======****====****************%%####$$$$############$#$$###########$$$####**=**=****=***====****==****==**====******%#$+++++++++++++.OOOO@OOOOOOOO++++++++++OO##*****=****==*=*****%#+..............O.............O..................OO++++++######&&&&@OOO++###******====**====**=**********===******==**+................XXXXXXXXX+$$######%%****#@@&&&@##**********====***==***==****=*==*=****==*=*=*#OOOOOOOOOOOOOOOOOOOOOOOOOOOOOOOOOOOOOOOOOOOOOOOOOOOOOOOOOOOOOOOOOOOOO.OOO...OOOOOOOOOO.OOOO+O+++++++++#######%%%++++#****====*=====*********#X............................................    .oo.XXXXXXXX+++XX+%*=*==*=****====*==*##***==*******=***********==***=*##+OOOOOO+++++......O++@##@+OO......X....XXX+#**===****====*****%XX............OOOO.OOO......+OXX....X+%****=***=****=***%###############################%********%%%%***********===***%*******=*==****%#XXXXXXXXXXXXooooXXooooooooooooooooooooooooXX$$##%%##$$$XXXXXXXXXXXXXXXXXXXXXXXXXXXXXXX+X++XXXXXXXX++X+XXXX++XXXX++X+++++++++++++++++++++++++++++++++++++++++++++++++++++++++++++++",
"####++++X+XX+++$####%%********%####$$####%*******%%%%*****%#####*********#####$$###%*****####$$$######******####$$$$#####******#######################################$$+XXXXXoooooo       oooooXXXXXXXXXX$$$###%%%*%%*******%%%%%%%*****%%#$#%=******=*=*==**=*=*%%#####################$$$$$##$$#####$####$$############$$###%*****=*=====****=***********===*=*****==*%#$+XX+++++++++++OOOOO@OOOOOOOOOOOOOOOO++OO##****==****======***%+X............................OO................OOOO@@OOOOOOOO@@&&@@OOOOOO++###%*******=***====***==******=***==*=*=**+.............................X+O++++++###@@&&&&@@@&&&&&****====*=====**==************====*===%#OO@@@OOOOO@@@@@@OOOOOOOO@@OOOOOOOOOO@@OOOOOO@O@@OOOO@OO@OOOO@@OOOOOO@@@@OOOOOOOO@@@OOOOOOOOOOOO@@@@@@OO@@@@@@&&&+O++%****===****===*****=***#X... . .....  ........... .......................................+#**====********==*==%#+#***==***==***==******==**==***#++@@@@@@++++O.......++@##@++.X............X+%***====****==*****#XoXXXXXXXX.XXX++++++++++++$+###$++..X$%**=****====*==****%**************%%***************===******%%%**********====**%%*****==********%#XXXXXXXXXXXXooooooooooooooooooooooooooooooXX$$##%%##$$XXXXXXXXXXXXXXXXXXXXXXXXXXXXXX+++++++XXXXXX+++++++++++++++++++++++++++++++++++++++++++++++++++++++++++++++++++++++++++++++++",
"####++++++XX+++$####%%********%#########%*********%*%*****%####**********####$$$###%*****####$$$######******#####$$######******#######################################$$+XXXXXooooo         ooooXXXXXoooXXXXXX$$###%%%%*%******************%##%*********=**=**==*%##$$$$$$$$$$$$$$##########################$###################*****=**====****==***==****======*****===%##++++++++++++++O.OOO@OOOOOOOOOOOOOOOOOOOO##****==****===*==***#+X.............................................OOOO@@@@@OOOOOO@@&&@@OOOOOO++++####%%*********==*=====******==*======**+O.....................................+O+@@@&&&&&&&&&&&******=****=*==*=**************==*====*#@@@@@@@@@@@@@@@@@@@@@@@@@@@@@@@@@@@@@@@@@@@@@@@@@@@@@@@@@@@@@@@@@@@@@@@&@@@@@@@@@@@@@@@@&@@@@@@@@&@@@@@@&@&&&&&@OO++**=**===****===*********#X...   ....   .........    ......................................+#**====*******===***%+X#*******==========****====*==*%#O+@@@@@@++@OO.......++@&#@OO.......X.Xo...X#*=**===***********%#XXXXXXX+++++#####################+X.X#%**=****====**=****===****=====****%************======******%%***********====**%%*****==********%#XXXXXXXXXXXXooooooXoXoooooooooooooooooooooXX$$##%%##$$XXXXXXXXXXXXXXXXXXXXXXXXXXXX+X+++++++XXXXXX+++++++++++++++++++++++++++++++++++++++++++++++++++++++++++++++++++++++++++++++++",
"#####++++++++++$####%*********%##########*********%%********%##%*********%#####$###%*****###$$$$######******%#####++$####******######################################$$$XXXXXXooooo        oooooooXXXXXXoooooXXXXXXX$$####%%%**************%##%***=*********====*%#$X$XX$$$$$$$$$$$#########%%%%%%%%%%%%%%%#######%%%%#########%********==****=*==*%%*****=======****====*##+++++++++++++X..OOO@OOOOOOOOOOOOOOOOOOOO##*****==*****===****#+X............................................OOOOOO@@@@OOOOOO@@&&@@@OOOOOOOOOOOO+++####%&%%***==========*****==***=*%OOOO...................................OOOOO@@&&&&&&&&&&&&&&&&==========****=*==******====*====&::::&::&&&::::&&:::::::::::::&&&&&&&&&&&&&&&&&&:&&&&&&&&&&&&&&&&&&&&&&&&&&&&&&&&&&&&&&&&&&&&&&&&&&&&&&&&&&&&&&@@OO+#**==**====********==***%$X....................... oo........................ .............+#****==**********=**#X.+%*****=**========*********=**#$.OOO++++++++++XX+XX++#####++++XXXXX+XXXXXXX#****====*****==***%########%%%***************=*==*=*%#X.$#*******=**=***=****=*******=******%#%%%##########%**********%%*********=======*%%****==**********#$XXXXXXXXXXXXoooooXXooooooooooooooooooooooXX$$#%%%##$$XXXXXXXXXXXXXXXXXXXXXXXXXXXXXXXX++++++XXXX++++++++++XX++++++++++++++++++++++++++++++++++++++++++++++++++++++++++++++++++++++",
"#####$+++++++++$####%*********%##########*********%%*******%###%*********%#########%*****#####$$######******%#####$$$####******##########%****################$$###$$$++XXXXXXooooo        ooooXooXXXXXXXXXoXXXXXXXXX$$$$$$$###%%%*********%##%*************=*===%#$XXXX$$$$$$$$$$$#######%%%%%*************%%%%%%%%%%%%#######%********==**====**%###%***======*****==*=*%#$$+++++++++++XXXOOOOOOOOOOOOOOOO.OOOO.OO#*****===****=====**%#+X....... ....................................OOOOOO@@@@@OOOOO@@&&@@@@@OOOOOOOOOOOO++++++####%**=*==*=*********=***=*%OOOOOO..O..............................OOOOOOO@@@&&&&&&&&&&&&&&&******==*==***********==*=*====&&&&&&&&&&&&&&&&&&&&&&&&&&&&&&&&&&&&&&&&&&&&&&&&&&&&&&&&&&&&&&&&&&&&&&&&&&&&&&&&&&&&&&&&&&&&&&&&&&&&&&&&@&@&@@@@@O.+#***=**=*==**=****====**%#XXX..................XXXXXXX.....................................$#****==**********=**#..X#*****==*======*===*******==*##++++++++@+++++++#####%&&&%##############+X$#**=**===*****=**=*%##%##%%%%****====*=******========%#XX$#*==***==******=*****===***==******#######$$$$$$$###%%%******%***********======*%%****===*********#$XXXXXXXXXXXXXXoooXXoXooooooooooooooooooooXX$$#%%%##$$XXXXXXXXXXXXXXXXXX++XXXXXXX+XX++++++++XXX+++X++++XXXXXX++X+X++++++++++++++++++++++++++++++++++++++++++++++++++++++++++++++++",
"####$$+XXX++++++####***********%#########**********%*******%###%*********%#########%*****#####$#######*******###$$$#$###*******########********%###########$$$$$$$$$$XX+XXXXXXooooo  ooo   ooooXXXXXXXXoXXoooXXXoXXXXXooXXXXXX$$####%%%%**%%##%********==*******=%#$$$$$$######$$$$$$$$$########%%**************************%%%%**==*=******=====*##$#%*************=***=**%######################++######++$##$+.OO#*****====****==****%#$$+++XXXXXXXXXX++XXX...............................OOO@@@@OOOO@@&&&@@@@O@@@OOOOOOOOOOOOOOOOO@&****************=***==*#+OOOOOO.OOO............................OOOOOOOOOO@@@@@@@@@@@@@@@@@@@##%**====****==****=**===*&@@@@@@@@@@@@@@@@@@@@@@@@@@@@@@@@@@@@@@@@@@@@@@@@@@@@@@@@@@@@@@@@@@@@@@@@@@@@@@@@@@@@@@@@@@@@@@@@@@@@@@@@@@@@@OO@OO.+#**==****===*==**=*===**%#############################+....................XX..XXXXXX+++X.X#%***==*******==**=**#...+%**=======******====******=*#########%#%%**%%%*****======******=*====%$X#%*****=*****=******#$X$$$######%%***************====*##XX#%*=***===******=*==*====**********%#$####$$XXXXXXX$##%%%****%%*************====*%%******====**=***#$XXXXXXXXXXXXXXXXXXXXoooooXoooooooooooooooXX$$#%%%##$$XXXXXXXXXXXXXXXXX+++XXXXXX++XXXX+X+++XXX+++++++XXXXXXX++++X+++++++++++++++++++++++++++++++++++++++++++++++++++++++++++++++++",
"####$$+XXXXX++++####%**********%#########*********%%*******%####*********%##########*****#############*******###$$$#$###*******#######%**====***%#########$$$+++XX$$XXXXXXXXXXooooo oooooooooooXooXXXXooooooXXXXXXXXXXXXXXXXXXXX$$#####%%%####%*******===********#$$$$$$$$##$$$$$$$$$$$$$$$$$#######%%%%%%%%%****************%%%**====*=****=====*#$$$#************=************************%%%%%%%%%%%%%#######+OOO#******====***===****%##########+++####++++XXXXXXXX..............OOOOO...OOO@@@@OOOOO@&&&&&@@@@@@@@@@@@@@@@@@@@@@@+#********===***==*=**==*#@OOOOOOOOOO.............................OO@OOOOOOOOOOO@@OOOOOOOOOOOO++#**====****===***=***==*#+OOOOOOOOOO@@OOOOOOOOOOO@@@@@@OOO@@@@@@@@@@@@OOOO@@OOOOO@@OOOOOOOOOOOOOOOOOOO@OOOOOOOOOOOOOOOOOOOOOOOOOOOOOOOOOOOO.$#**=*****======***====*=***%*%%%%%%%%*%%*************##XXXX..XXXXXXXXXXXXXXXX++++#####++X.X#****==***=*=======*%$...X%**=**=*==******======**=***########%*********=======================#+X#%*****==****=*****%#XXoooXXXX$$$#######%%%%%%********#$XX#****=*===*****==*==*====***==*****%#$$###$XXXXXXXXX$##%%****%%***********=*====*%%******===***=*==%$$XXXXXXXXXXXXXXXXXXXXooooXoooooooooooooooXX$$#%%%##$$XXXXXXXXXXXXXXXX++++XX+++X+XXXXX+X++XXXXX+++XXXXXXXXXXX+++XX++++++++++++++++++++++++++++++######++++++++++++++++++++++++++++",
"####+++++XX+X$++#####**********%########***********%*****#%####%*********%#########******%##########%********#####$$####*******%######***=====**%########$$XXX$+XX$$$$X$XXXXXXXoooooo ooooooooooXXoXXXooooooXXXXXXXXXXXXXXXXXXX$XX$$$$$$$$$$##%******************%$$$$$$$$$$$$$$$$$$$$$$$$$$$$$$$$############%%%***********%%%%******======****=*#$+$#*********==***====**%#######*****====****==*=************#+O+#********=******=**********************%****######################################..OO#===**%#######&&&&&&&&&&&&&##%****=*==******==***===*#+####+++++++++XXXXXXXXXXXXXXXXXXXXXX....#######+++XXXX..XXX.........X$#**=*===*****=******===*++OOOOOOOOOOOOOOOOOOOOOOOOOOOOOOOOOOOOOOOOOOOOOOOOOOO..OOOOOO+++++++++++++++++++++$$$+$++$$+###$$$$$##$$###+##$#++O.##**==*===****=====************=****====***=***********%#######%%%%%%%%%%%%%%%%%%%*%%*%%+XX+%*****==***=********#X....#%**==*==**********=====***%$X..XXX++##########***================*=*#++#*****==****==*****%Xo. ....... ....OOOOOO+++++++#####+XXX#**=*=***********=**==**===********#$X$##$XXXXXXXXXX$##%%***%%%********=**======*%%*******===**=***%$XXXXXXXXXXXXXXXXXXXXXooooooooooooooooooooXX$$#%%%##$$XXXXXXXXXXXXXXXXXX+++++XXXXX+++++++++++++XXXXXXXXXXXX++++++++++++++++++++++++++++++++++#####&&##########++++++++++++++++++++",
"####+++++XX+$$$$####%**********%########%**********#%***%######%*********%#########******%##########%********###########********######**=======*%####$$$$$+XXX$+XX$$$$$$$$+XXXXXooooooooooooooooXooooooooooooXXXXXXXXXXXXXXXXXXXXXXX$$$$+XX+$#%*************=****#$$$$$$$$$$$$$$$$$$$$$$$#$#$$#$$$$##############%%%***%**%%%%%%******======****=*#$+$##********==****==***%#$$$######%%*******=====**=====*****#+O+#*******==******==**************************%#####%%%%%%%%%%*******%*****%%%%***%#O.O@%===**=***&&&&&&&&&&&&&&&&&&*=**===*********===***==**&***&&%%############################O..+#******%###+++++++++++++++++$##****===****==******===%+XOOOOOOOOOOOOOOOOOOOOOOOOOOOOOOOOOOOOOOOOOOOOO.OOOOO.OOOO+++@++##############################################%##+.+#%*===**==****==*==*********=**=***==**==**==**=*==*=**%%%****%************************%+XX+%=****=***==*=******#X....X#***==***********======***%X.....XXXXXX++$$$$#####%****************%#X+%*=****************%Xo..............OOOOXX.X++++XX++++X.X+%**=*****==***=**=***=**==*******=*#$X$$##+XXXXXXXXX$#%%%***%%%********=***=====*%%*******==**==***%$XXXXXXXXXXXXXXXXXXXXXooooooooooooooooooooXX$$#%%%##$$XXXXXXXXXXXXXXXXXX++++++XX++++++####++++XXXXXXXXXXXXXX++++++++++++++++####++++++++++++####&%&&%%%%&&######++++++++++++++++++",
"####$+++++++$$$$####************#########*********####**#######%*********%#########******%##########%********#####$#####*******%######***======*%###$$$$$$$$$$$$$$$###########$$XXXXoooooXXXoXooooooXoooXXoXXXXXXXXXXXXXXXXXXXXXXXXXX+++$$X$$#%***********=====**%$$$$$#$$$$$$$$$######################%%%#########%%%%%#######%**=======*==**=***#$++$#******=*=****======*#$XX++++++#########%*******=*===****#+++#******=*==*==========*==**===**************###########%%%******************=****#..++****==**********************==**==****=*==*====***==***=*********************************#+.X+%*=======****%%%%%%%%%%%####%*****==**=***==*******==#+XOOO.OOOOOOOOOOOOOOO...OO......OOOO......OOOO....OOO...OOOOO+++++###&###%%%*****************=******************#+.+#%***=**==*==***=*=====*****=**=****==*==*===========*##########%%%***********==**====*%+XX#*=**=*==**======****#X....o#%==*=*****=*========****%#X.................XXX++#&&##+++##########XX+%*=***************%#Xo.............OOOOOO..O.O..O.O+OOXXX+%*==*****===**===***==***********=*#$$$###$XXXXXXXX$$#%%****%%%********=**======*%%**=****==***=**=%$XXXXXXXXXXXXXXXooXXoXooooooooooooooooooooXX$$#%%%##$$XXXXXXXXXXXXXXXX+++++++++X++++########++XXXXXXXXXXXXXX++++++XX+++++++##########+++++++###&&%&&&&%%%&%&&#&##+++++XX++X+X+++++",
"####$+++++++$$$$####************#########*********####**######%%*********%#########*******#########%****==***###########%******%######****====**####$$$$$$$$$$#################$XXXXXXXXXXXXXXXXoXXXXXXXXXXX$$$$XXXXXXXXXXXXXXXXXXXXXXX+$$$$$#%***********======*#$$$$$################%%*****%######%%%%%%%##$####%%%#########%**======**======**#$++$#******==******==****%#++++++++++++++++#########*********#+++%******=*******====**==****==**************%$XXXX++$########%%%%*****************#..X+**********=********=**==***=**==******========*=*==*%%####%*******====*========*=========#+X+#**=*====**********************==*==*===***===******=*#+XO.......O....O..................OO......OOOO..........OOO...OO+++++++###########%%%*******===**===*******=**=*#XX+#*********====*****=======**==*=****==**=*===========*$XXXXX$X$$#######%%%%*******===**#X.X#*=**==*=******==***%+X....oX%***=*****====*=*===***=%#X...........XXXXXXXX.++#&&##++XXXXXXXXXXX.X#******==**********#$o..............OOOOOOOOOOOOO....O...X#***==****===*********===***=**=**=%#XX$$##$XXXXXXXX$##%%****%%%********=***=====*%***==****=**=====%#$XXXXXXXXXXXXXXooXXooooooooooooooooooooooXX$$#%%%%#$$XXXXXXXXXXXXXXXX+++####++++++##%%%%%##+++XXXXXXXXXXXXXX+++++XX+++++++############+++++##&&**&&&***%%%%&&&##+++++XXX++X++++++",
"#####+$+++++++$$####************#########*********#####*%%##%#%%**********%#######%*******#########*****==***%#########%********#######********%####$$$$$##########%%%%%%%%%###$XXXXXXXXXXXXXXXXXXXXXX$$##################$$$$$$$$$$$$#####$$#%********=****==***%$$###############%%%%%%%%%%%%%####%%%%%*%%################$##%**==***=****====**#$++$#%*****==************%#+++++++++++++O++@@@@+++++#########++++%*****==***=***===*********=********===****%+.....O......XX++++$######%%%*******#$..X#*=**=*****************=****==*********=======**=*==%#+OO+++#######%#%%******============*#OX+#**===*=======*****************=***====*******===****%#O.......................OO......OO...........O..OO............O.....OOO.....X++++++++###########*%*********==**#+XX+%*********===***=****=******=*=******=*=======*==*==*%X.............XXXX++++######%%%%##X.X#*=*===********=****%+o......#*****==****==*=*===**==#$....................OOO@&&#@OO.........X..$#*=****==**********#$....oo.X.......O++++OOOO....OOOOOO..X#*=*=*****===**********====********%#$$##############%%******%%**********==*=====*%%***====***=****=%#$XXXXXXXXXXXXXXooooooooooooooooooooooooooXX$$#%%%##$$XXXXXXXXXXXXXXX+++++####$++++##%%*%%%##+XXXXXXXXXXXXXXXXXXXXXX+++++++############++++##&%%%*%%*******&&&&###+++XXX+++++X++++",
"#####$$++++++++$####************#########*********#####*%%%%********==****%#######%*******########%*****==***%##########********########*****%%#####$###########%%%%%%%%%%#####$XXXXXXXXXXXXXXXXXXXXXXX$$$#######%%%%%%%%%%%%%%%%%%%%%%%%%##$#%**************=***#$$$################%%%%%%%%%######%%%%%%%################$$##%*===***=****=====*#$++$$#*****==***=*********#$++++++++++++@+@@@@@+++++++++++###OO++%*****==*=*******=*********==**************#X.....O.........XXXXXXXX$$$#####%%%%#+..$#*==*=*****============****===******===**======*==**%+X..XXXXX+X+$$$$#####%%%%*******====*#XO+%***==***==*===******========**=***==*********===****#+O.......OO........OOOO..OOOOOO..OO..............OO................OOOOOO......++++XX++++++$$#########%%%%%%***%#+.X+%*=*****=*====**==****==*****=*******=*===*=*****===*%X...............XX..XXXXXXX$$$###+..+#*=**==*=*****=*****#X.......$#****==****==****==**=*#$....................OOO@@@#@+O............$#*=****=***********#X...............OOOOOOOOO......O++O..$#***=*****===********=*==***********%%%%************************************==-==*%%***********=**==%#XXXXXXXXXXXXXXXooooooooooooooooooooooooooXX$$##%%##$$XXXXXXXXXXXX+X+++++######+$$+###%%%%%##+XXXXXXXXXXXXXXXXXXXXXXX+++++++###########++++###%%%%%%%*%%%%**&&&&##+++XXX++++++++++",
"#####++++++++$$######***********#########*********#####%***********====***%#######%*******%#######%**********%##########****************%%%%#############%%%%%%%###########$$$$$XXXXXXXXXXXXoooooXXXXXXXoXXX$$$$####%%%********=*====*****%###%*************==***%$$################%%%%%%%%%%%#####%%%%%%#############$$$$$$##%*=****========**=*#$+++$#%**====**====*******%#++++++++++++@@@@@@@OOOO@@@OOOO+++OO++**********=********************************#X.....O...................XXXXXX+++++X..##**===****=*********===************====*************#O..................XX++++############+.O#%*=*==******====*********====**************====******#+OOO.OOOOOOOO.O...OOOOO.OOOOOOO.OOO..OOOOOO....O.OO..OOOO....OOOO.....OOOOO....OOOOOOOOO.OOOOOOOOOOO+++++++#####+OO+#%=*****=====***===****=****===*********===*=*****===*#X...................................$#*****==*****==*****#........X#***=====***=****==****#X...............O.....OO@@@&@++OOO.........#%*=****=**********%#X..ooXXXXXXXXXX+++++++++++++++###+O.X##*********====***====**====**************=**********=====******************===--=*%%***======******%%$XXXXXXXXXXXXXXXXXooooXXooooooooooooooooooXX$$##%%##$$XXXXXXXXXXXXXX++++#######$$$+#########++XXXXXXXXXXXXXXXXXXXXXXXXXXX+++++++++++++++++++####%%%%&%&&%%&%&&&###+++XX+++++++++++",
"#####$+++++++$$######**********%########%*********####%**********======****%######%*******%#######%***********##########**********=**=****%%##%%%%####%%%%%%%%######$$$$$$$$$$$X$XXXXXXXXXXoooooXoooooXXXXXXXXXXX$$$$###%%%****=**=====*=*%###%************===***%#$$$###$$##########%%%%%%%%%%%%%%%%%%%%%##############$$#####%******========**=*#$++++#%**==****===****=****##++++++++##+++@@@@@OOOO@@@@OOOO+OOO+#***=******==***************=************=**#......O.........................X...X..X#***********==**=*****==**===**==**=*==*********=***##.....................XXXXXXXXX+$$$##+X.O#********===******=*====**====***************===******#+OOOOOOOOOOOOOOOOOOOOOO.OOOOOOO..OO..OOOOOO.....OO...OOOOOOOOOOOO....O...OO....OOOOOOOOOOOOOOOO......O+O+++++++++.O+#*=*****===*=**====****==****===*==******=*===***====*#........................O...........$%*=****=*****=*****%#. . .. .X$***=====********=*****#X..............OOOO..OOO@@&&&@+OO++...X..XX#%******=*=********%#$XXXXXX+++++++###################+XXX#*********=====***======************%%%%%%%%%%%%%%%%%***********************===--=*%%******%%%%%###$$$XXXXXXXXXXXXXXXXXXooooXXooooooooooooooooooXX$$#%%%##$$XXXXXXXXXXXXXX++++####################++XXXXXXXXXXXXXXXXXXXXXXXXXXXXX++++++++++++++++++###########%%%%&####+++++X+++++++++++",
"####$$$+++X$$$$#####***********#%#######**********%####********=========****######%********%######%%**********************==============***%%%%%%%%%%*%%%%%#####$$$$$$$$$$XXXXX$$$$$$$XXXXooooooooooXXoXXXXXXXXXXXX$$$###%%%*******=******%%##%************=*=***%##$###############%%%%%%*****************%%%%%%%%%%%%%#######%*==***===*********#$++++$#***=*=********=*****%#++++++++++OOO@@@@OOOOOO@@@OOOO+OOO+#***********=****==******==**********=*****%#......OO...............................+#*******=*******==******=************=****=*****=***#X..................................O...X+%*==****==******************=*************=********=*#++OOOOOOOOOOOOOOOOOOOOOOOOOOOOOOOO.OOOOOOOOOOOOOOOOOOOOOOO..........O.............O.OO.......................OO.X.X.$#*==*==**====**====********==**====******======**=**=%#.......................OOO..........#******===**********#$....  ...X#**=******==*********%+X.....X..XXXXXXXXXXXX+++###&####$$$$$+XX.X+%******************%#####%%%%%%%%********************#+.X$%****************===========******#####################%*********************=-;-=*%%%%%**%%#$$$$$$XXX$$XX$XXXXXXXXXXoXXXXXoooooooooooooooooooXXXX$##%%%##$$XXXXXXXXXXXXXXXX++####################++++++XXXXXXXXXXXXXXXXXXXXXXXXXXXXXX+++++++++++++++##################+++++++++++++++++",
"#####$$$++++$$$#####%**********%%#######**********%%##%*******==========****######%********%######%%***************=*====================***%%%*%%%%%%%%#####$$$$$$$$$$$$$XXXX$$#####$$XXXoooooooooooXoXXoXXXXXXXXXX$$$$####%%%%**********%%##%%****************%###$################%%%%%%%%%%%%***********************%%%####%**=*====*****=****#$++++$#********************%#++++++++++OOOOO@@@OOOOO@@+OOOOOOOO+#***********=****=*******=*=***************%#.....OOO........................... ...+%***************==******==****==**=**=*****===*****%+X....................................O.X#**************=*==**********==***************====***##X+OO..OOOO.OOOOOOOOOOOOOOOOOOOOOOOOOOOOOOO..OOOO....OOOO....OOOOOO..O........O.....OOOOO.....................O..X.+O$#**==*****===**===****=****=***==********======**====##......................OOOO.........X#******==***==*==***#X.....  ...#*==*=**=*==*****=***%+XXXXXXX+++++++++++++#####%%&%%%#######+..X+%******************%####%%%%%%*******=**************%#+X+#%************=*===*============**%##$$$$####$$XXXX$$$$##%%*****%%%***********=;;-=*%%%%%**%##$$$$$$$$$$XXXXXXXXXXXXXXoXXXXXXooooooooooooooooooXXXX$$#%%%##$$XXXXXXXXXXXXXXXX++#######+###############++++++X++XXXXXXXXXXXXXXXXXXXXXXXXXX++++++X++++++++++++++########+++++++X+++++++++++",
"####$$+++++++$$$####%***********%######%****=******%##%******===========****######%********%##%%#%%************==========================****%%*%%%%%%#####$$$$$$$$$$$#$$$$X$$$$##%%##$$XXooooooooooooooooXoXXXXXXXXXX$$$$$$####%%%%%%########%%****************%#####################%%%%%%%%####%%%%*********************%##%**======****=====**#$++XXX#%********************%#########$$$$#############+$+++++++#************=***************==************%#....XO..XX............................X#***************=********=***********=***==********%#XX................................OO.OO.+#*********=**=======*****==*******===*********=******#+OOOOOOOOOOOOOOOOOOOOOOOOOOOOOOOOOOOOOOOOOOOOOOOOOOOOOOOOOOOOOOOOOOOOOOOOOO.OOO....OOOOOOOOOOOOOOOO.....OO...OOOO..OO##*=********=*********====**********====*===**==*==*=*#$OO....OO....OOOO.....OO+X+.XX.X...o+%**======***==*===**#X..... ....$#**==**====**====*=*%##%%%%#%%%**************************%%#$XXX#*******************#$XXXXX$$#########%%%%%*%%%*%***%##++##%******====*****=************%%###XXXXXX$##$$XXXXXXXXX$##%%***%%%%%%%%%%%****=;;-=*%%%%%**%%##$$$$$$$$$$XXXXXXXXXXXXXXXXXXXXXXooooooooooooooooXXXX$##%%%##$$$XXXXXXXXXXXX+X+++###$++++++######%%#############$$$XXXXXXXXXXXXXXXXXXXXXXXXXX++XXXX++++++++++++++++++++++++++++XX++++++++++",
"####$$+++++++$$#####%************%#####****====****%##%******===========***%######%********%%%*******===*===============================*****%%#%%#######$$$$$$$$$$$####$$$$$$$###%%%##$XXoooooooooooXoooooooooXXXXXXX$$$$$#####%%%%%#############%%%%%******%%%##$$$$$###############%%%%%%%########%%%%%%%%%%%%**********%##%**=====**=*=======*#$+++++$#*=**=====*****===***********%%%#####################++++#**************===***********==************%#XXXXX+++.X............................X#*******=*******=********=***********=***********=*#$X...............................OOOOOOOO+#********==**======****======********==****=*=**===*#++OOOOOOOOOOOOOOOOOOOOOOOOOOOOOOOOOOOOOOOOOOOOOOOOOOOOOOOOOOOOOOOOOOOOOOOOOOOOOOOOOOOOOOOOOOOOOOOOOOOOOOOOOOOOOOOOOO++#%*=********==********==*=**********====**==**=====***#$....OOOOOOOOOOOOOO.OOOO++++++++...o+%***=*===******===*%+X..........X#**==****=***=====**%#####%%%%*******====*********=******%%#$XX$#*******************#XoooXXXXXXXXXXX$$################+++##%%%%****%%%%%%%%###############$XXXXXXXX$##$XXXXXXXXXX$##%%***%%%%**%%%%%****=;;==*%%%%%**%%##$$$$$$$$$XXXXXXXXXXXXXXXXXXXXXXXooooooooooooooooXXX$$##%%%##$$$$XXXXXXXXXXXX+++$####$+$+++####%%%%################$$+++X++XXXXXXXXXXXXXXXXXXXXXXX+++++++++++XX+++++++++++++++XX+++++++++++",
"#####$++++++++$$####%************%####*****====*****%%%%****============***%######%***************====================================*****%%#############$$$$$X$$#######$$$$$$##%%%%%#$XXooooooooooooXXooXXXXooXXXXXXX$$$#####%%****%%######$$$$$$$##%%%%%%%###$$$$$$$########$#####%%%%%%%####$$###############%%%******%%###%*===***=*==****==*#$++XX++#*********************%%***************=====**==**=**#++##*****=*******===****=**********************%############$$$$$$$$$$$$$$XXXXXXXXXX..$#*******=*******=***************************=*****##XXXoXoXXXXXXXXXXXXXXXXXXXXXXX..O+++++OOOO##**********====***=****=*===***====*===**********=*&@@@@@@@@@@@@@@@@@@@@@@@@@@@@@@@@@@@@@@@@@@@@@@@@@@@@@@@@@@@@@OOOOOOOOOOOOOO++++OOOO+O++OOOOOOOO+++OOO+++++++++++++OOO++#*****=*=************==****=******==***=*****========*##########################*****%##..X#*=*****===**====***%XX..........o+%*===*******==****#$XXXX+++++########%%%******=====*****###+++##*******************#o...............X+++++OO...XO+++OO..X++$$$##$$$$++++++X++++++++++##$+XXXoXo..X+$$$XXXXXXXXXX$##%***%%%%%**%%%%*****=;;==**%%%%**%%#$$$$$$$$$XX$$$$$XXXXXXXXXXXXXoXXXXoooooooooooooooooX$$##%%%##$$$$XXXXXXXXXXXX+++$#####$+$$+###%%%%#########################++++++++XXXX+++XXXXXXX++++++++++XXXXXXX+++XXXX++++XXX+++++++++++",
"######$++++++$$$####%***********%%###%*****====*****%%%%*****==========****%###%#%**********========================================******%%#####$$#$#####$$$$$$$$###%%%##$$$$$##%%*%%#$XXXooooooooooooooXXXXXXXXXXXXXX$$$$####%%*****%%%#####$$$$$$$#%%%%%%##$$$$$$$$$$$######$$$####%%%%%####$###########$$$$$$##%%%%%%%%###%%********=========*#$++XX++#%**=*===**********=**%#####%%********======***=====*#++##*=*===****======*=*********************===*%%%***********%%%%%%%%%%%%%%%%%%###+X..#%**********************==********==******=**=****%#####++++++++++++XXXX++XXXX+++++++++++@@@+@#*=****************==*****===***=*==**=*==**=**=****&@@@@@@@&&&@@@@&&&&&&&&&&&&&&&&&&&&&&&&&&&&&&&&&&&&&&&&&&&&@@@@@@@@@@@@#@@@@+++++++@++@#@@@@@@##@#@@@@@@##########@@OOO+%*****====*****************=*=****==********=====*==================******************##..X#********=*****==*=*#X........  .oX#*===*******==*==*#XXXXXXXoXXXXXX$$$$########%**********###+++#*******************#$Xoo.............O++OOOOO.....O++O.....XXXXXXXXXXXXXXX+X.++++++O++###+XXX.oooXX+##$XXXXXXXXXX$##%****%%%%**%%%%*****=;;==**%%%%**%%#$$$$$$$$$$X$$$$$XXXXXXXXXXXXXXXXXXXooooooooooooooooX$$##%%%##$$$XXXXXXXXXXXXX++$$$#####$$#####%%%%##############################+++++++++++XX+++++++++++++++XXXXXXX++XXXX+++XX+XX++++++++++",
"######$+++++$$$$####%*****=*****%%###%***=*=====*****%%%*******************************=========================================*********%%###$$$$$$#######$$$$$$$##%%%%##$$$$$###%%%%#$XXXXooXXoooooooooooXXXXXXXXXXXXX$$$$###%%*****%%%%####$$$$$$$##%%%%%##$$$$$$$$$$$$$###$$$$$####%#%%%###$$##########$$$$$$$$######$######%****************%#$++++++##**=*****=====***===*%#++++##+#####%*************=*%#++##*=*=====***=**======*******************==*%####%%**********=**===*=========**%#XoX#***=*************=****===*****======***=*=**==*********%%%%%%**%%%%%%%%%%%%%%%%%%##%***%#@@#&*==****===********=====****=**********=*=*===*=====*&&&&&&&&&&&&&&&&&&&&:::&&&&&::&&&&&:::&&&&&:::&&::&&&&&&&&&&&&&&&&&&&&#&&%%%***********==*===========*=*==========*%@@+#****========**=*==*********=====*===*******======**=============================*****=#$..X#***=****=******=*=*#.o... ........#%********====***%#X...................XXX++++#&&&&&&&&&&@#+++##################++XX.. .o...... ....OOOOOOOOO....OOOO............X..........OO@@@OO++##$+XXoooo.XX+$#$XXXXXXXXXX$$#%***%%%%***%%%******=;;==**%%%%**%%#$$$$$$$$$XX$X$$$XXXXXXXXXXXXXXXooXXooXooooooooooooXX$$###%%##$$XXXXXXXXXXXXXX+$$###############%%%%####################################+++++++++++++++++++X+++++X+X+XXXXX++XX++X+++++++++++",
"######$$$$+$$$$$####%*****=*****%%###%****======*****%%%%************************===========================================************%%###$$$$$$$########$$$$$$##%%%%##$$$$$###%*%%#$XXXXXXXXoooooooooooXXXXXXXXXXXXXXX$$$###%*****%%%%####$$X$$$$##%%%%%##$$$$$$$$$$$$$$##$$$$$######%%###############$$$$$$$$$###$$$$$$$$#####%%%#######%%%##+X++++++$#%********************##++++++++++$########%*******%#++#%*=*=====***=**=====*********************=*#$X$$#######%%%*******==========***%+X.X#***==************==***===***========***==*****%########%%***********===**==***=========*%@++#*====**=====******======***=************=*===*==**&&&&&&&&&&&&&&&&&&&&&&&&&&&&&&&&&&&&&&&&&&&&&&&&&&&&&&&&&&&&&&&&&&&&&&@@+#####%%%***=================================%@@#&**=========**=======****=**====*====****=***========**&&&&&%%%&&******============****#$..$%********=*********%$.o.... .......$#*******====****#+X...................XXXXO++##&&&&&&&&&&&@######$$$XXXXXXXXXXXXXXo..  o..... .....OOOOOOOOO....OOOO............O+.........O@@@@OO++##++XXoo...XX+##$XXXXXXXXXX$##%***%%%%%**%%%*****==;;==**%%%%**%%#$$$$$$$$$$X$X$XXXXXXXXXXXXXoXXXXoXXooXXooooooooooXXXX$$##%%##$$XXXXXXXXXXX$XX+$$###############%%**%########################################+++###+##$$+++++++++++X++XXXXX+XXX+X++++++++++$",
"######$$$$$$$$######*************%###%****======*****************=====**=========================================************************%###$$$$$$$###%####$$$$$$##%%%%##$$$$$##%%%%%#$XXXXXXoooXXoooXXoooXoXXXXXXXXXXXX$$$$###%%*****%%%#%##$$XX$$$##%%%%%#$$$XX$$$$$X$$$###$$$$######%%%%###$$#########$$$$$$$$#####$$$$$$$$$$##%%%%#########+++++++X+++++####################+++++++++O+OOO@@@@O+++++#######O+##**************==*********************====*#o. . ..XX.XXX++$####%%%***********#XoX+#***=****=************====*===***********=****##X...XXX+++######%%%*********============*#O.+#********==**=*******==***=**********************##@@@@@@@@@@@@@@@@@@@@@@@@@@@@@@@@@@@@@@@@@@@@@@@@@@@@@@@@@@@@@@@@@@@OOOOOOOOO++@@@@&&&*&&**===========================&#@%*==================*===*====*======***===============*#+XOOOO++++++++++++#######&%%*%%%#X.X#%=*======*****==*=*#X...............+#%%%%#########++........................O.OO@#&&&&&&&&&&&&&&&###++++++O++++XXXXX........o.. ......OOOOOOOOO....OOOO............OXX........O@@@OOO++##++XXooo..XX$##$+XXXXXXXXX$##%****%%%%**%%%%*****=;;=**%%%%%**%%#$$$$$$$$$$$XXXXXXXXXXXXXXXXXooooooXXXXXoooooooooooXX$$###%%##$$$$XXXXXXXXXX+++$$################%%****###########################%######################+++++XX+X++XXXX+XXXX+++++++++++++$$",
"######$$$$$$$$$$####%************%###%*****====*****************==============================================***************************%###$$$$$$$##%%%###$$$$$$##%%%%##$$$$$##%%%%%#$XXXXXXoXooooooXooooXXXXXXXXXXXXXX$$$$###%%*****%%%####$$XX$$$##%%%%%#$$$XX$$$$$X$$$$##$$$$$######%%%##############$$$$$$$$####$$$$$$$$$$$##%%%%%########$+++++X+++++++++++++++++++++++++++++++++++O+OOO@@@OOOOOO++++++++XX+#############%#%%%%%%%%%%*************====*#o. ......oooXoXXXXX$$$$#####%%%%%%#XXXX##***==******************=*******************%$X.....o...XXXXXX$$$#####%%%%%********==**%#..+#************=*****=******=====****************##++OOOOOOOOOOOOOOOOOOOOOOOOOOOOOOOOOOOOOOOOOOOOOOOOOOOOOOOOOOOOOOOOOOOOOOOOOOOOOO@O+@@############%%%*****===*==========&#&*=======================********=*===**==========*==**%#XX...............XXXXXXX+++$####+X.X####################$X...............XXX+XXXXXXXXXX..X........................O.OO@@&&&&&&&&&&&&&&&&&&&&##++++++..XX..X.o..o...o........OOOOOOOOO....O+OO...........XXXX.......OO@@+OO+++##++XXooo..XX+##+XXXXXXXXXX$##%****%%%%*%%%%%*****=;;=**%%%%%**%%##$$$$$$$$XXXXXXXXXXXXXXXXXXXooooooXXXXXooooooooooooXX$###%%##$$$$XXXXXXXXXX++++$#################%%%%%##################################################+++++XXXX++XXX++XXX+++++++++++++++$",
"########$$$$$$######%************%%#%%*****=*=****************==============================================******************************###$$$$$$$###%%###$$$$$$##%%%%##$$$$$##%%%%##$XXXXXXoooooooooooooXXXXXXXXXXXXXXX$$$$$##%****%%%%####$$XX$$###%%%%%##$$X$$$$$XX$$$$###$#$######%%%%###$###########$$$$$$$####$$$$$$$$$$$##%%%%%########$++++XXX++++++++++++++++++++++++++++++++++OOOOO@@@OOOOOOOOOOOOOOO....OOO..OOOOO+XXXX..++++XX++++++++++++$####+X   ..........   ............XXX++++....XX####%************=**=*****************%%%##$..........  .........XXXXXX+$#########%%%*#+..X+#%*****=***********====*********************%#++OOOOOOOOOOOOOOOOOOOOOOOOOOOOOOOOOOOOOOOOOOOOOOOOOOOOOOOOOOOOOOOOOOOOOOOOOOOOOOO@@OOOOOOOOOOOOOOOOO@@&&@@########%%%%*=&#@@&&===***=*****=**====***%%*%*%%%%%%%%%################++.........................OOO.........+X.............................................................................OOO@&&&&&&&&&&&&&&&&&&&&&&###++OOO+++OX.Xo.....oo.......OOOOOOOOO....OO@O....... ....XX........OO@@@+++++##+XXXXoo..XX+##$XXXXoXXXXX$##%****%%%%*%%%%%*****=;;=**%%%%%**%%##$$$$$$$$$X$$XXXXXXXXXXXXXXXXooooooXooXoooooooooooXXX$##%%%##$$$$XXXXXXXXXXXX++$$#############%%%%%#########################################%%%%%%%%%###++++++XXXX+XX++++XX+++++++++++++++$",
"%#######$$$$$$$#####%*************%%%%****************==*==========================================********************************====***####$$$$$###%%%%##$$$$$$##%%%%##$$$$$##%%%%##$XXXXoXoooooooooooooXXXXXXXXXXXXXXXX$$$$$#%%***%%%%####$$XX$$$##%%%%%##$$XX$$$$$XX$$$###$##########%%###$$##########$$$$$$$#####$$$$$$$$$$##%%%%%########++++XXXXXX+++XX+++++++++++++++++++++++++@+++OOO@@@OOOOOOOOOOOOOOOO....OOOOOOOOOOXXXX........o.o.o.XXXooooooooo  .........................   oooo.o.  . .XX$$$###%%%%********************%%%%#####$XX................  .......oooooXXXXXX$$$####X....X+##%%%****=====**********===***********%%###$++OOOOOOOOOOOOOOOOOOOOOOO..OOOOOOOOOOOOOOOOOOOOOOOOOOOOOOOOOOOOOOOOO....OOOOOOO@@@@OOOOOOOOOO.OOOOOO@@&@@O+++++++++++###++OO++################%###$$$$++++++XX+XXXXXXXXXXXXXXXXXXX............................OOO.......................................................................................OOO@@&&&&&&&&&&&&&&&&&&&&&&&&&@@@O+++O..XXX.....o.......OOOOOOOOO....O@@O...... . ..XXX........OO@@++++++##++XXXo...XX$##+XXXXoXXXXX$##%***%%%%%*%%%%%%****=;;==*%%%%%**%%#$$$$$$$$$$$$$$X$XX$XXXXXXXXXXXooooXXXoooooooooooooXX$$##%%%##$$$$XXXXXXXXXXXX+++$##############%%%%##########################################%%%%***%%##++++++XXX+XXX++++XX++++++++++++++$$",
"%%######$$$$$$######%*********************====================================================*************************************====***%####$$#####%%%%##$$$$$$##%%%%##$$$$$###%%%##$XXXXooooXooooooooooXXXXXXXXXXXXXXXXX$$$$##%***%%%%####$$$$$$$##%%%%%##$$XX$$$$$XX$$$##$$$$$############$$##########$$$$$$$$####$$$$$$$$$###%%%%%########+++XXX++++++XXX+XXXX++++XX+++++++++++++##++OOOO@@@OOOOOOOOOOOOOOOOO....OOOOOOOO.............................     ............... .......   ...           .. ooXXXXX++$#################$$XXXX.... . . ......   ...     .....  ..  .... .  ..XX........XXX++######%%*************%%%%%######+++OO+O.OOOOOOOOOOOOOOOOOOOOO.......O.........OOOOOOOOOOOOOOOOOOOOOOOOOOOOOOO.OOOOOOOO@@&@OO.....O...OOOOOO@@&@OOO......OOOOOOOOOO..OOOO....O..OOOOO@@@@O............................................................OOO.......................................................................................OOO@@&&&&&&&&&&&&&&&&&&&&&&&*&&&&&##+++X........o. .....OOOOOOOOO....O@OOO..      ..XXX........OO@@@OOO++##+XXXo....XX$##+XXXXXXXXXX$$#%***%%%%%*%%%%*****==;;==*%%%%%**%##$$$$$$$$$$$$$$XXXX$XXXXXXXXXXoooXXXoXooooooooooooXXX$$##%%%##$$X$XXXXXXXXXXXX$$$$#################%##########################################%%%%****%###+++++XXXXXX+++XXX++++++++++++++++$",
"*%%########$########********************================================================*************************************%*****=====***%##########%%%%##$$$$$$##%%%%##$$$$$###%%%##$XXXXoooooXoooooooooXXoXXoXXXXXXXXXXXXX$$##%***%%%%###$$$$$$$$##%%%%%##$$XX$$$$XXX$$$#$$$$$$###########$$$####%%%###$$$$$$$#####$$$$$$$$$$##%%%%%#######$+++X+X++++++XX++XXX++++++++++++++++++++#@#@OOOO@@@@OOOOOOOOOOOOOOOO.....OOOOOOO...O.....................            ........   ... ..... .. .    .....      ...oooooooXXXXXXXXXXXXXXXXXXoooo.... ... ............... .....    ..  . .. .  ............oo.oXXXX+$$#######%%###########+++++++++OOOOOOOOOOOOOOOOOOOOO@@OOO........OOO....OOOOOOOOOOOOOOOOOOOOOOOOOOOOOOOOOOOOOOOOO@@@@OOO..........O.OOO@@&@OOO....OOOO....O.OO..............OOOO@@@@O............................................................OOO.......................OO..............................................................O.OO@@&&&&&&&&&&&&&&&&&&&&&&**&&&&**&#+++.....X.o.  ....OOOOOOOO.....O@OO...     ...XX.........OO@@@OOO++##++XXo...oXX$##$XXXXXXXXXX$$#%***%%%%%*%%%%*%***==;;==*%%%%%**%%#$$$$$$$$$$$$$XXXX$XXXXXXXXXXXXoXXXXXoooooooooooooXXXX$##%%%##$$$$XXXXXXXXX+X$$$$######$########################################%%%%###########%%%%%**%###++++++XX+X+++++++++++++++++++++$$$",
"**%#################*******************=================================================***********************************%##%******==*****%%%#######%%%%##$$$$$$##%%%%##$$$$$###%%%##$XXXXXooooXoooooooooXooXXooXXXXXXXXXXXX$$##%*****%%###$$$$$$$$##%%%%###$$XX$$$$$XX$$$#$$$$$$#####%%####$$####%%%%##$$$$$$$$#####$$$$$$$$$###%%*%%#######$+++X+X++++XXXX++++X++++++++++++++++++++###@+OO@@@@OOOOOOOOOOOOOOOO.....OOOOOOOO...OO....................... .. .    ..... ...................   ...... .....  ..      ...... ........  ............  .. ........... . .. .......  ..      ..........................OOOOOOOOOOOOOOOOOOOOOOOOOOOO.OOOOOOOOOOOOOOO@@@@@@OO................................OOOO....OOOOOOOOOOOOO@@@@@OOO...........OOOOOO@@&@OO......O.........................OOO@@@@O......................................................................................O......................OOOO.......................................OO@@&&&&&&&&&&&&&&&#####&&&&&&&&&&&&&#++OXXXXX........OOOOOOOO.....OOOO...  .  ...XX.........OO+++OOO++##+XXoooo.oXX$##$+XXXXXXXXX$$#%***%%%%***%%%*****==;;==*%%%%%**%%#$$$$$$$$$$$$$$XX$$XXXXXXXXXXXXoXXXXoXoooXXoXXoooooXX$$##%%%##$$XXXXXX$XXX++$$$$$#############%#%%%############################%****##############%%%%###+++++++XX++++++++++++++++++++++++$$",
"**%###############%*******==**=*=================================================****************************************%#####%****************%####%%%%###$$$$$$##%%%%##$$$$$##%%%%##$XXXXXoooooooooooooooooooXXXXXXXXXXXXXX$$##%%****%%%%##$$$$$$$##%%%%##$$$XX$$$$$XX$$$##$$$$$#######%###$$####%%%%###$$$$$$$######$$$$$$$####%%*%%#######$+++X+XX+++XX+X++++++++++++++++++++++++####@+OO@@@@OOOOOOOOOOOO.OOO.....OOOOOOOO...OO...........O...  ...  ..   .   ......................... ..... ................   ......   . .........................  ..  ..... .......    ..... . ....................................OO...OOOOOOOOOOOOOOOOOOOOOOOOOOOOOOOO@@@@OO.................................................OOO@@@@OOOOO...............OO@@&@OOO.....OO........................OOO@@@@OOO..................................................................O..................OOO....................OOOO......................................OOOO&&&&&&&&&&&&&&######@&&&&&&&&&&&&&#+++XXXX.......OOOOOOOOO.....OOOO...........X..........OO+++OO+++##+XXo.oo.oXX+##$XXXXXXXXXX$##%***%%%%***%%%*****==;;-=**%%%%**%%#$$$$$$$$$$$$$$XXX$XXXXXXXXXXXXoXXXXXXooooXXXXXXoooXXX$##%%%##$$$$X$$X$XXX+$$$$$$#############%%%***%##########################%%***###########%%%%%%%###+++++++XX++++++++++++++++++++++++$#",
"#########%%%#%*******====================================================**************************************************####%*****************%###%%%%%##$$$$$$##%%%%##$$$$$##%%%%%#$XXXoooooooooooooooooooXXXXooooXXXXXXXXX$##%%***%%%###$$$$$$$$##%%%%%#$$XXX$$$$XXX$$###$$$$$#######%###$$######%###$$$$$$$$$###$$$$$$$$$$###%%%%%#######$++++++++++++++++XXXX+++++++++++++++++++#####+O@@@@OOOOOOOOOOOO.OOO.....OOO.OOO.............OOOOO.....          ................ .........  ..   ..... ......   .  .....     ..........  ..........  ..........  ........   .....   .................................OOO..O...OOOOOOOOOOOOOOOOOOOOOOOOOOOO@OOOOOOOO@@@@OO..................................................OO@@@OOO.................OOO@@&@OO.O...............................OO@@@OO................................................... . ..................................OOOO..OO.....O.O...OOOOOOO.O....................................OOOO@@&&&&&&&&&&&&&#@###@@&&&&&&&==&&&&&++XXX........OOOOOOOOO.....OOOO.....  .....XX........OO+@OOOO++##++XXX.o..XX$##++XXXXXXXXX$##%***%%%%***%%%%%***==;;-=*%%%%%**%%##$$$$$$$$$$$$$$$$XXXX$$XXXXXXXXXXXXXXXXoooooXooooXXX$$##%%%##$$XXXXXX$$XXXX+++$$##############%*****#################$$######################%%%*%%%%###++++++++++++++++++++++++++++++++++$",
"*******************===================================================******************************************************##%%*****************%##%%%%%###$$$$$$##%%%%##$$$$$###%%%%#$XXXXoooooooooooooooooooooooooXXXXXXXXXX$$#%%**%%%%###$$$$$$$$##%%%%%#$$XXX$$$$XX$$$#$$$$$$$$##########$$##########$$$$$$$$$$$$$$$$$$$$$$###%%%*%#######$++++++++++++++++XXX+++++++++++++++++++###&##OO@@@@OOOOOOOOOOOOOOOO....OOOO.OOOO......O..OOOOOO.......       ................... .... ...  ....  ....  ......      .. .    . ......... ............  ..........  ........    ....   ......................................O....OOOOOOOO@@@@@@@@@@@@@@@@@@@@@OOOOOOOO@@@OO..................................................OOOOO....................OOO@@@@OO.O...............................OO@@@@O.O................................................. . ...........................................OOOOOOOOOOOOOOOOO....O..................................OOO@@&&&&&&&&&&&&&&@###@@@@&&&&&==&&&&&++XX.........OOOOOOOOO.....OOOO..... ......X.........OO++OOO+++##++XXX....XX$##$+XXXXXXXXX$##%***%%%%***%%%%%****=;;-=*%%%%%**%%##$$$$$$$$$$$$X$$$$XX$$$XXXXXXXXXXXXXXXXoooooXooooXXX$$##%%%##$$X$XXXX$$XXXX++$$$###############%***%#################$$$$$$##################%%**%%%%###++++++++++++++++++++++++++++++$++++",
"**********==**==================================================**********************************************************************==**=*****%%###%%%%###$$$$$$##%%%%##$$$$$$##%%%%#$XXXXooooooooooooooooooooooooooooXXXXXXX$$#%%%*%%%%###$$$$$$$$##%%%%##$XXXX$$$$XXX$$$$$$$$$$$$$######$$$$$########$$$$$$$$$$$$$$$$$$$$$$$###%%**%#######$++++++XX+X++++++++++++++++++++++++++++###&&@@O@@@@OOOOOOOOOOOOOOOO.....OOOO.OO.....OOOOOOOOOO.... ....  ........................  ..    .  ...   ..    .  ...... .....     ......... ...... .  ...    ..  ........ ........ .. ..  ...................................OOOO....OOOOOOOOOOOOO@@OOO@@OOOOOO@@@OOOOOOOO@@@OO............................................................................OO@@@@OO.O...............................OO@@@@O.................................................... .................OO...................O.OOOOOOO@@@@@@@OOOOOOOOOOOOO..................................OOO+@@&&&&&&&&&@@#@@##+#@@#&&&&&&&*&&&++X+.........OO@OOOOOO.....OOOO..... ......X.........OO+@+OOO++#+++X.X.o..XX$##$+XXXXXXXXX$##%***%%%%***%%%%%****=;;=**%%%%**%%%##$$$$$$$$$$$$$$$$XXX$$XXXXXXXXXXXXXXoXXoooXoooooXXXXX$##%%%%#$$$$X$XX$$$XXX$$$$$#####$$##############################$$$$$$##########$########%%%%%%####+++++++++++++++++++++++++++++$+++++",
"******====================================================**==**********************************************************************====********#####%%%%###$$X$$$##%%%%##$$$$$$##%%%%#$XXXoooooooXoooooooooooooooooooooXXXXXXX$$#%%%%%%%%###$$$$$$$$##%%%%##$XXXX$$$$XXX$$$$$$$$$$$$$$$$$$$$$$$$$#######$$$$$$$$$$$$$$$$$$$$$$$###%%%%%######$++++XXXXXXX++++++++++++++++++++++++++++####&@@O@@@@OOOOOOO@OOOOOOOO.....OOO..OO....OOOOOOOOOO....  .............................   ..  . ......  ...        .........  ..  ..................... ..    ..  ........   .........  .................................OOOOOOOOOO....OOOOOOOOOOOOOOOOOOOOOOOOOOOOOOOOOOOO@@@OO............................................................................OO@@@@OO.O...............................OO@@@@O.......................................................................O.OO.OO.................OOO@@@@@@@@@@@OOOOO..OOOOO..................................OOO++@@@&&&&&&@@#@@+####&#&&&&&&&*&&&++++X... ....OO@OOOOOO.....O@OO............X.........OO+@OOOO++#+++X.X.o..XX$##$+XXXXXXXXX$###***%%%%%**%%%%%***==;;=**%%%%*%%%%##$$$$$$$$$$$$$$$$XX$X$XXXXXXXXXXXXXXXXXoXXXXXXXXXXXX$$##%%%%#$$$$$$X$$$$$X$+$$$$$$##$$$#####################*****############$$$$$$##$#########%%%%%###++++X++++++++++++++++++++++$+$++++++",
"========================================================**************************====*****************************=****====******======*****%#######%%%%###$$XX$$##%%%%##$$$$$$#%%%%%#$XXXXoXoooooooooooooooooooooooooXXXXXXXX$$#%%%%%%%%###$$$$$$$$##%%%%##$XXXXX$$$XXXXXX$XXXXXXXX$XX$XXXXXX$$$#######$$$$$$$$$$$$$$$XXX$$$$$##%%%%%#######$+XXX+++XXXXXXXX++++++++++++++++++++++++####&#+O@@@@OOOOOOOOOOOOOOOO.....OOO.OOO.....OOOOOO......................................   ..............          .......  ..........................  ...     .  .......      ........ ........................OOOOOOOOOOOOO@@@OOO...OOOOOOOOOOOOOOOOOOOOOOOOOOOOOOOOOOOOO@@@OO............................................................................OO@@@@OO.O.....O.......................O.OO@@@@OOO......................................................................OOOO................OOOOOO@&&&&&&&&&@@@@@OOOOOOOOO...................................XX+OO++@##@+++#@@+#######&&&&&=**&&+O++XX.. ....OOOOOOOOO.....OOO............XX.........OO++++O+++#+++XXX.oo.XX$##$+XXXXXXXXX$##%***%%%%***%%%%****==;;=**%%%%*%%%%##$$$$$$$$$$$$$$XXXXXXXXXXXXXXXXXXXXXXXoXXXXXXXXoXXXX$$##%%%%#$$$$$$XXXX$$$$$$$$$#####$#####################******%##################$$$########%%%%#####+++XX++++++++++++++++++++$+++++++##",
"===============================================*****==****************=****=====******************************========================*****%#########%%%%%##$$XX$$##%%%%##$$$$$$#%%%%##$XXXooXoooooooooooooooooooooooooXXXXXXXXX##%%%%%%%%###$$$$$$$$##%%%%%#$XXXXX$$$XXXXXXXXXXXXXX$$XXXXXXX$$$########$$$$$$$$$$$$$$$$$XX$$$$$##%%%%%#######$+XXXX++XXXXXXX++++X+++++++++++++++++++++###&#+O@@@@OOOOOOOO@OOOOOOO.....OOO.OOO....OOOOOO.....   ..................... .........   .. .............  .     ........................................    ..  .........  .................................OOOOOOOO@@@@@@@@@@OOO.....OOOOOOOOOOOOOOOOOOOOOOOOOOOOOOOOOOO@@@OO............................................................................OO@@@@OO.O..OO.O............OO.O.......OOOO@@@@OOO.......................................................................OOOO...O.OO..........OO@@@@&&&&&&&&&&@@@@OOOOOOOO..................................XXO+OOOO++++++++++++##@+##&&&&&***&&+O++XX.. ....OOOOOOOOO.....OOO............XX.........OO+@+OO+++#+++XXXooo.XX$##$+XXXXXXXXX$###***%%%%***%%%%****==;;=**%%%%%*%%%##$$$$$$$$$$$$$$X$X$XXXXXXXXXXXXXXXXXXXXXXXXXXXXXXXXX$$##%%%%#$$$$$$XX$$$$$$$$$$#################################*####################$$#######%%%%%#####+++++++++++++++++++++++++$+##+#++##",
"============================================************************==========************************=============================******%###########%%%%###$$XX$$##%%%%##$$$X$$#%%%%##$XXXooXooooooooooooooooooooooooXXooXXXXXX##%%%%%%%%###$$$$$$$$##%%%%%#$$XXXX$$$XXXXXXXXXXXXXXXXXXXXXXXXX$######$$$$$$$$$$$$####$$XXX$$$$$##%%%%%#######$+XXXX+X++X++++++++XX+++++++++++++++++++######++@@@@OOOOOOOOOOO.OOOO.....OOO.OOO....OOOO.....     ..................... .........  ...   ... .  .........  .... ... ........................... . .     ......... ............................................OOOOOOOOOOOOOO......OOOOO@@@OO@@@@@@@@@@@@@@@@@OOOOOOOO@@@OO............................................................................OO@@@@OO.O....OOO.OO.OOO...............OOOO@@@OOOO.................................................... .  ................OOOOOOOOOO.OOO....OOO@@@@@@&&&&&&&&&&&@@@@OOOOOOO.O.................................XX.OOO..XX.O++++++++++++#&&&&&*&&&++XXXX.......OOOOOOOOO.....OOO............XX.........OO+@OOO+++#+++XXXoo..XX$##$XXXXXXXXXX$##%%**%%%%%**%%%%****==;;=**%%%%%**%%###$$$$$$$$$$$$$$$$$$$X$XXXXXXXXXXXXXXXXXXXXXXXXXXXX$$$##%%%%##$$$$$X$$$$$$$$$$$################*****#########################################%%%%%%#####+++++++++$++++++++++++++$+$####++##",
"======================================**====**********************========**********************================================********#######$#####%%%%###$$XX$$##%%%%##$$$$$$#%%%%##$XXXXoXoooooooooooooooooooooooooXooXXXXX$##%%%%%%%%###$$$$$$$$##%%%%%#$$XXXX$$$XXXXXXXXXXXXXXXXXXXXXXXXX$$$$$$$$$$$$$$$$$$####$$$XXX$$$$$##%%%%%#######++XXX+++XX++++++++++++++++++++++++++++++######@+@@@@OOOOOOOOOOO.OOOO.....OOO..OO.....OO......   ................................. . .. ... .     ......... ...  ....................................    ........  ..................................................OOOOOOOO....OOOOOOO@@@OOO@@@@@@@@@@@@@@@@OOO.OOOO@@@OO............................................................................OO@@@@OO.O...OOOOOOOOOOO....O......OO..OOOO@@@OOOO.................................. ................. ....................OOOOOOOOO..OOOO..OOO@@&&&@@&&&&&&&&&&&&@@OOOOOOOOO....................................OOO+XX++++++++++X++++##&&&&*&&&++XXX........OOOOOOOOO.....OOO.......................OOO@+OO+++#+++XXXoo.XXX$#$$XXXXXXXXXX$##%%**%%%%%***%%%****==;;=**%%%%%**%%###$$$$$$$$$$$$$$$$$$$$$XXX$XXXXXXXXXXXXXXXXXXXXXXXX$$$##%%%###$$$$$$$$$$$$$$$$#################******#####################%%%%*%###########%%%%**%%#####$+++++++$$$+++++++++++++$++####++##",
"=================================*******************************===*=******************=*****================================*******%%#####$$$$$$$###%%%%##$$$X$$$##%%%%##$$$$$$#%%%%##$XXXXooooooooooooooooooooooooooooooXXXXX$##%%%%%%%%###$$$$$$$$###%%%##$$XXX$$$$XXXXXXXXXXXXXXXXXXXXXXX$$$$$$######$$$$$$$$###$$$$$$$$$$$###%%%%%%######++++X+XXXX++XXX+++++++++++++++++++++++++######++@@@OOOOOOOOOOOO..OO......OOO..OO.....OO............................   ......  .....................     ............................................ .....  ....  ..................OOOO.........................................OOOOOOOOOOOOOOOOOOOOOOOOOOOOOOOOOOOO@@@OO............................................................................OO@@@@OO......OOOOOOO...OOOOOOOOOOOOOOOOOOO@@@OOO...........................................................................OOOOOOOOOOOOOOOOOOOO@@&&&&&&&&&&&&&&&&&&&@@OOO@OOOOO........OO..........................OXX..O+++++OX.XX.+++@#&&&&&#++XX..o .....OOOOOOOOO.....O@OO.....  ...............OO++OOOO+++++XXXXoo.XXX+$++XXXXXXXXXX$##%**%%%%%%***%%%%***==;;=*%%%%%%**%###$$$$$$$$$$$$$$$$$$XXXXXXXX$XXXXXXXXXXXXXXXXXXXXXXXX$$#%%%%##$$$$$$$$$$$$$$$$$$##################%%%########################%*******%#####%%%%****%####$$+++++$++++$$++++++++$$$$++++++###+",
"=============================********************************************************===*=================================********%%######$$$$$$$$###%%%%###$$X$$$##%%%%##$$$$$$#%%%%##$XXXXooooooooooooooooooooooooooooooXXXXX$##%%%%%%%%###$$$$$$$$##%%%%%#$$XXX$$$$XXXXXXXXXXXXXXXXXXXXXX$$$$#########$$X$$$$$##$$$$$$$$$$$$###%%%%%#######++++XXXXX+++X+++++++++++++++++++++++++++####&#++@@@OOOOOOOOOOOO..OOO.....OOO..OO.....OOO.......................... .  ... ................ .........    ..................................................  ....  ..................OOOO..........................................OOOOOOOOOOOOOOOOOOOOOOOOOOOOOOOOOOO@@@OO............................................................................OO@@@@OOO......OOO.O......OOOOOOOOOOOOOOOOO@@@OO......................................................................O.......OOOOOOOOOOOOOOOOOOO@@&&&&&&&&&&&&&&&&&&&@@@@@OOOOO.......OOO............................XX.O+O+++X...X.XOO++##&&&#+OXX.........OOOOOOOOO.....O@OO... .  ...............OO+@+OOO+++++XXXXoooXXX+$$+XXXXXXXXXX$##%***%%%%%***%%%%***==;;=*%%%%%%**%####$$$$$$$$$$$$$$$$$$XXXXX$$$$XXXXXXXXXXXXXXXXXXXXXXX$$#%%%%##$$$$$$$$$$$$$$$$$################################################%******%####%%%*****%%####$$$+++$++++$$++++++$++$$$++++++####",
"*****===========*******************************************************************===================================*******%%%########$$$$$$$$$$###%%%%###$$XX$$##%%%%#$$$$$$$##%%%##$XXXooooooooooooooooooooooooooooooooXXXX$#%%%%%%%%%###$$$XX$$###%%%%%#$$XXXX$$$XXXXXXXXXXXXXXXX$$$$$$#############$$XXX$$$$$$$$$$$$$$$$$$##%%%%%#######++++XXXX++++++++++++++++++++++++++++++++###&&#++@@@OOOOOOOOOOOO...OO.....OOO..OO.....OOO......OOOO........  .............................. . ..   .... .................................................  ........................OOOOO...........................................OOOOOOOOOOOOOOOO@@OOOOOOOOOOOOOOOOO@@@OO............................................................................OO@@@@OOO.O.OOOOOOOOOOOOOOOOOOOOOOOOOOOOOOO@@OOOOOOOOOOOOOOOOO....O..............................  ...................OO......OOOOO@@@@@@@OOOOOOO@@@&&&:&&&&&&&&&&&&&&&&&@@@OOOOOOOO..OOOOO.............................X.OO+XX.....X.XXO++++#&#++XX.........OO@OOOOOO.....O@O......  ....XX.........OO+@OOO+++#++XXXX.o..XX$#$+XXXXXXXXXX$##%%**%%%%***%%%%%***==;;=**%%%%%*%%####$$$$$$$$$$$$$$$$$$$XXX$$$$$XXXX$XXXXXXXXXXXXXXXXX$$$##%%%##$$$$$$$$$$$$$$$$$$##################################################%%*%#####%%%%*%***%####+++++$$++++$$$+$$$$++++$+++$#++####",
"****************************************************************************=======================================*********%%#######$$$$$$$$$$$$$####%%%##$$$XX$$##%%%%##$X$$$$#%%%%##$XXooooooooooooooooooooooooooooooXXXXXX$$#%%%%%%%%%###$$$XX$$###%%%%%#$XXXX$$$$XXXXXXXXXXXXX$$$##################$$XXXXXX$$$$$$$$$$$$$$####%%%%%#######+++XXXXX++++++++++++++++++++++++++++++++###&&#++@@@OOOOOOOOOOOO..OOO.....OOO..OO.....OOO....OOOOO......      ............................. .      .................................................... .... . ....................OOOO.............................................OOOOOOOOOOOOOOOOOOOOOOOOOOOOOOOOOO@@@OOO...............OOOO....................  ..................................OO@@@@OOOOOO..OOOOOOOOOOOOOOOOOOOOOOOOOOOO@@@OOOOOOOOOOOOOOO..................................    .....................OOO.....OOO@@@@@@@@@@@OOO@@@@@@&&::&&&&&&&&&&&&&&&&&&@@OOOO.....OOOOOO.......................................XXXX..++++##++XX.... ....OO@OOOOOO.....O@OO....   ....XX.........OO@@OOO+++#++XXXX.o.XXX$$$+XXXXXXXXXX$##%%**%%%%%**%%%%%***==;;=**%%%%%*%%###$#$$$$$$$$$$$$$$$$$$$$$$$$$$XXXX$$XXXXXXXX$$$$XXXX$$$#%%%%%#$$$$$$$$$$$$$$$$$$############################################################%%%%%%%%%####$++++$$$$++$$+$$$$$++++$++$##++###+",
"**************%%***%%%*****************************%%%%%%%%***********======================================*********%%%%%%%#######$$$$$$$$$$$$$$$$###%%%##$X$XX$$##%%%%#$$X$$$$#%%%%##$XXXoooooooooooooooooooooooooooooXXXXXX$$#%%%%%%%%%###$$$X$$$$##%%%###$XXXX$$$$XXXXXXXXXXXX$$$###################$$XXXXX$$$$$$$$$$$$$######%%**%#######+++XXX++++XXX++XX+++++++++++++++++++++++###&&#@@@@@@OOOOOOOOOOOO.OOO.....OOOOOOO.....O..OOOOOOOO........    ...............................      .  .............OOOOOOOOOOOOOOOOOOOOOOOOO...... ...............................OOOOOO.............OOOOOOO.............................OOOOOOOOOOOOOOOOOOOOOOOOOO.OOO@@@OO................OOOOO.......................................................OO@@@@OOOOOOOOOOOOOOO@@@@@@O@@@@OOOO@@@@@@@@@@@OOO@@@@@@@@@@@@@@@@@OOO.........................    ......................OOO....OOOO@@@@@@@@@@@@@O@@@@@&&&:::&&&&&&&&&&&&&&&&@@@@OOOOO.OOOOOOOO...........................XXX.........XX....X++++XXX..   ....OO@OOOOOO.....O@O........ ...XX.........OO@@+++++##++XXX.oo.XXX$#$+XXXXXXXXXX$##%%**%%%%***%%%%****==;;==*%%%%%**%%###$$$$$$$$$$$$$$$$$$$$$$$$$XXXXXXXX$XXXXXX$XXXX$$$$X$$#%%%%%##$$$$$$$$$$$$$$$$$####################################%#######################%%%%%%%%#####$++$$$$$$$+++$$++++++++++++####$+++",
"###%%%%%%%%%%%##%%#%%%%***************************%%%#%%%%%%*******========================================*********%%%%%%##%######$$$$$$$$$XX$$$$###%%%%##$X$XX$$##%%%%#$$$$$$$##%%%%#$XXoooooooooooooooooooooooooooooooXXXXX$$#%%%%%%%%%###$XXXX$$$###%%###$$XXX$$$$XXXXXXXXXXXXX$$$$#################$$XXXX$$$###$$$$$$$$$#####%%**%#######+++XXX++++XX+++XX+++++++++++++++++++++++######@@@@@@OOOOOOOOOOOO.OOO......OO..OO.....OOOOOOOOOOO..... .     ...............................     ..  ..........OOO@OOOOOO@@OOOOOOOOOOOOOOOOO.....................................OO@OO............OOOOOOOOOOO.................................OOO..OO..OOOOOOOOOO..OOO@@@OO................OOOOOO......................................OOOO............OO@@@@@@@@&@@@@@@@@@@@@@@@@@@@@@@@@@@@@@@@@@&&@@&@&&&&&&&&&&&&&&&&&@OO....................................................OOOOO...OOO@@@@@&&@@@@@@O@@@@@@&&&:::&&&&&&&&&&&&&&&&@@@OOO.OO.OOOOOOOOO.....................................X...XXXXXXX....   ....OO@OOOOOO.....O@O............XX.........OO@+++++++#++XX..ooo.XX$#$+XXXXXXXXXX$##%%**%%%%***%%%%****==;;=**%%%%%**%####$$$$$$$$$$$$$$$$$$$$$$$$$$XXX$$$$$$$XX$$$XXXX$$$$$$$#%%%%%##$$$$$$$$$$$$$$$$$####%%%%%#############$$$###########%%%%*%##################%%%%%%%%#####$$$$$$$$$$$+#$$$$++++++$+$$####$$$$",
"######################%***************************%%######%%*****===================================**********%%%%%%########%#####$$$$$$$$$$XXXX$$###%%%%##$$$X$$$##%%%%##$$$$$$#%%%%##$XXXooooooooooooooooooooooooooooooXXXXX$$#%%%%%%%#####$$$XX$$$$##%%###$$$XX$$$$XXXXXXXXXXXXXX$$$$#############$$$$XXXX$$$#####$$$$$$$$####%%%**%#######+++XXXX+XXXX++++X+XX++++++++++++++++++++######@@@@@@OOOOOOOOOOOO.OO......OOO........OOOOOOOO.......  .............................................    .......O@@&&&&&&&&&&&&&&&&&&&&&&&&&@@OO.... .............................OOOOOO............OOOOOO@@@OOO.................................O..........OOOOOOO..OOO@@@OO................OOOOOO......................................OOOOOO..........OO@@@@@@@&&&&&&&&&&&&&&&&&&&&&&&&&&&&&&&&&&&&&&&&&&&&&&&&&&&&&&&&@@@OO............................. ......................OOOOOOOOOOOOO@@@@@@@@@@@@@@@@@@@&&&&:::::&&&&&&&&&&&&&@@@OOOOOO.OOOOOOOOOOO......................................XX.X.......   ....OOOOOOOOO....OOOO...... . ...X..........OOOOOO+++++++XX..ooo.XX$#$+XXXXXXXXXX$##%%*%%%%%***%%%%****==;;==*%%%%%*%%###$$$$$$$$$$$$$$$$$$$$$$$$$$$$$$$$$$$$$XXX$$$$XX$$$$$$$#%%%%###$$$$$$$$$$$$$$$$#####%%%%%%#######%#######$#############%##%%**####****####**%%%%%%%%#####$$$$$$$$$$+++#$$$+++++$$++$$$##$##$",
"######################%***************************%%#####%%%****=================================***********%%%%%%%%########%####$$$$$$$$$XXXXXX$$###%%%%##$$$XX$$##%%%%##$$$$$$##%%%##$XXXXooooooooooooooooooooooooooooooXXXX$$#%%%%%%%#####$$$XX$$$$#######$$$XX$$$$XXXXXXXoXXXXXX$$$#########$$$$$$$$$XXXX$$$$####$$$$$$$$$####%%**%%######$++XXXXXXXXX++++++XX++++++++++++++++++++####&#@@@@@@OOOOOOOOOOOOOOO......OOO........OOOOOOOO......    ...........O................................    ........O@@&&&&&&&&&&&&&&&&&&&&&&&&&@@O..................................O@@OO.............OOOOOOO@@@OO.................................O..........OOOOOOO..OOO@@@OO.................OOOOOO.....................................OO@@@OOO........OO@@@@OOO@@@@@@@&&&&&&&&&&&&&&&&&&&&&&&&&&&&@@@@@@@@@@@@@@@@@@@@@OOOO.............................. ........ ....... ......OOOOOOOOOOOOO@@@@@@@@@@@@@@@@@@@@&&&&:::::&&&&&&&&&&&@@@@@OOOO.OOOOOO++++OO........................................XX......   ....OOOOOOOOO....OOOO......  ...............OO@@OO+++++++XXX.ooo.XX$#$+XXXXXXXXXX$###%*%%%%%***%%%%****==;;==*%%%%%*%%###$$$$$$$$$$$$$$$$$$$$$$$$$$$$$$$$$$$$$$XX$$$$XXX$$$$$$#%%%%###$$$$$$$$$$$$$$$$#################%%%%########################%%##*******#%#**%%%****%%####$$$$$$$$$#$++#$$$$+$$$$$++$$+######",
"#######################***************************%%%##%%%*****==============================*********%%%%%%%%%#%%%##############$$$$$$XXXXXXX$$$$$###%%%##$$XXX$$##%%%%##$$XX$$#%%%%##$XXXooooooooooooo  ooooooooooooooooXXXX$$#%%%%%######$$$X$X$$$$##%%%##$$XXX$$$$XXXXooXXXXXXXXX$$#####$$$$XXX$$$$$$XXXXX$$$####$$$$$$$$$$###%%%*%%######++XX++XXX+++XXXXX+XXX+++++++++++++++++++######++@@@OOOOOOOOOOOOOOOOO.....OOO...........OO.....        . ....OO................................    ... ........OOOOOO@@@@@@@@@@@@@@@@@@@OOOOOO...............................OO@@@OOO................OOO@@@@OO........................................O....OOOOO...OOOO@@OO.................OOOOOO......................................OO@@@O.........OO@@@@OOOOOOOOOOO@@OOOOOOOO@@@@OOOOO@@OO@OOOOOOOOOOOOOOOOOOOOOOO..................................    ...   ...   ..........OOOOOOOOOOOOOOOOOOOOOOOO@@@@@@@@@@&&&&::::&&&&&&&&@@@@@@@@@OOO++O++O+@++++++....................o......o..oooooX..X.oooo...  ....OOOOOOOOO.....OOO.....    ...X..........OO++OOO+++#+XXX.oo.XXXX$#$+XXXXXXXXXX$$##%%%%%%%%**%%%%%***==;;=**%%%%%*%%%##$#$$$$$$$$$$$$$$$$$$$$$$$$$$$$$$$$$$XXX$$$$$$XXX$$$$$##%%%%#$$$$$$$$$$$$$$$$$#####%##########%####%%%########################%*********##*##%%****%###$$$++$$$$$##++++++$$$$$$$##$$$######",
"###########$#$$#$$#####%***************************%%%%*******==========================**********%%%%%%%%%%%%%%%%##############$$$X$$XXXXXXXXX$$$$###%%%##$$$XX$$##%%%%##$$XX$$#%%%%##$XXXooooooooooooooooooooooooooooooXXXXX$$##%%%%######$$$$XX$$$$##%%###$XXXXX$$$XXXXooXXXXXXXXX$$$$$$$XXXXXX$$$$$$XXXXXX$$$####$$$$$$$$$$###%%%*%%######++X+X+XXX+++XXXXXXX+X+++++++++++++++++++######++@@@OOOOOOOOOOOOOO.O......OOO...O......O.......    .........OO.................................... ... ..........OOOOOOOOOOOOOOOOOOOOOOOOOOOO................................OO@@@OO.................OOO@@@@OO.......................................OO....OOOOO...OOOO@@OO.................OO@@OO......................................OOO@@OO........OO@@@@OOOOOOOOOOOOOOOOOOOOOOOOOOOOOOOOOOOOOOOOOOOOOOOOOOOO..O........................................ ....  ....  ..........OOOOOOOOOOOOOOOOOOOOOOOO@@@@@@@@@@&&&&&&:::&&@@@@@@@@@@@@@@@@++@@+@@@@++++++O...XXXXX...........oo..........oooo..X..oo...   ....OOOOOOOOO.....OOO.....    ...X.........OOOO+OOO+++++XXXXo..XXXX$#$+XXXXXXXXXX$###%%%%%%%***%%%%%***==;;=**%%%%%*%%%##$$$$$$$$$$$$$$$$$$$$$$$$$$$$$$$$$$$$$$$$$$$$$$$$$$$$$#%%%%%#$$$$$$$$$$$$$$$$$####%%%################%%#########################********#**##%%****%####$+++$$$####+###++$$+++$$###$$######",
"########$$$$$$$$$######%**********==***********************=========================************%%%%%%%%%%%%%%%%%###############$$$XXXXXXXXXXX$$$$$###%%%##$$$XX$$##%%%%##$$$X$$##%%%##$XXXoooooooooooooooooooooooooooooXXXXX$$$###########$$XXXXX$$$$###%###$XXXX$$$$XXXXoooXXXXXXX$$$$$$XXXXXXX$$$$$$$XXXXXXX$$#####$$$$$$$$$###%%%*%%######++XXXXXXXX++++++X+++++++++++++++++++++++######++@@@OOOOOOOOOOOO..OO......OOO..OOO...OO.......     ........O....................................... .  ..................OOOOOOOOOO..........................................O@@@OO..................OO@@@@@OOO...............O.O....OOOO..OOOOOOOOOOOOOOOOOOOOOO..OOOO@@OO.................OO@@@OOOOOOOOOOOOOO..O.OOOOOOOOOOOOOOOO....OOOO@@OOOO.....OOO@@@OO.OOOOOOOOOOOOOOOOOOOOOOOOOOOOOOOOOOOOOOOOO......................................................... ... .  ..    .....OOOOOOOOOOOOOOOOOOOOOOOOOO@@@@@@@@&@@&&&&&&&@@&&&&&@@@@@@@@@@@@@@###@@@+++++OO...XX......................................    ...OOOOOOOO......OOO.....   ..............OO+O@OO++++#+XXXo...XXXX$#$+XXXXXXXXXX$$##%%%%%%%***%%%%%***==;;=*%%%%%%*%%%####$$$$$$$$$$$$$$$$$$$$$$$$$$$$$$$$$$$$$$$$$$$$$$$$$$$#%%%%%##$$$$$$$$$$$$$$$$####%%%%%%%%%%###############%%####################%*###%####%%##***%%####$$$$$$$+###+#$$$$$$+++++$##$#######",
"########$$$$$$$$$######%********===========****************========================***********%%%%%%%%%%%%%%%%%%####$$##########$$$XXXXXXXXXXXX$$$$##%%%%%#$$$XX$$##%%%%##$$XX$$##%%%##$XXXooooooooooooo  oooooooooooXXXXXXXX$$$######$$$$$$$XXXXX$$$$$######$XXXX$$$$XXXXoooXXXXXXX$X$$XXXXXXXXX$$$$$$$XXXXXXX$$#####$$##$$$$$$##%%**%%######+XXXXXXXXX++++++++++++++++++++++++++++++###&##++@@@OOOOOOOOOOOO.OOO......OOO..OO....OO........... ......OO.......................................... .........................OOOO.........................................OO@@OOO...................OO@@@@OOOOOOOOOOOOOOOOOOOOOOOOOOOOOOO@OOOO@O@@OOOOOOOOOOOOO...OOO@@OO.................OOO@OOOOOOOOOOOOOOOOOOOOOOOOOOOOOOOOOOOOOOOOOOOOOOOOOOOOOOOOO@@@OO................OOOOOOOOOOOOOOOOOOOOOOOOO................................................................  ..    .......OOOOOOOOOOOOOOOOOOOOOOOO@@@@@@@@@&&&&&&&&&&&&&&&&&&@@@@@@@@@@@@#&###@@++++OOO.XX........................ ..............    ...OOOOOOOO......OOO.....   ...............O+O@OO++++#+XXX....XXXX$#$+XXXXXXXXXX$$##%%%%%%%%**%%%%%***==;;=*%%%%%%%%%%####$$$$$$$$$$$$$$$$$$$$$$$$$$$$$$$$$$$$$$$$$$$$$$$$$$$#%%%%%##$$$$$$$$$$$$$$$$#####%%%%%%%%%%%%%################%%%%%#####################%**##%*######$$$$$$$$$######$$$##++++$###$#######",
"########$$$$$$$$#######******=============*****************=================***********%%%%%%%%%%%%%%%%%%%%%%%%%####$$$$########$$XXXXXXXXXXXXX$$$$###%%%##$$$X$$$##%%%%#$$$$$$$##%%%##$XXoooooooooooooo   oooooooooooXXXXXXXX$$$$$$$XXXXXXXXXXXXXXX$$$#####$$XXXXX$$XXXXXXoooXXXXXXXXXXXXXXXXXXX$$$$$$$XXXXXX$$$###########$$$###%***%%######++XXXXX+++++++++++X+++++++++++++++++++++##@#&@@+@@@OOOOOOOOOOOO..OO......OOOO.OO...OOO.... ...........OOO........................................... .........................OOO..........................................OOOOO......OOOOOOOOOO.....OOOOOOOOOOOOOOOOOOOOOOOOOOOOOOOOOOOOOOO@@@@@@@@@@OOOOOOOOOO....OO@@OO....................OOO.OOOOOOOOOOOO.OOOOOOOOOOOOOOOOOOOOOOOOOOOOOO.....OOOOOO@@OO...................................O........................................OOO.......................   .....  ..........OOOOOOOOOOOOOOOOOOOOOOOOO@@@@@@@@@@@&&&&&&&&&&&&&&&&&@@@@@@@@@@&&&&&##@+++++X+X...........oo........  ................    ...OOOOOOOOO.....OOO.....   ....X..........OO+@+O+++##+XXXX...XXXX$$$XXXXXXXXXXX$$##%%%###%%*%%%%%%***==;;=*%%%%%%%%%%####$$$$$$$$$$$$$$$$$$$$$$$$$$$$$$$$$$$$$$$$$$$$$$$$$$##%%%%%##$$$$$$$$$$$$$$$$$########%%%%%%%%%%#################%%%%%#################%%%**%%%**######$$$$$$$$$$$$$$$##+++$+$$$$$########",
"#########$$$#########%****================*****************============*==**********%%%%%%%%%%%#%%%#%##%%%%%%%%%####$$$$########$$XXXXXXXXXXXXX$$$$###%%%##$$$X$$$##%%%%#$$$$X$$##%%%##$XXoooooooo          ooooooooooooooooXXXXX$XXXXXXXXXXXXXXXXXX$$$$####$$XXXX$$$XXXXXooooooXXXXXXXXXXXXXXXXXX$$$$$$XXXXXX$$##################%****%######+XXXXXXX++++++++XXXX++++++X++++++++++++++#@#@@++@@@OOOOOOOOOOOO...O......OOOOOOO....OO.... ..........OO................ .....................................................OOOO....................................................OOOOOOOOOOOO....OOOOOOOOO...OOOOOOOOOOOOOOOOOOOOOOOOOOOOOOOOOOOOOOOOOOOOOOO....OO@@OO.........................................OOOOO..OOOOOOOO..O................OOOOOOO............................................................................OOOO........................  ....  ..........OOOOOOOOOOOOOOOOOOOOOOOOO@@@@@@@@@@&&&&&&&&&&&@&&&&&&&&@@@@@@@@@@@&&&####+++++++XX......XX..........    ........... .    ....OO@OOOOOO.....OOO......  ....X..........O++++O+++##+XXXoXoXXXXX$$$+XXXXXXXXXX$$##%%%###%%*%%%%%%***==;;=*%%%%%%%%%%###$$$$$#$$$$$$$$$$$$$$$$$$$$$$$$$$$$$$$$$$$$$$$$$$$$$##%%%%%##$$$$$$$$$$$$$$$$#############%%%%**%#####$$$$###########%#################%%***##%%%######$+$$$$$$$$#$$$$###+$+$+$$$$########",
"####################%****=================********************======*********%%%***%%%%%%%%%#############%%%%%%%%###$$$$########$$XXXXXXXXXXXXX$$$$###%%%##$XXXX$$##%%%%#$$$$X$$##%%%##$XXoooooo        oooooooooooooooooooooooooooXXXXXXXXXXooXXXXXXX$$###$$XXXXX$$$XXXXooooooooooXXXXX$$$XXXXXXX$$$$$$$$$$$$$$#################%%*****%####$XXXXXXX+++++XXXXXXXXXX++++XX+++++++++++++#+#@+++O@@OOOOOOOOOOOOO..O......OOO.......................OOO.................   ...................................................OOO.....................................................OOOOOOOOOOOO.................................OOOOOO....OOOOOOOOOOOOOOOOOOO.....OO@@OO............................................................O................OOOO.........................OOO..OO..OOO.........................................OOOO........................ .... ....   ......OOOOOOOOOOOOOOOOOOOOOOOOOO@@@@@@@@&&&&&&&&&&&&&&&&&&&&@@@@@@@@@@@@######@@+++++XX.XX.....o... . ..    ....o.....  .     ...OOOOOOOOO.....OOO.......................OO++OOO+++++XXXoXoXXXXX+$$XXXXXXXXXXX$$##%%%%##%%%%%%%%%***==;;=*%%%%%%%%%######$###$$#$$$$$$$$$$$$$$$$$$$$$$$$$$$$$$$$$$$$$$$$$$##%%%%%##$$$$$$$$$$$$$$$$$###############%%%%%###################################%%***##*#%%%%####$$$$$$$$#####$####$$$$++############",
"###################*****=================***********************************%%%%**%%%%%%%%%#############%%%%%%%%%#####$$########$$XXXXXXXXXXXXX$$$$###%%%##$XXXX$$$#%%%%#$$$$X$$#%%%%##$XXoooooo        o  o   o   ooooooooooooooooXooooooXXXooXXXXXXX$$$$$$XXXXXXX$$XXXXooooooooooXXXX$$$$$XXXXXXX$$$$$$$$$$#########$$$###$$####%****%#####$XXXXXXX+++++XXXXXXXXXXX+++XXX+++++++++++++++++O+O@@OOOOOOOOOOOOO..O......OOO..O...............OOOOOOO..................   ..................................................OOO.....................................................OOOOOOOOOOOOOO................................OOOOO.OO..OOO@@@@@@@OOOOOOOOO.....OO@@OO..................................................................OOO.........O.O...............................................................................OOOO.................................   .......OOOOOOOOOOOOOOOOOOOOOOOOO@@@@@@@@&&&&&&&&:&&&&&&&&&&&&@@@@@++++@@++#######++++++XXX........    ..o.  .... .....       ...OOO@OOOOOO.....OOO.......................OOOOOO++++++XXXXooo.XXX+$$+XXXXXXXXXX$$##%%%###%%%%%%%%%%**==;;=*%%%%%%%%%#####$$###$##$$$$$$$$$$$$$$$$$$$$$$$$$$$$$$$$$$$$$$$$$$##%%%%%##$$$$$$$$$$$$$$$$$#################%%#############$$################%%%%%****%#%%*%%%%####$$$$$$$###########++#$+#############",
"##############%*****====================*****************************%%%%%%%%%%%%%%%%%%%######$$$$######%%%%%%%%%####$$#$#######$$XXXXXXXXXXXXXX$$$###%%%##$$XXX$$##%%%%#$$$XX$$##%%%#$$XXoooo o                   oooooooooooooooooooooooooooooooXXXXX$$$$XXXXXXXXX$XXXXoooooooooXXX$$$$$$$$XXXXXXX$$$###############$$$$$$$#####%%**%%####++XXXXXX++++++++++++XXX+++XX++++++++++++++++++++OOO@@OOOOOOOOOOOO..O........OO..OO...........OOOOOOO........................................................................OOOOO....................................................OOOOOOOOOOOOOOOOOOOOOO.OOOOOOOO......O.OOOOOOOOOOOOOOOOOOOO@@@@&@@@OOOOOOOOO.....OO@@OO...................................OOOOOOOOOOOOO....OOOOOOO...OOOOOOOO.....OOOOOOOO...OOOOO...OOOOOOOOO..OO.OOOOOOOOO............................................OOOOOO........................ . .... . . ......OOO@OO@@OOOOOOOOOOOOOOOOO@@@@@@@@&&@@&&&&::&&&&&&&&&&@@@@@++++++++++#####+++++++++X.....       .    ... .......     ....OOOOOOOOO....OOOO......   ...... .......OO+OOO+++++$XXXoooo.XXX+$$XXXXXXXXXXXXX$########%%%%%%%%%%*==;;=*%%%%%%%%%########$$$$$$$$$$$#$$$$$$$$$$$$$$$$$$$$$$$$$$$$$$$$$$$$#%%%%%##$$$$$$$$$$$$$$$$$$$#######$########################################%%%%%%******%###%######$$$$$##########$$$$####$###########",
"####%%%*##%%%*****======================******%%%%%%*****%%**%%%**%%%%%%%%%%%%%%%%##%%%%#####$$$$$$$###%%%%%%%%%%###$$##########$$XXXXXXXXXXXXXX$$$###%%%##$$$X$$$##%%%%#$$$XX$$##%%%##$XXoooooo  o         o       ooooooooooooooooooooooooooooooXXXXXXXXXXXXXXXXXXXXXXXXooooooooXXXX$$$$$$XXXXXXXX$$####$$$$$########$$$$$$#####%%**%%#%##++XXXXXXX+++X+XXX+++XX++++X+++++++++++++++++++++OOO@@OOOOOOOOOOOO..OO........O..OO.....OOO..OOOOOOO.......................................................................OOOOOOO...................................................OOOOOOOOOOOOOOOOOOOOOOOOOOOOOOOOOOOOOOOOOOOOOOOOOOOOOOOOOOOO@@@@@@@OOOOOOOOOO.....OO@@OO................................OOOOO@@@OOOOOOOOOOOOOOOOOOOOOOOOOOOOOOOOOOO@@@@@@@OOOOOOOOOOOOOOOOOOOOOOOOOOOOOOOOOOO......................OOO...................OOO@OOO.....................   .  .... ..  ......OOO@@@@@OOOOOOOOOOOOOOOOO@@@@@&&@&&&&&&&&::&&&&&&&&&&@@@@++++++++++++###++++++++++XXX..oo          ...........      ...OOOOOOOOO.....OOO.....  . .............OO++OOO++++++XXXoooo.XXX+$$XXXXXXXXXXXXX$$$$#####%%%%%%%%%%%*=-;=*%%%%%%%%%##########$$$$$$$$$##$$$#$$$$$$$$$$$$$$$$$$$$$$$$$$$$$$$#%%%%%##$$$$$$$$$$$$$$$$#$###############%%########%%################$#####%%%%%%%*******##%#######$$$$###########$$$################",
"###%%***********======================******%%%%%%%%%%%%%%%%%%%%*%%%%%%%%%%%%%%#############$$$$$$$$##%%%%%%%%%%%###$###########$$XXXXXXXXXXXXXX$$$###%%%##$XXXX$$##%%%%#$$$XX$$##%%%#$$Xoooo  oooo         o       oo  oo o oooooooooooooooooooXXXXXXXXXXXXXXXXXXX$$$XXXXXXoooooooXXX$$$$XXXXXXXXX$$###$$$$$$$$#######$$$$$$#####%%*%%##%##+XXXXXXXXXXXXXXXXX++XX++++++++XX+++++++++++++++OOOO@@OOOOOOOOOOOO..OO...........OO......OOOOOOOOO.................OOOOOOOOOO.............................................OOOOOOOO.......................................................OOOOOOOOOOOOOOOOOOOOOOOOOOOOOOOOOOOOOOOOOOOOOOOOOOOOOOOOOOOOOOOOOOOOOOOOO.....OO@@OO................................OOO@@@@@@@@@@@@@@@@@@@@@@@@@@@@@@@@@@@@@@@@@@@@@@@@@@@@@@@@@@@@@@@@@@@@@@@@@@@@@@@@@OOOO..................OO@OOO..................OO@@@OOO...................   ........    ........OO@@@@@O@@@@@@@@@@@@OOOOO@@@@@@&&&&&&&&&&:&&&&@&&&&&&@@@++++++++++++++++++++XXX.........          .. ...... .     ...OOOOOOOOO.....OOO...... ...............OO+++OOO+++++XXXooooXXXX+$$XXXXXXXXXXXXXXX$$$$$$#########%%%%*===*%%%%%%%%%######################$##$$$$$$##$$$$$$$$$$$$$$$$$$$$$$##%%%%%##$$$$$$$$$$$$$$$$#$#############%%%%%########%#%%%%###########$$#######%#%%%********%#######$$$###############$###############",
"###%%*********=====================*=*****%%%%%%%%%%%%%%%%%%%%%%%%%%%%%%%%%%###########%####$$$$$$$###%%%%%%%%%%%####$##########$$XXXXXXXoXXXXXX$$$###%%%##$X$XX$$##%%%%#$$$XX$$##%%%##$Xoooo    o  ooo     ooooo   oo  oo o ooooooooooooooXoXXXXXXXXXXXXXXXoXXXXX$$$$$$XXXXXXoooooXXX$$XXXXXXXXXXX$$##$#$$$$$$$########$$$$$###%%%%%%%%%##$XXXXXXXXXXXXXXXXXXX+X+++++++++XXX++++++++++++++OOOO@@OOOOOOOOOOOO..OO...........OO......OOOOOOOO................OOOO@@@@@@OOOOO.........................................OOOOOOOOO..........................................................O...OOO....OO..OO.......OOOO....O.......OOOOOOOOOOOOOOOOOOOOOOO..OOOOO.....OO@@OO..................................OOOOOOOOO@@@@@OOOOOOOOOO@@@@@@@@@@@@@@@@@@@@@@@@@@@OOOOO@@@@@O@@@@OOOOOOOOO@@@@@@@@OO..................OO@@@@@OO.................OO@@@OO................... . ..    ...    .......OOO@@@@@@@@@@@@@@@@@@@@OOO@@@@&&&&&&&&&&&&&&&&&&&&&&&&&###++++++++++++++++++XX...........         ..  ....        ...OOOOOOOOO.....OOO...... ...............OOO+OOOO+++++XXX.oooXXXX+$$XXXXXXXXXXXXXXXX$$$$$$$#######%%%%%****%%%%%%%%%##############################$####$$$$$$$$$$$$$$$$$$$$##%%%%###$$$$$$$$$$$$$$$################%%%*%%##########%%%%%%%%########$######%###%*********%######$$$###############$###############",
"#####%%%*******==================*******%%%%%%%%%%%%%%%%%%%%%%%%%%%%%%%%%%%#################$$$$$$$$###%%%%%%%%%%####$$$########$$XXXXXXXXoXXXXX$$$###%%%##$X$X$$$$#%%%%#$$$$X$$##%%%#$$XXooo                   oo oooo oooo  ooooooooooXXXXXXXXXXXXXXXXXXXoXXXXX$$$$$$$$$$XXXXoooXXXXX$XXXXXXXX$$$$$####$$$$$$$########$$$$####%%%%%%%%###$XXXXXXXXXXXXXXXXXXXX+++++++++XXXX++++++++++++++OOOO@OOOOOOOOOOOOO..OO.......O....O....OOOOOOOOOO............OOOO@@@@@@@@@@@@OOOO........................................OOOOOOOOOOOOOOOOOOOO..OOOOOO..............................................................................O..........OOOOOOOOOO.....OOOOO.....OO@@OO......................................OOOOOO....OOOOOO...OOOOOOOOOOOOOOOOOOOOOOOOOOOOOOO.OOOOOOOOOOOOOOOOOOOOO@@@&&@@@OO.................OO@@@@@OOO................OOO@@@OOO..................  .  ..      .   ........O@@@@@@@@@@@@@@@@@@@@@OOO@@@&&&&&&&&&&&&&::&&&&&&&&###+++++++XXXX+++++XXX.............            .....      .....OOOOOOOOO.....OOO......   .............OOOO+OOO+++++XXX..o.XXXXXXXXXXXXXXXXXXXXXXX$$$$$$$$$######%%%%%%%%%%%%%%%%%#####################################$$$$####$$$$$$$$$##%%%%%%###$$$$$$$$$$$$$###################%%%####$########%%%****%%###########%#%%%%%%*******%%####$$$$$##############################",
"########%%%****=================******%%%%%%%%%%%%%%%%%%%%%%%%%%%%%%%%%%#######$$$$########$$$$$$$$###%%%%%%%%%%######$$########$$XXXXXXXXooXXXX$$$###%%%##$$$XX$$$#%%%%#$$$$$$$##%%%#$$XXooo                   ooooooooooooooooXoXXXXXXXXXXXXXXXXXXXXXXXXoooXXXXX$$$$$$$$$$XXXXXXXXXXXXXXXX$$$$$$$$######$$$$$$########$$$$####%%%%%%%%###+XXXXXXXXXXXXXXXXXXXX+++++++++XXX+++++++++++++++O.OO@OOOOOOOOOOOOO..OOO......O...OOOOOOOOOOOOOOOO..........OOOOO@@@@@@@@@@@@OOOO.........................................OOOOOOOOOOOO................O..........................................O....................................O..O..........OOOOOO....OOOOO.....OO@@OO..........................................................................OOOOOOO..........................OOOO@@@&&&@@OO.................OO@@&@@OO................OOO@@@@OO.........................           .......OO@@@@@@@@@@@@&@&@@@@@@@O@@@@@&&&&&&&&&&&&&::&&&&@@++++XX..X.....XX.X.oo...............           ....       .....OOOOOOOOO.....OOO....    .....o. ......OOOO+OOO+++++XXXX...XXXXXXXXXXXXXXXXXXXXXXX$$$$$$$$$$$####%#%%#%%%%%%%%%%%%########################################$####$$$$$$$$###%%%%%%###$$$$#$$$$$$$$#########################$$##########%%%***%%##########%%%%%%%%%******%%####$$$$$##############################",
"########%%%*******===========*****%%%%%%%%%%%%%%%%%%%%%%%%%%%%#################$$$$$########$$$$$$$###%%%%%%%%%%######$$########$$XXXXXXXXXoXXXXX$$$##%%###$$$XX$$$#%%%%##$$$$$$##%%%#$$XXoooo oo oooooooo    oo ooooooooooXXXXXXXXXXXX+++$$$$++$$XXXXXXXXoooXXXXX$$###$$$$$XXXXXXXXXXXXXX$$$####$$$######$$$$##########$$$$$###%%%%%%%###$XXXXXXXXXXXXXXXXXXXXXXXXXX++++XXX+++++++++++++++O..O@OOOOOOOOOOOOO..OOO......O...OOOOOOOOOOOOOOO........OOOOOOO@@@@@&@@@@@OOOOOO..........................................OOOOOOOOOOOOOOOOOOOOO@@@@@OOOO............................OOOOOOOOOOOOOOOOO...OOO..OOOO.OOO.....O.OOOOOOOOOOOOOOOOOOO..O.OOOOOOOOOOOOOO......OO@@OO............................................................................................................OOOO@@&&&&@@OO.................O@@@&@@OO...............OOOO@@@@@OO................... ....      ...    .....OO@@@@@@@@&&&&&&&&@@@@@@@@@@@@&&&&&&&&&&&&&&&&&&@OO.........    oo..o.....XXXXXXXXX.... ..     .  ...         ...OOOOOOOOO.....OO....    o...X.o........OO+++OO+++++XXXoXo.XXXXXXXXXXXXXXXXXXXXXXXXX$$$$$$$$$$$#####%%#%%%%%%%%%%%%%##################################################$$###%%%%%%###$#$$#$$$$$$#$#########################$$$$############%%%%########%%*%%%%%%%%%**%%%%%#####$$$###############################",
"$#######%%%%********************%%%%%%%%%%%%%##%%%%%%%%%######################$$$$$$#######$$$$$$$$###%%%%**%%%%####$#$$########$$XXXXXXXXXoXXXXX$$###%%%##$X$XXX$$#%%%%##$$XX$$##%%%##$XXoooo oooooooooooooooooooooXXXXXXXXXXXX+X++++$$#######$$$XXXXXXoooooXXXX$$#####$$$$$XXXXXXXXXXX$$$$$$$$$$$$$$####$$$$#########$$$$$$####%#%%%####+XXXXX.XXXXXXXXXXXXX+XXXXXXX+++++X++++++++++++++++..O@OOOO.OOOOOOOO...........OO..OOOOOOOOOOOOOOO.....OOOOOOOO@@@@@@@@@@@OOOOOOOOO.........................................OOOOOOOO@@@@@@@@@@@@&&&&&&@@OO...................O.OOOOOOOOOOOOOOOOOOOOOOOOOOOOOOOOOOOOOOOOOOOOOOOOOOOOOOOOOOOOOOOOOOOOOOOOOOOOOOOOOOOO......OO@@OO.............................................................................................................OOO@@@&&&@@OO.................OO@@@@@@OO.............OOOO@@@@@@OO....................  .     .... ..  .......OO@@@@@@&&&&&&&&@@@@@@@@@@@@@&@&&&&&&&&&@@@@@@OOO...........  oo..oo....XXXXXXXXX....        .    .         ...OOOOOOOOO.....OO....     ....Xoo.......OO+++OOO++++XXXooooXXXXXXXXXXXXXXXXXXXXXXXXXXX$$$$$$$$$$#####%##%%#%%##%%%%%#######################################################%%%%%%###$#$$####$$$$$##########################$$$##############%%#######%******%%%%%%%%%%%#%#####$$################################",
"$$$#########%%%%%**********%%%%%%%%%%%%%%%#######%%%%%##########$$$###########$$$$$$########$$X$$$$$###%%%%**%%%%####$##########$$XXXXXoooXXXXXXX$$$##%%%##$$$XX$$$#%%%%##$$XX$$##%%%##$Xoooooo ooooo   ooooooooXooXXXXXXXXXX+++$$$$$+$$######++XXXXXXoooooooXXXX$####$$$$$XXXXXXXXXX$$$$$$$$$$$$$$$$$####$$$$##########$$$$#######%%%####+XXX.XXXXXXXXXXXXXXXXXXX++++XX++++XX+++++++++++++OO.OOOOOOOOOOOOOO....O........O..OOOOOOOOOOOO........OOOOOOO@@@@@@@@@@@OOOO@@@OOO.......................OOOOO...........OOOOOOO@@@@@@@@@&@&&@&&@@@@@@OO..........OOOOOOOO@@@@@@@@@@@@@@@@@@@@@@@@@@@@@@@@@@@@@@@@@@@@@@@@@@@@@@@@@@@@@@@@@@@@@@@@OOO@@@@@OO..OOOO......OO@@OO.............................................................................................................OOOOO@@&&&&@@OO................OO@@&@@@OO............OOO@@@@@@@@@OO.....................     .    ..     .....OO@@@@@@@&&&&&&&&&@@@@@@@@@@@@@&&&&&&@@@@@@@@OO...... o              ...XX..o.......   .                   ...OOOOOOOO.....OOO....      .............OOOOOO++++++XXoooooooXXXXXXXXXXXXXXXXXXXXXXXXX$$$$$$$$$$$############%%%%%##########################################################%%%%%####$$$$$##$$$$##############################$$$###################%%*************%%%%%%####$$$################################",
"$$$$$###########%%%%%%%**%%%%%%%%%%%%%%%%%#########%#%#######$$$$$######%%%###$$$$$$########$$XX$$$$##%%%%%%*%%%%##$$$##########$$XXXXXoooXXXXXXX$$$##%%%##$$$XX$$$##%%%##$$XX$$##%%%##$XXoooo    oo       oooooooooooXXXXXXXXXX++++++$$#####$+XXXXXoooooooooXXX$$$$$$$XXXXXXXXXXXXXX$$$$$$$$$$$$$$$$$$###$$$$$#########$$$$#######%%%###$+XXX.XXXXXXXXXXXXXXXXXXXX+++XX++++X+X+++++++++++OO..OOOOOOOOOOOOOOO...O...........OOOOOOOOOOO........OOOOOOO@@@@@@@@@@OOO@@@@@OOO.......................OOOOOOO.........OOOOOOOOOOOO@@@@@@@@@@@@@@@@OOO..........OO@@@@@&&&&&&&&&&&&&&&&&&&&&&&&&&&&&&&&&&&&&&&&&&&&&&&&&&&&&&&&&&&&&&&&&&&&&&&&&@OO@@&&@@OO..OOOO......OO@@OO................O............................................................................................OOOOO@@&&&&@@OO.................O@@&@@@@O...........OOOO@@@@@@@@@@O.....................       .  .    . ......OO@@@@@@&&&&&&&&&@@@@@@@@@@@@@&&&&&&@@@@@@@OOO......oo    .         ...............   .                   ...OOOOOOOO......OO.....     ...X.........OOOOO+++X+++XXoooooooXXXXXXXXXXXXXXXXXXXXXXXXX$$$$$$$$$$$###########%%%%%%############%%##########%%################################%%%%%####$$$$###$$$$$#############################$$$####################%%%************%%%%%#####$#################################",
"XXX$$$$$$$$$#######%%%%%%%%%%%%%%%%%%%%#####################$$$$$$####%%%%%###$$$$$$$#######$$XX$$$###%%%%%*%%%%%###$$#$########$$XXXXXXoooXooXXX$$###%%###$X$XX$$$##%%%##$$XX$$##%%%%#$XXoooooo    oo    o oooooooooo.XXXXXXXX+$$$$$$######$+XXXXooooooooooooXXX$$$$XXXXXXXXXXXXXXXXXXXXX$$$$$#$$$$$$$###$$$$$#########$$X$####%%#%%%###+XX..XXXXXXXXXXXXXXXXXXXXX+++++XX++++X++++++XXXOOO...OOOOOOOOOOOOOOO...O.......OO..OOOOOOO.........OOOOOOO@@@@@@@@@@@@OOO@@@@@@OO.......................OOO@@@@OOO.OO..OOOOOOOOOOO...OO.OOOOO.OOOOOO.............OOO@@@@@@@&&&@@@&&&&&&&&&&&&&@@&&&&&&&&&@@@@@@@@@&@&&&&&&&&&&&&&&&&&&&@&&&&&&&&&@@OO@@&&&@OO.OOOOOO.....OO@@OO..............OOOOOOO........................................................................................OOOOOO@&&&&&@@O.O................O@@@&@@@OO........OOOOO@@@@@@@@@@@OO............................ . ............OO@@@@@&&&&&&&&&&@@&@@@@@@@@@@@@@@@@@@@@@OOO.......oo  .....oo     o....... . .oo..                       ..OOOOOOOOO....OOO.....    ...XX.........OOOOOOO+X++XXXoooooXoXXXXXXXXXXXXXXXXXXXXXXXXX$$$$$$$$$$$$#######%%%%%%%%%%%%%%%%%%%%%%%%%%%%%%%%%%%%%#######%######################%%%%%####$##$$##$$$$###############################$#############%#######%%%%**************%%#######################################",
"XXXXXX$$$$$$$$######%%%%%%%%%%%%%%%%%%#####################$$$$$$$####%%%%%###$$$$$$$#######$$X$$$$###%%%%%%%%%%%###$$#$########$$XXXXXXoooooooXX$$###%%%##$X$XX$$$##%%%##$$$X$$##%%%%#$XXoooooo oooooooooooooooooooo.XXXXXXX+$$+$$$$$$####$XXXXXXooooooooooooXXXXXXXXXXXXXXXXXXXXXXXXXXXXX$$$###$$$$$$###$$$$$#########$$X$####%%##%###$+XXX..XXXXXXXXXXXXXXXXXXXXXXX++XX++++XX++++X.........OOOOOOOOOO.OOOO...O.......OOO.OOOOO...........OOOOOO@@@@@&@@@@@OOO@@@@@@OO........................OO@@&&@@OOOOOOOOOO...O........OOOOOOOOOOOOOOOOOO...........OOOOOO@@@@@@@@@@@@@@@@@@@@@@@@@@@@@@@@@@@@@@@@@@@@@@@@@@@@@@@@@@@@@@@@@@@@@@@@@@OOO@@&&&@OO.OOOOOO.....OO@@OO..............OOOO@OO........................................................................................OOOOOOO@&&&&&@@OO................OO@@&&&@OOOO......OOOOOOOOOOOO@@@@OO............................................OO@@@@@@&&&&&&&&&@&&@@@@@@@@@@@@@&@@@@@@OOO.........oo....o       o.......oo..oo.. .                    ...OOOOOOOOO.....OOO....   ....XX.........OOOOOO++X++XXXoooooXXXXXXXXXXXXXXXXXXXXXXXXXXX$$$$$$$$$$$$#####%%%%%%%%%%%%%%%%%%%%%%%%%%%%%%%%%%%%%%%%%%%%%%%%%%%%################%%%%%%#######$$############################################################%%%%%************%%#######################################",
"XXXXXXXXXXXX$$$#####%%%%%%%%%%%%########$$$$$$$$$#########$$$$$$$$####%%%%%###$$$$$$$#######$$$$$$$$##%%%%%%%%%%####$$##########$$XXXXXXXoooooXX$$$###%%%##$X$XX$$$##%%%##$$$$$$##%%###$XXoooooo  ooooooooooooooXXXXXXXXXXXXXXXXXXXXXXX$$$+XXXXXooooooooooooooXXXXXXXXXXXXXXXXXXXXXXXXXXXX$$$$###$$$$$#####$$$$###%#####$$X$####%%######XXXX....XXXXXXXXXXXXXXXXXXXXXX++XX+++XX++++X.........OOOOOOOOOOOOOOOO...OO......OO..OOOO...........OOOOO@@@@@@&&@@@OOO@@@@@@OOOO.....................OOOOO@@@@@OOOOOOO.OO............................................OOOOOOOOOOOOOOOOOOOOOOO.O..OOOOOOOOOOOOOOOOOOOOOOOOOOOOOOOOOOOOOOOOOOOOOOOOOOOOOO@@&&@@OO.OOOOOO.....OO@@OO..............OOO@@@O...........................................................................................OOOO@&&&&&&@OOOO..............OO@@&&&&@@OO..O..O..OOOOOOOOOOO@@@@OO...........................   ...............OO@@@@&&&&&&&&@@&&@@@@@@@@@@@@@@&@@@@@OOO..............o        o.............  ..                     ..OOOOOOOOO.....OOO....    .....X........OOOOOO+++++XXXooo.ooXXXXXXXXXXXXXXXXXXXXXXXXXX$$X$$$$$$$$$$####%%%%%%%%%%%%%%%%%%%%%%%%%%%%%%%%%%%%%%%%%%%%%%%%%%%####%############%%%%%%%######################################################################%%%%************%%######################################",
"XXXXXXXXXXXX$$$#####%%%%#%%%%%#########$$$$$$$$$$$########$$$$$$$$####%%%%%###$$$$$$$#######$$$$$$$$##%%%%%%%%#####$$$##########$$XXXXXXXooooooX$$$###%%%##$XXXX$$$##%%%##$$$$$$#######$Xooooo    ooooooooooooooXXXXXXXXXXXXXXXXXooXoXXXXXXXXXoXooooXXXXXXoooooooXXXXXXXXXXXXXXXXXXXX$$$$$$$$$$$#$$$$$#####$$$####%#####$+X+####%%######XXXX....X.XXXXXXXXXXXXXXXXXXXXXXXXX+XXX++++X...XX.....OOOOOO..OOOOOOO...OO......OO..O...........OOOOOOO@@@@&@&@@@@OOO@@@@@@OOOOO....................OOOOO@@@@OOOOOOO..................................................OOOOOOOOOOOOOOOOOOOOOOOOOOOOOOOOOOOOOOOOOOOOOOOOOOOOOOOOOOOOOOOOOOOOOOOOOOOOOOOO@@&&@@OOOOOOOOO......O@@OO.............OOOO@@@@@OOOOO.................................OOOOOOOOOOOOOO.O..OO....OOOO.O....................OOOOOO@@&&&&&&@OOO..............OO@@&&&&@@OOO.OOOO..OOOOOOOOOOOO@@OOO.............................  ..............OO@@@&&&&&&&&&@@&&&@@@@@@@@@@@@@@@@@@@OOO.............oo. ...oooo ...    ...o   ..                     ..OOOOOOOOO.....OO.....    ...XXX........OO++++++++++XXoooo.oooXXXXXXoXXXXXXXXXXXXXXXXX$$$$$$$$$$$$$#####%%%%%%%%%%%%%%%%%%%%%%%%%%%%%%%%%%%%%%%%%%%%%%%%%%%%%#%#####%######%%%%%%%######################################################################%%%%%%%%********%%######################################",
"XXXXXXXXXXXXX$$#####%%#############$$$$$$$$X$$$$$$########$$$$$$$$####%%%%%##$$$$$$$$#######$$$$$$$$####%#########$$$$####%%%###$$XXXXXXXXoooXXXX$$###%%%##$X$XX$$$##%%%##$$$$$$######$XXoo           oooo   ooooooooooXXooXooooooooooooXXXoXoooooXXXXXXXXXoooooooXXXXXXXXXXXXXXXXXX$$$$$$$$$$$$$$#$$$#####$$$##########$+X+$###%%#####$XXXXXX.X....XXXXXXXXXXXXXXXXXXXXXXXXXX++++++...XXX....OOOOO.....OOOO....OO......OOO..........OOOOOOOO@@@@@@@@@@@@@@@@@@@@OOOO.......................OOOO@@@@OOOOOOOO.......O....OOOO..OO..........................................OOOO.OO.....OOOO..OOOOOOOOOOOOOOOOOOOOOOOOOOO..................OOOO@@&&&@@OOOOOOOO.......O@@OO.............OOOO@@@@@OOOOOOO.OOOOOOOOOOOOOO..OOOOOO.OOOOOOOOOOOOOOOOOOOOOOOOOOOOOOOOOOOOOOOOO.OO..........OOOOOOOOO@@&&&&&&@@OOOO..............OO@&&&&&@OOO..OO...OOOOOOOOOOOOOOOO..................  .  ....        ............OO@@@@&&@&&&&@@&&&@@@@@@@@@@@@@@@@@@OOO...........  oo  .     oooo      ..                          ...OOOOOOOO......OO.....     ...XX........OO++++++++++XXXooooooXXXXXXXoooXoXXXXXXXXXXXXXXX$$$$$$$$$$$#####%%%%%%%%%%%%%%%%%%%%%%%%%%%%%%%%%%%%%%%%%%%%%%%%%%%%%%%%%%%%%%%%##%%%%%%%####################################################################%###%%%%%%%%%%****%%#######################################",
"XXXXXXXXXXXX$$####################$$$$$$XX$$$$$$$$########$$$$$$$$####%%%%###$$$$$$$$#######$$$$$$$$#############$#$######%%%###$$XXXXooXXoooXXXXX$###%%%##$$$XX$$$##%%%##$$$$$$$$$$$$Xooo              oo    oooooooooooooooooooooooooooooooooooXXXXXXXXXXooooooXXXXXXooXXXXXXX$$$$$$$$$$$$$$$$###########$$$##########$+X+$#########$$XXXX.oXX....XXXXXXXXXXXXXXXXXXXXXXXXXX++++++XXXXXX....OOOOO......OOO....OO......OOO....O..O.OOOOOOOO@@@@@@@@@@@@@@@@@@@@OOOO.......................OOOOO@@@@OOOOOOOO...OOOOOOO...O....OOOOO................................OOO...OOOOO............O.OOOOOOOOOOOOOOOOOOOOOOOO.....................OOOO@@&&&@@OOO.OOOO.......O@@OO..............OOOOOO@OOOOOOOOOOOOOOOOOOOOOOO.OOOOOOOOOOOOOOOOOOOOOOOOOOOOOOOOOOOOOOOOOOOOOOOOOOO..........OOOOOOOOOO@@@&&&&&&@@OOO........O.....OO@@&&@&@@OOOOOO....OOOOOOOOOOOOOO...................  .. ....        ..... ......OOO@@@@&&@&&&&&&&&@@@@@@@@@@@@@@@@@@OOOO........     o.                                             ...OOOOOOOO.....OOO.....     ..XX....XX...OOO+++++++++XXoooooooXXXooooooooooXXXXXXXXXXXXXXX$$$$$$$$$######%%%%%%%%****%%%%********%%%%*******%%%%%%%%%%%%%%%%%%%%%%%%%%%%%##%%%%%%%#################################%%%%##############################%%###%%%%%%%%%%%%%%%%#######################################",
"XXXXXXXXXXXX$$#####%%#######$$$$$$$$$$$XXXXXXX$$$$########$$$$$X$$$###%%%####$$$$$$$$#######$$$X$$$$#############$$$#$#####%####$$XXXoooXXooooXXXX$$##%%###$$$X$$$$###%###$$$$XXXXXXXXoo oo          ooo  ooooooooooooooooo oooooooo    ooooooooXXXXX$$XXXooooooXXooooooXoXXXXXXX$$$$$$$$$$$$$$$############$####%%#####$XXX$########$XX...........XXXXXXXXXXXXXXXXXXXXXXXX+++++++++XXXX+......OOOO......OOO....OO................OOOOOOOO@@@@&&@@@@@O@@@@@@@@OO..........................OOOO@@&&@@OOOOOOOOOOOOOOOOOOO@@@@OOOOOOOOOOOOOOOOOOOOOOOOOOOOOOOOOOOOOOOOOOOOOOOOOOOOOOOOOOOOOOOOOOOO@@@@@@@@@@@@@@@@@@@@@@@OOO............OO.OOOO@@&&&&@@OOOOOOOOOO..O.OOOOOOOOOOOOOOOOOOOOOOOOOOOOOOOOOOOOOOOOOOOOOOOOOOOOOOOOOOOOOOOOOOOOOOOOOOOOOOOOOOOOOOOOOOOOOOOOOOOOOOOOOOOOOOOOOOOOOOOOOOO@@@&&&&&&@@OO..............OO@@@@@@OOO..OOOOO.......OOOOOOOOO....................   .......       .  ..... ....OO@@@@&&&&&&&&&&&&&&@@@@@@+O@@@@O+OOO.......... .  ..ooo                                          ...OOOOOOOO.....OOO......    ..X.....X....+++++++++++XXXXX.ooooooooooooooXXXXXXXXXXXXXXXX$$X$$$$$$$$$#####%%%%%%%*======******%***********************%%%%%%%%%%%%%%%%%%%%%%%%%%%%%###########################%%###%%%%%%%############################%%##%%%%%%%%%%%%**%%%###################################%%##",
"XXXXXXXXXXXX$$#####%########$$$$$$$$$$$XXXXXXXX$$$########$$$$$X$$$###%%%####$$$$$$$$#######$$$X$$$$################$##########$$$XXXXooXXooooXXXX$###%%###$$$X$$$$#######$$XXXXXXXXoooo              oo  o ooooooooo   oo  o oo  o    oooooooooXXXX$$$$XXXoXoooooooooXoXXoXXXXXX$$###$$$$$$$$$$$$$$##############%####$$XXX$########$XXoo....X....XXXXX...XXXXXXXXXXXXXXXXX++++++++XXXXXX.....OOO.......OOO....++O...........OO..OOOOOOO@@@@@@@@@@@@@@@@@@@@OOO.....................OOOOOOOO@@&&@@OOOOO...OOOOOOOOOO@@@@@@OOOOOOOOOOOOOOOOOOOOOO+++OOOOOO@@@@@@OOOOOO@@@@@@@@@@@@@@@@@@@@OOOOO@@@@@@&&&&&&&@@&&&&@@@@OO.............OOOOOOO@@&&&&&@OOOOOOOOO.....OOOOOOOOOOO..OOOOOOOOOOOOOOOOOOOOOOOOOOOOOOOOOOOOOOOOOOOOOOOOOOOOOOOOOOOOOOOOOOOOOOOOOOOOOOOOOOOOOOOOOOOOOOOOOOOOOO@@@@@@@@@@&&&&&&&&@OOO.............OOO@@OOOOO....OO........OO.OOOOOOO......................  ..  ...     ..............OOO@@@&&&&&&&@&@&@@@&&@@@@@@OOOOOOOO........oo.   ......o    oo                                   ...OOOOOOOO.....OOO.....     ...X........XO+++++++++XXXXXo.ooooooooooooooXXoXXXXXXXXXXXXX$$$$$$$$$$######%%%%%%%**==;;;;===****%*************************%%%%%%%%%%%%%%%%%%%%%%%%%%%####################%%####%%##%%%%%#%%############################%%%%%%%%%%%%%%****%%%###################################%%##",
"XXXXXXXXXX$X$$############$$$$$$$$$X$$XXXXXXXXX$$$########$$$$XX$$$##########$$$$$$$$######$$$XX$$$$##############$#$##########$XXXXXoooXoooooXXXX$###%%###$$$X$$$$######$$$XXXXoooooo                 o        oooo    o             ooooooooXoXXXX$$$XXXXXXXXXoooooooooooooXXXX$$###$$$$$$$$$$$$$$###################$$XXX$#######$+XXoo..XoX..X.XXXXX..XXXXXXXXXXXXXXXXXXXX++++++XXXX+XX.................O...OO..........OOOOOOOOOO@@@@@@&@@@@@@@@@@@@@@OO.......................OOOOOOOO@@&&@@OOO.........OOOOO@@&&&&@OOOOOOOOOOOOOOOOOOOOOOOOOOOOOOOOOOOOOOOOOOOOOOOOOOOO@@O@OO@@@@@@@@@@@@@@@O@@@@@@@@OOOOOOOOOOOO..................OO@&&&&&&@@@OO@@@@@@@@@@@@@@@@@@@@@@@@@@@@@@@@@@@@@@@@@@@@@@@@@@@@@@@@@@@@@@@@@@@@@@@@@@@@@@@@@@@@@@@@@@@@@@@@@@@@@@@@@@@@@@@@@@@@@@@@@@@@&&&&&&&&&&&&&&&&&&@@OOOO.............OOOOO..........O.OOOOOO...OOOOOOO............................            ..... .....OOOO@@@&&&&&&&&&&&&&&####@@+++OOOOO........oo.     ..        o                                   ...OOOOOOOO.....OOO......  .......oo.....X++++####+++XXXXX..ooooXXXoooooooooXXXXXXXXXXXXXXXX$$$$$$$######%%%%%%%**==;;;;;;;;-==============**=***************%%%%%%%%%%%%%%%%%%%%%%%%###################%%####%%%###%%%%##%###########################%%%%%%%%%%%%******%%%##################################%####",
"XXXXXXXXXX$$$$######%%###$$$$$$$$$XXXXXXXXXXXXXX$$########$$$XXX$$$$#########$$$$$$$$######$$$XX$$$$$#####%%%%#####$$$$#######$$XXXXXoooXoooXXXXXX$$##%%###$$$X$$$$$$##$$$$XXooooooo                               o                 oooooooooooooXX$$$XXXXXXXXXooooooooooooooXXX$$####$$$$$$$$$$$$$###################$$XXX$#######+XXX.oo..Xoo.XXXXXXX..XXXXXXXXXXXXXXXXXXXX+++++X..XX+XX.............................OOOOOOOOOOOOO@@@@@&&@@@@@@@@@@@@@OOOO.......................OOOOOOOO@@@@OOOOOO........OOOO@@&&&&@@OOOO...O......................O.......OOOOOOOO..OOOOOOOOOOOOOOO@@@&&&&@@OOOOOOOOOOOOOO.......................O..OO@&&&&&&&&&@@&&&&&&&&&&&&&&&&&&&&&&&&&&&&&&&&&&&&&&&&&&&&&&&&&&&&&&&&&&&&&&&&&&&&&&&&&&&&&&&&&&&&&&&&&&&&&&&&&&&&&&&&&&&&&&&&&&&&&&&&@&&@&&&&&&&&&&&&&&&&&@@@OOOO..............OO..................OOOOOOOOOOOOO..OOO.....................   .      ...............OOOO@@@&&&&&&&&&&&&&####@@++++O.......  ...oo .  o                                              ...OOOOOOOO.....OOO.....  . .....o.......X++++######$+XXXX..ooooXXXoooooooooXXXXXXXXXXXXXXXX$$$$$$#####%%%%%%***====;;;;;;;;;;;;;;;;;;;;;;-===*****==*************%%%%%%%%%%%%%%%%%%%%%%%####################%%%%###%%####%#####%%##%%%%##############%%%%%%%%%%%%******%%%#######################################",
"XXXXXXXX$X$$$$####%%%####$$$$$$$$XXXXXXXXXXXXXXX$$#######$$$$XXX$$$$#########$$$$$$$$######$$$XX$$$$#####%%%%%#####$$$$$$####$$$XXXXXXXoXXXXXXXXXX$$##%%###$X$XX$$$$$$$$XXXXooooooo                                                  ooooooooooooooXXXXXXXXXXXXXXXooooooooooooooXX$$##$$$$$$$$$$$$$$$$#################$$XXX$#######$XXXoo.........X..XX.XX.XXXXXXXXXXXXXXXXXXX+++XXXXXX+X..................O.......OOOOOOOOOOOOOO@@@@@@&&&@@@@@@@@@@@@@OO....................OO.OOOOOOOOOO@@@@OOOOOO........OOO@@@&&&&@@OO.O..................................................O...OOOOO@@&&&&&&@OOOOOO...................................OO@@&&&&&&@@@@&&&&@&&&@&&&&@@@&&&&&&&&@@&@@@@@&&&&&&&@@@@@@&&&&&&&&&&&&&&&&&&&&&&&&&&&&&&&&&&&&&&&&&@@&@@@&@@@@@@@@@@@@@@@@@@@@@@@@@@@@@@@@@@@@@@@@@@@@@@@@OOOOOOO............................OOOOOOOOOOOOOOOOOOOOO.O.OOOOOOOO..............  ..    ..  ..............OOOO@@@@&&&&&&&&######@@+++O................                                                  ...OOOOOOOO.....OOO....   . ....o.o......X++++######++XXXX....oXoXXooooooooXXXXXXXXXXXXXXXX$$$$$######%%%%**=====-;;;;;;;;;;;;;;;;;;;;;;;;;;;;===*****====********%%%%%%%%%%%%%%%%%%%%%%%%###############%%%%%##%###%%%%##%%####%%#%%%###############%%%%%%%%%%%%%***%%%%%%%######################################",
"XXXXXXX$$$$$$####%%%%####$$$$$$$XXXXXXXXXXXXXXXX$$$######$$$$XXX$$$$#########$$$$$$$$######$$$XX$$$$#####%%%%%####$$$$$$$$##$$$XXXXXXXXXXXXXXXXXX$$###%####$XXXXXX$$$$$XXXXXooooooo                                                  oooo    ooooooooXXXXXXXXXXXXXooooooooooooooXX$$##$$$$$$$$$$$$$$$$$$$$$#############$XXX$#######+XXX...o.....X.....XXXXXXXXXXXXXXXXXXXXXXXX++X....XX+...................OOOO.OOOOOOOOOOOOOOOO@@@@@&@&@@@@@@@@@@@@@OOO.....................OOOOOOOOOOOOO@@OOOOOOOO......OOOOO@@&&&&&@OO..........................................................OOOO@&&&&&&@@OOOO...O.OOOOO...........................OOO@@@@@@@@@OOOOOOOOOO@OOOOOOO@O@O@@O@OO@@@@@@@@@@@@OO@@@O@@@@OOOOOOOOOOOOOO@OOOOOO@OOOO@@@@OO@@@@OOOOOOOOOOOOOOOOOOOOOOOOOOOOOOOOOOOOOO@@@&@@@@OOOOOOOOOOOOOO.............................OOOOOOOOO@@OOOOOOOOOOOOOOOO...OOOOO........ .........    .. ...............OOOO@@@@&&&&&&&&######@@++++X...............                                                  ...OOOOOOOO.....OOO....   o  ....oo .o..XX+++++######$XXXXXXXoooXXXooooooooXXXXXXXXXXXXXXX$$$$$###%%%%%%%%====--;;;;;;;;;;;;;;;;;;;;;;;;;;;;;;;;--=====**=*************%%%%%%%%%%%%%%%%%%%################%%%%##%%##%%%%##%%####%%%%%%%%%######%#####%%%%%%%%%%%%%*****%%%%%######################################",
"$$$$$$$$$$$$####%%%%%%####$$$$XX$XXXXXXXXXXXXX$$$$#######$$$$XXX$$$$###%%####$$$$$$$$######$$$$$$$$$#####%%%%#####$$$$$$$$$$$$XXXXXXXXXXXXXXXXXXX$$$######$$XXX$XX$$$XXXXXXXooooooo                                      o      o     o oo    ooooooooooXXXX$$$$XXXoooooooooooooXX$$$$$X$$$$$$$$$$$XX$$$$$$$###########$+XXX$$######+XX.oooo......XX...XXXXX..XXXXXXXXXXXXXXXXX+X.....X+O.................OOOOOOOOOOOOOOOOOOOOOO@@@@&&&@@@@@@@@@@@@@OOO......................OOOOOOOOOOOOOOOOOOOOOOOOOOO..OOOOO@&&&&&&@OOO..........................................................OOOO&&&&&&&@OOOO......................................OOOOOOOOOOOOOOOOOOOOOOOOOOOOOOOOOOOOOOOOOOOOOOOOOOOOOOOOOOOOOOOOOOOOOOOOOOOOOOOOOOOOOOOOOOOOOOOOOOOOOOOOOOOOOOOOOOOOOOOOOO..OOOO.OOOOO@@&&&&&@@@OOOOOOOOOO................................OOOOOO@@@&&&&@@OOOOOOOOOOOOOOOOOO@@@OOO................... ...................OOOO@@@@@@@@########@@++++X.........oo  .. o    o                                           ...OOOOOOOO.....OOO...    o o.o.oo   ....X+++++######$$XXXXXXXooooooooooooXXXXXXXXXXXXXXXX$$$$$###%%%%%%%%**==--;;;;;;;;;;;;;;;;;;;;;;;;;;;;;;;;;;;;-========************%%%%%%*%%%%%%%%%%%%%%%%#%##%####%#%####%%#%%%%#%#%%%####%#%%%%%%%%#%%%%%###%%%%%%%%%%%%%******%%%%%######################################",
"$$$$$$$$$$$$####%%%%%%###$$$$$X$$XXXXXXXXXXXXX$$$$#######$$$$XXX$$$$##%%%####$$$$$$$$######$$$$$$$$$$#####%%#####$$$$$$$$$$$$$XXXXXXXXXXXXXXXXXXX$$$######$$X$X$$$$$$XXXXXXXXooooo                       o                     ooo      oo     oooooooooXX$$$$$$XXXXXoooooooooooXX$$$$XXXXX$$$$$$$$XXX$$$$$############$+XXX$$######$X..o.ooX......XX..XXXXX...X.XXXXXXXXXXXXXXXX....X++O................OOOOOOOOOOOOOOOOOOOOO@@@@&&&&@@@@@@@@@@@@OOO.......................OOOOOOOOOOOOOOOOOOOO.OO.OOOOOOOOOO@@&&&&&@OOO...........................................................OOO@&&&&&&&@OOO.......................................OOOOOOOOOOOOOOOOOOO...OOOOOOOOOOOOOOOOOOOOOOOOOOOOOOOOOOOOOOOOOOOOOOOOOOOOOOOOOOOOOOOOO.OO.OOOOOOO.OOOOOOOOOOOOOOOOOOOOOOO...OOOOOOOO@&&::&&&@@OOOOOOOOOOOO..............................OOOOOO@@&&&&&&&@@OOOOOOOOOOOOOOOO@@@@@@OO....................................O.OOOO@@++@+++++++++++++++++X........oo   .. oo  oo  o                                        ...OOOOOOOO.....OOO...    o ooo.oo   .....X++++######$++XXXXXXXoooooooooooXXXXXXXXXXXXXXXXX$$$$$######%%%%*****==-;;;;;;;;;;;;;;;;;;;;;;;;;;;;;;;;;;;;;-=========*********%%%%****%%%%%%%%%%%%%%%###%%%%%%%%####%%%%%%%%%%%%%%##%%#%%%%%%%%%%%%%%###%%%%%%%%%%%%**%****%%%%%####################################%%",
"########$$$$####%%%%######$$$$$X$$XXXXXXXXXXXX$$$$########$$$XXX$$$$####%####$$$$$$$$######$$$$$$$$$###########$$$$$$$$$$$$$$$XXXXXXXXXXXXXXXXX$$$$$$###$$$########$$$$XXXoooooo                                      oo o    o       ooooooo ooooooooooXXX$$$$$XXXXooooo ooooooXXXX$XXX$$$$$###$$XX$$$$################$XXX$$######$XX.oo....oXoXX..XXXXX....XX.XXXXXXXXXXXXXX+++.+++OOX.......OO......OOOOOOOOOOOO+OOOOO@@@@@@&&&&@@@@@@@@@@@@+O....................OOOOOOOOO@O@@@@@@@OOOOOOOO.OOOOOOOOOOOO@@&&&&&@@OOOO...........................................OOOO...OOOOOOOOO@@@&&&&&&@OOOO..........................................OOOOOOOOOO.O.OO.......OOO.........O..OOO...OOOOOOOOOOOOO...OO...OOO..OOOO...OOO......OO......OO............................O.O.OO@&&&::&&&&@@OOOOOOOOOO.................................OOOOO@&&&&&&&&&@@@@@OOOOOOOOOOO@@@@&&@@OO.................... .............X+++X++....XXXXXXXXXXXXXXXXX......   ..   ..    o                                             ...OOOOOOOO.....OOO....   ...ooo..  .......X++++######$$XXXXXXXXXoooooooooXXXXXXXXoXXXXXXXXX$$$$$#######%%%%*****==-;;;;;;;;;;;;;;;;;;;;;;;;;;;;;;;;;;;;;;;========***************%%%%%%%%%%%%%%%%%%%########%%%%%%%%%%%%%%###%%####%%%%%%%%########%%%%%%%%%%%*********%%%%%##############################%%%%%%%",
"########$$$$####%%%%%####$$$$$$$$$XXXXXXXXXXXX$$$#########$$$$XX$$$#####%####$$$$$$$$######$$$$$$$$$$#########$$$$$$$$$$$$$$$$XXXXXXXXXXXXXXXX$$$$$$$$##############$$XXXXoooooo                                                      oooooo  o oo ooooooXXXXXXXXXooooooooooooooXXXX$X$X$$$$#####$X$$$$#################$XXXX$######$XXXooX....X....XXXXXXX.XXXX.XX.XXXXXXXXXO++++++++OO.......OOO.OOOOOOOOOOOOOOOOOOO@@O@@@@@@&&&@@@@@@@@@&@@@@OO...................OOOOO@@@@@@@@@@@@@@OOOOO.....OOOOOOOOO@@@&&&&&&@@OOOO..............................................O...OOOO@@@OO@@&&&&&&&@OOOOO.........................................OOOOOOOOOO.O.O...OO....OO...........OOO....O........O.O....OOOO..OO....OO.....O......OO.......OO...O.......OO........O.......O.OO@&&&:&&&&&@OOOOOOOOOOO..................................OOOO@&&&&&&&&&&@@@@@OOOOOOOOOOO@@@@&@@OO.....................................................XXX...oo..                   .o                                            ...OOOOOOOO.....OOO.... . ...o.o.. o....XXXX++++########$+XXXXXXXoooooooooXXXXXXXXXXXXXXXXXXX$$$$$########%%%******===;;;;;;;;;;;;;;;;;;;-;;;;;;;;;;;;;;;;;;;--=========**********%%%%%%%%%%%%%%%%%%%%######%%##%%###%%%%%%##%%%%##%%%%%%%%%%#######%%%%%%%%%%%%********%%%%%###############################%%%%%%",
"########$$$$####%%%%%%####$$$$$$$$$$$$$$$$$$$$$$$##########$$$$$$$$##########$$$$$$$$#######$$$$$$$$$$##$$$$$$$$$$$$$$$$$$$$$$$$XXXXXXXXXX$$X$XXXX$$$$$#####%%%%####$$XXXXXooooo                                                       oo  o    oo   ooooooXoXXXooooooooooooooooXXXX$$$$$$$$#####$$$$$$#################$$XXX$######+XX.XX..o....XX...XXXXXXXXXX.X...XXXXXXXX+++++++++OOO...OOOOOOOOOOOOOOOOOOOOOOOOOO@@@@@@@&&&@@@@@@@@@@@@@+OO....................OO@@&&&&&&&&&&&&&@@@OOOO.......O..OOOO@@@&&&&&&@OOOOO................................OOOOOOOOO@@@@@@@@@@@@@@&&@@@@&&&&&&&@@OOOOOOOO..OO..O..................OO............OOOOOOOOOOOO....OO....OOOOOOOO......OO.......................................O....O..O......OO............OOO.OO........OOO.OOOO@@&&&&&&&&@@OOOOOOOOOOOOOO...............................OOO@@&&&&::&&&@@@@@@@OOOOOOOOOOO@@@&&@@OO..........................................oo......XXXXXXo...                   o..oo                                          ...OOOOOOOO.....OOO.....  ...o.oo......XXXXX++++#########$++XXXXXoooooooooXXXXXXXXXXXXXXXXXXX$$$$$$$$#######%%%***==**==-;;;;;;;;;;;;;;;;;;;;;;;;;;;;;;;;;;;;;;;;=====**==**********%%%%%%%%%%%%%%%%%%%##%%%##########%%%%%%%%%%##%%%%%%%%%%%%%%%%#%%%%%%%%%**%*%%******%%%%%###############################%%#%##",
"##########$$####%%%%%%###$$$$$$$$$$$$$$$$$$$$$$#####%%%%###$$$$$$$$#########$$$$$$$$$#######$$$$$$$$$$$$$$$$$$$$$$$$$$$$$$$$$$$$XX$$$$$$$$$$$$$XXXX$$$$######%%%####$$XXXXXXooooo                                     ooooooooo         ooo          ooooooooooooooooooooooooooXXXXX$$$$$$#######$$$$$$$################$$XXX$######+XX.....oo........XXXXXXXXXX.XXX.XXXXXXXO+++++++OOOO...OOOOOOOOOOOOOOOOO+OOOOOOOO@@@@@@@&&&&@@@@@@@@@@@@+OOO....................O@@@&&&&&&&&&&&&@@@OOOOO.......O.OOOOO@&&&&&&&@@OOOOO...............................OOOOOO@@@@@@@@@@@@@@@@@&&&@@@@&&&&&&&@OOOOOOOOOOOOOOOO..........................O....OOOOOOOOOOOO.O.OOOO...OOOOOOOOOOOO...OOOO....OOO...........................OOOO.......O......OOOO..O.OO...OOOOOOOOO.....OOOOOOOOO@@&&&:&&&&@OOOOO@@+OOOO...OOO............................OOO@@&&&&::::&&@@@@@@@OOOOOOOOOOO@@@&&@@OOOO...XX..XX.X......XXXXX..XXXXXX.XX....o.o...........XX.oo.....               oo                                             ...OOOOOOOO.....OOO.....  ..oooo..ooo..XXXXXX++++#########$+XXXXooXXoooooXXXXXXXXXXXXXXXXXXXXXX$$$$$$$#######%%%%%**===*===;;;;;;;;;;;;;;;;;;;;;;;;;;;;;;;;;;;;;;;--========************%%%%%%%%%%%%%%%%%%%%%%%#%###%%%%##%%%%%%##%%%%%%%%%%%%%%%%%%%%%%%%%%%%%%%%*******%%%%###############################%%####",
"%%%%%#####$$####%%%%%%%##$$$$$$$$$$$$$$$$$$#########%%%%###$$$$$$$$#########$$$$$$$$$################$$$$$XXXX$$$$$$$$$$$$$X$$$$X$$$$$$$$$$$$$XXXXXXX$$$###########$$$XXXXXXXooooooo                                  ooooooooo                   oo oo   oooooooooooooooooooooXXX$$$$$$####%%###$$$$$$$$$#############$XXXXX$#####$+XX.....oo..o.....XX.XXXXXX.XXX..XXXXXXX+++++++OOOOOOOOOOOOOOOOOOOOO+++OOOO+OOOO@@@@@&&&&&&@@@@@@@@@@@+OO........................O@@@@@@&&&@@@@@@@OOOOOOOO....OOOOOO@@&&&&&&&@OO.O................................OOOOOOOOOOOOOOOOOOOOOOOOO@@@@@@&&&&:&&@@OOOOOOOOOOOOOOOOOOOOOOOO..OO....OOOOOOOOOOOOOOOOOOOOOOOOOOOOOOOOOOOOOOOOOOOOOOOOOOOOOOOOOOOOOOOOOOOOOOOOOOOOOOOOOOOOOOOOOOOOOOOOOOOOOOOOOOOOOOOOOOOOOOOOOOOOOOOOOOOOOOOOOOOOOOOO@@&&&&&&&&@@OOO@@&@@@OOOOOO...O.........................OOOOOO@&&&::&&&&&@@@@@@@@@OOOOOOOOO@@@&&&@OOOOO+++XXXXXXXXXXXXXXXXXXXXXXXXXXX.......  ....    ....    .oo                                                                ...OOOOOOO.....OOO....   ..ooo.o.oo..X+++++++++++$$######$+XXXXXoXooooooXXXXXXXXXXXXXXXXXXXXXX$$$$$$$$$$######%%%%%**========;;;;;;;;;;;;;;;;;;;;;;;;;;;;;;;;;;;;;;;;======*===**********%%%%%%%%%%%%%%%%%%%%%%%%%%%%###%%%%%####%%%%%%%%%%%%%%%%%%%%%%%%%%%****%*******%%%%##########%###%################%%%%##",
"%%%%%#####$$####%%%%%%###$$$$$$$$$$$$$$#########%%%%%%%%###$$$$$$$$#########$$$$$$$$$$################$$$$$X$$$$$$$$$$$$$$$$$$$X$$$X$$$$$$$$XXXXXXXXXX$$$$#######$$$$XXXXXXXXXoooooo                                 oooooooooo oo             o          oooooo oooooooooooooooXX$$$#######%####$$$$X$$$$$$$$#########$XXXXX$#####$+XX.....o.........XX...XXXX.XXXXXXX.XXXXX+++++OOOOOOOOOOOOOOOOOOO+++OOOOOOO++OO@@@@@&&&&&@@@@@@@@@@@@+OO...........X.............OOOO@@@@@@@@@@@OOOOOO...OO...OOOOOO@&&&&&&&@@OOOO.O.............................OOO@@@OOO..OOOOOOOOOOOOOOOOOO@@@&&&::&&@@OOOOOOOOOOOOOOOOOOOOOOOOOOOOOOOOOOOOOOOOOOOOOOOO@@@@@@@@@@@@@@@@@@@@@@@@@@@@O@@@@@O@@@@@@@@@@OO@O@OOOOOOOOO@@OOOOOOOOOOOOOOO@OOOOOOOOOOOOOOO@@@@OOOOOOOOOOOOOOOOOOOOOOOOOOOOOOOOO@&&&:&&&&@@OOO@&&&@@@OOOOOOO..........................OOOOOOO@@&&::&&::&&@@@@@@@@@OOOOOOO@@@@@@&&@OOO..........X.XX.....XX...XX..o..... .                                    o                                                  ...OOOOOOO.....OOO....   ..oo....ooXX++####+$+++++$$$###$+XXXXXXXXXXoooXXXXXXXXXXXXXXXXXXXXXXXX$$$$$$$$$######%%%%%%%%**=======;;;;;;;;;;;;;;;;;;;;;;;;;;;;;;;;;;;;;;;;--=======*************%%%%%%%%%%%%%%%%%%%%%%%%##%%%%%%%%##%%##%%%%%%%%%%%%%%%%%%%%%%*************%%%%#########%%##%###%%%%##########%%%%##",
"%%%%%%###$$$####%%%%%%###$$$$$$$$$$#######%%%%%%%%%%%%%###$$$$$$$$$########$$$$$$$$$$#######%%%%%%%%###$$XXXXX$$$$$$$$$$$$$$$$$$$$XXX$$$$$$XXXXXXXXXXXXXX$$$$$$$$$$$XXXXXXXXXXXooooooo                                o ooooooooo oo          oo    o       ooooooooooooooooooooXXX$$###%%%%%%###$$$XX$XX$$$$$##########XXXXX$######+XXX.o..o....XXXXX....XXXX..XXXXXXX.XX...O+++OOOOOOOOOOOO@OOOOOOOO+++OOOOOOO@@@@@@&&&&&&@@@@@@@@@@+++O..........XXXX..............OOOOO@@@@OOOOOOOOOO....OOOO.OOOOO@&&&&&&&@@OOO.O..............................OOO@@@@OO..............OOOOOOO@@&&&&&&&@@@OOOOOOOOOO@@OOOO@OOO@OOOOO@@@O@@@@OOOOOOOO@@@@@@@@@@@@@O@@OOOO@@OOOOOOOOOOOOOOOOO@@@@@@@@@@@@@@@@@@@@@@@@@@@@OOOOOOOOOOOO@@@@@@@@@@OOOOOOOOOOO@@OOOOOOOOOOOOOOOOOOOOOOOOOOOOOOOOO@&&&:&:&&&@OO@&&&&&&&@@O@@OOOOOOO...................OOO@@@@@O@@@&&&&&:::&&@@@@@@@@@OOOOOOOOOOO@@@@OO.......... ....... ..........o                                         o.o                                                 ....OOOOOOO.....OOO.... .  .oo.o  ooXX+#######$$++++++$$$$XXXXXXXXXXXooooXXXXXXXXXXXXXXXXXXXXXXXXX$$$$$$$$$########%%%%%%**====*===;;;;;;;;;;;;;;;;;;;;;;;;;;;;;;;;;;;;;;;;;========*************%%%%%%%%%%%%%%%%%%%%%%%%%%%%%%%%%%###%%%%%%%%%%%%%%%%%%%%%%**************%%%#########%%%%%%####%############%%%##",
"%%%%%%####$$####%%%%%#####$$$$$$$$######%%%%%%%%%%%%%%####$$$$$$$$$#######$$$$$$$$$$$#####%%%%%%%%%%####$$XXXX$$$$$$$$$$$$$$$$$$$$XXX$$$$$XXXXXXXXXXXXXXXXXXXXXXXXXXXXXXXXXXXXXXoooooo                                ooooo oooo oooo         oo    o        oooooooooooooooooooXX$$####%%%%%%###$$$XXXXXX$$$$$#########XXXXX$#####$+XX.o.......XXXXXXXXXXXXXX..X.XXXXX.XX..OO++@@OOOOOO@@@@@@@@OOOOOO++OOOOO@@@@@@@@&&&&&@@@@@@@@###++++..........XX...........XX.....OOOO@@OOOOOOOOOOOOO..OOOO..OOOO@@&&&&&&&@OOOO.O.............................OOO@@@@@O............OOOOOOOOO@@@&&&&&&&@@@OOOOOOOOOOOOOOOOOOOOOOOOOOOOOOOOOOOOOOOOOOOOOOOOOOOOOOOOOOOOOOOOOOOOOOOOOOOOOOOOOOOOOOOOOOOOOOOOOOOOOOOOOOOOOOOOOOOOOOOOOOOO@OOOOOOOOOOOOOOOOOOOOOOOOOOOOOOOOOOOOOOOOOOOOOOOOOOOO@@&&&::&&&@@@@&&&&&&&@@@@@@@@@OOO...................OOO@@@@@O@O@@&&&&::::&&@@@@@@@@@@OOOOOOOOOO@@OOOO.........  .. .. . .  ......o                                     .......o                                                ....OOOOOOO.....OOO........o.o... oo.X+#########$$++++++XXXXXXXXXXXXXooooXXXXXXXXXXXXXXXXoXXXXXXXX$$$$$$$$$###########%%%%%**====**==;;;;;;;;;;;;;;;;;;;;;;;;;;;;;;;;;;;;;;;;;;========***************%%%%%%%%%%%%%%%%%%%%%%%%%%%%%%%%%%%%%%%%%%%%%%%%%%%%%%******%*******%%%########%%%##%%#####%#####%#####%%%##",
"%%%%%#####$######%%%%%###$$$$$$$#####%%%%%%%%%%%%%%%#####$$$$X$$$$$$#####$$$$$$$$$####%%%%%%%%%%%%%%###$$$XXXXX$$$$$$$$$$$$$$$$$$$$$$$$$XXXXXXXXXXXXXXXXXXXXXXXXXX$$$$XXXXXXXXXXXooooo                                  oooo  oooooooo oo      o    o      ooooooooooooooooooooXXXX$$###%%%%%%%##$$$XXXXXX$$$$#########$XXXX+$######+X..o...o.X...XXXXXXXXXXXX..XXXX...X..XXX++++@@@@@@@@@@@&&&@@@OOOO@@OOO@@@@@@@@&&&&&@@++@@@@@#++++..X.....X..XXX...X......XXXXXXOOOOOOOOOOOOOOOOOOOO..O...O...OOOO@&&&&&&@@OOOOO......OOO.....................OOO@@@@@OO...............OOOOO@@@&&&::&&@@@@OOOOOOOOOOOOOOOOOOOOOOOOOOOOOOOOOOOOOOOOOOOOOOOOOOOOOOOOOOOOOOOOOOOOOOOOOOOOOOOOOOOOOOOOOOOOOOOOOOOOOOOOOOOOOOOOOOOOOOOOOOOOOOOOOOOOOOOOOOOOOOOOOOOOOOOOOOOOOOOOOOOOOOOOOOOOOOOOO@@&&&&&&&&&&&&&&&&&&&&@@@@@&&&&@@O...................OO@@@@@@@@@@&&&&&::&&&&&@@@@@@@@@OOOOOOOOOOOOOOO......... ......    ....     .      ..                          oooo  oooo                                                 ...OOOOOOO.....OO.....   .....o  ...X++#########+$+XXXXXXXXXXXXXXXXXXXXXXXXXXXXXXXXXoXoXXXXXXXXXX$$$$$$$$$$$$########%%%%%%%%**====**==;;;;;;;;;;;;;;;;;;;;;;;;;;;;;;;;;;;;;;;;;;-========*************%%%%%%%%%%%%%%%%%%%%%%%%%%%%%%%%%%%%%%%%%%%%%%%%%%%%****%%%%*****%%%########%%###%%%##############%%###%%%",
"%%%#%####$$$#####%%%%%###$$$$$$$####%%%%%%%%%%%%%%#####$$$$$$$$$$$$$######$$##$#####%%%%%%%%%%%%%%%%###$$$XXXXX$$$$$$$$#######$$$$$$$$XXXXXXXXXXXXXXXXXXXXXX$XXXXX$$$$$$XXXXXXXXXooooo                                  oooo  ooooooooo oo    oo  oooooo    oooooooooooooooooooXXX$$$###%%%%%%###$$$XXXXXX$$$$#########$XXXXX$######+X..oo..ooXXXXXXXXXXXXXXXXXXXXX.....XXXX+++O@@@@@@@@@&&&&&@@@@@+OOOO@@@@@@@@@@&&&&&@@+++@+@@#++++X.....XXXXXXX.X..XXXX.X.XXXXXX++OOOOOOOOOOOOOOOOOOOOOO.......OOOO@@&&&&&@@@OOOO.....OOOOOOO.....OOOO.........OOO@@@@@OO.........O.OOOOOOOOO@@&&&&:&&&@@OOOOOOOOOOOOOOOOOOOOOOOOOOOOOOOOOOOOOOOOOOOOOOOOOOOOOOOOOOOOOOOOOOOOOOOOOOOOOOOOOOOOOOOOOOOOOOOOOOOOOOOOOOOOOOOOOOOOOOOOOOOOOOO@@@OOOOOOOOOOOOOOOOOOOOOOOOOOOOOOOOOOOOOOOOOOOOOOO@@@@&&&&&&&&&&&&&&&&&&&&&@@@@&&&&@@OO..................OOO@@@&@@@@@@&&&::::&&&&@@@@@@@@@@OOOOOOOOOOOOOOO......... .   .. ......    .        ..      .                  .oo   oooo                                                ....OOOOO+......OO.....   ....oo  .ooXX+##########+XXXXXXXXXXXXXXXXXXXXXXX$XXXXXXXXXoooXoXXXXXXXXX$$$$$$$$$$$$###########%%%%%%%***========;;;;;;;;;;;;;;;;;;;;;;;;;;;;;;;;;;;;;;;;;--=========***********%%%%%%%%%%%%%%%%%%%%%%%%%%%%%%%%%%%%%%%%%%%%%%%%%%***%%*%%*****%%%%#######%####%%%####%#######%%%%%##%%%",
"#%%#####$$$$#####%%%%%####$$$$$$###%%%%%%%%%%%%%#####$$$$$$$XX$$$$$#############%%%%%%%%%%%%%#%%#######$$XXXXXX$$$$#$###########$$$$XXXXXXXXXXXXXXXXXXXX$$$$$$XXX$$$$$$$$$$$$$X$XXoooo                                    oo  ooooooo   o         ooooooooooooXXooooooooooooooooXX$$##%%%%%%%%###$$$XXXXXX$$$$#########$XXXXX$#####$+XX.....oo.XXX++#############$$$$$$$$$$+++++++++++++@#@#&@@@@@++++++++@@@@@@@&&&&@@@+++++@##++++.....X......X..X.....XXXXXXX+++++++++++OOOOOOOOOOOOOOOOOOOOOOOOOOO@@@@@@@@@+@@+O+++OOO@@@@+OOOOOO@@OOOO..OOOOOO@@@&&@@OOOO.O....OOOOOOOOOOOO@@&&:::&&&@@@@@@@@@@@@@@@@@@@@@@@@@@@@@@OO@@@@@@@@@@@@@@@@@@@@@@@O@@@@@@@@@@@@@@@@@@@@@@@@@@@@@@@@@@@@@@@@@@@@@@@@@@@@@@@@@@@@@@@@@@@@@@@@&@@@@@@@@@@@@@@@@@@@@@@@@@@&@&&&&&&&&&&&&&&&&&@@@@&&&&&&&::&&&&&&&&@@&&&&&&&&&&&&&&&&&@O.................OOOOO@@&&@@@@@&&&:&::&&&&&@@@@@@@@@OOOOOOOOOOOO@@@O................... ....  . .               .   .. .           o     o                                                  ....OOOOOOO......O....    ...    o....XX+$#######$+XXXXXXXXXXXXXXXXXXXXXX$$$$XXXXoXXoooXXXXXXXXXXX$$$$$$$$$$$$$$##########%%%%%%%%***========-;;;;;;;;;;;;;;;;;;;;;;;;;;;;;;;;;;;;;;;;;;;=========**************%%%%%%%%%%%%%%%%%%%%%%%%%%%%%%%%%%%%%%%%%%%%%************%%%%%##########%%%####%%%%%%%#%%%%%####%%",
"########$$$$#####%%%%%###$$$$$$$###%%%%%%%%%%%#####$$$$$$$$$$$$$$$$#####%%%%%%%%%%%%%%%%%%%%###########$$XXXXXXX$$$$$##########$$$$XXXXXXXXXXXXXXXXXXX$$$####$$XX$$$$$$$$$$$$$$$XXXoo                                      o ooooooo   o o       oooooooooooooooooooooooooooooooXX$$##%%%%%%%%###$$$XXXX$$$$$$#########$XXXXX$#####$+XXX.X..oo.XXXXXX++###%%***==****%%%############++++@#@#@@@@+++++++++++@@@@@&&&&@@@++++++##++++XX...XXXX...XXXXXXXXXXXXXXX+++++++++++++++++OOOOOOOOOOOOOOOO+OOOOOOOOOO@@@@@O@@++++@@@@@@@@@OOOO@@@@@OO....OOOOO@@@@@@OOOOOOO....OOOOOOOOOOO@@@&&&:::&&&&&&&&&&&&&&&&&&&&&&&&&&&&&&&&&&&&&&&&&&&&&&&&&&&&&&&&&&&&&&&&&&&&&&&&&&&&&&&&&&&&&&&&&&&&&&&&&&&&&&&&&&&&&&&&&&&&&&&&&&&&&&&&&&&&@@@@@&&&&&&&&&&&&&&&&&&&&&&&&&&&&&&&&&&&&&&&&&::::&&:&&&&&&&&&&&&@@@&&&&&&&&&&&&&&&&@@O.................OOOO@@&&&@@@@@&&&&:::&&&&&@@@@@@@@@OOOOOOOOOOO@@@OO.................................................                   o                                                  ......OOOOO.....OO.....   ...   o.....XXX+$######$+XXXXXXXXXXXXXXXXoXXXXX$$$$$XXXXXXoooXXXXXXXXXXX$$$$X$$$$$$$$$$$#########%%%%%%%%%%**========-;;;;;;;;;;;;;;;;;;;;;;;;;;;;;;;;;;;;;;;;;;--========**************%%%%%%%%%%%%%%%%%%%%%%%%%%%%%%%%%%%%%%%%%%*************%%%%%#####%####%%%%##%%%%%%%%#%%%%%####%%",
"##%#####$$$$####%%%%%#####$$$$$$####%%%%########$$$$$$$$$$$$$$$$$###%%%%%%%%%%%%%%%%%%%######$########$$XXXXXXXX$$$$$$#######$$$$$$XXXXXXXXXX$$$$$$XX$$$#####$$XXX$$$$$X$$$$$$$$$XXooo                                     oooooooooooooooooooooooooooooXXoXXXXXXXooooooooooooooXX$$##%%%%#######$$$XXXX$$$$$##########$XXXXX$#####$+XXX....X...X..XXXXXXX+$####%%***=======**********%%****##++#####################+++++++##$$+++XXXXXXXXXXXXXXXXX+XXXXX++X++++###++##+++++++@+++OOOO+++OOOOOOOO...OOOOOOOOOO.OOOOOOOO@O@@@@OOOO@@&&@@OOOOOOOO@@@@@&&&@OOOOOOO....OOOOOOOOO@@@@@@&&&&&&&&&&&&&&&&&&&&&&&&&&&&&&&&&&&&&&&&&&&&&&&&&&&&&:&&&&&&&&&&&&&&&&&&&&&&&&&&&&&&&&&&&&&&&&&&&&&&&&&&&&&&&&&&&&&&&&&&&&&&&&&&&&&&&&@@@OO@O@@@@@@&&&&&&&&&&&&&&&&&&&&&&&&&&&&&&&&&&&&&&&&&&&&&@&@&&&&&&&@@@@@@@@@&&&&&&&&&&&@OO............O.OOOOOO@@@@&&@@@@@&&&&:::&&&&@@@@@@@@OOOOOOOOOOOOOOOOO..............................................                                                                           ...OOOOOO.....OO........ oo.oo........XXX++$##$++XXXXXXXXXXXXXXXXXXXXX$$$XXXXXXXXXooXXXXXXXXXXXXXXXX$$$$$$$$$$$$$$$##########%%%%%%%%***=========;;;;;;;;;;;;;;;;;;;;;;;;;;;;;;;;;;;;;;;;;;;-=========********************%%%%%%%%%%%%%%%%%%%%%%%%%%%%%%****************%%%%####%%%##%%%%%%%%#######%%%%%%%%#%%%",
"#######$$$$$$####%%%%####$$$$$$$#############$$$$$$$$$$$$$$$$$#####%%%%%%%%%%%%%%%%%%%####$$$$$$$$##$$$$XXXXXXXXX$$$$$#####$$$$$XXXXXXXXXXXX$$$#$$$$$$$######$$XXX$$$$$+X$+$$$$$$XXooo         o                          oooooooooooooooooooooooooooooooooXXXXXXXXXoooooooooooXXX$$##%%%%#######$$$XXX$$$$$###########$XXXXX$#####$+XXXoX..XX...XXXXXXXXXXXXXX$$$####%****=**==============*%#+#%*=********%*****%%##############$$+X++XXXXXXX+++++++++++++++++####++++++++O++O++++OOOO++OO..........OOOOOOO........OOOOO@@@@OOO+@@&@@@OOOOO@@@@@@&&&&@@OOOOOOO.OOOOOOOOOOO@@@@@@@@@@&&&&&&&&&&&&&&&&&&&&&&&&&&&&&&&&&&&&&&&&&&&&&&&&&&&&&&&&&&&&&&&&&&&&&&&&&&&&&&&&&&&&&&&&&&&&@@@@@@@@@@@@@@@@@@@@@@@@@@@@@@@@@@@@@@@@OOOOOOOOOOOO@@@@@@@@@@@@@@@@@@@@@@@@@@@@@@&@@@@@@@@@@@@@@@@@&&&&&&&@@@@@@@@@@@@@@@@&&&&&@OO..O........OOOOOOOOO@@@&&@@@@@&&&&:::::&&&@@@@@@@@OOOOOOO.O..O.............................                                                                                                .......O......OO..........o ..........XXXXXX++XXXXXXXXXXXXXXXXXXXXXXXXXXXXXXXXXXXXXXXXXXXXXXXXXXXXX$$$$$$$$$$$$$$$$###########%%%%%%%%%***=========;;;;;;;;;;;;;;;;;;;;;;;;;;;;;;;;;;;;;;;;;;;--======**********************%%%%%%%%%%%%%%%%%%%%%%%%%%%%****************%%%%%###%%%%##%%%%%%%#######%%%%%%####%%",
"#######$$$$$$####%%%%####$$$$$$$$########$$$$$$$$$$$$$$$$#####%%%%%****%*%%%%%%%######$$$$$$$$$$$$$$$$XXXXoooXXXXXX$$$$$$$$$$$$XXXXXXXXXXXX$$####$$$$$$######$$XXX$$$$$+++$$$$$$XXXooo         o    oo               ooo   oooooooooooooooooooooooooXXXXXXX$$$###$XXXooooooooooXXX$$###%%%#######$$$X$X$$$$############$XXXXX$#####$+XXXoo..XXXoXXXXXXXXXXXXXXXXXXXX++$######********========%###*=*=**==*======****=======**********%%%%%%%%%%%#%%######+++++++####++++++++OOOOOOOOOOOOO+OOOOOOO.OOOOOOOO++OOOOOOOOOOOOOO@@@OOO@@&&&&@@@@@@@@@@&&&&&&&@OOOOOOOOOOOOOOOOOOO@@@@@@@@@@@@@@@@@@@@@@@@@@@@@@@@@@@@@@@@@@@@@@@@@@@@@@@@@@@@@@@@@@@@@@@@@@@@@@@@@@@@@@@@@@@@@@@@@@@@@@@@@@@@@OOOOOO@@OOOO@OOOOO@@@@OOOOOOOO@@@OOOOOOOO@@OOO@@OOOOOOOOOOOOOOOOOOOO@@@@@@&&&&&&@@@@@@@@@@@@@@&&&&&&&&@@@@@@OOOOOOO@@@@&&&@+OOOOOOOO....OOOOOOOOO@@@@&@@@@@@&&&&::::&&&@@@@@@@@OOOOOO....OOO..................  ....... ..                                                                                             ....XXXX+......+O....  .. .o............XXXXXXXXXXXX+$$$$XXXXXXXXXXXXXXXXooXXoooooXXXXXXXXXXXXXXXXX$$$$$$$$$$$$$$$$$$#############%%%%%%%%****=========;;;;;;;;;;;;;;;;;;;;;;;;;;;;;;;;;;;;;;;;;;;;-======*************************%%%%%%%%%%%%%%%%%%%%%%****************%%%%%%####%%####%#%%%#######%%#%######%%",
"#######$$$$$$####%%%%####$$$$$$$$$$$##$$$$$$$$$$$$$$$$######%%%%*******%%%%%%%%####$$$$$$$$$$$$$$$$$$$XXXXooooXXXXXX$$$$$$$$$$XXXXXXXXXXXXX$$####$$$X$$$####$$XXXX$$$$$+$$$$$$$$XXooo   oooo ooo    oo              o oo  ooooooooooooooooooooooooXXXXXX$$$#######$XXoooooooooXXXX$$###%%%##%####$$$X$X$$$$############$XXXXX$#####$+XXXooo.X.XXXXXXXXXXXXXXXXXXXXXXXXXXXX$$######%%%*****=**%#$##*****=***=********================**=*****=**********%#++XX++$####++++++++++OOOO+OOOO+@++++++O++O++++++++++OOOOOOOOOOO@@@@@OO+@@&&&@@@@@@@@@&&&&&&&&@@OOOOOOOOOOOOOOOOOO@@@@@@@@@@@@@O@@@@@@@O@OOO@@@@@@@@@@@@@@@@@@@@@@@@@@@@@@@@@@@@@@@@@@@@@@@@@@@@@@@@@@@@@@@@@@@@@@@@@@@@@@@@@@@@@@@OOO@@OOOO@@OOOOOOOOOOOOOOOOO@@OO@@@@@@@@@@@@@@@@OOOOO@@OOOOOOOOO@@@@@@@@&&&&&@@@@@@@@@@@@@@&&&&&&&&@@@@@@@@@+@O@@@@@@&&&@OOOOOOOOOOOOOOOOOOOO@@@@@@@@@@@@&&&:::&&&&@@@@@@@@@OOOOOO...O...............................                                                                                              .oXXX++++####+++++...  .........oo.......XXXXXXXXXXXX$$###$$$XXXXXXXXXXXXoooooooooooooXXXXXXXXXXXXXX$$$$$$$$$$$$$$$$$$#############%%%%%%%%%%*****========;;;;;;;;;;;;;;;;;;;;;;;;;;;;;;;;;;;;;;;;;;;;--=====*****************************%%%%%%%%%%%%%%%*****************%%%%%%###%%%####%%%%#######%%%#######%%%",
"#######$$$$$######%%%%##$$$$XX$$$$$$$$$$$$$$$$$$#######%%%%%%%********%%%%%%####$$$$$$$XXXXX$$$$$$$$$XXXXXoooooooXXXX$$$$$$XXXXXooooooooXXXX$$$$$$$XXX$$$##$$$XXXX$##$$$$$$$$$XXXooooooo    oooo   o        oooo   ooooooooooooooooooooooXXXXXXXXXXX$$$#####%%%###$XXoooooooooooXX$$###%%%%%%####$$$$$$$$$$###########$$XXXXX+#####$XXXX..XXooooXXXXXXXXXXXXX.XXXXXXX+XXXXX+XXXX+++++##########+$#**=***=***********========***====***==****==*********%#$XXXX+$####$$++++++++++O+O+++@@++++++++O+++++++++++++++OO+++OO@@@@@OO+@@&&&&@@@@@@@&&&&&&&&&&&@@OOOOOOO@@@@@@@@@@@@@@@@@@@@@@@@@@@OOOO@@@@@@@@@@@@@@@@@@@@@@@@@@@@OOOOO@OOOOO@@@@@@@@@@@@@@@@@@@@############%%%############+++++OOOOOOOOOOOOOOOOOOOOOOOOOOOO@@@@@@@&&&&&&&@@@@@OOOOOOOOOOOOOOOOO@@@&@@@@@&&&&&@@@@@@@&&&@@@&&&&&&&&&&@@@@@@@@@@@OO@@@@&&&@@@++@@@@@@@@@@@@@@@@@@@@@@@@&@&&&::&&&&&&@@@O@@@@@+O+OOOOO....O.O...O..........................                                                              o  ooooooooooXXXoXXX$$$$$$$###%%%%********##++O........................XX...XX.XXXX$#######$$$XXXXXXXooXoooooooooooooXXXXXXXXXXXXX$$$$########$###################%%%%%%%%%%%%****========-;;;;;;;;;;;;;;;;;;;;;;;;;;;;;;;;;;;;;;;;;;;;==========*************************%%%%%%%%%%*******************%%%%%%#########%%%######%%%%%%###%%%%%%#",
"#######$$$$$######%%%%##$$$$$X$$$$$$$$$$$$$$$$#######%%%%%%%********%%%%%%%###$$$$$$XXXXXXXX$$$$$$$$XXXXXoooooooooXXXX$$$$XXXXoooooooooooXXX$$$$$$XXXXX$$$$$$XXXXX$##$$$$$$$$XXXoooooo       oo              ooo     ooooooooooooooooooooXXXXXXXXX$$######%%%%####$XXoooooooooooXX$$###%%%%%%####$$$$$$##$#############$XXXXX+#####$XXXXo..Xo.oo....XXXXXXXXXXXXXXXXXXXXXXXXXXXXXXXXXX+$$$####$+#%**=*=*==**********===*====****===***==****==*********%$+XXX++++++###+++++++++++OO+++++OOOO++++OO+++++@+@@@+++++++++O@@@@@OO+@@&&&&@@@@@&&&&&&&&&&&&&@@OOOOOOOO@@@@@@OO@@@@&&&@@@@@@@@@@@@@@@@@@@@@@@@@@@@@@@@@@@@@@@@@@@@@@@@@@@@@@@@@@@@@@@@@OO@@O@@@####%&********************%%####++@OOOOOOOOOOOOOOO@@@@@@@@@@OO@@@@@&&&&&&&&&@@@@@@@OOOOOOOOOOOOOO@@@&&&@@@@&&&&&&@@@@@@@&&&&&&&&&&&&:&&@@@@@@@@@@@O+++@@@@@@@++@@@@@@@@@@@&&&&&&&&&&&&&&&&&&&:&&&&&@@@OOOO@@@@++OOOOOO....OO......................... ......                                                            o   XXXX$$$$#########%%%%%*************==**#+X+O........................XXX...X.XXXX$#######$$$$XXXXXXoooooooooooooooooXXXXXXXX$XX$$$$$$############################%%%%%%%%%%%%%%****========;;;;;;;;;;;;;;;;;;;;;;;;;;;;;;;;;;;;;;;;;;;;-==========**********===**************************************%%%%%%##%%%%##%%#%####%%%%%%%%####%%%%%%",
"######$$$$$$####%%%%%###$$$$$$$$$$$$$$$$$$######%%%%%%***********%%%%%%####$$$$$$XXXXXXXXXX$$$$$$$$$$XXXXoooooooooXXXXX$XXXXXoooooooooooooXXXXXXXXXXXXXX$$$$$XXXXX$##$$$$+XXXXXoooo o       oo    oo    oo    oo    o   ooooooooooooooooooXooXXXXX$$#####%%%%%%###$XXXooooooooooXX$$##%%%#%%%%###$$$###################$XXXXXX#####$XXXXX.....oX....X.XXXXXXXXXXXXXXXXXXXXX.XXXXXXXXXXXXXXXX++++#%**=***==****==****==**====**====****==**====*****=***%$+XXXX++++##+#++#+++++++++O+++OOOOOOOO++OOOO++++++OO+++++OO@O@@@@@OOO+@@&&&&@@@@&&&&&&&&&&&&&&@@@@@@@@@@@@@@@@@@@@@&&&&&&&@@@@@&&&&&&&&&&&&&&&*&&&&&&&&&&&%&&%&&&%&&&&&&&#####@@@@@@@O@@@@@@##%%*============================***#######+OOOOOOO@@@@@@@@@@@@OOO@@@@@&&&&&&&&&&&@@@@@@OOOOOOOOOOOO@@@@&&&@@@@@&&&&&@@@@@@&&&&&&&&&&&:::&&&@@@@@@@@@@@@@@@@@@@@@@@@@@@@@@@@@#@@&&&&&&&&&&&&&&&&&&&@@@@OOOOOOOO+@@+++OOOOOOOOOOOOO.............................. .  ....    ..                o     ooooooooooooooXX$X$$$$##$oo$#%*%******======******************===**#XX.O....  ..................XXX.....XXXX$#########$$XXXXXXooooooooooooooooooXXX$$$$$$$$$$$$$$$#############################%%#%%%%%%%%%%%***========-;;;;;;;;;;;;;;;;;;;;;;;;;;;;;;;;;;;;;;;;;;;;;=========**===*========*****************************===***%%%%%%%%%%%%%%##%%%#%%%%####%###%%%%%%%%",
"######$$$$$$#####%%%####$$$$$$$$$$$$$$$$#####%%%%%%***********%%%%%%%###$$$$$$X$XXooooXXXXX$$$$$$$$$$XXXXooooooooooXXX$$$XXXXoooooooooooooXXXXXXXXXXXXXX$$$$XXXXXX$$$$$$+XXXXXoooooo    ooo       o      o    o   oooo  ooooooooooooooooooooooXXXXX$$###%%%%%%%%##$XXXooooooooooXX$$###%%#%%%%###$$$$##################$XXXXX+#####$XXX.o.....oo...XXXXXXXXXXXXXXXXXXXXXXXX.XXXXXXXXX.XXXXXXXXXX#%************==***===***==***====****==**====*****=***%$+XXXXXX++$$$$++++++++++++OOOOOO.O..O.O.OOOOOOOOOOOOOOOOOOOO@@&@@OOO+@@&&&&@@@@&&&&&&&&&&&&&&&&&@@@&&&&&&&&&&&&&&&&&&&&&&&&@@@@@&&&&&&&&&&&*============================****&&&&&@@@@@@@&&&&**======================***==========****%&@+OOOOO@@@@@@@@@@@@OOOO@@@@@&&&&&&&&&&&@@&@@@OOOOOOOOO@@@@@@@&&&@@@@@&&&&&&@@@@&&&&&&&&&&&&::::&&@@@@@@@@@@@@@@@@@@@@@@@@@@@@@OOO+++@@+@@@@@@@@@@@@@@@@OO@OOOOOOOOOO++@++OOOOOOO.OOOOOOOO.................. ......... .  ....   .        ..      oooooooooXXXXXX+$$#########%%**%$oo#*==**===***====*****==**********=**=**#$++XO.................o......XOO.....XXXX$$##########$XXXooooooooooooooooooooXX$$$$$$$$$$$$$$$$$$$#######%%%%####################%%%%%%%%%%****=========;;;;;;;;;;;;;;;;;;;;;;;;;;;;;;;;;;;;;;;;;;;;;-=========================**********************=====****%%%%%%%%%%%%%%%%%%%%%%%####%###%%%%%#%%",
"#####$$$$$$$$###########$$$$$$$$$$$#$####%%%%%%%************%%%%%%####$$$$XXXXXXXoooooXXX$$$$$$$#$$$$$XXXooooooooooXXXX$$$XXXooo    ooooooooXXXoXXXXXXXXXXXXXXXXXX$$$$XXXXXXXooooo      oo            oo  oo    oooo ooooooooooooooooooooooooooXoXXX$###%%%%%%%%##$$XXooooooooooXX$$$##%%#%#%####$$$$$$$$$$############$XXXXX+#####$XXX....o...XX..XX++#########$$$XXXXXXXXXXXXXXXXXXXXXXXXXXXX+#%*************=====********======****==*===******==*=*%$+XXXXXXXX+++++++++++++++++++++OOOOOOOO+OOOOOOOOOOOOOOOOOO@@@&&@@OO@@@&&&&&@@@@&&&&&&&&&&&&&&&&&&&&&&&&&&&&&&&&&&&&&&&&&&&&&&&&@@@@&&&&&&&&&&&&&*****===========================&&&&&&&&=====================***==****=*==*======**==*%#@OOOOOO@OO@@OOOOOOOOOO@@@@@&&&&&&&&&&&&&&&@@@@O@O@@@&&&&&&@@@&&@@@@@@&&&&&@@@@&&&&&&&&&&&&::::&&&&&&&@@@@@@@@@@@@@@@@@@@@@@@OOOOO@@@@@@@@OOOOOOOOOOO++OO+OOO.OXXOOO+@@@+++O+++OOOOOOOOOO..................o...oooo.oooooXXooooXXooXXXXXXXXXXX$$$$$$######%%%%%***********===**=%Xo$%*=***********=**======**********=*****#XX+++.......................+.OO...ooXXXX$$##########$XXXooooooooooooooooooooXXX$$$$$$$$$$$$$$$$$$$$#######%%%%%##################%%%%%%%%%%%*****========-;;;;;;;;;;;;;;;;;;;;;;;;;;;;;;;;;;;;;;;;;;;;;-==============-;;-=========*****************=====***%%%%%%%%%%%%%%%%%%%%%%%#########%#%%%%##",
"#####$$$$$$$$#####%#####$$$$$$$$$$######%%%%%***********%%%%%%%%###$$$$$$XXXXoooooooooXX$$$$$#######$$XXXooooooooooXXXX$$$XXoooo     oooooooXXXXXXXXXXXXXXXXXXXXXXXXXXXXXXXXoooo  o    ooooo   o  oooooooooo    oooooooooooooooooooooooooooooooXoXXX$###%%%%%%%%##$$XXooooooooooXX$$$##%%#%#%####$$$XXXX$$$$##########$$XXXXX+#####$XX....o.....XX.XX+###%%******%%###########$$+++XXXXXX+X+XXXX#%==***********===***=******======****=***==****====*=*%$+XXXXXXXXXXXXXXXX+++O+++@@@@@@@@@++@@@@@@@@@@@@@@@@@@+@@@@&&&@OOO@@@@&&&&@@@@@&&&&@@@@@@@@@@@@@@@@@@@@@@@@@@@@@@@@&&&&&@@&&&&&&&&&&&&&&&&&&&&&&*******=========================::::::=============*==**==******==****=====*====****==%#OOOOOOOOOOOOOOOOOOOOOO@@@@@&&&&&&&&&&&&&&&@@@@@@@@@&&&&&@@@@@&@@@@@@@&&&&&&@@&&&&&&&&&&&&&::::::&&&&&&&&&&&&&&&@@@@@@@@@@@&@@OOOOO@+##@@@@@O@@@O@@@@O+++OOOOOOOOOOOOO+++++++++++OOO.OO..+OO...................o.oo..XXXXXXXXXX++$$#########%%%%%******=====================*==*%Xo$%*=**====*****=******=***==***********%XX..+++......................XOOO....o..XXX$##########$XXXooooooooooooooooooooXXXX$$$$$$$$$$$$$$$$$$$$########%%%%%%#################%%%%%%%%%%*%****========-;;;;;;;;;;;;;;;;;;;;;;;;;;;;;;;;;;;;;;;;;;;;;;-==========-;;;;;;-;--=========**********=======***%%%%%%%%%%%%%%%%%%%%%##%%########%%%%##",
"#####$$$$$$$$$###########$$$$$$####%%%%%%************%%%%%%####$$$$$$XXXXXoooooooooXoXXX$$$###%%%%###$$XXXooooooooXXXXXX$$XXXooo o  ooooooooXXXXXXXXXXXXXXXXoooXXXXXXXXXXXXXXooooooo  oooooooooooooo      oo  oo oooooooooooooooooooooooooooooooooXX$$##%%%%%%%%##$$XXooooooooooXX$$###%%%##%###$$$$XXXXXX$$####%%####$$XXXXX+$####$XXXXXX......XXX.XXXXX+$####%**=====*********%*%%%%%%%%%###++#%**=*====***********====***************=*======*=====*#+XXXXXXXXXXXXXXXXX++OO@@#&&@#@@#@@@@@@@@@@@@##@#@@@@@@@@@@&&&@@OOO@@@&&&&&@@++@@@@@@@@OOOO@@@@@@@@@@@@@@@@@@@@@@@@@&&&@@@@@&&&&:::::::::::::&&&:::&&&&&&&&&===&===============&&&&&&===============================*====*=***=========%#OOOOOOO@OO@@@@OO@@OOOO@@@@@@&&&&&&&&@@&&@@@@@@@@@@@@@@@@@@@@@@@@@@@@@@&&&&&&@@@&@@&&&&&&&&&&::::&&&&&&&&&&&&&&&&&&&&@@@@@&&&@@OOOO+++###++++++OOOO+++++++++XX...OOOOO+++++++++++++XXXXXXXXXXXXXXXXXXXXXXXXX+$$#########%%%%%%******************%#####################%%%%%%%**##XX#**=****************==***====*====*****#Xo..+++++....................O++O...oo..XXX+##########$XXXooooooooooooooooooooXXXXXXXXXXXXXXXX$$$$$$$$$$$$######%%%%%%%################%%%%%%%%%%%%****=========-;;;;;;;;;;;;;;;;;;;;;;;;;;;;;;;;;;;;;;;;;;;;;;-======-;;;;;;;;;;;;;---======********=======***%%%%%%%%%%%%%%%%%%%%###%%%%%%%#####%%%#",
"#####$$$$$$$$$$##########$$$$#####%%%%%************%%%%%%%###$$$$$$$XXXXooooooooXoXXXXXX$$###%%%%%###$$XXXooooooooXXXXXXX$XXXoooo  ooooooooXXXXXXXXXXXXXXXooooooXXXXXoXXXXXXXooooooo ooooooooooooooo    o oo  ooooooooo  oooooooooooooooooooooooooXX$$##%%%%%%%%##$$XXooooooooooXX$$###%%%%%%%##$$$XXXXXXXX$####%%####$$XXXXX+$####$XXXXX.........X..XXXXXXXXX$$###%%******======*=***=******#++#%***====**********======*=**=**********=======**=====*#+++XXXXXXXXXXXXXX+++O@@@@@@@@@@++++@@@@@+++++++++@+@@@@@@@&&@@OOO@@@&&&&&@@+++@#@@@@@@OOO@@@@@@@@@@@@@@@@@@@@@@@@@@@&@@@@@@@@&&&&&&&&&&&&&&&&&&&&&&&&&&&&&&&&&&&**&&&&***===&&&&&&&&***=*=====*=*==**==*=====*====**======***=**======##@@@@@@&&&&&&&&&@@@@@OO@@@@@@&&&&&&&&@@@@@&@@@@@@O@@@@@@@@@@@@@@&@@@@@@&&&&&&@@@&@@&&&&&&&&&&&&&&&&&&&&&&&&&&&&&&&&&&&&&@&&&&&@@OOO++++###+++++OOO++++++++++OOOOOOOOO++++#######+++++++++++###########+XX+#%%%*********==****=*****=**========**%#$XXXXoooooooXXXX$$$$$$$$$$$$$$$XX%*******=****=****======********=*==**%$oo ...++++................XXO+++O...o.ooXXX+$#########$XXoooooooooooooooooooooXXXXXXXXXXXXXXXX$$$$$$$$$$$$$$$$####%%%%%%%#################%%%%%%%%%%%%***==========;;;;;;;;;;;;;;;;;;;;;;;;;;;;;;;;;;;;;;;;;;;;;;;;;;;;;;;;;;;;;;;;;;;;;--====*******=======****%%%%%%%%%%%%%%%%%%%###%%%%%%%%####%%%%",
"####$$$$$$$$$$$$#############%%%%%%%**********%%%%%%%#####$$$$$XXXXXoooooooooXXXXXXXXX$$$####%%%%%##$$$XooooooooooooXXXX$$$XXXooooooooooXXXXXXXXXXXXXXXXXooooooooooooooooXXXXXooooooooXXXXXooooooooo..oooooooooooooooooooooooooooooooXXXXXXXXXXoooXX$$##%%%%%%%%##$$XXooooooooooXX$$####%%%%%###$$$$XooXXXX$##########$$XXooXX$###$$XX.......oo....XXXXXXXXXXXXXXXX+++#####%***=========*=***#+X#%**====**===****=****=**********=******=***====**====*%$$$$$$$$$$$$$XXXXX++++++@++++@OO+OO@+@++++@@@@@++++@@@@@&&&@@OOOO@@&&&&&@@++++@@@@@@OOOOOOOOOOO@@@@@@@@@@@@OO@@@@@@@@@@@@@@@@@@@@@@@@@@&@@@@&&&&&&&&&&&&&&&&&&&&&&&&&&&&&&&&&&&&#&***=*===**====**======******==***========*=*******==&&&&&&&&&&&&&&&&&&&@@@O@@@&@@@@&&&&&&@@@@&&@&@@@@@@@OOOOOOOOO@@@@@@@@@@@&&&&&&&@@&@@&@&&&&&&&&&&&&&&&&&&&&&&&&&&&&&&&&&&&&&&&&&&@@O+++++####++++++++++++$$$$#++###########***********%*******=*==*====%#XX%*=*****=*******==****====**===========*%#Xo  o   ooo   ooooooooXoooooXoX#*********=*=======****==*******=****=*#Xoo .....O+++O............X..O+++O.....o.X.XX$#########$XXoooooooooooooooooooooooXXXXXXXXXXXXXXXXX$$$$$$$$$$$$$$$$###%%%%%%%%%############%%%#%%%%%%%%%%%****==========;;;;;;;;;;;;;;;;;;;;;;;;;;;;;;;;;;;;;;;;;;;;;;;;;;;;;;;;;;;;;;;;;;;;--===******========****%%%%%%%%%%%%%%%%%%##%###%%###%%%%####",
"####$$$$$XX$$$$$############%%%%%%************%%%%%%##$$$$$$$$XXXXXoooXXoooooXXXXXXXX$$$$#####%%%###$$XXooooooooooooXXX$$$$XXXooooooooooXXXXXXXXXXXXooooooooooooooooooooooXXXXXoooXXXXXXXXXXXXXXoX.XXXXXXXX...ooooXXXXXXXXXXoXooXXXXXXXXXXXXXXXXooXX$$##%%%%%%%%##$$XXooooooooooXXX$###%%%%%#####$$$XXoXXXX$##########$$XXooXX$###$$XX......o.o....XXXXXXXXXXXXXXXXXXXXXX$$$####%%%%*********%$X#%**====*****==*=*==********======******==****==**====*%##########################@+@@@@@@@@OO++++@@@@+@+++@@@@@&&@OOOOOO@@&&&&&@@++++@@@@@OOOOOOOOOOOO@@@@@O@@@@@@@@@@@@@@@@@@@@@@@@@@@@@@@@@@@@@@@@@@@@&@@@&&&&&&&&&@@&&&&&&&&&&&&&@@&%****===*=**====**======******=====*======**==**=*===*&&&&&&&&&&&&&&&&&&&@@@@@@@@@@@@&&&&&&&@@@@@@&&@@@@@@@OOOOO@OO@@@@@@@@@@@&&&&&&&@&&@&&&&&&&&&&&&&&&&&&&&&&&&&&&&&&&&&&&&&&&&&&&&&&&@@+++#####################%##%%%%%%%%**=****======================**#$X+%*******=***=====****===******====*=====*%$X   o        oo    ooooooo ooX#********==*=====*=*===*******=**==**=*$Xoo .......++++..........OX...O++......ooX.XX$#########$XXoooooooooooooooooooooooXXXXXXXXXXXXXXXXXX$$$$$$$$$$$$$$$$$###%%%%%%%%%###########%%#%#%%%%%%%%%%%%****=========;;;;;;;;;;;;;;;;;;;;;;;;;;;;;;;;;;;;;;;;;;;;;;;;;;;;;;;;;;;;;;;;;;-====******=========****%%%%%%%%%%%%%%%%%%%%%#####%%%%%%####",
"####$$$$X$$$$$$$#####%%%%%%%%%************%%%%%%####$$$$$XXXXXXXXoooooXoXXXXXXXXXXXX$$$$$#########$$$XXoooooooooooooXXX$$$$$XXooooooooXXXXXXXXXXXXXXoooooooooooooooooooooooXXXXooooXXXXXXXXXXXXXXXXXXXXXXXXXXXXXXXXXXXXXXXXXXXXXXXXXXXXXXXXXXXXXXXXX$$##%%%%%%%%##$$XXooooooooooXXX$$###%%#######$$$XXXoXXX$$#########$$XXXXXX$###$$XXX...oo....XXXXXXXXXXX...XXXXXXXXXXXXXXXX++$$$########%%#$$#%********=*===****===****==*==*======**==*********=***%####%*********************%%##@@+++++++#############%%%%*%##+++++@@&&&&&@@++++++++OOOOOOOOOOOO@@@@@@O@@@@@@@O@@@@@@@@@@@@@@@@@@@@@@@@@@@@@@@@@@@@@@@@@@@@@@@@@@@@@@@@@@@@@@@@@@&*=======***====****=========*===****====****========**&@@@@@@@@@@@@@@@@@@@@@O@@@@@@@@@&&&&&&@@@@@@@@@@@+++++OOOO++++++##++++@@@&&&&&&&##&&&&&&&&&&&&&&&&&&&&&&%%##&%%%%%%%%%%%%&&&&&&&&&***********==**************##++#######%%*****************=======*=**#$X#*****===*=**=*==******==************===*=*#X             o o   o..o   oo$%****==*===*=**=====*====**===****=*=*%Xooo . . .....++++O.......XX..OO+..........oXX$$########$XXoooooooooooooooooooooooooooXXXXXXXXXXXXXXXX$$$$$$$$$$$$$$$$$$###%%%%%%%%%%%#############%%%%%%%%%%%%%****=========-;;;;;;;;;;;;;;;;;;;;;;;;;;;;;;;;;;;;;;;;;;;;;;;;;;;;;=======-=======****==========****%%%%%%%%%%%%%%%%%%%%%%%##%%%%%%%##%%",
"####$$$$$$$$$$$###%%%%%%%%%%%**********%*%%%%%##$$$$$$$XXXXXXXXoooooXXXXXXXXXXXXXXX$$$$$########$$$$$XXoooooooooooooXXX$$$$$XXXooooooXXXX$$$$$XXXXXXoooooo ooooooooooooooooXXXXoooooXXXXXXXXXXXXXXXXXXX.XXXXXXXXXXXXXXXXXXXXXXXXXXXXXXXXXXXXXXXXXXXX$###%%%%%%%%##$$XXooooooooooXXX$$###%########$$$XXXXXXX$$#########$$XXXXXX$###$$XXXX.oooo..XXXXXXXXXXXX.....XXXXXXXXXXXXXXXXXXXXX$$$$#####XX#%***===**=====**==*=***==*===**=======*====**===*===*%#$$$$####%%%*****************&#++@@++####%*************====*%%#####@&&&&@@@O+++@@@+OOOOOOOOOOOO@@@@@@OO@@@@@@O@@@@@@@@@@@@@@@@@@@@@@@@@@@@@@@@@@@@@@@@@@@@@@@@@@@@@@@@@@@@@@@@@&&===**==****===*****=****========****===*****====*==**#@@@@@@@@@@@@@@@@@@@@@@@@@@@@@@@@&&&&&&&&&@@@@@@@@@@@@+OO@@@@@@+@######&&&&&&&&&&&&&&&&&&&&&&&&&&&&**&&&*******************&&&&&&*=*=======****=*****==*******#+XXXXXX+++++###%%%%%%%%%%%%%%%%%%******%#XX#*****=****************====**********==****#$o oo         ooooooooooooooo#*********==*****=*=**==***========**=*#Xoo    o  ......++++..........OO+.......o..oXX$$########$XXoooooooooooooooooooooooooooooooXXXXXXXXXXXXX$XXX$$$$X$$$$$$$$$$##%%%%%%%%%%%##############%%%%%%%%%%%%%*****=========;;;;;;;;;;;;;;;;;;;;;;;;;;;;;;;;;;;;;;;;;;;;;;;;;;;===============****===========****%%%%%%%%%%%%%%%%%%%%%%#%%%%##%%##%%",
"###$$$$$$$$$$$####%%%%%%%%********%%%%%%%%###$$$$$$$XXXXXXoXXXXooXXXXXXX$$$$$$$$$$$$$$$$$$#$$$$$$XXXXoooooooooooooooXXX$$$$$$XXXoooXXXX$$$$$$$$XXXXXoooooo  oooo   oooooooXXXXXXXXoooXXXXXXXXXXXXXXXXXXXXXXXXXXXXXXXXXXXXXXXXXXXXXXXXXXXXXXXXXXXXXXX$##%%%%%%%%%##$XXXooooooooooXXX$$#%%%###%%###$$$XXXXXX$$##########$$XXXXXX$$##$$XXXX.ooo...XXXXXXXXX.XXX...XXXXXXXXXXXXXXXXX++XXXXXXXXXX$$XX#%******===****=*==*****========*=**====****=*****=**=%#XXXXX++$$$$#####%**********%###+####***********=*======**====*****%%&###@OO@@@@@@@OOOOOOOOOOOO@OOO@@O@@@@@@@@@@@@@@@@@@@@@&&&&&&&&&&&&&&&&&&&&&&####@###################@@@@@@%====**=======****==***==*=========*==******==**==**=**#############################%###&&&&&&***********************************=**=***====****&&&&=======***=*******************&@@&%*===****=**==*******==***==***#+X.X........++#########$$+++++++++$$###$XX$#****=************=*****===********====**=*%#ooooooooooXXooXXXXXXXXXXXXoX%*********====******=**=*==*******=***#Xoo     .. .......+++++......OOO++.........ooXXX$########$XXooooooooooooooooooooooooooooooXXXXXXXXXXXXXX$XXX$$$XX$$$$$$$$$$$$###%%%%%%%%%############%%%%%%%%%%%%%%%%%%***=========-;;;;;;;;;;;;;;;;;;;;;;;;;;;;;;;;;;;;;;;;;;;;;;;;;;============================*****%%%%%%%%%%%%%%%%%%%%%%##%%####%%%%",
"###$$$$$$$$$$$###%%%%%%%%%*****%%%%%%%%%####$$$$$$XXXXXXooooXXXXXXX$$$$$$$$$$$$$$$$$$$$$$$$$$$$$XXXooooooooo oooooooXXX$$$$$$XXXooXXXX$$$####$$$XXXXooooooooooooooooooooooXXXXXXXXXXXXXXXXXXXXXXXXXXXXXXXXXXX+++XXX+XXXXXXXXX++XXX++++++++XXXXXXXXXX$##%%%%%%%%%##$XXXoooooooooooXXX$#%%%###%####$$$$$XXXX$$##########$$XXXXXX$$##$$XXXX..oo..XXXXXX.X..XXXXXXXXXXXXXXXXXXXXXXX+XXXXXXXXXXXXXXXX#%%***********************==*===*==*====**====***==**=%$XXXXXX+X$$$$$$$###********###+####%*****************===*****=====***&&&@@++@&&&@@@OOOOOOOOOOO@@OOOO@@@@@@@@@@@@@@@@@@@@@@@&&&&&&&&&&&&**&&&&&&&&&&&&&&&&&*&&&&%%&&&&&%&&&&@@@&*=*=**========****=****===**=====*====****====**=*******%%%%%%%%***********%%%********&&&&&&*******=======****==================*=**=**====***&&&&&&&*****************************@@@&%*====****======**=**====*====*#+X......XXXXX++#######$$+XXXXXXXXXXXXXXXXX#%***======*******===*****==********===*****%#XoXXXXXX$$$$$###########$XX#%***********==********========**==***%#X o     o  o... ....++++O.....OO+X....o..o o.XXX$########$XXooooooooo ooooooooooooooooooooXXXXXXXXXXXXXXXXXXXX$XX$$$$$$$$$$$$$$###%%%%%%%%%%###########%%#%%%%%%%%%%%%%******=========;;;;;;;;;;;;;;;;;;;;;;;;;;;;;;;;;;;;;;;;;;;;;;;;;;;-===================--===******%%%%%%%%%%%%%%%%%%%%%%##%####%%%%",
"###$$$$$$$$$$$###%%%%%%%%%%%%%%%%%%%####$$$$$$$XXXXXXXXXXXXX$$$$$$$$$$$$$$$$$$$$$$$$$$$$$$$XXXXXXooooooooo    oooooooXX$$$$$$X$XXXXX$$$######$$$XXXoooooooooooooooooooooooXXXXXXXXXXXXXXXXX+XXXXXXXX++++XXXX++++X+++++++++++++++++++++++++++XXXXooXX$##%%%%%%%%%##$XXooooooooooooXX$$#%%%#%%%####$$$$$$$$$$$##########$$XXXXXX$$##$$XXXXXX..XXXXXXX....XXXXXX+++++++++++$++X++$$XX++XXXXXXXXXXXX$#######%%%%%%*==******=******====***=****=****=*****=%#+XXXXXXXXX+XX+++##&&############****=*********==***===***=*======*==***#@@@&&&&&@@OOOOOOOOOOO@OOOOO@@@@@&@@@@@@@@@@@@@@@@@@@@@@@&&&&&&&&******==****====***=*************&@@#%*********=****=*====***===**====***===**======********&%&&*******=**=*====*********=**%%&&#%**==****==****==*===****=======*****=*===**=*==**%&&&&&&&&&&&&&&&&&&&&%%%%%%**********###&***=******======******=*****=**#XXXXXXXXXXXXXX+########$++++XXXXXXXX..XXXX#****=**======****==******==****==*====******%######%%%%%*%%*********%#$$#************==**==******==*=******%%##Xoooo.. ..  .   ......X++++O......XX....o.o o.oXXX$#######$XXoooooooo   ooo   ooooooooXXXXoXXXXXXXXXXXXXXXXXXXX$$$XXXXX$$$$$$$$$$$$###%%%%%%%%%#%%###########%%%%%%%%%%%%%%*****=========-;;;;;;;;;;;;;;;;;;;;;;;;;;;;;;;;;;;;;;;;;;;;;;;;;;;;-=============--;;====**********%%%%%%%%%%%%%%%%%%%%%%%%%%##",
"###$$$$$XX$$$$###%%%%%%%%%%%%%%%%%####$$$$$$$XXXXXXXXXXXXXXXX$$$$$$$$###########$$$$$$XXXXXXXXXoooooooooooo   ooooooXXX$$$$$$$$$XX$$$$$#####$$$$XXXoooooooooooooooooooooooXXXXXXXXXXXXXXXXXXXXXXXXXXXXXXXXXXXXXXXXXXXXXXXXXXXXXX+XXXXX+++++++XXXooXX$$##%%%%%%%%##$XXooooooooooooXX$$##%%%%%%####$$$#################$$$XXXXXX$$##$$XXXXXX.XXXXXXXX...XXXXX+++#################$$$$++XXX++++++X+$#$#######%%%%=-==**=**=******====******%*************##++XXXXXX++XX++++##&&####%#####****=***********************======**====*%#@&&&&&@@@OOOOOOOOOOOOOOOOOO@@@@@@@@@@@@@@@@@@@@@@@@@@@@@@@@########%%%%*************************&&@#*==*====**=**=*======***===*****=***=***=======*******%########%###%%**************==****&#&%**========***********==***=====****===*****=**=**%&&&&&&&&&&&&&&&&&###########%#%%***###&**=**=***==*====******===******%#X+++++++XXXXXX++$$$+##$+++++XXXXXXXX.oXXX+%*******=*=====***===*****==****==*===******%%%%%*%***************=**%$X#%**=****=****======*********%%####$$$XXoooo    ..     ..  .....+++++......X....ooo.o.oXXX$#######$XXoooooooo   oo   oooooooooXXXXXXXXXXXXXXXXXXXXXXXXX$$$$$$$$$$$$$$$$$$$$$###%%%%%%%%%%%%%##########%%##%%%%%%%%%%%%*****=========;;;;;;;;;;;;;;;;;;;;;;;;;;;;;;;;;;;;;;;;;;;;;;;;;;;;;--=======-;;;;;;-==***********%%%%%%%%%%%%%%%%%%%%%%%####",
"##$$$$$X$XX$$$####%%%%%%%%%%%%####$$$$$$XXXXXXXXXXXXXX$$$$$$$$$$$##############$$$XXXXXXoXXoooooooooo     ooo  oooooXXX$$$$$$$$$$$$$$$$#$$$$$$$$XXooooooooooooooooooooooXXXXXX$$$$$$XXXXXXXXXXXXoo....oooooo..ooooooooXXoXXoooooXoXXXXXXXXXXXXXXooXX$$##%%%%%%%%##$$XXoooooooooooXX$$##%%%%######$$$######$$#########$$XXXXXXXX$$$$+XXXXXXXXXXXX..XXXX..XXXXXXXX++########*****%%%%%%%%%%###########%%%%%%***=-;-=****=*********==**==*################$++++XXXX++++++++@#&@&@&&####%******************=**********====***=****=**%##&&&&@@OOOOOOOOOOOOOOOOO@@@@@@@@@@@@@@@@@@@@@@@@@@@@@@@@@@@@@@@@@@@@@@&&&&&&&%%%**************&#@#*==****==******=====****=========***=======****=====*%#@@@@@@@@@@&&@@@&&&&&#%%%%%%******%&##*****==****=====*=====*====*==**==***====*****==*&&&&&&&&&&&&&&&&&&&&&@@@@@@@@@@@########**********==********==****====**#$+X+XXXXXXXXXXXXX+$$$$$$$$$$$XX$$$$$$XXXX$#*********==*==*===******==************====***%%%%%%******%**********%#XX#*******=****=**=*==********#$XXo..oooo   .          .    .  .o .XX++++X.....XX..... ooXXX$$######$Xooooo oooo  oo   oooooooooooooXX$X$$$$XXXXXXXXXXXXXXXX$$$XX$$$$$$$$$$$$$$$$$##%%%%**%%%%%%%###########%%%%%%%%%%%%%%%*****=========;;;;;;;;;;;;;;;;;;;;;;;;;;;;;;;;;;;;;;;;;;;;;;;;;;;;;;;;;;;;;;;;;;--==**************%%%%%%%%%%%%%%%%%%%%%%#",
"##$$$$$X$XX$$$$#####%%%%%%%%####$$$$$$$$XXXXXXXXXXXXXX$$$$$$########%%%%%%%%###$$$XXXXoooooooooooooooo    oooooooooXXX$$$###$###$$##$$$$$$$$$$XXXXXoooooooooooooooooXXooXXXXX$$$#####$$+XXXXXXXo.oooooooooooooooooooooooooooooooooooXXXXXXXXXXXoooXX$$##%%%%%%%%##$$XXoooooooooooXX$$##%%########$$$######$#####$$$$$$$XXXXXXXX+$$+XXXXXXXXXXXXX..XXXX..XXXXXXXXXXXX+$$$#####%%%*****************%%*********==;;-=****==********==*===%#$$$$$$$$$$$$$$$+++++XXXX++++++++@+@@@@@@@+##*******************=**********==****===*==****%%&&&&@@OOOOOOOOOOOO@O@OOOOOO@OOOO@@@@@@@@@@@@@@@@@@@@@@@@@@@@@@@@@@@@@@@@@##############%****&##@#*******==****========**====================**********%#@@@@@@@@@@@@@@@@@##############%####%*=****=****===============*======****====******=*&&&&&&&&&&&&&&&&:=&&&@@@@@@@@@@@#######&**==***********==***==****====**#$XX++++XXXXXXXX++$$$$$$######$########+XX$#*********=******=*=*****==***==*******===***%#$$$$##################$$X$#%%%**%%##%**=****==********#Xoooo..ooooo..     .   .o ....  .o....X++++X...XXX......oooXX$$######$Xooooo ooo    o   ooooooooooooXXX$$$$$XXXXXXXXXXXXXXX$$$$XXXX$$$$$$$$$$$$$$$$$###%%%%***%%%%%##############%%%%%%%%%%%%%%*****========-;;;;;;;;;;;;;;;;;;;;;;;;;;;;;;;;;;;;;;;;;;;;;;;;;;;;;;;;;;;;;;;;-=====*************%%%%%%%%%%%%%%%%%%%%#",
"##$$$$$$XXX$$$$$#####%%%######$$$$$$XXXXXXXXXXXX$$$$$$$$$####%%%%%%%%%%%%%####$$XXXoooooooooooooooooooooooooooooooXX$$$$###########$$$$$XXXXXXXXXXXooooooooXXXXXXXXXXXXXXX$$$##########$$$$XXXXXoooooooooooooooooooooooooooooooooooooooooooXXXooooXX$$##%%%%%%%%##$$XXoooooooooooXX$$############$$$$##$#$$$$$$$$XX$$$$XXXXXXXXX$$XXXXX+$$+XXXXX...XXXXXXX.XXXXXXXXXXXXX+++++#####%%%*********************===-;;-==**==*=*****==***==*%#########$$$$$$$$$+++XXXXXXX+++++++++++++++##*=********==*=*=****===***==**=*****=*==*=**=**%&&&@@OOOOOOOOOOOOOOO@OOOOOOO@O@@O@@O@@O@@@@@@@@@@@@@@@@@@@@@@@@@@@@@@@@@@@@@@@@@@@&&@@@&&&&&@@@@#*****====**======*******==**=*****************======*&@@@@@@@@@@@@@@@@@&@@@&&&@@&@&@@@@&&&&******==****==****=*==********=*===*********=====*&&&&&&&&&&&&&&&&&===&&@@@@&&&&@@@@@@@@%*======****==***=***=*=======****%#$$##############%%%*%%%*************%#XX$%****====*=******=*=*==*===**====**==****=***##X+++XXXXXXXX++$$+$X+$$XXX$#######$$$%*****=====*=****%$Xooooo.oooo..oo.oo o.  oo....oo..o .....X++++X.........ooooXXX$$#####$XXoooooooo   oo  oo   ooooooooXXX$####$$$$$$XXXXXXXXXXX$$XXXX$$XXXX$$$$X$$$$$$$$$###%%%***%%%%%%%%%##########%%%%%%%%%%%%%%%***=========-;;;;;;;;;;;;;;;;;;;;;;;;;;;;;;;;;;;;;;;;;;;;;;;;;;;;;;;;;;;;;;-=========************%%%%%%%%%%%%%%%%%%",
"##$$$$$XXXXX$$$$$############$$$$$XXXXXXXXXXXXXX$$$$$$######%%%%%%%%%%%%%%###$$$XXoooooooooooooooooooooo ooooooXXXX$$$############$$$$XXXXXXXXXXXXXoooooXXXXXXXXXXXXXX$$$$#################$$$XXXoooooo  oooooooooooooooooooooooooooooooooooooooooXX$$##%%%%%%%%##$$XXooooooooooXXX$$############$$$$#####$$$$XXXXXX$$$XXXXXXXXX$$$$$$$$#$$+XXXX....XXXX.XX..XXXXXXXXXXX+XX+XX$$$$#####%%%%%****************=-;;-**=*======***==***==*%#######################$#$+$$#######+++O+++#*=**=****==***===****==***=====***=*******==*==**&#&@@OOOOOOOOOOOOOOOOOOOOO@@@@@@@@@@@O@@@@@@@@@@@@@@@@@@@@@@@@@@@@@@@@@@@@@@@@@@@@@@@@@@@@@@@@@&******====**====*******=****%%#%##########%*%%****===*@@@@@@@@@@@@@@@@@@@@@@@@@@@@@@@@@@@@@&******==**====***=====**********===****=****====**&&&&&&&&&&&&&&&&&&&&&&&@@@@@@@@@@@&@@@%*====******==***=******==********%######%*******************************#XX#*****=*==*=**********=====***====**==********##$$$++$+XXXXX$$$$$$$$$$$$$$$$$$$$$$X$%***===*===******#Xo  ooooooooooo..ooooo ..oooo..oooo........X++++X.....oo.oooXXX$$$####$Xooooo oo    oo  oo   ooooooooXX$##%####$$$$XXX$$XXXXXXXXXXXX$$XXXX$$$$XX$$$$$$$$$$###%%%%%**%%%%%%%#########%%%#%%%%%%%%%%%%%****=========;;;;;;;;;;;;;;;;;;;;;;;;;;;;;;;;;;;;;;;;;;;;;;;;;;;;;;;;;;;;-============***********%%%%%%%%%%%%%%%%",
"#$$$$$$XXXXXX$$$$$$##########$$$$$$XXXX$$$$$$$$$$$######%%%%%%%%%%%%%%%%####$$XXXooooooooooooooooo  ooooooooXXXX$$$$############$$$$$XXXXXXXXXXXXXXXXXXXXXXXX$X$$$$$$$$$####################$$XXXoooooo ooooooo ooooooooooooooooooooooooooooooooooXX$$##%%%%%%%%##$$XXooooooooooXXX$$############$$$$####$$XXXXXXXXXX$$$$X$$$$$$$$$$#####$$+XXXXXX.X.......XXXXXXXXXXXXXXXXXXXX+XXXX+$$$$#####%%%**********==;;;-=*****===****==**===*%#########%%%%********%%%%%%%%%%%%%*####+++#%****=****=****=****=*********===***==****=*=====*%#@@@OOOOOOOOOOOOOOOOOOOO@@O@@@@@@@@OO@@@@@@@@@@@@@@@@@@@@@@@@@@@@@@@@@@@@@@@@@@@@@@@@@@@@@@@@@&*=***=====*****===**====*%#@@@@@@@@@@@@@@@@#@##&%%***&@@@@@@@@@@@@@@@@@@@@@@@@@@@@@@@@@@@@@&*==*========******====************************==**&&&&&&=***&&&&&&&&****&#########&#@@#&*====*======*****=*********===****########%************=*************==*%#$$%*******==*************=**==*=====**===*******#$+XX+++$+XXXX+X$$$$$$$$###########$$#****===***==*****#Xo  ooooooooooooooo o.o..oo.oooooo..........XX++++XX..oooooooXX+$$$#$$XXXooooooo  oo o      oooooooooX$$#%%%%%%##$$$$$$$XXXXXXXXXXX$$$XXX$$$XX$$$$$$$$$$$$$$$##%%%%***%%%%%%#########%##%%#%%%%%%%%%%%%*****=========;;;;;;;;;;;;;;;;;;;;;;;;;;;;;;;;;;;;;;;;;;;;;;;;;;;;;;;;;;=============***********%%%%%%%%%%%%%%%",
"#$$$$$XXXXXXX$$$$$$$#########$$$$$$X$XX$$$$$$$$$#####%%%%%%%%%%%%%%%%%####$$$Xoooooooo  ooooooooooooooooooXXXX$$$$############$$$$$XXXXXooXXXXXXXXXXXXXXXXXX$$$$$$$#########################$$XXooooooo oooooo  ooo ooo o oo ooooooooooooooooooooXXX$$##%%%%%%%%##$$XXoooooooooooXX$$###%%#%#####$$$$####$$XXXXXXXXXX$$$$###$$$$$#####$$$$$+XXX.XX.....X....XXXXXX....X.XXXXXXX+XXXX++$$$$$$#####%%%******=-;;;;==*****===****==**==**#$$$$$$$$$$#####%%%*******************##++##***=***********=**=*=*********==***==***==*=**===*%#@@@OOOOOOOOOO@@@@@@@OO@@@@@@@@@@@@@@@@@@@@@@@@@@@@@@@@@@@@@@@@@@@@@@@@@@@@@@@@@@@@@@@@@@@@@@@&*=***=====******==**====*#@@@@@@@@@@@@@@@@@@@+########@@@@@@@@@@@@@@@@@@@@@@@@@@@@@@@@@@@@@&*=***===*===******====******************==****===***&&=======**&&*&&**=***%%%%***%&#@@#&**=*****=****=**==**********==****#$XXX$$############%%%%%**************#$$#%*******===************%%**=**====**==*****=*%#$XXXX++++XX$+XX++++X+X+$$$$$$####$$$#***==*==**==****%#.o. oooooo.XXoo.ooooooo oooooooooo  ..oooo....XX++++XX.oooooXXXX$$$$$$XXXoooooo   o         oooooooooX$$##%%%%%%###$$$$$XXXXXXXXXXXXX$XXXXXXXX$$$X$$$$$$$$$$$$###%%%%%***%%%%%%#%#############%%%%%%%%%%%*****=========;;;;;;;;;;;;;;;;;;;;;;;;;;;;;;;;;;;;;;;;;;;;;;;;;;;;;;;;;-==============**********%%%%%%%%%%%%%",
"#$$$$XXXXXXXXX$$$$$$##########$$$$$$$$$$$$$$####%%%%%%%%%%%%%%%%%%%#####$$$$Xoooooooo o ooooooooooooXXXXX$$$$$#####%%%#####$$$$$XXXXoooooooXXXXXXXXXXXXXXXX$$$$############################$$$XXooooooo ooooo   oooooo  ooooo oooooooooooooooooooXXX$$##%%%%%%%%##$$XXoooooooooooX$$$###%%%%#####$$$$###$$XXoooXXXXX$$######$$$$####$$$$$$$XXXX.XX....XX....XXXXXXXXXXXXXXXXXXXXXXX+++++$$+++$$####%%%**==;;;;;==**==*=*===**=====*=**#$++++++X+XX+++$$#####%%%%************%#++##**===***==****=****==***====********===*==********%#++O@OOOOO@OO@@@@@@@@@@@@@@@@@@@@@@@@@@@@@&&&&&&&&&&&&&&&&&&&##&&&&##@#################@@@@@@#%****========****=======*&#@@&@@@@@&&&&&&&&&&&&&&&&&&&&&#&@#&##############@############@@@#&*=*********=**==****==****======**====**====*******============****=======******=*%###%**************=********==****=*****#$X.XXXX+++++++XXXXXXX$$###############$$#*******==*********########%*=======**********#$$XXXXXX$$$$$$$$$$############%###$$#***======**=*=***#$...oooooooo.oXXX..oo.o.ooooo    o   oooooo.....XXX+++XXX.oooXXXX$$$$$$XXXooooo             ooooooooooX$$##%%%%%%%%%##$$$$$$X$$XXXXXXXXXXXXXXXXXXXXXXXX$$$$$$$$$$$###%%%%**%%%%%%%%##############%%%%%%%%%%%*****=========-;;;;;;;;;;;;;;;;;;;;;;;;;;;;;;;;;;;;;;;;;;;;;;;;;;;;;;;;;;-============**********%%%%%%%%%%%",
"#$$$$XXXXXXXXX$$$$$#############$$$$$$$$$$#####%%%%%%%%%%%%%%%%%%%###$$$$$XXooooooooo ooooooooooooooXXXX$$$$#####%%%%####$$$$$$XXXXXoooooooooXXXXXoXXXXXXX$$$################$$$###########$$XXXooooooooooooo   oooooo  oooo  oooooooooooooooooooXXX$$##%%%%%%%%##$$XXoooooooooooX$$$###%%%%#####$$$$###$XXXooXXXXX$#######$$$$####$$$$$$$$XXXX.X....XXX....XXXXXXXXXXXXX+XXX+++X++++++++++$$$#####%%*==-;;;;;=**==*=*=====***===**==*#$+X++++++XXX++$$$$$$#####%%**********%#++#******=====**==****===***===***=*****==**==*=**=*==*#@+OOOOOOO@@@@@@@@@&&&&&&&@@@@@@@@@&&&&&&&&&&&&&&&&&&&&&&&&&&&&&&&&&&&&&&&&&&&&&&&&&&&&&&&@@@#&*****========***===**==*&&&&&&&&&&&&&&&&&&&&&&&&&&&&*&&&&&&&&&&*&*&&&&&%&&&&%%&&&&&&%*&&@@#&***=******======****=*****=======**===**====********===========*===============*=*%###*=***=**=*****=====*=***==****=*****#XXXXXXXXX+$$++XXXXXXXXX$$$$#############%*******===*******%$$XXXX$#%========******=***#$$+$$$############%%%%%*********%#$$#*=======***====**#X.Xoooo.o.ooooXXXX..ooooooo.o        .oooooXXXX...XX++++XXXooXXXXX$$$$$XXXooooo              oooooooooXX$$$##%%%%*%%%%##$$$$$$$XXXXXXXXXXXXXXXXXXXXXXXX$$$$$$$$$$$$$###%%%%%***%%%%%###############%%%%%%%%%%%*******========;;;;;;;;;;;;;;;;;;;;;;;;;;;;;;;;;;;;;;;;;;;;;;;;;;;;;;;;;;;-============********%%%%%%%%%%",
"$$$$$XXXXXXXX$$$$$$###%%##%%%%############%%%%%%%%%%%%%%%%%%%%#####$$$XXXoooooo       oooooooooooXX$$$$$#####%%%#####$$$$$XXXooooooooooooooXXXXXXXXXXXXX$$$######%#%####$$$XXX$$$#########$$XXXXoooooooooooo    oooooooooooooo o  ooooooooooooooooXX$$##%%%%%%%%##$XXoooooooooooooXX$###%%%#####$$$$$$$$XXXooooXXX$$#####$$$$$####$$XXXX$$+XXXX.......XXXXXXXXXXX+++++XX++XXXX$$$$$$$$$$$$$$$$######%==-;;;;-=*%******===***====**===*#$X++++++++++++++++++++++#&&%%%&&&&&*%%###**===*******=*==*===***=**==***=****=***====*******=*##+@@OOOO@@OO@@@@@@@@@@@@@@@@@@@@@@@&&&&&&&&&&&&&&&&&&&&&&*************==****************&#@@#*============****===***=*%%&@&&&&&&&&&&&&&&&&&&&&&&&&&&&&************************=*******@@#***************=*===**===********==**==**********&&&&&&&=========******==*=====***%&##%****=*=******=*==*==****=====**=****#Xo.oo.XXX+$$$++XXXXXoXXXX$$$$#$$#$$$$##%*************==***#XXX..XX#*==*=========*****%#####%%%%%************************%##*=**===***=**=***%$$+X++XXooooooo.XXXXoo.oooooo .      .oo.o..ooo..oooooXX+++XX.XXXXXXX$$$XXXooooo     o          ooooooooXX$$$$##%%%%%%%%%%##$$$$$$$XXXXXXXXXXXXXXXXXXX$$$$$$$$$$$$$$$$$$###%%%%***%%%%%#%###########%%%%%%%%%%%%%%%%****========--;;;;;;;;;;;;;;;;;;;;;;;;;;;;;;;;;;;;;;;;;;;;;;;;;;;;;;;;;;--==========**********%%%%%%",
"$$$$$XXXXXXXX$$$$$$###%%%%%%%%%%#%#######%%%%%%%%%%%%%%%%%%%%###$$$$XXXoooooo   ooooo ooooooooXXXX$$$$######%%%%###$$$$$XXXXoooooooooooooooXXXXXXXXXXXXX$$$######%#####$$XXXXX$$$#######$$$XXXXooooooo oooooo   oooooooooooooooo  ooooooooooooooooXX$$##%%%%%%%%##$XXooooooooooooXXX$###%%%#####$$$$$$$XXXXoooXXX$$$$$$$$++$$$###$$XXXXX+$+XXXXXXX.X..XX..XXXXXX++#################$$$$$$###########*=;;;;;==%%%****=*===****=====****#$XX++++++++X+++++++++++++###%#&&#########**==********==**===**=*==*******==******====***=*===*%#+@@@OOO@@OOO@@@@@@@@@@@@@@@@@@@@@@@@@@@@@@@@@@@@@@@@@#&&&%%%%**************************%#@@*===*=====*=******===***=**%&&&&&&&&&@&&@@@@@@@@@@@###&&&&#&%%%***************=***********@@#********===****=====****==***********************&&&&&&&&*=======*%%*********====*%&&%*****===********=***=****=******==***#XXo..XXXX+$$$$+XXXXXXXXXX$$######$$$$##%*******==****==**%#XXXooX$#******=====*==****####%%%%%**************************###*=**===********=*#$$$XXXXXoooooooXXXXXooXXoooooo. ooo...oo.oooo.oooooooo..XX++XXXoXXXXX$$$XXXooooo  o oo     o    ooooooooXXX$$$$###%%%%**%%%##$$$$$$$XXXXXXXXXXXXXXXXXXXX$$$$$$$$$$$$$$$$$$##%%%%%***%%%%%%%###########%%##%%%%%%%%%%%%****=========-;;;;;;;;;;;;;;;;;;;;;;;;;;;;;;;;;;;;;;;;;;;;;;;;;;;;;;;;;;;-=========**********%%%%%",
"$$$$$XXXXXXXX$$$$$####%%%%%%%%%%%%%%%%%%%%%%%%%%%%%%%%%%%%###$$$XXXXoooooooooo  oooooooooooooXX$$$$$#######%%####$$$$XXXXoooooooooooooooXXXXXXXX$$$$$$$$$########%###$$$XXXXXXX$$$###$$$$$XXXXXooooooooooooooo  ooo ooooooooooooooooooooooooooooooXX$$##%%%%%%%%##$XXooooooooooooXXX$###%%%#####$$$$$XXXXXXoXXXXXXXXXXXXXX$$$$$#$XXXXXXX$$$+XXXXXXXX.XXX..XXXXXXXX++########%%%%%%%%%%%%%%%%%%%%%*%*=-;;-==*%%%%**========****==*=*==*#$+XXXXXXX++++++++++++++@+&&&&##&&@@@#@@#&**=*=*******==**==********%%%*****===**===*=**=======*#+@@OOOOOO@OOOOOOO@@@@@@@@@@@@@@@@@@@@@@@@@@@@@@@@@@@@@@@@@@@@##&&&&&&&************=**=*%##&*=***===**********==*****=********%###%###+@++@@@@@@@@@@@@@@@@@&&&&&&&&&&&%%**====*******#@#**==******====***=******=====*==*=***=***=======**&&&&&&&&====:::=&&&&&&&&#&&&&&&&&&@&**==**==*****=*****#%**=**********==**#$XXXXXXXXXXXXXXXXooooXX$X$####%#%##$###********===*=*****#$..oXXX#%**********=*==***%#$##################%%%%#%%%%%%%%####%==*=*===***====*#$XXXXXXXoXoooooooo...oooXooooooooooooooooooooooooooooo oooXXXXXXXXXXXXXX$XXXoo                 oooooooooooooXXX$$$$##%%%***%%%%##$$$$$$XXXXXXXXXXXXXXXXXX$$$$XXX$$$$$$$$$$$$$###%%%%****%%%%%%###############%%%%%%%%%%%%%****========-;;;;;;;;;;;;;;;;;;;;;;;;;;;;;;;;;;;;;;;;;;;;;;;;;;;;;;;;;;;;-===========*********%",
"$$$$$XXXXXX$$$$$$$####%%%%%%%%%%%%%%%%%%%%%%%%%*%%%%%%%%###$$$$$XXXoooooooooo     ooooooooXXXX$$$$#####%######$$$$$XXXXXoooooooooooooooXXXXXXX$$$$$##############%##$$XXXXoXXXX$$$##$$$$XXXXXXXXoooooooooooooooo    oooooo    ooooooooooooooooooooXX$$##%%%%%%%%##$XXoooooooooooooXX$####%%#####$$$XXXXXoXXXXXXXXXXXXXXXX$$##$$$$XXXXXXX$$$$+XXXXXXXXXXX..XXXX..XXXXXX++$#####%%*******************==---=*%%%%%%**===*=*==****=***===*#$++X+X+++++++++#++++++@#@&&&&&&&&&&@@@@#%**=*******====****=***##########%**===***=****=======*#+OOOOOOOOOOO@@OOOOO@@@@@@@@@@OO@@@@@@@@@@@@@@@@@@@@@@@@@@@@@@@@@@#######%**************%#@@*=****==*********===******===************%%&#+@@@@@@@@@@@@@@@@@@@@@@@@########%%********##+#**=*********==**====****=====*====****************&&&&&&&&===:::::&&&&&&##########&@@&**=***==**=**=*=**##%*==**********=*=*#$XXXXXXXXXX++XXXXooXXXX$$$###%%%%##$##%****=*****==******#XXX.XXX#*==********=*==***%$$$$$$$$$$$$$$$$$$$$$$$$$$$$$$$#$$$$#%***==*==***==*=*#$XXXXXXXX...ooooooo..ooooooooooooooooooooooooooo o  oo oooooooXXXXXXXXXXXXXXoo                  oooooooooooooXXXX$$$###%%%***%%%###$$$$XX$XXXXXXXXXXXXXXXXXX$XXXX$$$$$$$$$$$$$$###%%%%*****%%%%%%%%##########%%%%%%%%%%%%%%%*****========;;;;;;;;;;;;;;;;;;;;;;;;;;;;;;;;;;;;;;;;;;;;;;;;;;;;;;;;;;;;;-========**********",
"$$$$XXXXX$$$$$$$$$####%%%%%%%%%%%%%%%%%%%%%%%%%%%%%%####$$$$XXoooooooooooo       ooooooooXXX$$$$$###########$$$$XXXooo  oooooooooooooXXXX$$$$$$################%%###$$XXooooXXX$$$##$$$XXXXXXXXooooooooooooooooooo   oooo   ooooooooooooooooooooooXX$$##%%%%%%%%##$$XoooooooooooooXX$###########$$$XXXXXXXXXXXXXXXXXXXXX$$####$$XXXXXXXX$$$$$+XXXXXXX......XXXXXXXXXXXXXXXXX++$######%%%**********======****%%%%*==**===*==********=**######$$$$++++##########%%%%&%%%&&&&&&@@#*********=====*****=*%#@@@@@@@@@&#%*==*=*****=========*#+OOOOOOOOO@@@@@@@@@@@@@@@@@@@@@@@@@@@@@@@@@@@@@@@@@@@@@@@@@@@@@@@@@@@@@@@@@&&&&@&&&&&&&@@@@%*************====****=*****=***=*****====***####+@@@@@@@@@@@@@@@@@@@@@@@@@@@@@@&&&&@@&&@@@&***************=**=******=***==*****###########&&&&&&&&&&:&:::::::&&&&&&&@@@@@@&@@&@#%*==***====*****=*##+%*==**************##$XXX$$$#$############%%%%%*******%###%*****************%$XXXXXX#%*****************%#XX$$$$$X$X$$XXXXXXXX$$$X$$$$$$X$$X$$#*******=*****==*%$$$XXXXXXXXXXXXXXXXXXooooooooooooooooooooo.oooooo ooo     ooooooooooXXXXXXXXooo   ooo           oo  ooooooooooooooXX$$$$##%%%%***%%%##$$$$$$$$XXXXXXXXXXXXXXXXX$$$XX$$$$$$X$$$$$$$####%%%%****%%%%%%############%%%%%%%%%%%%%%******=========;;;;;;;;;;;;;;;;;;;;;;;;;;;;;;;;;;;;;;;;;;;;;;;;;;;;;;;;;;;;;=========*******",
"$$$$XXXX$$$$$$$$$$##%%%%%%%%%%%%%%%%**%%%%%%%%%%%%%####$$$$XXXXoooooooooo   ooooooooooXXXXX$$$############$$$$$XooooooooooooooooooooXXXX$$$$##################%%####$$XooooooXX$$###$$$XXXXXXXooooooooooo  ooooooo   oooo   ooooooooooooooooooooooXX$$##%%%%%%%%##$$XoooooooooooooXX$###########$$$XXoXXXXXXXXXXXXXXXXXX$#####$$XXXXXXXX$$$$$++XXXXXX....XXXXXXXXXXXXXXXX+++X++$$$$$#####%%%%*****=======***%%%%**==*===**************##############%*=*%%%%%%%%%%*%%%&&&&&@@@#**=******=====*****=*%#@@@@@@@@@@#%*==*=*****=========*#+OOOOOO@OOOOOOO@@@@@@@@OO@@@@@@@@@@@@@@@@@@@@@@@@@@@@@@@@@@@@@@@@@@@@@@@@@@@@@@@@@@@@@@@@@@#***=*****=***====*==*=*****=*===============***&&@@@@@@@@@@@@@@@@@@@@@@@@@@@@@@@@@@@@@@@@@&########%*##%%****==*****==**=*****###+++++++++@&&&&&&&&&:&&::::::&&&&&&&&@@@@@&@&@@%**==*****==******%###%*=****************%#######%#%%*************====***=*%#$#%*****************#XXX.XX$#***=******==*=****#$X$$$$$XXXXX$XXXXXX$$$$$$X$$$$$XXXXX#%*******=********%$$$$XXXXXXXXXXXXXXXXoXooooooXXXooXoXoooooXXXoooooo          oooooooooooXXXXoooo    oo               oooooooooooooXooXX$$$###%%%*****%%##$$$$$$$$XXXXXXXXXXXXXXXXXXXXXX$$$$$$$$$$$$$$####%%%%****%%%%%%%#########%%####%%%%%%%%%%%%****=========;;;;;;;;;;;;;;;;;;;;;;;;;;;;;;;;;;;;;;;;;;;;;;;;;;;;;;;;;;;;--=======******",
"$$$$XXX$$$$$$$$$####%%%%%%%%%%*********%%%%%%%%%####$$$$XXXoooooooooooo oooo oooooooXXX$$$$$$#########$$$$$XXXoooooooo  ooooooooooooXX$$$$$############%%%#########$$XXooooooXX$$###$$$XXXXXXXoooooooooooo ooooooooo ooooo  oo    ooooooooooooooooXX$$##%%%%%%%%##$$XoooooooooooooXX$$##########$$$XXXXXXXoooooooXXXXXXX$#####$$XXXXXXXX$$#$$$+XXXXXXX..XXXXXXXXXXXXXXXXXXXXXX+++++$$$$######%%%*==========*%%#%***************===*==*##########%**=====******************##++#*======***===*======*#@@@@@@@@@&&#%*=**===********====*#+@@@@@@@@@@@@@@@@@@@@@@@@@@@@@@@@@@@@@@@@&@&&&&&&&&&&&@@@@@&@&&&&&&&&&@@@@@@@@@@@@@@@@@@@@@#***==**===*****==*===***=*===***=*******====***=**%&#@@@@@@@@@&&&&@@@&&&&&&&&&@@@&&&@@@@@@@@@@@@@@@&&#&#%***=*********=******%#++OO@@@@@@@@@@&&&&&&&&&&=======*&&&######&&#####**=*=******=****=*##@#*********==*=******%######%%%*************=========**%##%******************#$$$$##%****=**=*====*=***%#$$$$$$$$X$$$$$$$$$$$$$$$$$$$$$$$$$$##***=**====*******%###############$$$XXXXXXXXXXXXXXXXXXXXXXXXXXXooooo              ooooooooXXooooo ooo                  ooooooooooooooooXXX$$$$##%%%*****%%###$$$$$$$XXXXXXXXXXXXXXXXXXXXX$XXX$$$$$$$$$$$$###%%%%%****%%%%%%#############%%%%%%%%%%%%%%%****========-;;;;;;;;;;;;;;;;;;;;;;;;;;;;;;;;;;;;;;;;;;;;;;;;;;;;;;;;;;;;;========***",
"$$$$$X$$$$$$$$######%%%%%%%%***********%%%%%%%%###$$$$XXXoooooooooooooooooo  oooooXXX$$$$$###########$$$$$XXoooooooooo   oooooooooooXX$$$$#############%%%%########$$XXooooooXX$$###$$$XXXXXXXoooooooooooo  ooooooooooooooo       ooooooooooooooXoXX$$##%%%%%%%%##$$XoooooooooooooXX$$##########$$XXXooXoXXoooooooXXXXXX$#####$$XXXXXXXX+$#$$+++XXXXXX...XXXXXXXXXXXXXXXXXXXXXXX+++$$$$#####%%%*==-====*=***%%##%*****==*******===*==*#$$$$$######*====******==*=**=====**##++**======****=======**%#+@@@@@@@@&&#%****===********====*#+@@@@@@@@@@@@&&&&&&&&&&&&&&&&&&&&&&&&&&&&&&&&&&&&&&&&&&&&&&&&&&&&&&&&&&&&&&&&&&&&&&&@@@@&&&%***==*===*******======*===****=====*=========**===*&&&&&&&&&&&&&&&&&&&&&&&&&&&@@@&&@@@@@@@@@@@@@@@@&&&&****==*=*****=********%#++O+OO@OO@@@@@&&&&&&&&&*========**&%%%%%%&&&###%***==******==*==**##@#******=**===*******###########%%%%%**************=**%###%******************%##%%%***=====*========***%#$$$$$$$$$$$$########################%==****====****==*%%%%%%%%%%%#######$$XXXXXXXXXXXXXXXXXXXXXXXXXXXXXoo o            ooooooooooooooo                       ooooooooooooooooXXXX$$$$##%%%****%%%###$$$$$$XXXXXXXXXXXXXXXXXXXX$$X$$$$$$$$$$$$$$$###%%%%*****%%%%%%%%############%%%%%%%%%%%%******=========;;;;;;;;;;;;;;;;;;;;;;;;;;;;;;;;;;;;;;;;;;;;;;;;;;;;;;;;;;;;;;-=======",
"$$$$$$$$$$$$$###%%%%%%%%%%****%%*****%%%%%%%###$$$$$XXXooooooooooo   oooooooooXXX$$$$$$#########$$$$$XXXoooooooo  oooooooooooo oooooXXX$$$$$$$#######%%%%%#########$$XXooooooXX$$$##$$XXXXXooooooooooooooooo  ooo       oo      ooooooooooooooooooXX$$##%%%%%%%%##$$XoooooooooooooXX$$##########$$XXXooooXXoXXXXXoooXXXX$#####$$XXXXXXXXX$$$$$++XXXXX.....XXXXXXXXXXXXXXXXXXXXXX++$$$$#######%*=--=***%%%%%#####%*=*=*=*===**========%#XXXX+++++@&===**&********========**%#+#***=======**======*=*%@@@@@@@@@@#&#***===****==******==*#+@@@@@@@@@@@&&&&&&&&&&&&&&&&&&&&&&&&&&&&&&&&&&&&&&&&&&&=*&&&****&&&&&&&&&&&&&&&&&&&&&&&&&&&***=*==*****==**********************===******===**==**&&&&&&&&&&&&&&&&#&####&&######&&#########+###&&&&&=========***==********%#############%%%*******============*********%##**==****=****===***%#&##*****=**====******%####$+++++++X+++$$$#########%%%%%%##%******************************==*==**=****=*%#############%%%%%%%%%%***********%%%%**=***======*****%%%%%%%%###########$$$$XXXXXXX$XXXXXXXXXXXXXo.ooXXXoooo           ooooooooooooooo              o    o  oooooooooooooooooooooXX$$$$##%%%%****%%%%##$$$$$$XXXXXXXXXXXXXX$$$$$$XXX$$$XX$$$$$$$$$$###%%%%****%%%%%%%%#############%%%%%%%%%%%%%%*****========-;;;;;;;;;;;;;;;;;;;;;;;;;;;;;;;;;;;;;;;;;;;;;;;;;;;;;;;;;;;;;-====",
"$$$$$$$$$$$$##%%%%%%%%%%%%*********%%%%%%%####$$$$$XXXooooooo  ooo   oooooooooXX$$$$$#########$$$$$XXXXXoooooooo  o oooo ooooo ooooooXXX$$$$$$########%%%%#########$$XoooooooXX$$$##$$XXXXXXooooooooooooooo   oooo      oooo  ooooooooooooooooooooXX$$##%%%%%%%###$$XoooooooooooooXX$$##########$$XXXXoXXXoXXXooXoooXXX$$#####$$XXXXXXXXX$$$$$++XXXXX....XXXXXXXXXXXXXXXXXXXXXXX+$$$$$$$#####*=-==*%%%%######$##%*=*=*=*==****=======%#XXXX+++++&&==*&&&###%%%%%**********%##&****======**====*=*=*#@@@@@@@@@@##%**====*****=*******=*&#@@@@@@@@@@@@@@@@@@@@@@@@@@@@@@@@@@@@@@@@@@@&&&&&&&&&&&&&&&&&&&&&&&&&&&&&&&&&&&&&&&&&&&&&&&***=**==****==********=********=****===*****====**==**&&&&&&&&&&&&&&&&&&&&&&&&&&&*&&&&&&**&&&&&&&&&&&&@@%*=======**************%%%%%%%%*************=================**===*%#&**==****=*=***=*=**#@@#&*******=**=*******######+XXXXXXXXXXXXXXXXXXX$$$$#######%***************=***************======******%####%%%%%%%%%%**********************%%*=*=*=*=====***=*%%%%###############$$$$XXXXXXXXXXXXXXXXXXXXXX.XooXXXXooooo         ooooooooooooooo                ooo    ooooooooooooooooooooXXX$$$$###%%%*****%%%%##$$$$$XXXXXXXXXXXXXXXX$X$X$XX$XX$$$$$$$$$$$#####%%%%*****%%%%%###############%%%%%%%%%%%%%%****=========-;;;;;;;;;;;;;;;;;;;;;;;;;;;;;;;;;;;;;;;;;;;;;;;;;;;;;;;;;;;;;;;-",
"$$$$$$$$$$####%%%%%%%**%**********%%%%%%##$$$$$$$$XXXoooooo oo  oo oooooooXXX$$$$$#########$$$$$XXXoXooooooooooo            o   ooooooooX$$$$$$#########%%%#%######$$XoooooooXX$$$##$$XXXXoooooooooooooooooo oooo     ooooooooooooooooooooooooooooXX$###%%%%%%%###$$oooo oooooooooXX$$#########$$$XXXooXoXoooooooooXXXX$$$####$XXXXXXXXXX$$$$+++XXXXXXXX.XXXXXXXX+++++++++XX$$$$$$$########%*===*%##########$$$#%*=*==********===*==*%#XX+++++@@&&&&&&@@##############%%*%&#&&*=**=====****=*****=*#@@@@@&&&@@#&***==*****=======***=*##@@@@@@@@@@@@@@@@@@@@@@@@@@@@@@@@@@@@@@@@@@@&&&&&&&&&&&&&&&&*******=*=**=****************&&***=**====***=******========**====*===********==**====*%&&&&&&&&&&**************=********=**=====***%#@@#%**=*==*******=******####%%%%%%*************====================*%##***==*=**=**=**=*=*%#&@#***********=****=*%######++XXXXXXXXXXXXXXXoXXXXXXXX$$##%%*******=******==**************=****==*****%#####%%%%***************************%%%*****==*=*==*=***######$#######$$$$$$$$XXXXXXXXXXXXXXo..XXXXXX.ooo.XoXXooooo        oo  oooooooooooo                oo    oooooooooooooooooooooooXXX$$$$##%%%******%%%##$$$$$$$$XXXXXXXXXXXXXXXX$$$$$$$$$$$$$$$$$$$#####%%%******%%%%%%%%###########%%%%%%%%%%%%%*****==========-;;;;;;;;;;;;;;;;;;;;;;;;;;;;;;;;;;;;;;;;;;;;;;;;;;;;;;;;;;;;;",
"$$$$$$$$$$###%%%%%%%********%*%%*%%%%%%###$$$$$$$$XXooooooo ooo ooooooooXXX$$$$$#########$$$$$$Xooooooooooooo  o            oo   oooooooXXX$$$$$$$$#####%%%#%%#####$$XoooooooXX$$$##$$XXXXXooooooooooooooooooooooo    oooooooooo   oooo   ooooooooXX$$##%%%%%%%###$$ooooooooooooooXX$$#########$$$XXXooXoXXXXoooXXoXXX$$$$###$XXXXXXXXXX$$$$$XX+XXXXXXXX.XXXXXXXXX+++$####################%*===*%%%########$$$$$%*=***********===****%#X+++++@@@&&&&&@@@@@+++++++###########&&*==***==*****=*****=%#@@@@&&&&@@&&***==*****========**=*#+@@@@@@@@@@@@@@@@@@@@@@@@@@@@@@@@@@@@@@@@@@@@&@@@@@@@&&&&&&&&&*********==**********====**&&*****=====**===******========*====*===****=***===*====*%#@@@@@##&&&&&********=**====*********=*==*==%#@@#*****=********=******##############%%********================****##%***=**=**=*****=***&#&&#******=*=**=*=**=*%#######+XXXXXXXXXX...o.oooXXXXXX$$$#%%**************==***===************==**=*=*##$$#$###%%%%%%%%*******************%%#%*****=****==****%#$$$$$$$$$$$$$$$$$$$$XXXXXoooooXXXXooo.oXXXXXXooo...ooooooooo           ooooooooooooo                    ooooooooooooooooooooooooXXX$$$$###%%%******%%%##$$$$$$XXXXXXXXXXXXXXXX$$$$$$X$XX$$$$$$$$$$$$###%%%%******%%%%%%%%###########%%%%%%%%%%%%%%*****=========-;;;;;;;;;;;;;;;;;;;;;;;;;;;;;;;;;;;;;;;;;;;;;;;;;;;;;;;;;;;",
"$$$$$$$$$$###%%%%%**********%%%%%%%%%%###$$$$$X$$XXXoooooo  ooo oooooXXX$$$$$#########$$$$$XXXoooooooooooo    ooo           oo  ooooooooooXX$$$$$$$#####%%%%%%#####$XXoooooooXX$$$##$$$XooooXXoooooooooooooooooooo    ooooooooo    ooo   oooooooooXX$###%%%%%%%###$Xooo ooooooooooXX$$########$$$$XXXXooooXXXXooXXXXX$$$####$$XXXXXXX$$$$$$$$XX+XXXXXX....XXXXXXXXXXXX++$######%%%%%**%%%%*==**%%%%%########$###%*====******=*******=*#+++++++@@&&&@@@##@@@++++++@+@+++###@@&&==***===*******=====%#@@@@&&&@&&&&****=**======*====**=*#+@@@@@@@@@@@@@@@@@@@@@@@@@@@@@@@@@@@@@@@@@@@@@@@@@@@@@@@@@@@@&&&&&&%%&%%**********===***%&@%**=*=****======****=======******=======****=**===**==**##@@@@@@@@@@@@@&&&&&&&%&******************=*&#@@#**************=*****#@@@@OOO@@@O@@@@@##&&&&&&**==========******%###*=********=*****==*%&&&&%**=********==****=#########$+XXXXXXXXXXXXXXXXXXXXXXX$$#%***********===***********=*****==**=**=***#$$XXXXXX$$$$$$########################%***=***=********%#$$$$$$$$$$$$$$$$$XXXXXXXXooooooooooooooooXXXXXXoooo.oooooooooo         oooo  oooooooooo              ooooooooooooooooooooooooooooooXXXX$$$$##%%%*******%%%##$$$$$$XXXXXXXXXXXXX$$X$$$XX$$$$$$$$$$$$$$$$####%%%%******%%%%%###########%%%%%%%%%%%%%%%%%****==========-;;;;;;;;;;;;;;;;;;;;;;;;;;;;;;;;;;;;;;;;;;;;;;;;;;;;;;;;",
"$$$$$$$$$$$##%%%%%*****%%%%%%%%%%%%%%%###$$$$$$$XXXooooooo  ooooooooXXX$$$$$########$$$$$$XXXoooooo o  ooooooooooooo        oo  ooooooooooXX$$$$$$$#####%%%%%%####$$XXoooooooXX$$$##$$XXooooXXoooooooooooooooooooo    oo ooooo     ooo  ooooooooooXX$$##%%%%%%%###$Xoo oo oo oooooXX$$########$$$$XXXooooXXXXoooXXXX$$$$####$XXXXXXX$$$$$$$$XXXXXXXXXXXX..XXXXXXXXXXXXXXXX$$$#####%*******==*****%%%%%%%%%###$$#%*=**=*****=*******==*#$++++++@@@@@@@###@#@#++++++++++++##@&&&==**====********====%#@@@@&&&&&&&&****=*============**=*##@@@@@@@@@@@@@@@@@@@@@@@@@@@@@@@@@@@@@@@@@@@@@@@@@@@@@@@@@@@@@@@@########%%%***********%#@@#**=*=****===*==****==*====******=============***=****=*&#@@@@@@@@@@@@@@@@##################**%%%%%##++@****=**********=*****#@@@@@OOO@OO+@@@@##&&&@#&&*==========****%%###%*=****==**==****=**%&&&&%**=********==****=##########+++++XXXXXXXXXXXXX$$$$$XX$#%************=****====**************=**=**##X$XXXXXXXXXXXX$$$$$$$$$$$$$$$$$$$$$$$$%*=*=***=********#$$$$$$$$$$$$$$$$$$$$$$XXXXXooooooooooooXXXoXXXXXoooooooooooooooo        oo    oooooooooo   o        o ooooooooooooooooooooooooooooooooXX$$$$$##%%%*******%%%###$$$$$XXXX$XXXXXXX$$XXXXXXXX$$$$$$$$$$$$$$#####%%%%%******%%%%%%#############%%%%%%%%%%%%%%****===========;;;;;;;;;;;;;;;;;;;;;;;;;;;;;;;;;;;;;;;;;;;;;;;;;;;;;;",
"XX$$$$$$$$$##%%%%%%%**%%%%%%%%%%%%%%%%##$$$$X$XXXXXXoooooooooooooooXX$$$$$######$$$$$$XXXXXoooooooooooooooooooooooooooooooo ooooooooooooooXX$$$$$#########%%%%%###$$XXoooooooXX$$$##$$XXXoXXXXooooooooo ooooo ooooo  ooo  oooo  oooooo  ooooooooooXX$$##%%%%%%%###$XXoo oo   ooooooX$$#########$$$XXXooXoXXXXoooXXXX$$######$XXXoXXXX$$$XXXXXXXX++XXXXXX.XXXXXXXXXXXXXXXXXXXX++$$$####%%******==**===******%##$#%*=*=*****====*=***==*##++######++######################++@&&&*=***==*******=====*##@@@&&&&&&&&&*==***==*=**=*=====*=*##@O@@@@@@@@@@@@@@@@@@@@@@@@@@@@@@@@@@@@@@@@@@@@@@@@@@@@@@@@@@@@@@@@@@@@@@@@&&&&&&&&&&&&&@@@#&*===**====**===***==**==********=========**=***====*==%#@@@@@@@@@@@@@@@@@@@@@@@@@@@@@@@@@@@@@@@@@@@@+#***==***==********=*%#@@@@OOOO@@OOO@@@@@@&&@@@&&&====&=====**&&&&&%***===*===**=***=**&#&&##%*===*******==*****%#####*%#################%%%%%%%#$$$#**=*******************=*==*******=**==***%#$XXXXXXXXXXXXXXXXXXXXXXXXXXXX$$$$$$$$$#%***==**===*****%#$$$$$$$$$$$$$$$$$$$$$XXXXXXXoooooooooooXXooXXXXX.ooooooooooooooooo              oooo  ooooo      o    o oooooooooooooooooooooooooooooooXXX$$$$$###%%********%%%##$$$$$$$$$$XXXXXXXXXXXXXX$$XX$$$$$$$$$$$$$$$#####%%%*******%%%%%%#############%%%%%%%%%%%%*******=========-;;;;;;;;;;;;;;;;;;;;;;;;;;;;;;;;;;;;;;;;;;;;;;;;;;;",
"XXX$$$XX$$$$#%%%%%%%%%%%%%%%%%%%%%%%%%##$$$$X$XXXXXXoooooooooooooXXX$$$$$######$$$$$$XXXoooooooooooooooooooooooooooooooooooooooooooooooooXXX$$$$####%%%%#%%%%#####$$XXooooooooXX$$##$$XXXXXXXXoooooooo        oooooo ooo  o oo  ooooooo  oooooooooXX$$##%%%%%%%%##$Xoooo     ooooooX$$$#######$$$$XXXXooXXXXXXXXXXX$#######$XXXXoXXXXXXXXXXXXXXX+XXXXXXXXXXXXXXXXXXXXXXXXXXXXX++$$$$$###%**********=========%#$#%*=*=*****========**=*####################################&&&&*=**==******=======*##@@&&&&&&&&&&*==***=*******==*==***##+O@@@OOO@@@@@@@@@@@@@@@@@@@@@@@@@@@@@@@@@@@@@@@@@@@@@@@@@@@@@@@@@@@@@@@@@@@@@@@@@@#@@#@@@@@&*===***===**==****==**=**********=======****=*========&#@@@@@@@@@@@@@@@@@@@@@@@@@@@@@@@@@@@@@@@@@@@@@#*=*==**===********=*%#@@@@@OOOOOOOO@@@@@@@@@@@&&&&*=&&&====*&&&&&&***====*===******=**##&&##**===*=**=*===******#####****%%%*%%%******%********#$X#%*===***************=======*************%%#$$XXXXXXXXXXXXXXXXXXXXXXXXXXXXXXXX$$$$$#*=*==***===*****#$$$XX$X$$$$$$XXXXXXXXXXXXXXXoooooooo ooooXoooXXo.ooooooooooooo.oooo                    oooooo     o     ooooooooooooooooooooooooooooooooX$X$$$$$$###%%%********%%##$$$$$$$$$$XXXXXXXXXXXX$$$$X$$$$$$$$$$$$$$$$$$###%%%%*******%%%%%%%############%%%%%%%%%%%%*******==========;;;;;;;;;;;;;;;;;;;;;;;;;;;;;;;;;;;;;;;;;;;;;;;;;",
"XXXXXXXX$$$$###%%%%%%%%%%%%%%%%%%%%%%%##$$$$$$XXXXXooooooooooooXXX$$$$#####$$$$$XXXXooooooooooooooooooooooooooXooXooooooooooooooooooXX$$$$$$$$$####%%%%%%%%%%######$XXoooooooXX$$$$#$$XXXXXXoooooooooooooo     o    oooo  ooooo   ooooooooooooooooXX$$##%%%%%%%%##$$oooo   o ooooooX$$$######$$$$$XXXXXXXXXXXXXXX$$#######$$XXXXXXX$$$$$$XXXXXXXXXXXXXXXXXXXXXXXXXXXXXXXXXXXXX++$$$$$##%%%########%%%%****==%#$$%*=*====**===****=**=*########%*************************%%%&#%**==***=====******=*&#&&&&&&&&&&&&**==***********=**===*##@@@@@@@@@@@@@@@&@@&&@@@@&&&&&&&&&&&&&&&&@@@@@&&&&&&@@@&&&&&&&&&&&&&&&&&&&&&&&&&@@@@@@&&&@@&&&&========**===*====****=========*****===******=======*#&@&&@@&&&&&&&&@&&@@@&&@&@&&&&&&&&@@@@@@@@@@@#%******==****==****=*&#+++++@@+OO@++@@@@+@@@+####&%***********&&#%*****=*******==**==*######%**========**==****=*%%##%****************=********%#XX#***=****=****************=====***====*%###$XXXXXXXXXXXXXXXXXXXXXXXX$$$$$$$$$$$$$$#%*****=**===**=**$XXoXXXoXoooXXXoooXoooooooooooooooooo ooooo.oXXXooooooo   ooooooooooo                      o        ooooooooooooooooooooooooooooooooooXXoo$$$$$$$$$$####%%%*******%%%%##$$$$$$XXXXXXX$$XXX$$XXX$XX$$$$$$$$$$$$$$$$$#####%%%*******%%%%%%%#######%%%#%%%%%%%%%%%%%%%*****=========-;;;;;;;;;;;;;;;;;;;;;;;;;;;;;;;;;;;;;;;;;;;;;;",
"ooXXXXXXX$$$$###%%%%%%%%%%%%%%%%%%%%%%##$$$$$XXXXXoooooooooooooXXX$$$$$###$$$$$$XXoooooooooooooooooooooooooXXXXXXXXXXXXXXoooooooooXX$$$$$$$$$$####%%%%##%%%%%######$XXoooooooXX$$$##$$XXXXXXooooooooooo oo     o    ooo   oooo    ooooooooooooooooXX$$##%%%%%%%%##$Xooo     o oooooX$$$$#####$$$$$XXXXXXXXXXXXXX$$######$$$XXXXXXXX$#$$$$XXXXXXXX+XXXXXXXXXXXXXXXXXXXXXXXXXXXXXX$$$$##%%###$$#$#$########%%%#$$#%*=*====**==******===*#$++++####%%********===***=****=****%&#%=*=****======*****==%&&&&&&&&&&&&&**=*******=******====*&&&&&&&&&&&&&&&&&&&&&&&&&&&&&&&&&&&&&&&&&&&&&&&&&&&&&&&&&&&&&&&&&&&&&&&&&&&&&&&&&&&&@@@@@&@&&&&&*=====****=*****=*******==**====****===*****==**====*#&@&&&&&&&&&&&&&&&&&&&&&&&&&&&&&&&&@@@@@@@@@@#%*==***=*****==******##+@@@@@@+@@@@@@@@@@@@#####&%%**********%%##%*==**********==*****###&&#%**==**=*==**==*******%###%******%%%%%%%%%*********#$oX%******************=**=*=**==*=*******%##$$$XX+XXXXXXXXXXXXXXX$$$$$$$$$########$$$#***====**=**=*=*#XXXXXXooooooooooooooooooooooooooooooooooooo.ooXXooooooo  o   ooooooooo                    oo oo     oo ooooooooooooooooooooooooooooooooXoX$$$$$$$$$$$$$##%%%%***=***%%%##$$$$$XXXXXXXXXXX$$$$X$$$X$$$$$$$$$$$$$$$$$$$####%%%%*******%%%%%%%#####%######%%%%%%%%%%%%%%*****=========--;;;;;;;;;;;;;;;;;;;;;;;;;;;;;;;;;;;;;;;;;;;",
"oooooXXXXX$$$$##########%%%%%%%%%%%%%%##$$$$$XXXXXoooooooooooXXXX$$$$$$$$$$$XXXXoooooooooooo    oooooooooooooXXXX$$$$$XXXXXXXoXooX$$$$###########%%%%%##%%%%%%####$$XXooooooooX$$$##$$XXoXoXXXooooooooo oo       o  oo    ooo     oooooooo    ooooXX$$##%%%%%%%###$$oo       ooooooX$$$$###$#$$$$$XXXXXXXXXXXXXX$#####$$$XXXXXXXXXX###$$$XXXXXXXXXXXXXXXXXXXXXXXXXXXXXXXXXXX++++$$$######$$$$$$$$$$$$$$$#$###+$#%***=*======*****=**=*#$+++++#########%%*******=**=======**###====****============%%&&&&&&&&&&****==========**==**===*&&&&&&&&&&&&&&&&&&&&&&&&&&&&&&&&&&&&&&&&&&&&&&&&&&&&&&&&&&&&&&&&&&&&&%&%&&###&#&&&&&&&##&&&&&&&&&&===========**=*********==**=******====**====*=**==*%&&&&#&&#############&&&##########@######@@@&%**==***********=*****####&&&&&%#########%*********************%##**==*==*******==**********%%*===********==*****%###+###***####$$$$$$$$$#######XoX$%==*******************=***==**********##$$$$$$$$###############%%%%%%%%%%%**%*%#$#%****======*==**%#XXXooooooooooooooooooooooooooooooooooooooooo..Xooooooo          oo  o                     ooooo  oooooooooooo  oooooooooooooooooooooooooXX$$#####$$$$$$$$$##%%%********%%%#$$$$$XXXXXXXX$XXXX$$$XXXXXXXX$$X$XX$$$$$$$$$$$###%%%********%%%%%%##############%%%%%%%%%%%*******=========--;;;;;;;;;;;;;;;;;;;;;;;;;;;;;;;;;;;;;;;;",
"oooooooooXX$$$$$$########%%%%%%%%%%%%%##$$$$XXXXXXoooooooooooXX$$$$$$$$$$$XXXooooooooooooooo    oo   ooooooooXXX$$$$$$$$$XXXXXXXXX$$####%%#######%%%%%%%%%%%%%####$$XXooooooooX$$$##$$XXooooXXoXoooooo  oo     ooo  oo    ooo     oooooooo    ooooXX$$##%%%%%%%###$$oo       ooooooX$$$$$$$$$$$$$$XXXXoooooXXXXX$####$$XXXXXooo.XX$###$$XXXXXXXXX+XXXXXXXXXXXXXXXXXX++++++XXX$$$$$$#####$$$$$$$$$$$$$$$$$$$$$XX$%*****=*=====***==**=*#$+++++#################******=====*%###====****===========*%#@@@@@@&&&&&&**=*========***==**==*#@@@@@@@@@@@@@@@@@@@&&&&&&@&@@@@@@@@&&@&&&&&&&&&&&&&&&&&&&&&&&****&***********&&&&&&*==***&&&&&@@&**======*****==*******==****=*****====***===*****=**&&&&&&&&&&&&&&&&&&&&&&&&&&&&&&&&&&&&&&&&&&&&*==*******************&&&&&&&&&*******************************%%#%*===*===**=====*********==***=***====***==*****######+##%%###$$$XXXXXXXXXXXXXXooX#*=************************=*********=*############%%%%%%%%%%%*****************%$$#******===*=*****#$XXooooooooooooooooooooooooooooooooooo oooooo....oooooo              o   oo                 oooo  oooooooooooo   oooooooo oooooooooooooooX$##%%%%###$$$$$$$###%%%%*******%%%##$$$$XXXXXXX$$XXX$$$X$$XXXXX$XXXXXXX$$$$$$$$$$$###%%%%********%%%%%%%%#############%%%%%%%%%%%******=========-;;;;;;;;;;;;;;;;;;;;;;;;;;;;;;;;;;;;;;",
"ooooooooooXXXX$$$$$$$$##%%%%%%%%%%%%###$$$$XXXXXXXXoooooooooXXX$$$$$$$$$XXXoooo oooooo     o      o   ooooooooXXX$$$$$$$$$$XXXXX$$$###%%%%%%#####%%%%%%#%%%%%%%###$$XXoo oooooXX$$$$$$$XoooXoooooooooo  oo    oooooo        ooooooooo ooo     ooooXX$$##%%%%%%####$XXooo    oooooooX$$$$##$$$#$$$XXXXooooooooXXX$$#$$$XXXXXoooo.XX$###$$XXXXXXXXXX++XXXXXXXXXXXXXX+++$########$$$$####$$$$$$$$$$$$$$$$$$$$$+$+$#%*=*****=***=======*=*##+++++########################%***#####=*===****==========*##@+@+++++++##**==**=====***===*==*#++@@@@@@@@@@@@@@@@@@@@@@@@@@@@@@@@@@@@@@@@&&&&&&&&&&&&&&&&&&&&&***********=*=********=======**%#@@##&&***=**=***======****************===*======**=***&&&&%%********====**===*****************####*==****=*************#@@#@&&#&&&&&&&%%%%************===*******%%%**==**======*******=**===*******=====******==**%%#%############XXXXXXXXXX.....ooo$#***=******************=***************%######%%%%%**%%***********************%#$#%***==***=******%$XXXooooooooooooooooooooooooooooooooooooooooooo.ooooo o               o   oooo                 oo  ooooooooooooo ooooo  oooooooooooooooooX$$#%%**%%%%###$$$$$$###%%%%********%%%##$$$$$$$$$$$$$$$$$$$$$XXXXXXX$$XXXXX$$$$$$$$$$###%%%%********%%%%%%#############%%%%%%%%%%%%%%******=========;;;;;;;;;;;;;;;;;;;;;;;;;;;;;;;;;;;;",
"ooooooooooXXXX$$$$$$$$##%%%%%%%%%%%%###$$$$$XXXXXXXooooooooXXXX$$$$$$$XXXooooooo              o     oo oooooooooXX$$$$$$$$XXXXXX$$$###%%%%%%#####%%%%%%%%%%%%%####$$XXoo o oooXX$$##$$$XooXooooooooooooooo    oooooo         ooooooo   ooo   oooooXX$$###%%%%%####$Xoo o     ooooooX$$$$##$$$$$$$XXXXoooooooooXXXX$$$XXXXXXoooXXXX$###$XXXXXXXXXXX$$+XXXXXXXXXXXXX++++$$#####################$$$$$#$$$$$+$+++++#%*******=***=====*=*=*###+++++##+#######++######+#########++##*===****========*==*##+++++++@++#&*====***==**=*==**=*%#+++@@@@@@@@@@@@@@@@@@@@@@@@@@@@@@@@@@@@@@@@@@@@@@@@@&@&&&&&&&&##&&%%%********=*====*=*=========*&@+++###***********===**====*****=**====******=====*%#&@&####&##%%********==*************===**#+##****************=***%#@@@@&&###################%%%***=********#%***==*==*=*==****************=*=****==****=*===*%%##############+XXXXXXXoo.....ooX#%***=*************%%%*********=********%########%%%%%%#%%%%%%%%%%%%%%%%%%%%%%%%$$#****************#$XXXooooooooooooooooooooooooooooooooooooooooo.ooooo.o oo          oooooo  ooooo                    oooooooXoooooo  ooo   oooooooooooooooXXX$#%*****%%%###$$$$$$$##%%%%%***==***%%%#$$$$$$X$$$$$$$$$$$$$$$$XXXXXXXX$$$$$$$$$$$$$$$###%%%%*********%%%%%%#############%%#%%%%%%%%%%******=========;;;;;;;;;;;;;;;;;;;;;;;;;;;;;;;;;;",
"ooooooooXXXXXX$$$$$$$$##%%%%%%%%%%%%##$$$$$$XX$$$XXXoooooooXXXX$$$$$XXXXooooo          o    oooo      oo oooooooooXX$$$$$$$$$$$$$$$##%%%%%%%#####%%%%%%#%%%%%#####$$XXoooo oooX$$$$$$$$XoXXoooooooooooo ooo oooo  oooooooo    oooo o  oooooooooooooX$$###%%%%#####$Xoooo     ooooooX$$$$##$$$$$$XXXXXooooooooooXXXXX$$$XXXXXXoXXXX$##$$$XXXXXXXXX$$$+++XXXXXXXXXXXXXXXXXX$$#######%%%%%%%%%%%#################$#%******===****==***==*##+++++++++++++++++++++++++++++++++++++#*=*******===******=*#+++++++++++##*=**==**=***====**==%#+++@@@@@@@@@@@@@@@@@@@@@@@@@@@@@@@@@@@@@@@@@@@@@@@@@@@@@@@@@@@@@@&&&&&&&&&&&%*******************&#@@@@@@@@@####&&&%**********=****========****=====*##@@@@@@&&&&@#&&&&&&&&*******************%@+#&*=****=*************%&&&&&&&&&&&&@@@@@@@@@@@@@@#####%*********%%**=*******==**********=****=====*=***==*=======*%##%%%##########XXXXXXXXXXXXXXXXXX#******=**********%###*****=**====*****=*%##################$$$$$$$$$$$$$$$$$$#$$#%****==*****=***%#$XXXXXXXXXXXooooXooooo.oooooooooooooooooooo..oooooooooooo   o  oooooooooo o oo o                 o ooooXXXXXoooo    oooooooooooooooooooooX$$##%%*****%%%%###$$$$$#$###%%*********%%%##$$$$$$$$$####$$$$$$$$$$$$$XX$$XXXXXXX$$$$$$$$####%%%%********%%%%%%%##############%%%%%%%%%%%%******=========-;;;;;;;;;;;;;;;;;;;;;;;;;;;;;;",
"ooooooooXXXXX$$$$$$$$###%%%%%%%%%%%%##$$$$$$$$$$$$XXoooooooXXXXXXXXXXXXooooo           o       o     ooo  oooooooooX$$$$$$$$$$$$$$####%%%%%%#####%%%%%%###%%%#####$$XXoooo ooXX$$$$$$$$XooXXooooooooooo oo  oooo    oooooo   ooo   o  ooooooooooooXX$$###%%%%#####$Xooooo    ooooooX$$$$$$$$$$$$XXXXXooooooooooXXXXX$$##$$$XXXXXXX$##$$XXXXXXXXX$$#$+++XXXXXXXXXXXXXXXXXXXX$+$$########%%%***********%%%########%******===*****==***=*##+++++++++++++++++++++++++++++++++++++#*=*******===******=*#+++++++++++##*====***=***=====*==##++@@@@@@@@@@@@@@@@@@@@@@@@@@@@@@@@@@@@@@@@@@@@@@@@@@@@@@@@@@@@@@@@@@@@@@@&#######%###%%%%%##**%%@@@@@@@@@@@@##############%**===*=========****=====*##@@@@@@@@@@@@@@#############%%%%%%%%*%%%#@+#&*=************===*=*&*&&&&&&&&&&&&&&@@@@+@@@@@@@#+++##********%%*****=****==*****==***==****=*=**=****=**======*%##%%##########$XXXXXXXXXX$$$XXXX$%****************%####*****==*====*=***=*%####%%%%%%%#######$$$$$$$$$$$$$$$$$$$$$#*****==***===***#$XXXXXXXXXXXXXoXXXXooXo.oooooooooooooo.ooooooo.ooooo.oooooooo  oooooooooo o o o oooo              o oooXXXXXXXooo o  oooooooooooooooooooooXX$$#%%%******%%%####$$$$$$###%%%*****=***%%##$$$$$$$#######$$$$$$$$$$$XXXXXXXXXX$$$$$$$$$$#####%%%********%%%%%%%%############%%%%%%%%%%%%*********========;;;;;;;;;;;;;;;;;;;;;;;;;;;;;",
"ooooooooXXXX$$$$$$$####%%%%%%%%%%%###$$$$$X$$$$$$$XXooooooooooXX$XXXXXoooooo                oooo        ooooooooooXX$$$$$$$##$$$$$$##%%%%%%%%#####%%%%%%%%%%%%####$$XXooooooooX$$$$$$$$XXXoooooooooo    oooo  oo          ooooo ooo   oooo oooooooXX$$####%%%%####$Xooo       ooooooX$$$$$$$$$$$$XXXooooooooooooXX$$#######$XXXXXXX$##$XXXXXXXXX####$+XXXXXXXXX+XXXXXXXX++X+$$$$++$+$$$$#####%%*****========*###%*********=*****=**==*###################################++++#*=**===**=*=******=*#+++O+++++++#%==****==***====***=*##@@+@@@@@@@@@@@@@@@@@@@@@@@@@@@@@@@@@@@@@@@@@@@@@@@@@@@@@@@@@@@@@@@@@@@&@&@@@@@&&@@@&@&@@@@@@@@@@@@@@@@@@@@@@@@@@@@@@@@@@@@#&**==****==*****==***===*##@@@@@@@@@@@@@@@@@@@@@@@@@@@@@@@@@@@@##@@@@#*************===*==**&&&&&&&&&&&&&&&@@@@@@@@@@@@@@@@@@##%%****#**=**=====**===***********==****==*===****==*====*%%##%%*****%#########%%%%%%*%#XX$#*****************%#$##*=****======***==**%#%%**=****%%%%%######$$$$$$$$$$$$$$$$$#%**************=*#$XXXXXXXXXXXXXXXXXXXXXXXXooooXoooooooooooXXXoooooooo.oooooooo  oooooooooooooooo.o.oooo              ooXXXXXXXXooooo   ooo   oooooooooooooooXX$$##%%%******%%%%###$$$$$$###%%%%****=***%%%#######%%%%%###$$$$$$$$$XXXX$XXXXX$$$$$$$$$$$$$$$###%%%*********%%%%%############%%%%%%%%%%%%%%%%%*****=========-;;;;;;;;;;;;;;;;;;;;;;;;;",
"ooooooXXXXX$$$$$$#####%%%%%%%%%%%###$$$$XXX$$$$$$$XXooooooooooXX$$XXXXooooo                  ooooo     oo ooooooooXX$$$$#############%%%%%%%%#####%%%%%%#%%%%%####$$XXXoooooooX$$$$$$$$XXXooooooooooo   ooo  ooo  o  o    oooo  oo    oooo oooooooXX$$####%%%%####$Xoo       oooooooX$$$$$$$$$$$XXXXooooooooooXXX$#########$XXXXXXX$$$$+XXXXXXX$###$$++++XXX++XXX+XXXXXXXXXX$$$$+++++++$$#######%%%%*********%##%*=*****=*==*******==*#####################################++#*=**==**====******=*#$++O+++++++#*==*=*===***====***=*##@@@@@@@@@@@@@@@@@@@@@@@@@@@@@@@@@@@@@@@@@@@@@@@@@@@@@@@@@@@@@@@@@@&@@@@@&@@@@@@@@@&&&@@@@@@@@@@@@@@@@@@@@@@@@@@@@@@@@@@@@@#&*===*=********===**===*%#@@@@@@@@@@@@@@@@@@@@@@@@@@@@@@@@@@@@@@@@@+@%********=*****=*****%&&&&@@@@&&@@&&@@@@@@@@@@@@@@@OOO@###%******=****====**==*******=****===***==*===****==*=*==**%%%**********%%%%*********=*#XX$#*****************%####******====*=**===**%#%*==--====*%%%%%%################$$$##%***************%$$XXXXXXXXXXXXXXXXXXXXXXXXooXXXXXXoooooooXXXXXXX......oooooo.ooooooo.oooooooooo.. . oooo            oooXXXXXXXXoooo     oo o oooooo ooooooooXX$$###%%%*******%%%###$$$$$$$##%%%%%***=****%%%#####%%%%%%####$$$$$$$XXXXXXXXXXXXX$$$$$$$$$$$$$####%%%********%%%%%%##############%%%%%%%%%%%%%%*******========-;;;;;;;;;;;;;;;;;;;;;;;",
"ooooXXX$$$$$$$$#####%%%%%%%%%%%####$$$XXXXXX$$$$$$XXXooooooooXXX$$$XXXXoooo                   ooooooo oo oooooooXX$$$$###############%%%%%%%%####%%%%%####%%%#####$$$XooooooooX$$$$$$$$XXXoooooooooooo  ooo   oooo ooooo ooo    oooo ooo  oooooooooX$$####%%%%%###$Xoo        ooooooX$$$$$$$$$$$XXXXoooooooooXXX$##########$XXXXXXX$$$$XXXXXXX$####$$++++++$$$$+$$$+++$$$$+$$$$$$$$$$$$$$$$#$###################%*==**=====***********##############%*##*****************%####*=====*=========**=*##+++++++++##*==**=*==***===******#+@@##@@@@@@@@@@@@@@@@@@@@@@@@@@@@@@@@@@@@@@@@@@@@@@@@@@@@@@@@@@@@@@@@@@@@@@@@@@@@@@@@@&@@@####@@@@@@@@@@@@@@@@@@@@@@@@@@@@@#&*=======****====**===**%@@@@@@@@@@@@@@@@@@@@@@@@@@@@@@@@@@@@@@@@@@+#*********=*********=*%@#@@@@@@@@##@@&@#@++@++++++++++#####**************==****=***********==****==**==****==***==*****************************%#XX#%*****************#####*******=****=*====**%%=-;;;;;;==*******%%%%%%%%%%%%%%%####%***************%#$$$$$$$$$XXXXXXXXXXXXXXXXXXXXXXXXXXXXXXXXXXXoooXXXXXXXXoooooooooooooooooooooooo.o.oooooo  ooo     oooooXXXXXXXoooo     ooooo oooooooooooooooXXXX$$$###%%*******%%%####$$$$$$###%%%%********%%%%%%%%%%*%%%%##$$$$$$$XXXXXXXXXXXXXX$$$X$$$$$$$$$$###%%%%********%%%%%%#############%%%#%%%%%%%%%%%******=========-;;;;;;;;;;;;;;;;;;;;",
"oXXXXX$$$$$$$#####%%%%%%%%%%%%###$$$$XXXooXXX$$$$$XXXooooooooXX$$$$$XXooooo                       ooooooooooooooXX$$########%###%####%%%%%%%%####%%%%%####%%%#####$$$XooooooooXX$$$$$$$XXooooooooooooo  ooo   ooooooooo   oo    oooooooooooooooooooX$$####%%%%%%##$Xoo         ooooXX$$$$$$$$$$$XXXXXoooooooXXXX$$########$$XXXXXXX$$$+XXXXXX+$#####$$$$$$$#########$######$#$$$$$$$$$$$$$$$$###################%**==*=====*=***=*****###############%##%*****==**======**####*=====***==========*%###########*===****==**====***=*%#+@@@@@@@@@@@@@@@@@@@@@@&&&&@@@@@&&&&&&&&&&&&&&&&&&&&&&&&&&&@&@@@@@@@@@@@@@@@@@@@@@@@@&&@&&&*&&&&&@@@@@@@@@@@@@@@@@@@@@@@@@@#&**========***===*====**#@@@@@@@@@@@@@@@@@@@@@@@@@@@@@@@@@@@@@@@@@@#&******=**=**********%%#&&&@@&&####&&&&####@@##############***************=****=*****************==**====*=*=***==**************%%%%%%%%%%%%%%%#$X+%*****************%#####*******=****======**%*=;;;;;;;;-==*==****************%###%******=======***%#$$$$$$$$$$$$$$$$$$$$$$XXXXXXXXXXXXXXXXXXXXXXXXXXXXXXXXXXXXXXXX.....o..X.ooooooooooooooo  ooooo oooo oooXXXXXooooooo  o oo      oooooooooooooooXX$$$$###%%********%%%###$$$$$#####%%%*****=***%%%%%%%%%%%%%%####$$$$$XXXXXXXXXXXXXXXXXXXX$$$$$$$$####%%%%*********%%%%##############%##%%%%%%%%%%%%%*****=========-;;;;;;;;;;;;;;;;;;",
"XX$$$$$$$######%%%%%%%%%%%%%###$$$$XXoooooXXXX$$$XXXoooooooXXXX$$$$$XXoooo                       oooooooooooooXX$$######%%%%%%%%%%###%%%%%%%%####%%%%%##%%%%%%####$$XXoooo oooXX$$##$$$XXooooooooooooooooo   ooooo  oooo     ooo  oooooooooooooooooX$$###%%%%%%%##$Xoooo       oooooXX$$$$$$$$$$XXXXXXXXXXXXXX$$$$$$$$$$$$$$$XXXXX$$$$$+XXXX$$##################################################################%*****===***====**===*########################%*%**********###*===****=*========**************====*=***=**=====*==*%##@@@@@@@@@@@@@@@@@@@@@@&&&&&&&&&&&&&&&&&&&&&&&&&&&&&&&&&&&&&&&&&&&&&&&&##&&&&&&&&&&##&&#&%*===***%%%%%###########@#######&&%*=**=**==****==========*&@@@@@@@@@@@@@@@@@+@@#@@@@@############@@@@#%********************%#&&&&&&&&#%%%%%%**********************%**************=*=*****==****==*******=****====**=====*******###%######$XXXXXXXXXXXXXX#%****************%######**********====*====***=;;;;;;;;;-======**************%%%%*****************%################################$$$$#$$$$$$$$$$$$$$$$$$++++XXXXXXXXXXXXXXXX......ooooooo....ooooo    oooXXXoooooo o  ooooo  o  ooooooooooooooooooXXXX$$$#%%%%*******%%%####$$$$$$###%%%****=*=***%%%%%%%%%%%%%###$$$$$$XXXXXXXXXXXXXXXXXX$$$$X$$$$$$$###%%%*********%%%%%%###############%%%%%%%%%%%%*******=========;;;;;;;;;;;;;;;;",
"XX$$$$########%%%%%%%%%%%%%##$$$$$XXXoooooXXXXXX$XXXXoooooXXXX$$$$$$$Xoooo                         oooooooooXXX$$#####%#%%%%%%%%%%###%%%%%%%%%###%%%%%%#%%%%%#####$$XXoooo oooXX$$$#$$$XXooooooooooooooooo    o  o  oooo      oo  ooooooooooooo oooXX$####%%%%%%##$Xooo        oooooXX$$$$$$$$$$$$$$$$$$$$$$$$$$$$$$$$$$$$$$$$XX$$$$$$$$$$$$$#####################################%%############################******===****===***==*%#############################%%****####**==****=*=====*************==****==****=========*=**#####@@&&&&&&&&&&&@@@@&&@@@@@&@&@&&@@@@&&&&&&&&&&&&&&&&&&&&&&**&&&&**&&&&****&&&&&&&&&&&&&&*=======********%%&&&&&&&&&&&%&&&&**===***==****====**====*%&&&&&&&&&&&&&&&&&&&&&&&&&&&&&&&%&&%&&&&#@@#*=*****==************%#@@@@#########%%*********************####************==******==****==**********=*====*****=**%###############XXXXXXXXXXXXXX$#*****************%$$#$##****=*****=========***==;;;;;;;;;===*******%%%%******%%%******************%%%%#%%%%%%%%#%%%%##########################################$++$+++XXXXXXXXXXXXXXX..ooooo.  .ooooooooooooooooooooo     ooo  o o oooooooooooooooooooXXX$$$$##%%%********%%%####$$$$$###%%%%***===****%%%%%%%%%%%%%##$$$$$XXXXXXXXXXXXXXXXXXXXXX$$$$$$$$$$###%%%%%********%%%%%#############%#%%%%%%%%%%%%%%******========;;;;;;;;;;;;;;",
"$$$$######%%%%%%%%%%%%%%###$$$$$XXXooooooooXXXXXXXXXXooooXXXX$$$$$$$$Xoooo                           oooooooXX$$##%%%%%%%%%%%%%%%%###%%%%%%%%%###%%%%%##%%%%######$$XXooooooooXX$$$#$$$Xooooooooooooooooo                   oooo    oo ooooo    oooXX$##%%%%%%####$$oooo  oo  ooooooXX$$$$$$$$$$##$$$$$$$$$$$$$$$$$$$$$$$$#$$$$$$$$$$$####$$#######################################%%***%%%%%%%%%%%###########%%******=*=******==***=*******%%%*****%%**#################%#%********====***==*=*=*******====***=********========***%&&&&&&%&&&&&&&**&&&&&&&&&&&&&&&&&&&&&&&&&&&&&&&&%%%%&*******====********====*****=*=****%%**=========================*============**===*====****====*&&&&&&&****&******======*****======***=*%##%******==******===****%#@@#############%%*****************%##+##**=****===**====**=*********=*******======***=***=*%$$+++$++########+XXXXX.XX...XX#%****************%#$$$$$#****=****===**=====**%%=;;;;;;;;;;==****%%%%%%%%%%%%%%%%%%%**%%%**%%%%**%%%%%%%%%%%%%%%%%%%%%%%%%%%%%%%%%%%%%%%%%%#########################$$+++XXXXXXXXXXXXXX.ooooo   ooooo o.ooooooooooooo          o   ooooooooooooooooooooooXXX$$$##%%*********%%%%%#$$$$$$####%%%****=*=****%%%%%%%%%%###$$$$XXXXXXXXXXXXXXXXXXXXXXXXXXX$$$$$$$####%%%*********%%%%%%%###############%%%%%%%%%%%%*****==========-;;;;;;;;;;",
"$$######%%%%%%%%%%%%%%####$$$$XXXXooooooooooXXX$XXXXXXoXXXXX$$$$$$$$$Xooo                             oooooXX$$###%%%%%%%%%%%%%%%%###%%%%%%%%####%%%%%###%%%######$$XXooooooooXX$$$$$$$Xoooooooooooooooo       o        o    ooo   ooo   ooo    oooXX$###%%%%%####$$oooo  o   ooooooXX$$$$$$$$$$$#$$$$$$$$X$$$$$$$$$$$$#$#####$$$$$$$$$################$###############################%%*****************************=**********==*********%%************%******%******%******===**====****=**===*==**======**=*******=*========*=**=======================================================================================***====================================*======**====***====*&&&&&&&&****&&**=========================*&#***=***==**=**====*****%&&%%%%&%%%%%#%%%%%*************%%%##++##**==***=========**==****=***=*******====*=***=*****%$XX+XXXX++$$$+##++XXXX.XXXX.XX#%****************#$$$$$$#**=*=**=====**====**%%%%=;;;;;;;;;;=*%%%%%%%%%%%%%%%%#%%%%%%%%%%%%%%%%%%%%%%%%%%%%%%%%%%%%%%%%%%%%%%%%%%%%%%#######################$#+$$$$$$+++XXXXXXXXXXXXXXXXXXXoo   oooooooooooooo.ooooooo     o   ooooooooooooooooooooooooooooXX$$$##%%%*********%%%###$$$$$$$##%%%****====****%%%%%%%%%###$$$XXXXXXXXXXXXXXXXXXXXXXXXXXX$$$$$$$$#####%%%*********%%%%%%################%%%%%%%%%%%%********=======-;;;;;;;;",
"###%%%%%%%%%%%%%%%%%####$$$$$XXoooooooooooooXX$$$$XXXXXXXXXX$$$$$$$$XXooo                           ooooooXX$$##%%%%%%%%%%%%%%%%%%###%%%%%%%%####%%%%%####%%%#####$$$XooooooooX$$$$$$$$XoXooooooooooooo       oo    o   oo           o  oooo  ooooooX$####%#%#####$$oo        ooooooXX$$$$$$$$$$$$$$$$$$$$$$##$$$$####################################################################%%***************==************************=*==*%%%%%#%%*%*********************************===**==**======****============**=******=*===*******==***==*****======**===================================;======================================***===*================******=*****=*==**====**=============&==&&=====*=======================*%%***=*********====****==============*********%&&&%%%%%%%%####+##*************=*==**%%%%%%%###%#%%*=*****=*=**=**=***%$XXXXXXXXXXXX$$$+XXXXXX$X$XXX$%****************%$XXX$$$#******=***======****%%%%*=-;;;;;;;;;=*%%%%%%%%%%###################%%%%%%%%#%%%%%%%%%%%%%%%%%%%%%%%%%%%%%%##########################$$$$$$+++++++++++++++++X++++XXXXXX.Xooooooooooooo .o  oooo         o   ooooooooooooooooooooooooXXXX$$$##%%%*********%%%###$$$$$$##%%%%****===****%%%%%%%####$$$XXXXXXXXXXXXXXXXXXXXXXXXXXXXXXXX$$$$$$#####%%%*****%%*%%%%%################%%##%%%%%%%%%%******========-;;;;;",
"###%%%%%%%%%%%%%%%%####$$$$XXXooooooooooooXXX$$$$$$XXXXXXXXX$$$$$$$$XXoo                            ooooooXX$$##%%%%%%%%%%%%%%%%%%###%%%%%%%%####%%%%%####%%%#####$$$XooooooooX$$$$$$$$Xoooooooooooooo   ooo   oo  oo   oo    o     oooooooo ooooooXX$##%%%%%#####$$oo        oooooooX$$$$$$$$$$$###########%%#########################%##%%%%%%%%%%%########%#%%%%%%%%%%%%%%%%%%%************************************==*****************************************************%%%***=******====*=*=****=====****=====********==***********=========================================;;;;;;=;;;;;;;;;;;;;;;;;;;;=;;;;;;;;=;;;;;======*=**==***====*===**=====******=*****===****===**=================================================****=***=*****==**=======================****&&&&%%%%%%&%%%##$#%***************==%##$$$$$$$$$$$$#*==***====***=*****%+XXXXXXXXXXX$$$$$$$$######XXX#%****************%$XXXX$$#%*******===********%%%%%%%=-;;;;;;;;-=*%%%%%%%%%%###%%%%%%##%%%%%%%%%%%%%%%%%%%%%%%%%%%%%%%%%%%%%%****%%**%%%%*%%%%%%#############################++++##++++++++++XXXXXXXXooooooooooo o.  oooooo           ooooooXooooooooooooooooooXXXX$$$$##%%*********%%%###$$$$$$$##%%%%****===****%%%%%####$$$XXXXXXXXXXXXXXXXXXXXXXXXXXXXXXXX$$$$$$$$####%%%%********%%%%%%%#################%%%%%%%%%%%%*****=========-;;",
"%%%%%%%%%%%%%%%%#####$$$$$XXXooooooooXooXXX$$$$$$$$$XXXXXXXXX$$$$$XXXooo                            ooooXX$$$##%%%%%%%%%%##%%%%%%%###%%%%%%%%####%%%%%###%%%######$$$XooooooooXX$$$$$$$Xoooooooooooooo  ooooooooo oo    ooo oooo  oooooooooo  ooooooX$###%%%%#####$$oo    oo  oooooooX$$XX$$$$$$###%%**********************===**===============================================================================*********========**==================================**==********==****=****=**======*=====****=======***=**============;;;;;;;;;;;;;;;;;;;;;;;;;;;;;;;;;;;;;;;;;;;;;;;;;;;;;;;;;;;;;;;;;;;;;;;;;;;;;;;;;;;;=======**====***====*====**========*==*========****===============:::==::========&&&=====&&&&=*&&&&**&&==******=*=****==**==*=*&&&&&&&&&&&&&&&&&&&&&&&&&&&&&&&&&&###+#%*****==*=*==**=*=*#$XoX....o..XX$#************====*=*%############%%%%%%%%*****%$XX#***************=*#XXXXXX$#%*******%%%%####%%%%######%*=;;;;;;;;-====**********************%%%***********=======================================*==*******************%*%%%%%######################++XXXoooooooo o ooooXoooo           oooXXXXoooooooooooooooooooXXXX$$$###%%*********%%%%###$#$$#####%%%***===****%%%%####$$$$$$$X$XXXXXXXXXXXXXXXXXXXXXXXXXXX$$$$$$$$$$####%%%*******%%%%%%%#################%%%%%%%%%%%%%*****==========",
"%%%%%%%%%%%%%%%####$$$$$XXXXooooooooXXXXX$$$$$$$$$$$XXXXXXXXXXXXXXXXoooo                            oooooX$$##%%%%%%%%%%%#%%%%%%%%###%%%%%%%%####%%%%%####%#######$$$Xoo   oooXX$$$$$$$Xooooooooooooooo oooooooo  oo    ooo oooo  oooooooooo  ooooooX$###%%%%#####$Xoo    o oooooooooXXXXXX$$$$$$$##%%%%%%**********===============================================================-======================================*=====*======--;;;;-==;===================================***=*******=====*=====****=======*****======;;;;;;;;;;;;;;;;;;;;;;;;;;;;;;;;;;;;;;;;;;;;;;;;;;;;;;;;;;;;;;;;;;==========================***==***=*==***=====*====*==========*=======******=*=======*&&&&&&&&&&&&&&&&&&&&&&&&&&&&&&&&&&&&&&&&&&&*********==****=**=**%##@@@&@@&&&&&&&&&&&&&&&&###@@@@@@@@#+++%*=****=*=======*==%$XooXXXoXo..XX$#=**=*=======***=***%%%**********==****===****#$X$#****************#$XXXXXX$#%%%#####$$$$$$$$##$########%*==-;;;;--;;-----===========================================================================================********%%%%%%%%%%%%%%%############+XXXXoooooooooooXXXoooo           oooXXXXooooooooooooooooooooXXX$$$$##%%%*********%%%###$$$$$$$##%%%%*****==****%%###$$$$$$$$$$$$XXXXXXXXXXooXXXXoXXXXXXXXXXX$$$$$$$#####%%%%********%%%%%%################%%%%%%%%%%%%%%******======",
"%%%%%%%%%%%%####$$$$$$XXXXXoooXXXXXXX$$$$$######$$$$XXXXoooXXXXXXXoooooo                            ooooX$$##%%%%%%%%%%%%%%%%%%%%%###%%%%%%%%####%%%%%%%#%%%%#####$$XXoo    ooXX$$$$$$XXoooooooooooooooooooooooo          ooo   oooo  oo oo   ooooooX$#####%%%%###$Xoooooo   o   ooooXXXXXX$$$$$$$$$$###############%%%%%%%%********=******==============================================--------====---==-----=======================-;;;;;;;;;;---====---==========================**=*******==========*****=====*=====*==============================================================================================******=*********=================================*****==*****&&&&&&&&&&&&&&&&&&&&&&&&&&&&&&&&&&&&&&&@@@@&&#%*=****===*****==*=**##@@@@#+@@+++@##++####++########+###+++#%****=****======*=*#Xooo........o.X#***=*==*=*****====*%#######%#%%%*************#$X##******%%%%######+X.X.oXXX$+$XXXXXXXXXXXXXX$$$$######%%%%**=======-====--=====-====================================================================*****************%%%%%%%%%%%%%%%%%%###################+XX.oooooo oooXXXXooo         ooooXXXXXoooooooooooooooooooooXXXX$$$##%%%*********%%%####$$$$$###%%%%****===***%%%##$$$$$$$$$$$$XXXXXXXoooooXoXXXXXooXXXXXXXXXX$$$$$$$####%%%%*******%%%%%%################%%%%%%%%%%%%%******=====",
"%%%%%%%%%%%###$$$$$$$XXXXXXoXXXXXX$$$$$$#########$$$XXXXoooooooXooooooo                            ooooXX$$##%%%%%%%%%%%%%%%%%%%%%###%%%%%%%%####%%%%%%%#%%%%#####$$XXooo   ooXX$$$$$$XXoooooooooooooooo  oooo             o    oooo   o oo    oooooX$######%%%###$Xoooo          oooXXXXXXX$$$$$$$$$$$$$$$#$$$$##$###############%%%%%%%%%%%%%%%%%%%%**********=================================================***************===**=============================================*******==********=*=*===****=====*=======*********%%%%%%%%%%%%#%%%%%%%%%%%%%%%%%######%%%%%%%%**%%%%%%%%%%%%%**%%%&&%%%%%%%%%%&%%%%%%&%%%********===*=========******==============*===******====**&&&&@@@@&&#@@@@&@@@&@@@@@@@@@@@@@@@@@&@@@@@@@@#**=****==*=*******=**++@@+@++@@++@@##@@#################+++##**=*==*=*=====****%$..o......  .o.X#****==============%#XXXX$$$$$$$$#############$XX$#######$$$$$XXXXXoooXXoXXXXXXXXXXXXXXXXXXXX$$$$$$####%%%%%%%%%%%%%%%%**%%%%****%%**%%%%%****%*%%%%%%%%%%%%%%%%%%%%%%%%%%%%%%%%%%%%%%%##################################################################+++XXX.ooooo  ooo.oXooooo      ooooooooXXXXoooooooooooooooooooXoXX$$$$$##%%%*********%%%###$#$######%%%%****===***%%###$$$######$$$XXXXXooooooooooooooooXXXXXXXX$$$$$$$$####%%%%%%**%*%%%%%%%%###################%%%%%%%%%%%*******=",
"%%%%%%#####$$$$$$$$XXXXXXXXXXX$$$$$#########%###$$$XXooooooooooooooooo                             ooooX$$##%%%%%*%%%%%%%%%%%%%%%%###%%%%%%%%####%%%%%####%%%#####$$XXooooooooX$$$$$$$XXoooooooooooooooo    o             oo     o o   ooooo  ooooooX$#####%%%####$Xoo            ooooXXXXXXXXXXXXXXXXXXXXXX$$$$$$XXXX$$$$$$$$$$$$$#####################################%%#%%%%###%%%%%%%%%%%%%%%%%%%%%%%%%%%%%#################%%%%%%############################%%%%%%%%%%%%########%%****==******==*=********==****=****#########################################################%%%%%%%%%&%%##%%#%%##################%****======**====**=====*******===***********===******==**#&#&&@@@@######@@##########################@+@@#*===****=*********=*%###&##############%%************#######**********=*=*****%#X...ooo..ooooo.$#****=*************#$Xo....oo...o.X....X+++++++++XXXXXXXXXXXXXXXoXX.o..oooooo.XXXXXo.XXXXXXXXXXX$$$$############################################################$##$##$######$$$$$$$$$$$$$$$$$$$+$$++++++++++++++++++++XXXX++++X+XX+++++XXXXXXXXXXXXXXXXXXXXXXoooo o     ooooooooooo    o  ooooooXXXXXXooooooooooooooooooooXX$$$$$##%%%*********%%%####$$$$####%%%%**********%%%##########$$$XXXXXooooooooooooooooooXXXXXXXXX$$$$$$$#####%%%%*******%%%%%####################%%%%%%%%%%******",
"%%%%%#####$$$$$$$$$XXXXXXXXX$$$$$#######%#%%%###$$$Xooooooooooooooooooo                            oooXX$$##%%%%%**%%%%%%%%%%%%%%%###%%%%%%%%###%%%%%%####%%######$$XXooooooooX$$$$$$$XXoooooooooooooo                    ooo      o   ooooo  oooooXX$#####%%%####$Xoo             ooooXoooXXXXXXoooooXXXXXXXXXXXXXXXXXXXXX$$$$$$$$$$$$$$$$$$$$$$$$$#$$$$############$###################################################$$##$################$$####################################$##%%%***=*****************==********%###########++#++++########++++####+++++++++###++++#+##+#########%%%%%%%%%%%%%%%%%%%%%%##%%%%###%*******=*=*====*****===******===************=*=******=**%###&&&&&&&&&##&&&###############%%%#####&&&@@+@%*====**==*********=*%#&&&&%%%%%****==================*##$##%*=****************#$X.. oo.o.ooooo.$#****%%%%%#%%%######X.X....o.   .....XXXX+++++++X++++++XXXXXXXXXXX.....ooooXooXoXXXXXXXXXXXXXXXX$$$$$$###########################$$$#$$$$$$$$$$$$$$$$$$$$$$$$$$$$$$$$$$$$$$$$$$$$$$XXX$$XXX$$XXXXXXXXXXXXXXXXXXXXXXXXXXXXX.XXXX.XXXXXXXXXXXXXXXXXXXXXXoo.ooooooo   o   oooooooXXXooooo  o   ooooooXXXXXXoooooooooooooooooooXXX$$$$$##%%%**********%%%#####$$#####%%%%*****==***%%##########$$XXXXXoXooooooooooooooooooooXXXXXX$$$$$$$$$###%%%%%******%%%%%%###################%%%%%%%%%%%%%**",
"#####$$$$$$$$$XXXXXXXX$$$$$$$######%%%%%%%%%###$$$XXooooooooooooXooooooo                          ooooX$$###%%%%%*%%%%%%%%%%%%%%%%###%%%%%%%%####%%%%%####%%######$$$XooooooooXX$$$$$$XXXooooooooooo  ooo   o     oo            oo      o  oooooooooX$############$Xoo o         ooooooooooooooooooooooooooooooooooooooXXXXXXXXXXXXXXXXXXXXXXXXXXXX$$$XXXX$$$$$$$$$$$$$$$$$$$$$$$$$$$$$$$$$$$$$$$#$$$$$$$$$$$$$$$$$$$$$$$$$$$$$$$$$$$$$$$$$$$$$$$$##$$$$$$$$$$$$$$$$$$$$$$$$$$$$$$$$$$$$###%%*************======*==***####$$+++$+++++++++++++++++++++++++++++++++++++++++++++++++++++++####&&%%%******************************=**====***=====**===*==*****===***===****=********#&&&&&&%&&%%**********************************#++#*==***===*=**********#++++++###########%************=*%#++##***************%%%#$X.o. ooo   ...o.XX$$+XXXXXoooo.ooooooo.ooooo..  ........OOOOOO++++++++++XXXXXXXXXXXX.o....oooo.o..XXoXXXXXXXXXXXXXX$$$$$$$$$$$$$$$###$##$$###$$$$$$$$$$$$$$$$$$$$$XXXXXXXXXXXXXXXXXXXXXXXXXXXXXXXXXXXXXXXXXXXXXXXXXXXoooooXXX.........oo.ooo..oooooo...ooooo  oo   oo                 oo o oo oXXXXXXooo     o oooooooXXXXXXooooooooooooooooooooXXX$$$##%%%**********%%%######$$$###%%%%**********%%%########$$XXXooooooooooooooooooooooXXXXXXXXXXX$$$$$$$#####%%%%*****%%%%%###################%%%%%%%%%%%%%%",
"###$$$$$$$$$XXXXXXXX$$$$$$$#######%%%%%%%%%%##$$$$XoooooooooooXoXXoooooo                          ooooX$$###%%%%%%%%%%%%%%%%%%%%%%####%%%%%%%%###%%%%%####%#######$$$XooooooooXX$$$$$$XXXoooooooooooo ooooo o     oo            oo     o   ooooooooXX$############$Xoo o          ooooooooooooooooooooooooooooooooooooooooooXXXXXXXXXXXXXXXXXXXXXXXXXXXXXXXXXXXXXXXXXXXXXXXXXX++$$$$$$$$$$$$$$$$$$$$$$$$$$$$$$$$$$$$$$$$$$$$$$$$$$$$$$$$$$$$$$$$$$$$$$$$$$$$$$$$$$$$$X$X$$$$$$$$++++$$$X$$#####%%%%***************%%###$$$$+++++++++++++++++++++++++++++++++++++++++++++++++++++++++++++########%%*******=============******************====**==****==****==****===******==****%##@@####&&&&%%%%%********************=======*%++##*=****=**=******=****#++++++++++++$$$################%#$++####%%%%%########$$$XXo... ooo   ...o oooXoo..oooooo...ooooo..oooo..  o.......O+O+@@++++++++++XXXXXXXXXXXXX.ooo.oooo.oo..XXXXXXXXXXXXXXXXX$$$$$$$$$$$$$$$$$$$$$$$$$$$$$$$$XX$$$$XXXXXXX$XXXXXXXXXXXXXXXXXXXXXXXXXXXXXXXXXXXXXXXXXXXXXXXXXoooXXoooooo..oo......ooooo.oooooo  ..oooo   o    o                   oooo  ooXXXXXXoo        oooooooooXXXXXooooooooooooooooXXXXXX$$$###%%**********%%%%######$#####%%%%*********%%%#######$$XXoooooooooooooooooooooooooXXXXXXXXXXXX$$$$$$####%%%%%******%%%%###################%%%%%%%%%%%%",
"$$$$$$$XXXXXXXXXX$$$$$$$#######%%%%%%%%%%%##$$$$XXooooooooooXXXXXXXooooo                          oooo$$$###%%%%%%%%%%%%##%%%%%%%%####%%%%%%%####%%%%%####%%######$$$XooooooooXX$$$$$$XXoooooooooooooo    ooo    o o                       o oo ooooX$############$Xoo            oooooooooooooo      ooooooooooooooooooooooooXX.oXXXXXXXXXXXXXXXXXXXXXXXXXXXXXXXXXXXXXXXXXXXXXXXXXXXXXXXXXXXXXXXX$$XXXXXXXXXXXX$$$$$$$$$+$$$$$$$$$$++XX$$$$+XX$$$$$$$$$$$$$$$$$$$$$XXXXXX$$$$$$++X+++XX+++++$$####################$+++X++++++++++++++++++++++++++++++++++++++++++++++++++++++++++++++++++@@+++@@@@#####&&%&%*****====***%#%***==============**==============***====********&&@@@@@@@@@@@@@@@@@@@@#@@@##&&&&&&&&&&%%%%%%****%#@O@&*******************%#+OOOOOOOOOOOOOO++OOOOO+++OO++++++++++++++++XXXXXXXXXX..oooo......oo   ...oo oo  .o...oooo......  ....   .oooooo....O+@&&&&@@@+++++++X++XXXXXXXXXX....XooXX.o.ooooXXXXXXXXXXXXXXXXX$$$$$$$$$$$$$$$$$$$$$$X$$XXXXXXXXXXXXXXXXXXXXXXXXXXXXXXXXXXXXXXXXXXXXXXXXXXXXXXXXXXXXXXoXXXoooooooooooooo..oooooooo....ooo.o   oo.oo                            ooooo  oooooXXXXXoo       ooooooooooXoXXoooooooooooooooooooXXXX$$$$##%%***********%%%#############%%%*********%%####$$$XXXXooooooooooooooooooooooooooooooXXXXXXXXXX$$$$$#####%%%**%****%%%%####################%%%%%%%%",
"$$$$$$$$XXXXXXX$$$$$$$########%%%%%%%%%#%##$$$XXXXooooooXXXXXXXXXXXooooo                          oooo$$###%%%%%%%%%%%%%###%%%%%%%####%%%%%%%####%%%%%###%########$$$XoooooooooX$$$$$$XXXooooooooooooo     oo                             oo  o ooooXX############$Xoo             ooooooooooooo        o oo o oooooooooooooooooo..oXXoooooXXXXXXXXXXXXXXXXXXXXXXXXXXXXXXXXXXXXXXXXXXXXXXXXXXXXXXXXXXXXXXXXXXXXXXXXXXXXXXXXXXX$$XX++XXXXXXXXXXX+XXXXXX$$$$$$$+++$$$$X+XXXXX$$$$XXXXXXXXXX$$$$$$$XX$$$$$$$$$$$$$$$$$$XXXXX+++XX++++X++++X+++++++++++++++++++++++++++++++++++++++++++@++++++++++++++++##############%%%%%%#####%*****===============**====**===***====*=****####@@@@@@@@@@@@@@@@@@@@@++@++##++++++##############@O+#####################++OOOOOOOOOOOOOOOOOOOOO+++OO++++XX+XXXXXXXXXXXXXXXXXXXooXoo.......          ..    ......o. .....  . ..o   .oooooo...O+@&&&&&@@+++++++++++XXXXXXXXXXX..ooXXXX..oXXXXXXXXXXXXXXXXXXXXXXXXXXX$$$$$$$$X$XXXXXXXXXXXXXXXXXXXXXXXXXXXXXXXXXXXXXXXXXXXXXXXXXXXXXXXXXXXXXXXXXXXXoXoooooooooooooooooooooooooooo .  ..                                        ooo.o o ooooXXXXXooo        oooooooooXXXXXXXooXooooooooooooXXXXX$$####%%***********%%%#####$$$###%%%%%********%%##$$$$XXXXooooooooooooooooooooooooooooooooooXXXXXX$$$$$$$#####%%%%******%%%%%%##################%%##%%",
"$XXXXXXXXXXX$$$$$$$#####%%%%%%%%%%%%%#####$$$XXooooooXoXXXXXXXXXXXXXoooo                          oooo$$$#%%%%%%%%%%%%%%##%%%%%%%%####%%%%%%%%##%%%%%%%##%%######$$$$XooooooooXX$$$$$$XXXXoooooooooooooo  ooo                                  oooooX$############$Xoo              oooooo    o                 ooooooooooooooooooooooooooXXXXoooooXXXXXXXXXXXXXXXXXXXXXXXXXXXXXXXXXXXXXXXXXXXXXXXXXXXXXXXXXXXXXXXXXXXXXXXXXXXXXXXXXXXXXXXXXXXXXXX$$$$X$$$$$+XXX$$$$XXXXXX$$$XXXXXXXXXXXXXXXXX++XX++++X+XXX+XXXX+X+XXXXX++X+XX+X+XXX+++++++++++++++++++++++++++++++++++++++OOOOOOOO++++OOOOOOOO@@@@@+@+@@@@+@@@@+#####@@@@@@@@&&#&&&&&&*****==*=***==========*******&&&&##@@@@@@@@@@@@@@@@@@@@@@@@@@@@@@@@@@@@@@@@@@@@@@@@@@@@@@@@@@@@@@@@OOOOOOOOOOOOOOOOOOOOOOOOOOOOOOOOOOOOOOOOOOOOO....X..XX...................  ....... ooo..      .o.ooooooooo....oooooooo..o......XO+@@&&&&&&@@++++++++++XXXXXXXXXXXoooXXXXoXXXXXXXXXXXXXXXXXXXXXXXXXXXXXXXXXXXXXXXXXXXXXXXXXXXXXXXXXXXXXXXXXXXXXXXXXXXXXXXXoXXXXoXXXXXXXoooo....ooooooo.oooooooooooooooooo...o  oo...   ..                                        ooo.oooo  oooXXXXXooo     ooooooooooooXXXXXXXoXXXXooooooooooooooXX$$$$#%%%**********%%%%####$$$#####%%%%******%%##$$XXXXoooooooooooooooooooooooooooooooooooooooXXXXXXX$$$$$#####%%%%****%%%%%%%####################%%%",
"XXXXXXXXXXXX$$$$$$######%%%%%%%%%%%%####$$$$XXoooooooXXXXXXXXXXXXXXXXooo                          oooo$$$##%%%%%%%%%%%%%##%%%%%%%%####%%%%%%%%##%%%%%%%###%%#####$$$$XooooooooXX$$$$$$XXXoooooooooo oooooooo                                  o ooooX$$##########$$Xoo              oooo        o      o        ooooooooooooooooooooooooooooXXoooooXXXXXXXXXXXXXXXXXXXXXXXXXXXXXXXXXXXXXXXXXXXXXXXXXXXXXXXXXXXXXXXXXXXXXXXXXXXXXXXXXXXXXXXXXXXXXXXXXXXX$$$$+XXXX$+XXXXXXX+$$+XXX$XXXX+XX+XXXXXXXXXXXXXXX+X++++++XXXX++++++XX+++++XX++++X+++++++++++++++++++++++++++++++++OOOO+OOOOOO+OOOOOO@++@@@@+@@@@@@@@@@@@@@@@@@@@@@@@@@@@+++###########%%%%%%%%%%&%%%%%%%%#######+++@@@@@@@@@@@@@@@@@@@@@@@@@@@@@@@@@@@@@@@@@@@@@@@@@@@@@@@@@@OOO@O@@OOOOOOOOOOOOO@@OOOOOOOOOOOOOOOOOOOOOOOOOOO...OX++++XX....................oooo.....ooooo.o.oooooo.....oooooo.ooo.ooooo.oo.XXX.+XOO@@&&&&&&@@++++++++++++XXXXXXXXXX..XXXXXXXXXXXXXXXXXXXXXXXXXXXXXXXXXXXXXXXXXXXXXXXXXXXXXXXXXXXXXXXXXXXXXXXXXXXXXXXXXXXXooooXXooooXXooooo.oooooooooo..ooooooo.ooooooo ..  .. o.. .  oo                                          ... o      oooXXXXXooo      oooooooooooXXXXXXXXXXXooooooooooooXXXX$X$$###%%%***********%%%############%%%******%##$$XXoooooooooooooooooooooooooooooooooooooooooooXXXXXX$$$$$$#####%%%%%****%%%%%%%####################",
"XXXXXXXX$$$$$$######%%%%%%%%%%%%%%%%##$$$$$$XXooooXXXXXXXXXX$$$$$$XXXXoo                          oooo$$$##%%%%%%%%%%%%%#%%%%%%%%%###%%%%%%%%####%%%%%####%%#####$$$XXoooooooooX$$$$$$XXooooooooooo ooooo  oo                               oo ooooXX$$##########$$Xoo              ooo         o   oo o     ooo  ooooooooooooooooooooooooooooooooXXXXXXXXXXXXXXXXXXXXXXXXXXXXXXXXXXXXXXXXXXXXXXXXXXXXXXXXXXXXXXXXXXXXXXXXXXXXXXXXXXXXXXXXXXXXXXXXXXXXXX$$++++XX+++XXXX++$$$++XXXXXXXX++XXXXX+XXXXX+++++XXX++++++X++XX++++XX++++X+++XX+++X++++++++++++++++++++++++++++++OOOO+++++OOO++++@@@@++++@@@@@@@@@@@@@@@@@@@@@@@@@@@@@@@@@@@@@@@@@@@@@@@&@@@@@@@@@@@@@@@@@@@@@@@@@@@@@@@@@@@@@@@@@@@@@@@@@@@@@@@@@@@@@@@@@@@@@@@@@@@@@@@@@@@@@@@@@@@@@@@@@@@@@OOOOOOOOOOOOOOOOOOOOOOOOOOO+OOOOO++X++OO++XXXXXXXXXXXXX.......oo....o....ooo.o..o......X.....oo.o..ooo.ooooo..XXXXXXXXXO+@@&&&&&&@@+++++++++++X+XXXXXXXX.XXoXXXXXXXXXX$$$$$XXXXXXXXXXXXXXXXXXXXXXXXXXXXXXXXXXXXXXXXXXXXXXXXXXXXXXXXXXXXXXoooooo..ooXX.Xooooooo..ooooooooooooo.o.o........      .oo .                                                             ooooXXXXooooo       oooooooooXXXXXXXXXXXoooooooooooooooXXX$$###%%%**********%%%%#####$#####%%%%%**%%##$$Xooooooooooooooo  o ooooooooooooooooooooooooooooXXXXXX$$$$$$######%%%***%%%%%%%###################",
"XXXXX$$$$$$$$######%%%%%%%%%%%%%%%###$$$$$$$XXooXXXXXXXXXX$$$$$$$$$XXXoo                          oooo$$####%%%%%%%%%%%%##%%%%%%%%###%%%%%%%%%##%%%%%%####%%#####$$$XXoooooooooX$$$$$$XXooooooooooo o     ooo                             oooo ooooXX$$##########$$Xoo              ooo     o          o o   oooooooooooooooooooooooooo.ooo..oooo.oXXXXXXXXoXXXXXXXXXXXXXXXXXXXXXXXXXXXXXXXXXXXXXXXXXXXXXXXXXXXXXXXXXXXXXXXXXXXXXXXXXXXXXXXXXXXXXXXXXXXXXXXXXXXX+++XX++$$$$$+++X+++++X++++XXXXXX+++XXXXXXXXX+++++++++++++++X+++++XXX++++XX++++++++++++++++++++++++++++++OOOO+++++OOO+++@@@@@@+@@@@@@@@@@@@@@@@@@@@@@@@@@@@@@@@@@@@@@@@@@@@@@@@@@@@@@@@@@@@@@@@@@@@@@@@@@@@@@@@@@@@@@@@@@@@@@@@@@@@@@@@@@@@@@@@@@@@@@@@@@@@@@@@@@@@@@@@@@@@@@@@@@@@@@@@OOOOOOOOOOOOOOOOOO.OOOOOOO++OOOO+++O+.OO+XXXXXXXXXXXXXXX..X.ooo...oo...ooo.oo.o.....o.X..Xo.............oo..XXXXXXXX++++O@@@@&&&@@++++++++++++++XXXXXXX...XXXXXXXXXX$$$$$$$+XXXXXXXXXXXXXXXXXXXXXXXXXXXXXXXXXXXXXXXXXXXXXXXXXXXXXXXXXXXXXXoooo....XX...ooooooooooooooooooooo.....             .o         o                                                        oooXXXXXooo          oooooooXXXXXXXXXXXoooooooooooooXXXX$$$$###%%%**********%%%%###$#######%%%%%%%##$$XXoooooooooooo  oooooooooooooooooooooooooooooooooXXXXXX$$$$$$#####%%%%%*%%%%%%%%%#################",
"$$$$$$$$$#########%%%%%%%%%%%%#####$$$$$$$XXXXXXXXXXXXXX$$$$$$$#$$$$$Xoo                          oooo$$###%%%%%%%%%%%%%####%%%%%%####%%%%%%%%##%%%%%%##%%%%#####$$$XXooooooooXX$$$$$$XoXoooooooooooo                                    o    ooooooXX$###########$Xoo             ooo   oo             o oooooooooooooooo.ooooooooooooooooooo..oo..oooooooXX...oXXX..ooXXXXoXXXXXXXXXXXXXXXXXXXXXXXXXXXXXXXXXXXXXXXXXXXXXXXXXXXXXXXXXXXXXXXXXXXXXXXXXXXXXXXXX$$+X++++$$++++++$$++++XXX+XXXXXX++++++++++++++++++++++++++++++++++++++++++++++++++++++++++++++++++OO+++++++++OOO++++OOO++++@+++@@@@@@@@@@@@@@@@@@@@@@@@@@@@@@@@@@@@@@@@@@@&&&@@@@@@@@@@@@@@@@@@@@@@@@@@@@@@@@@@@@@@@@@@@@@@@@@@@@@@@@@@@@@@@@@@@@@@@@@@@@@@@@@@@@@@@@@@@@@@@@@@@@@@@@@OOOO@@OOOOOOOOOOOOOOOOOOO+++X+++OO+++++++++++++++++++++XXXXX........oo....ooXXX...XX....XXXX........XXXX..XXXXXXXXXXXXX+++++O+@@&&&&@@++++++++++++XX++XXXXXXXXXXXXXXX$$$####$$+XXXXXXXXXXXXXXXXXXXXXXXXXXXXXXXXXXXXXXXXXXXXXXXXXXXXXXXXXXX..o...ooXo..XXX..oo...ooooooooooooo.......          oo.... o   o                                                            oooXXXXoo           oooooooXXXXXXXXXXXXoooooooooooooXXXXX$$$####%%***********%%%####$$$$###%%%%%#$$Xoooooooo  oooooooo      oooooooooooooooooooooooooooooXXXXX$$$$$$$$####%%%%%%%%%%%%%%%#############",
"$$$$$$$########%%%%%%%%%%%%%%%###$$$$$$$$$XXXXXXXXXXXXX$$$$$$$####$$$Xoo                          oooo$$$##%%%%%%%%%%%%%####%%%%%%###%%%%%%%%%##%%%%%####%%%#####$$$XXoooo  ooXX$$$$$$XoXoooooooooooo                                   oooo    ooooXX$###########$Xoo             ooo                    oooooooooooooooo...oooooooooooooooooo.ooooooooo..o.X..ooXX...oXXXXXXXXXXXXXXXXXXXXXXXXXXXXXXXXXXXXXXXXXXXXXXXXXXXXXXXXXXXXXXXXXXXXXXXXXXXXXXXXXX+XX++++++++++$$$$+$$$$$$+$++++++++++$$++++++++++++++++++++++++++++++++++++++++++++++++++++++++++++++++OO++++++++++OO+O+++@@++@@@@@@@@@@@@@@@@@@@@@@@@@@@@@&&@@@@@@@@@@@@@@@@@@&&&&@@@@@@@&@@@@@&@@@@@@@@@@@@@@@@@@@@@@@@@@@@@@@@@@@@@@@@@@@@@@@@@@@@@@@@@@@@@@@@@@@@@@@@@@@@@@@@@@@@@@@@@@@@@@@@OOOOOOOOOOOOOOOOOOOO+++++++++++++++##############++XXX.XXXX..X.....X..XXXXXXXXXXXXXXXXXXXXXXXXXXXXXXXXXXXXXXXXXX++++++O+@@@&&&@@++$$+$++++++XX++XXXXXXXX.XXXXXXX$$$$$$$++XXXXXXXXXXXXXXXXXXXXXXXXXXXXXXXXXXXXXXXXXXXXXXXXXXXXXXXXXXXXXXX..ooXX..XXXXXXooooX..o...oooooooo........o....oooo   .  .o oo                                              ooo            oooXXXoo           oooooooXXXXXXXXXXXXoooooooooooooooXXX$$$$###%%***********%%%%####$$####%%%##$XXoooooooo ooo   ooo      ooooooooooooooooooooooooooooooXXXXXXXX$$$$#####%%%%%%%%%%%%%%%############",
"$$$#####%%%%%%%%%%%%%%%%%%%#####$$$$$$$$$$XXXXXXXXX$$$$$$$$$######$$$Xoo                          oooo$$$##%%%%%%%%%%%%%#%##%%%%%%####%%%%%%%###%%%%%############$$$XXoooo ooooX$$$$$$XoXoooooooooooo                                    ooooo  o ooXX$##########$$Xoo              ooo                    o  o oooooooooo..oooXXXXXXX.ooooooooo...XXXX.o.oXoXXXo.XX..XoXXXXoXXXXXXXXXXXXXXXXXXXXXXXXXXXXXXXXXXXXXXXXXXXXXXXXXXXXXXXXXXXXXXXXXXXX$X+X++X+++$$$$$$$$$$$$$$$++$$$$$$$$$$$$$$$$++++$$$$$$++$++$$$$$++++++++++++++++++++++++++++++++++++++++++++++++O++OOO++++++OOO@@@@@@@@@@@@@@@@@@@@@@@@@@@@@@@@@@@@@&&&&@@&&&&@@&&&&@@@@@@@@@@@@@@&&&&@@&&&&&&&&@@@@@&@@@@@@@@@@@@@@@@@@@@@@@@@@@@@@@@@@@@@@@@@@@@@@@@@@@@@@@@@@@@@@@@@@@@@@@@@@@@@@@@@@@@@@OOOOOOOOOOOOOOOOO+O++++++++++++##%%%%%##%%%***##+++XXXXXXXXXXXXXXXXXXXXXXXXXXXXXXXXXXXXXXXXXXXXXXXXXXXXXXXXX++++X+++++++@@&&&&@@++++++++++++++XXXXXXXX..XXXXXXX++$$$+XXXXXXXXXXXXXXXXXXXXXXXXXXXXXXXXXXXXXXXXXXXXXXXXXXXXXXXXXXXXXXXXX..XXXX......X.....XXXX.XX.X...ooooooooooooo.ooo oo..........oooooooooo  oooo        o            ...Xoo..  ooo             oooXXXooo            ooooooXXXXXXXXXXXooooooooooooooooXXX$$$$$##%%%***********%%%###$$#######$$XXooooooo  ooo    oo       o  o ooo   ooooooooooooooooooooXXXXXXXXX$$$$######%%%%%%%%%%%############",
"########%%%%%%%%%%%%%%%%%%####$$$$$$$$$$$$$XXXXXXXX$$$$$$$$$#####$$$$Xoo                          oooo$$$##%%%%%%%%%%%%%%%##%%%%%%####%%%%%%%###%%%%%###########$$$$XXoo o ooooX$$$$$$XXXoooooooooo     o                                o oo   o ooXX$##########$$Xoo               o                          oooooooooooooooXXXXXXXXX..ooo...oooooooo.XXX..Xooo..XXXXooXXXoXXXXXXXXXXXXXXXXXXXXXXXXXXXXXXXXXXXXXXXXXXXXXXXXXXXXXXXXXXXXXXXXXX++++++$$+++$#####+++$$$$$$++++$$$$+#$++$$$$$$++$$###++++###+++++++++++++++++++++++++++++++++++++++++++++++++++++OOOOOOOO++++@@@@@@@@@@@@@@@@@@@@@@@@@@@@@@@@&&&&@@@@&&&&@@&&&&@@&&&&@@@@@&&&@@@@&&&&&&&&&&&&&&&&&&&&&&&&@&&&&@@@&&&&@&@@&&&&@@@@@@&&@@@@@@@@@@@@@@@@@@@@@@@@@@@@@@@@@@@@@@@@@@@@@@@@@@@@@@@@@@@@OOOOOOOOOOOOOO++++++++++++#&****=*%%%%%%**##+++XXXXXXXXXXXXXXXXXXXXXXXXXXXXXXXXXXXXXXXXXXXXXXXXXXXXXXXXX++++++XX++++@@&&&&@@+++++++++++++++XXXXXXXX..XXXXXXXXXXXXXXXXXXXXXXXXXXXXXXXXXXXXXXXXXXX+XXXXXXXXXXXXXXXXXXXXXXXXXXXXXXXXXXXXXXXXXXXXXXXXXXXXXXXXXXXXXXXXXXXXXXXXXXXX.XXXXXXXXXXXXXXXXXXXXXXXXXXooXXXo.Xooooooooo. o       ...XXXXX.ooooo             oooXXXXooo             oooooXXXXXXXXXXXooooooooooooooXoXXX$$$$##%%%%***********%%%#########$$$XXoooooooo  oo    oo            ooo   oooooooooooooooooooooooXXXXXXX$$$$$#####%%%%%%%%%%%%##########",
"##%%%%%%%%%%%%%%%%%%#######$$$$$$$$$$$$$$$$$XX$$$$$$$$#$$$#####$$$$$XXoo                          oooo$$$###%%%%%%%%%%%%%%%%%%%%%%####%%%%%%%%%%#%%%%%##########$$$$XXoooo  oooX$$$$$$Xoooooooooo   oo  o                                   o  oooooX$$##########$XXoo                                      oo oooooooooooooXXoXXXXXXXoo..o..X..XXXXXX.XXXX..XXXX...XXXXXXXXXXXXXXXXXXXXXXXXXXXXXXXXXXXXXXXXXXXXXXXXXXXXXXXXXXXXXXXXXXXXXXXXX+++$$$#$#######################################################################++++++++++++++++####@@@@@@@@@@@@@+++++++OO@@@@@@@@@@@@@@@@@@@@@@@@@@@@@@@@@@@@@&&&&&&&&&&&&&&&&&&&&&&&&&&&&&@@&&&&&&&&&&&&&&&&&&&&&&&&&&&&&&&&&&&&&&&&@@@@&&&&&@&&@&&&&&@@&&&&&@&&&&@&&&&&@@@@@@@@@@@@@@@@@@@@@@@@@@@@@@@@@@@@@@@@@@@@@@@@@@OOOOO+++O@@@+###&&**===***%#%#########++XXXXXXXXXXXXXXXXXXXXXXXXXXXXXXXXXXXXXXXXXXXXXXXXXXXX+++X++XX+++++++++@@@&&&&@@++++++++++++++XXXXXXXXXXXXXXXXXXXXXXXXXXXXXXXXXXXXX+++$$+$$$$$$########$$$$$$$$$$$$$$$++++$$++++++++++++++++++X++++++++++++++++++XXX+X++XXXXXXXXXXXXXXXXXXXXXXXXXXXXXXXXXXXXXXXXXXXXXX..ooooo.       o.oXXXXXXXXX.oo            ooooXXXXXXoo             ooooXXXXXXXXXXXXoooooooooooXXooooXXXX$$$##%%%**********%%%%######$$$XXXXoooooooooo      ooo    o   oooo    oooo ooooooooooooooooooooooXXXXXXX$$$$#####%%%%%%%%%%#%%######",
"%%%%%%%%%%%%%%%%%%%######$$$$$$$$$$$$$$$$$$$$$$$$$$$$###$$$##$$$$$$$XXoo                          oooo$$$###%%%%%%%%%%%%%%%%%%%%%%####%%%%%%%%###%%%%%%#########$$$$XXoooo  oooX$$$$$$Xooooooooooo  oo                                       oooooooX$$##########$XXoo                 o                  oo oo ooooooooooooooooooooooo.....XXX...XXXX......XXXXX...X.XX.XXX.XXX...X.XXXXXXXXXXXXXXXXXXXXXXXXXXXXXXXXXXXXXXXXXXXXXXXXXXXXXX+$$$$$##########################################################################################&%&&*&&&&&&&&&&@@@@@+++++@@@@@@@@@@@@&&@&&&&@@@@@&&&@&&&&&&@&&&&&&&&&&&&&&&&&&&&&&&&&&&&&&&&&&&&&&&&&&&&&&&&&&&&&&&&&&&&&&&&&&&&&&&&&&&&&&&&&&&&&&&&&&&&&&&&&&&&&&&&&&&&&&&&&&&&&&@@&&&&@@@@@@@@@@@@@&&&&@@@@@@@@@@@@@@@@@@@OOOOOO+++@@@&&&&%&******&%%##%%%%######++++++++XXXXXXXXXXXXXXXXX+XXXXXXXX++++XX++++++XX++XX++X+++++X+++++++++@@@@&&&&@@+++++++++++++++X++XXXXXXXXXXXXXXXXXXXXXXXXXXXXXXXX+$$###########################$$$###$+++$$++++++$$++$+++++++++++++++++++++++++++XX++++XXXX+XXXXXXXXXXXXXXXXXXXXXXXXXXXXXXXXXXo.XXXooo.o...        o  ooo..XXXXXXooo o         oooooXXXXXXoo             oooooXXXXXXXXXXXoooooooooooXooooXXXX$$$$###%%%**********%%%%#####$$$XXXooooooooooo    oooo    oo  oooo    oooo    o ooooooooooooooooooooXXXXX$$$$$#####%%%%%%%%%%%%%####",
"%%%%%%%%%%%%%%########$$$$$$$$$$$$$$$$$$$$$$$$$$#$$###$$$$$$$$$$$$$$Xooo                          oooo$$$###%%%%%%%%%%%%##%%%%%%%#####%%%%%%%####%%%%%%%########$$$$XXoooo  oooX$$$$$$XXoooooooooooooo                                        ooooooX$$###########XXoo                 o   o          ooooooooooooooooooooXoXXoXoooooooo.....X..OOOOOOOOOOOOXXXXXX.....X....XX......XXXXXXXXXX++XXXXXXXXXXXXXXXXXXXXXXXXXXXXXXXXXXXXXXXXXX$$$$#########%#%%%%%%%%%%%%%%%%%%%%%%%%%%%%%%%%%%*%%%%%*******************************%&%&%%%%&&&=====::======&&&&&&@@@@@+@@@@@@@@@@@&@&&&&&&&&&&&&&&&&&&&&&&&&&&&&&&&&&&&&&&&&&&&&&&&&&&&&&&&&&&&&&&&&&&&&&&&&&&&&&&&&&&&&&&&&&&&&&&&&&&&&&&&&&&&&&&&&&&&&&&&&&&&&&&&&&&&&&&&&&&&&&&&&&&&&&&&&&&&&&&&&&&&&&&&&&&&&&&&&&&&&&@@@@@@OO++@@#&*====***&%%%%**%%%*****#####++++++++++++++++++++++++++++++++++++++++++++++++X++++++++++++++++X++++@@&&&&&@+++++++++++++++XXXXXXXXXXXXXXXXXXXX+XXXXXXXXXXXXXX++$####$++$$$$++$$$+++++++++XXXX+++++XXX++++++++X+XXXXX+++XXXXXXX+XXXXXXXXXXXXXXXXXXXXXXXXXXXXXXXXXXXXXXXXXXXXX.XXo.oooo. ..o                            ..oXXXXooooo         ooooooXXXXXXoo              ooooXoXXXXXXXXXXoXoooooooXXoooooooXXX$$$###%%%**********%%%#####$$XXXXooooooooooo     ooo   oo  oo     ooo        ooooooooooooooooooooooXXXXXX$$$$$#######%%%%%%%%####",
"%%%%%%%%%%%%%######$$$$$$$$$$$$$$$$$$$$$$$$$$$#######$##$$$$$$$$XXXXXooo                          oooo$$$###%%%%%%%%%%%%###%%%%%%#####%%%%%%%###%%%%%%%%#%%####$$$$$XXoooo  oooX$$$$$$Xooooooooooooo o                                   o      ooooX$$##########$$Xoo               oooooooooooooooooooooooooooooXXXXXXXXXXXXXXXo.oo..o.XX.X.OOOOOOOOOOOOOO++XXXXXX...XX...XXXXXXXXXX+++++++++++XXXXXXXXXXXXXXXXXXXXXXXXXXXXXXXXXXXXXXXX+$########*****************============================================================****%&###&&&====::=======::==&&&@@@+@@@@@@@@@@&&&&&&&&&&&&:&::::::::::::::::::::::::::::::::::::::::::::::::::::::::::::::::::::::::::::::::::::::::::::::::::::::::::::::::::::::::::::::::::::::::::::::::::::::::::::::::::::::::&&&&@@@@@@++@+#&=====*%%##&&===*%%%%****###+++++++++++++++++++++++++++++++++++++++++++++++++++++++++++++++++++++++@@@&&&&&@++++++++++++++++XXXXXXXXXXXXXXXXXXXXXX+++++XXXXXX+++$$$$$++++XXXXXXXXXXXXXXXXXXXXXXXXXXXXXXXXXXXXXXXXXXXXXXXXXXXXXXXXXXXXXXXX...X....XXXo....X.oX....o.o.oooo.oo..  .                                      oo.ooooooooo        ooooooXXXXXXooo               ooooXXXXXXXXXXXXXooooooooooooXXoXXXX$$$$##%%%%**********%%%###$$$$XXooooooooooo       o oooo  oo      ooo       oooooooooooooooooooooooXXXXX$$$$$$$######%%%%%%%%###",
"%%%%%%%%%#####$$$$$$$$$$$$$$$$X$$$$$$$$$$$###########$$$$$$$XXXXooooooo                             oo$$$###%%%%%%%%%%%%%###%%%%%#####%%%%%%####%%%%%####%######$$$$XXooo   oooX$$$$$$XXooooooooooo                                        ooo  ooooXX$###########XXoo       ooooooooooooooXXoooooooXXXXXXXXXXXXXXXXXXXXXX$$$XXXXXoooooo.X++++@@@@@@@@@@@@@@@++OXX....XXXXXX+++++++++++++++++O@++++++XXXXXXXXXXXXXXXXXXXXXXXXXXXXXXXXXX++$$$#######%%%%%*****************=====**===========================================***%%&######+++###&&&&&&&&&&&&&&&&&&&@@@@@@@@@@@&&&&&::::::::::::::::::::::::::::::::::::::::::::::::::::::::::::::::::::::::::::::::::::::::::::::::::::::::::::::::::::::::::::::::::::::::::::::::::::::::::::::::::::::::::::::&&&&&&&&&&@@@@@@@@@@#&*===*&##&&*=====*%%******%#+++++++++++++++++++++++++++++++++++++++++++++++++++XX++++X+++++X+++++++++@&&&&&&@@+++++++$$+++++XXXXXXXXXXXXXXXXXXXX++++X+XXXXXXX++++++XXX+++XXXXXXXXXXXXXXXX.XXXXXXXXXXXXXXXXXXXXXXXXXXXXXXXXXXXXX....X.........ooo.oo.o.....ooo... oo     o                                                                   oooooooooooooooo               ooooXXXXXXXXXXooooooooooooooooooooXXX$$$###%%%**********%%%%##$$$$XXXXoooooooooooo ooo    oo   ooooooo        ooo oo ooooo  ooooooooooooooXXXXXX$$$$$#########%%%#",
"%%%%%%%%%##$$$$$$$$$$$$X$$$$X$X$$$$$$$###############$$$$$XXXXooooooooo                             oo$$$###%%%%%%%%%%%%%%##%%%%%#####%%%%%%%###%%%%%####%######$$$$XXooo   oooX$$$$$$XXoooooooooooo                                       oo   ooooXX$###########XXoooo     oooooooooooooooooooooooooooXXXXXXXXXXXXXXXXXXXXXXXXXoooooo..X++@@@@@&&&&&&&&&&&&@++XXO..XXXXXXXXX..XO.+++++++++++@@@@##++XXXXXXXXXXXXXXXXXXXXXXXXXXXXXXXX+$+$$$$$###########%%%%%%%%%%%%%%%%%%%%%%%**%%%************************************%%%########++++++++++@@@@@@@@&&&&&&&&&@@@@@+@@@@@@&&&&:::::::::::::::::::::::::::::::::::::::::::::::::::::::::::::::::::::::::::::::::::::::::::::::::::::::::::::::::::::::::::::::::::::::::::::::::::::::::&&&&&&&&&&&&&&&&&&&&&&&&&&&&&@@@@@@@@@@@@+#&*===*&&&&*======**%***=***##++++++++++++++++++++++++++++++++++++++++++++++++++++++++++++++X+++++++++@@&&&&&&@@+++++$$$++++XXX++++XXXXXXXXXXXXXXX+++++XXXXXXXXX++++XXXXXXXXXXXXXXXXXXXXX.......XXXX......XX..XX....XXXXXX....XX....XX...XX.ooo.....oooo  oooo..o                                                                               o oooooooooooo                oooXXXXXXXXXXXooooooooooooooooooooXX$$$$##%%%***********%%####$$$$XXooooooooo  o  ooo   oo   ooo            oooo o  oooo  oooooooooooooooooXXXXX$$$$$#######%%%#",
"%%%%%%####$$$$$$XXXXXXXXXXXXXX$$$$$$########%%%%#####$$$XXXXoooooooooooo                            oo$$$#%%%%%%%%%%%%%%%%%%#%%%%#####%%%%%%%###%%%%%%###%%#####$$$$XXoooo  oooX$$$$$$Xoooooooooooo                                         o   ooooXX$##########$$Xoooo       o    ooooooooooooooooooooooooooooooooooooooXXXXXXXoooooo.XX++++@@@@@&&&&&&&&&@@@OX...XXXXXX..X........OOOOOOOO@@@@@@@+++XXXXXXXXXXXXXXXXXXXXXXXXXXXXXX++$++$$$$$###########################%%%%%%%%%%#%%%%%%%%%%%%##%%%%%%%%%####%#################+++++++++++++++@@@@@@@@@@&&&@@@@@@@@@@@@@&&&&&&&&&&&&&&&:&:::::::::::::::::::::::::::::::::::::::::::::::::::::::::::::::::::::::::::::::::::::::::::::::::::::::::::::::::::::::::::::::::::::::::::::::::::::::::::&&&&&&&&&&&&@&@@@@@@@@@@@+++#&====****========******==**%#++++++++++++++++++++++++++++++++++++++++++++++++++++X++++++++++++++++++@@@&&&&&&@@@+++++++++++++X++++XXXXXXXXXXXXXXXX++XXXXXXXXXXXXXXXXXXXXXXX.XXXXXXXXXXXX.........X...XXXXX..o.......XXXX.........................oo.o     o                                                                                          oooooooooo              ooooXXXXXXXXXXXooooooooooooooooooooXXX$$$###%%%**********%%%####$$$XXXXoooooooo  oooo  oo    oo  o           oo    oooo   oooooooooooooooooXXXXXXX$$$$#########",
"%%%%%###$$$$$$XXXXXXXXXXXXXXXX$$$$$$#########%%#####$$$XXoooooo oooooooo                            oo$$$#%%%%%%%%%%%%%%%%#%#%%%%####%%%%%%%%###%%%%%%####%####$$$$$XXoooooo ooo$$$$$Xooooooooooooo                                         oo  ooooXX$##########$$Xoooo                oooo  oooooooooooooooooooooooooooooooooooooooooo....OOOOOO@@@@@@@@@OOOOO......XX.........X..OOOOOOOOOO@@@@@+++XXXXXXXXXXXXX++++XXXXXXXXXXXXXXX++X++++$$$############################%%%%######%%##%%%%%%########%%%%#####################+++++++++++++++++++@@@@@@@@&&@@@@@@@@@@@@&&&&&&&&&:::::::::::::::::::::::::::::::::::::::::::::::::::::::::::::::::::::::::::::::::::::::::::::::::::::::::::::::::::::::::::::::::::::::::::::::::::::::::::::::::::::::::::::&&&&&&@@@@@@@@@@+++#&*===============********=**##++++++++++++++++++++++++++++++++++++++++++++++++++XX++++++++++++++++++@@@&&&&&&@+@++++++++++++++++++XXXXXXXXXXXXXXXXXXXXXXXXXXXXXXXXXXXXXXXXXXXXXXXXXXXXXXXX..XXXXXXXXXXXXXXXXXXXXXXX.XXXX....XX.............o.........                                                                                                  ooooooooo               ooooXXXXXXXXXXXXXooooooooooooooooooXX$$$$##%%%***********%%###$$$X$XXoooooo    oooo  oo    oo      oo            oooo    o   ooooooooooooooooXXX$$$$$$$######",
"%%###$$$$$$$XXXXXXXXXXXXXXXXX$$$$$#################$$$Xoooo       oooooo                            oo$$$##%%%%%%%%%%%%%%%#%#%%%%#####%%%%%%%####%%%%%#########$$$$$XXoo o  oooX$$$$$Xooooooooooooo                                         ooo ooooXX$$#########$$Xoo            oo  oooooooooo ooooooooooooooooooooooooooooooooooooooo.X.XOOOOOOOOOOOOOOOOOOOO............XX...OOOOOOOO@@@&@@&@@OO+XXXXXXXXXXXXXXXXXXXXXXXXXXXXXXXXXXXXX+++$$$$$$#################################%%%%#######################################+#+++++++++++++++O++O+++O@@@@&@@@@@O@@@@@@@&&&&:::::::::::::::::::::::::::::::::::::::::::::::::::::::::::::::::::::::::::::::::::::::::::::::::::::::::::::::::::::::::::::::::::::::::::::::::::::::::::::::::::::::::::::::::::&&&&&@@@@@@@@++@++##*================*****====*%##+++++++++++++++++++++++++++++++++++++++++++++++++++X++++++++++++++++++@@&&&&&&&&@++++++$++++++++++XXXXXXXXXXXXXXXXXXXXXXXXXXXXXXXXXXXXXXXXXXX....XXXXXXXXXXXXXXXXXXXXXXXXXXX.XXXXX..X......XX.......OOOOOOO............o                                                                                                oooooooooo                oooXXXXXXXXXXXXXooooooooooooooooooXXXXX$$##%%%***********%%%####$$$XXXXoooooooooo  o           oo                  oooo  ooooooooooooooooooooXXXXXX$$$$$###",
"####$$$$$$XXXXXXXXXXXXXXXXXX$$$$$######%%%%#######$$$$XXooo        ooooo                            oo$$$###%%%%%%%%%%%%%####%%%%%####%%%%%%%####%%%%%#########$$$$$Xoooo   oooX$$$$$Xooooooooooooo                                         o o ooooXX$$#########$$Xoo            o       oo ooooooooooo oooooooooooooooooooooooooooooooX.X.O.OO+O+OOOOOO+++OO..O.......XXX.XXX.OOOOOOOO@&&&:&&&@@OO++++XXXXXXXXXXXXXXXXXXXXXXXXXXXXXXXXXX++++$$$$$$##################################%%##########%##############################+++++++++++++++OO+OO+++@@@@@@@@@+O@@@@@@&&&&:::::::::::::::::::::::::::::::::::::::::::::::::::::::::::::::::::::::::::::::::::::::::::::::::::::::::::::::::::::::::::::::::::::::::::::::::::::::::::::::::::::::::::::::::::&&&&&@@@@@@@@@++@@+##&================**%**====**##+++++++++++++++++++++++++++++++++++++++++++++++++++++++++++++++++++++@@@&&&&&&&&@++++++++++++++++++XXXXXXXXXXXXXXXXXXXXXXXXXXXXXXXXXXXXXXXX..XXXXXXXXXXXXXXXXXXXXXXXXXXXXXX..XXXXXXX.........X...OOOOOOO.................. ...o                                                                                          oooooooooo                ooooXXXXXXXXXXXXoooooooooooooooooooXXX$$$##%%%%***********%%####$$XXXXXooooooooo                                  ooo     ooooooooooooooooooooooXX$$$$$###",
"##$$$$$$$$$$$$$$$$$XXXXXXX$$$$$$##############$$$$$$$Xoooo         ooooo                          o oo$$$###%%%%%%%%%%%%%####%%%%%#####%%%%%%%###%%%%##########$$$$$XXoo     ooX$$$$$XXooooooooooooo                                        oo  o ooXX$########$#$$Xoo                        oo   o      ooo   oooooooooooooooooooooooooo...X+X..XX....+++XXXXXOO+XXX++++++OO+O+OOOOO@@&&::::&&@@O+++++XXX+XXXXXXX++++XXXXXXXXXXXXXXXXXXX+$++++$$$$#############################################################################+++++++++++++++O+++++++@@@@@@@@++O@@@@@@@&&::::::::::::::::::::::::::::::::::::::::::::::::::::::::::::::::::::::::::::::::::::::::::::::::::::::::::::::::::::::::::::::::::::::::::::::::::::::::::::::::::::::::::::&&&&&&&&&&&&@@@@@@@@@@++@@@@#&*================*%%*=====*%##++++++++++++++++++++++++++++++++++++++++++++++++++++++++++++++++++++++@@&&&:::&&@@@+++++++++++++++++++XXXXXXXXXXXXXXXXXXXXXXXXXXXXXXXXXXXX......OOOOO.O.XXXXXX.XXXXX....X......X...............OO@@&&&@@OOOO................... ooo                                                                                         ooooooo                ooooooXXXXXXXXXXXXXooooooooo ooooooooXX$$$###%%%************%####$$$$XXXooooooooo                                             oooooooooooooooooooXX$$$$$#",
"$$$$$$$$$$$$$$$$$$$$XXXX$$$$$$$$############$$$$$$$$XXoooo         ooooo                          o oo$$$###%%%%%%%%%%%%%####%%%%%#####%%%%%%%###%%%%##########$$$$$XXooo    ooXX$$$$XXooooooooooooo                                       oo   o ooXX$########$$$$Xooo                       oo          ooooooo   ooooooooooooXooooooooo.o......++.OO+.XXXXXX.O++++++++++++OO++OOOO@@&&::&&&&@@@OO++++++X++XXXXX++++XXXXXXXXXXXXXXXXX++X$$++++$$##############################################%##################################+++++++++++++++@@+@+@@@@@@@@++++@@@@@@@&&::::::::::::::::::::::::::::::::::::::::::::::::::::::::::::::::::::::::::::::::::::::::::::::::::::::::::::::::::::::::::::::::::::::::::::::::::::::::::::::::::::::&&&&&&&&&&&&&&&@@@@@@@@@@@@@@@@@@@@&*================*%%**====*%##++++++++++++++++++++++++++++++++++++++++++++XX++++++++X+++++++++++++++@@&&&&::&&&@@@++++++++++++++++++XXXXXXXXXXXXXXXXXXXXXXXXXXXXXXXXXXX+X+XX.OOOOOOOOOO...X.......oo.o.......o...............OO@@&&&&&@@OOOXXXXXXXXXXX.........ooo                                         ooo....                                           oooo o               ooooooXXXXXXXXXXXXXoooooooooooooooooXXXX$$$##%%%************%%####$$$XXXooooooooo      o                               o     ooooo  oooooooooooooXX$$$$#",
"$$$$$$$$$$$$####$$$$$$XX$$$$$$$$##########$$$$$$XXXXXXooo          ooo                            ooooX$$###%%%%%%%%%%%%%##%%%%%%#####%%%%%%%%###%%%%##########$$$$$Xooooo   oooX$$$$XXoooooooooo                                            o    ooXX$$######$$$$$Xooo                    o   o  ooo         oo  o ooooooooooXXXXXXXooooooo...X.XX.....X+OXX+OOO+++XX+O+OOOOOO+OOOO@@&&&&&&&&@@O++++++++O++++++++++++++X+++++XXXXXXX+++++++$$######################%%##########%%###%%%######%%%%%%#####################%%====*&###+++++++@@@+++@+@@@@@@@@@@@@@++@@@@@@@&&:::::&&&&&&::::::::::::::::::::::::::::::::::::::::::::::::::::::::::::::::::::&&&::::::::::&:&:&:::::::::::::::::::&:::::::::::::::::::::::::::::&&:::::&&&&&&&&&&&&&&&&&&&&&&&&&&&&&&@@@@@@@@@@@@@@@++@+@&*================*%%******%%##++++++++++++++++++++++++++++++++++++++++++++++++++X++++++++XX++++++++@+@&&&&::&&&@@++++++++++++++XX++XXXXXXXXXXXXXXXXXXXXXXXXXXXXXXXXXXXX+O++O+@@&&&@@@OOOO.......X..........................OOO@@&&&&&&&@@OO+O.+OX.......X....ooo...ooo                                     ooooo...                                               oo                ooooXXXXXXXXXXXXoooooo   ooooooooooXXXX$$$###%%%************%%####$$$XXXXoooooo    oooo                                  oooo    oooo oooooooooXX$$$#",
"$$$$$$$$#########$$$$$X$$$$$$$$$########$$$$$XXXXXXXXXooo          ooo                            ooooX$$$##%%%%%%%%%%%%%##%%%%%%#####%%%%%%%%###%%%%%#########$$$$$Xooooo   oooX$$$$XXooooooooooo                                           o    ooXX$$######$$$$$Xoooo                       o  oo    ooooooooo oooooooooooXXXXXXXooooooo.o.X..XXX...XXXXXX+OO++++XX++O+OO+OO+O+@@@&&&&&&&&@@@++++++++OO++++O+X++++++X++++XXX+XX++++$$+++$$$##################################%%%%########%%%%%%%%####%%%%######%*##*==;;;;;;=&###++++++++@@+@++@@@@+@@@@@@@@@++@@@@@@@&&::::&&&&&&&&&&&&&&&&&&:&&&&&:&&&&:&::::::::::&&&&:&::::&&&&&&::::&&&&:&&&&&::::&&&&::&&&&&&&&&&&&&&&&&&&&&:&&&&&&&&&&&&&&&&&&&&&&&&&&&&&&&&&&&&&&&&&&&&&&&&&&&&&&&&&&&&&&&&&&&&&&&&&&@@@@@@@@@@@@@@@@+++@+@&&================*%#%#%%%#####+++++++++++++++++++++++++++++++++++++++++++++++++++++++XX++XX++++++++@+@&&&&&::&&@@++++++++++++++XX++XXXXXX.XXXXXXXXXXXXXXXXXXXXXXXXXXXXXXX++O+@@&&&&&@OOX.X..................................OOO@@&&&&:&&@@O+OX+.X......XX....oooo....                                      oooooo.....                                                               ooooXXXXXXXXXXXXXoooooo ooooooooooooXXX$$$$##%%%%***********%%####$$XXXXoooooooo   ooo                                      o   oooo oooooooooXX$$$$",
"$$$########%######$$$$$$$$$$$$$$$#####$$$$$XXXXXooXXXXoo           oooo                           oooo$$$###%%%%%%%%%%%%%#####%%%######%%%%%%%####%%%#########$$$$$$Xoooo    oooo$$$$XXoooooooo o                                               o oooX$##########$$XXoooooo oo  oooo            oooooo ooooooooooooooooooooXXXXXXXXXooooooooo..XX.XXXX.XOOOO+O+OOX++++++++OO++OO@@@@&&&&&&&&&@@@@++++++++++############@++++#+++++++++$$+++$########################%%%%%%%%%%%%%%%%%%%%%%%%%%%%%%%%%%%%%%%%##%%*****==;;;;;;;=*#####+++++++++++++++@@@+@@@@++@@++@@@@@@@&:::::&&&&&&&&&&&&&&&&&&&&&&&&&&&&&&&&&&&&&&&&&&&&&&&&&&&&&&&&&&&&&&&&&&&&&&&&&&&&&&&&&&&&&&&&&&&&&&&&&&&&&&&&&&&&&&&&&&&&&&&&&&&&&&&&&&&&&&&&&&&&&&&&&&&&&&&&&&&&&&&&&&&&&&&&&&&@@@@@@@@@@@@@@@@@@@OO+++@@+@#&*===============*%##########+++++++++++++++++++++++++++++++++++++++++++++++++++++++XX+++XX++++++++++@@&&&&:::&&@@@++++++++++++XX+XXXXXXX..XXXXXXXX++++XXXXXXXXXXXXXXXXXX++OO@@&&&&&&@@OO+OXXXXXX.XXXXX.....................OOOO@@&&&::&&@@OO+O++XXXXXXXX....Xo..oo..                                        oooooo.oooo                                                              ooooXXXXXXXXXXXXXooooooooooooooooooooXXX$$$####%%%***********%%%###$$$$XXXoooooo  oo                                                 oooooooooX$$$$",
"########%%%%%######$$$$$X$$$$$$$$$$$$$$$$XXXooooooXXXooo           oooo                           oooo$$$###%%%%%%%%%%%%%#####%%%######%%%%%%#####%%%#########$$$$$$Xoooo    oooX$$$XXooooooooo                                           oo o  o ooXX$$#########$$$Xooooooooooooooo o          ooooooooooooooooooooooooooXXXXXXXXXXooooooo.XX..XXXXXXXXXOO++++++XX++++++++O++OO@@@&&&&&&&&&@@@@@@+####&&&&&&&&=======&&&&&*=*##++++++$$$$++##################%%####%%%%%%%%%%%%%%%%%%%%**************%%************=;;;;;;;;=%#######++++@@++++++++@@@@@@++++@@++@@@@@@&&::::&&&&&&&&&&&&&&&&&&&&&&&&&&&&&&&&&&&&&&&&&&&&&&&&&&&&&&&&&&&&&&&&&&&&&&&&&&&&&&&&&&&&&&&&&&&&&&&&&&&&&&&&&&&&&&&&&&&&&&&&&&&&&&&&&&&&&&&&&&&&&&&&&&&&&&&&&&&&&&&&&&&&&&&&&&&@@@@@@@@@@@@@@@@OO@OOOO+O+@+@#&&===============*&###########+++++++++++++++++++++++++++++++++++++++++++++++XXXX+++XXX++XXX+++++++++@@@&&&::::&&@@#+$+++++++++++++XXXXXXXXXXXXXX++++++++XXXXXXXXXXXXXXX.XXOOOO@@&&&:&@OOOOXXX.XXXXXXXX..XX......X..........OOOOO@@@&&&&&&@@O++X+XXXXXXXXX.XXXX..ooo..o o                                     oooooo.oooo                                              ooo             oooooXXXXXXXXXXXoooooooooooooooooooooXXX$$$#####%%************%%###$$$XXXoooooo                                                        ooooooX$$$$",
"###%%%%%%%%%%%%%####$$$$XX$$$$$$$$$$$$$$XXooooooooXXXooo           oooo                            ooo$$$##%%%%%%%%%%%%%%####%%%%######%%%%#######%%%#########$$$$X$Xooo     oooo$$$XXoooooooo                                            oooo    ooXX$$#########$$$Xoooooooooooooooooooooo  ooooooooooooooooooooooooooXXXXXXXXXXXXX.oooooo...X...XXX+++XO.+XX+++++++++++++OO@@@@@&&&&&&@@@@@@++@@+####&&&&&&&==&&&&=*&&&&====&#+++++$$$$$$#################%%%%%%%%%%%%****%*******************************%%%%%**=;;;;;;;=*##########++++++@@@++@+@@@@@++++++OOO@@@@@@&&::::&&&&&&&&&&&&&&&&&&&&&&&&&&&&&&&&&&&&&&&&&&&&&&&&&&&&&&&&&&&&&&&&&&&&&&&&&&&&&&&&&&&&&&&&&&&&&&&&&&&&&&&&&&&&&&&&&&&&&&&&&&&&&&&&&&&&&&&&&&&&&&&&&&&&&&&&&&&&&&&&&&&&&&&&&@@@@@@@@@@@@@@@@@@OO@OO++@@@@+@@&&======*=======&*&##@########++++++++++++++++++++++++++++++++++++++++++++++++++++++XXX+XX++++++++$+$++@@&&&::::&&@@@++++++++++++X++X+XXXXXXXXXXXXXX+++++++XXXXX.XXXXXXX.XXO+OOO@@@&&&&&@OO+++OOOO+++++..XX....XXXX....O..O.OOOOO@@@@&&&&&&@@@@OOOOXXX...XXXX....X..o....    oo                                    ooooooo                                              oooo             oooooXXXXXXXXXoooooooooooooooooooooooXXXXX$$$###%%***********%%%####$$$$XXoooooo                                                oo    ooooooXX$$",
"##%%%%%%%%%%%%%####$$$XXXXXX$$$$$$$$$$$XXXooooooooooXooo            ooo                            ooo$$$###%%%%%%%%%%%%%%##%%%%%######%%%%#######%%%#########$$$$X$Xooo      ooo$$$XXooooooo                                             oo      oooX$$#########$$$XooooXXXooooooooooooooooooooooooooooooooooooooooooXXXXXXXXXXXXXXooooooo.XXXX..X.XXX+XXX+X++++++++++O+++O@@@@@&&&&&@@@@@@@@+@++++++@@########@@#@########&&#+++++$$$$$$$################%%%%%%%%%%**************************=****=====*****====;;;;;;;;=%###########@+@++@@@@@+@@@@@@++++++OOO+@@@@@&&&:::&&&&&&&&&&&&&&&&&&&&&&&&&&&&&&&&&&&&&&&&&&&&&&&&&&&&&&&&&&&&&&&&&&&&&&&&&&&&&&&&&&&&&&&&&&&&&&&&&&&&&&&&&&&&&&&&&&&&&&&&&&&&&&&&&&&&&&&&&&&&&&&&&&&&&&&&&&&&&&&&&&&&&&&@@@@@@@@@@@@@@@@@@@@@OOOOOOO@@+@+@@@&&=====&*=====&&*&%###&%&&&###++++++++++++++++++++++++++++++++++++++++++++++++++++XXXXXXXX++++X+++++++@@&&&&:::&&&@@+++++++++++++++++XXXXXXXXXXXXXX++++++++XXXXXXXXXXXXXXXOXOOOO@@&&&:&&@OOOOO.X+++++O++++O...OOX.....OOOOOOOOOO@@@@@&&&:&&&@@++++XXX...XXXX....XX.o..... oooooo                                    ooooo                                               ooooo             ooooooXXXXXXXXXXooooooooooooooooooooXXXX$$$$###%%%%**********%%%###$$$$XXXXooooo ooo                                                oooooooX$$",
"%%%%%%%%%%%%%%%%###$$$XXXXXXX$$$$$$$$$$$XXoooooooooooooo            ooo                             oo$$$##%%%%%%%%%%%%%%%##%%%%%######%%%%#######%%%#########$$$$$$Xooo     ooooX$$XXoooooo                                                      oooX$$#######$#$$$XooooXXXXooooooooooooooooooooooooooooooooooXXoooooXXXXXXXXXXXXX.ooooooooXXXX.XXXXXXXXXXXX++++++++++++++O@@@@&&&&&&@@OOOO+++++++++++++++++++++++++++++++#+++++++++$$##############%%%%%%%%%****============================;;====;;;;;;;;;;;;;;;;;;;;;=*##%#########@@@@@@@@@@@@@@+@@@++++OO+O@@@@@@&&::::&&&&&&&&&&&&&&&&&&&&&&&&&&&&&&&&&&&&&&&&&&&&&&&&&&&&&&&&&&&&&&&&&&&&&&&&&&&&&&&&&&&&&&&&&&&&&&&&&&&&&&&&&&&&&&&&&&&&&&&&&&&&&&&&&&&&&&&&&&&&&&&&&&&&&&&&&&&&&&&&&&&@@@@@@@@@@@@@@@@@@@@@@@OOOOO@@@@+O++++@@&&======&&*===&&*&&&&&&&***%####+++++++++++++++++++++++++++++++++++++X++++X+XX++++++X+XX++++++++++++++@@@@&&::::&&&@++++++++++++++++++XXXXXXXXXXXXXX++++++++XXXXXXXX.XXX....O+OOO@@@&&:&&@@OO+O++++++++++++OOOO+OO+OOOOOOOOO+OOOO@@@@@@&&&&&&@@@++++++XXXXXXX.XXX...........o.....                                    oo                                                ooooooo             oooooooXXXXXXXXoooooooooooooooooooooooXX$$$$$###%%************%%####$$$XXXXXooooo oo                                                oooooX$$",
"%%%%%%%%%%%%%%####$$$$XXoooXXX$$$$$$$$$$XXoooooooooXXoooo          oooo                             oo$$$###%%%%%%%%%%%%####%%%%%######%%%%#######%%##########$$$$X$Xooo    oooooX$$XXooo                                                         oooX$$#######$$$$XXooooXXXXXXoooooooooooooooooooooooooooooooXXXXXoooXXXXX$XXXXXXXooooooo.o.XXX.XXXXXXXXXXXX+XX+++++++O+++@@@&&&::&&&@@OOOO++++++++++++++++++++++++++++++++++++$$+++###############%%%%*****====-;;;;;;;;;;;;;;;;;;;;;;;;;;;;;;;;;;;;;;;;;;;;;;;;;;;;;;=*%##########@@#@@@@@@@@@@@@++@@@++++O+@@@@@@@&&&::::&&&&&&&&&&&&&&&&&&&&&&&&&&&&&&&&&&&&&&&&&&&&&&&&&&&&&&&&&&&&&&&&&&&&&&&&&&&&&&&&&&&&&&&::&&&::&&&&:::&&&&&&&&&:::&&&::&&&&&&&&&&&&&&&&&&&&&&&&&&&&&&&&&&&&&&&&&&&&&&&&&@@@@@@@@@@@@@@@@O@OO@OOO@@@@++++++@@#&&=====&&*===&&=*&&&#%*****%###++++++++++++++++++++++++++++++++++++XX++++XXXX++++++++++++++++++++++++@@@@&&&::::&&&+@++++++++++++++++XX+XXXXXXXXXXXX+++++++XXXXXX..XXXX...XOOOO@O@@&&&:&&@@O+O+++++++++++++OO+++++OOOO+OOOOOOOO@O@@@@@@&&&&&&@@++++++XX.XXXX.XXXX..........oo......                                     oo                                              ooooooooo           oooooooXXXXXXXXXXXXoooooooooooooooooooXXX$$$$###%%%***********%%%###$$$XXXXoooooooo                                                oooooX$$",
"%%%%%%%%%%%%%%%###$$XXooooooXX$$$$$$$$$$XXooooooooooXoooo           ooo                           o ooX$$$##%%%%%%%%%%%%%####%%%%#####%%%%%%%#####%%%#########$$$$$XXoooo     ooooXXooo oo                                                        oooX$$#######$$$$XXooooooXXXXXoXooXXXoXXXXXXXXoXXXXXXXXoooXoXXXXXoooooXXXXXXXXXXoooo ooooo.o..XX.XXXXXXXX+++X++O++++OOO@@@@@&::::&&@@@OOOO++++XX+++XXXXX+XXXX++XXX++++XX+++++$$$++##############%%%%%%***==;;;;;;;;;;;;;;;;;;;;;;;;;;;;;;;;;;;;;;;;;;;;;;;;;;;;;;;;;;=*%#########+@@@@@@@@@@@@@@@@+@+@+@OOOOO@O@+@@@&&&:::::::::::::::::::::::::::::::::::::::::::::::::::::::::::::::::::::::::::::::::::::::::::::::::::::::::::::::::::::::::::::::::::::::::::::::::::::::::::::::::::::::::&&@@@@@@@@@@@@@@@OOO@@OOO@@O@O++@@@@++#&&======&&*======&&&&&******%##++++++++++++++++++++++++++++++XXXXXXXX++XXXX++++++XXXXX+++++++++++++++++@@&&&&::::&&@@@@++++++++++++++XX++XXXXXXXXXX+++++++XXXXXXXXXXXX.XXXX++OOOOO+@@&&::&@@@+@++++++++O+++++OOOOOO++++O++OOOOOOOOOO@@@@&&&&&&&@@@@O++++XX+X.XX...........Xoo..... .o                                      o                                               ooXXXoooo          o ooooXXXXXXXXXXXXXoooooooooooooooooooXXXXX$$$###%%%***********%%%###$$$$XXoooooo                                                oooooX$$",
"%%%%%%%%%%%%%%####$$XXoooooXXX$$$$$$$$$$XoooooooooooXXooo           ooo                             ooX$$$###%%%%%%%%%%%%####%%%%######%%%%%%######%%#########$$$$$$Xoooo     oooooooooo                                                          ooXX$$#######$$$$XXoooooooXXXXXXXXXXXXXXXXXXXXXXXXXXXXooooooXXXXooooooXXXXXXXXXooooooo.oooo..XXXXXXXXXXXX+++++++++++++@@@@@&&:::&&&@@OOOO.XXXXX.XXXXXXXXXXXXXXXXXX+++XXX++++$+$$+###############%%%*%**=-;;;;;;;;;;;;;;;;;;;;;;;;;;;;;;;;;;;;;;;;;;;;;;;;;;;;;;;;;;;;=*%#########+@@&&&&&&&&&&&&@@@@++++OOOOOOO@+@@@&&&:::::::::::::::::::::::::::::::::::::::::::::::::::::::::::::::::::::::::::::::::::::::::::::::::::::::::::::::::::::::::::::::::::::::::::::::::::::::::::::::::::::::::&&@@@@@@@@@@@O@@@OOOOOOOOOO@OO++@+++@++#&*=====*&*&&&===&&&&&&*=****&#++++++++++++++++++++++++++++++++XXXXXX++XXXXXX++XXXXX+++++++XXXX++++++++@@&&&&::::&&&@@@++++++++++++++++++XXXXXXXXXXX+++++X+++XXXXXXXX..XXXXXOOOOOOO@@@&&:&&@@+@++++++++++++++OOOOOO+++OO++OOOOOOOOOOO@@@@&&&&&&&@@@OO++++O+XXXXXX..........X..........                                     oooo                                            ooXXXXooo             ooooXXXXXXXXXXXXXXoooooooooooooooooooXXXX$$$###%%%************%%###$$$XXXoooooo                                               o oooX$$",
"%%%%%%%%%%%%%###$$$$XXoooooXXX$$$$$$$$$$XoooooooooooXXooo          ooooo                            ooX$$$##%%%%%%%%%%%%%#####%%%######%%%%%######%%%%########$$$$$$Xooo      oooooooo                                                            ooXX$$######$$$$$XXoooooooXXXXXXXXXXXXXXXXXXXXXXXXXXXXoooooooXooooooooXXXXXXXXooo   oo..ooo.XXXXXXXXXXXXXX++++++++++++@@@@&&:::&&&@@OOOO..XXXXX..XXXXXXXXXXXXXXXXXXXXXXX++++$$$$##$###########%%%****==;;;;;;;;;;;;;;;;;;;;;;;;;;;;;;;;;;;;;;;;;;;;;;;;;;;;;;;;;;;;;=*%#########++@@&&&:::::::&&&&@@+++++OO+OO@@@@@@&&&&::::::::::::::::::::::::::::::::::::::::::::::::::::::::::::::::::::::::::::::::::::::::::::::::::::::::::::::::::::::::::::::::::::::::::::::::::::::::::::::::::::::&&&@@@@@@@@@OOOO@@@@OOOOOOOOOOO++++++++++#&*=====*&&&&=====&&##%***=**&##++++++++++++++++++++++++++++++++++++XXXXXXXXXXXXXXXXX++X+XXXXX++++++++++@@&&&&&:::&&&@@@@+++++++++++++++++XXXXXXXXXX++++++X++XXXXXXXXX.XX...OOO++++@@@@&&::&@@@++++++++++++++OO++++++OOOO+OOOOOOOOOOOOO@@@@&&&:&&&@@@+++O++XXXXX.XXXXX.....XX.oooo.o.oo..... o                             oooo                                             oXXXXXXoooo            oooooXXXXXXXXXXXXXooooooooooooooooooooXXX$$$####%%%**********%%%####$$$$XXXXooooo                                             oooX$$",
"%%%%%%%%%%%%%###$$$$XXoooooXX$$$$$##$$$$XooooooooooXXXooo         ooooo                             ooX$$$##%%%%%%%%%%%#%#####%%%######%#%%%#######%%%########$$$$$$Xoooo       oooo                                                              ooXX$$######$$$$$XXoooooooXXXXXXXXXXXXXXXXXXXXXXX$XXXXoooooooXooooooooXXXXXXXXoo     ....o..XX.XXXXXXXXXXXOO++++++++OO@@@&&:::&&&@@@@O++.XXXX.X.XXXXXXXXXXXXXXXXXXXXXXXX++++$$$$$#############%%****=-;;;;;;;;;;;;;;;;;;;;;;;;;;;;;;;;;;;;;;;;;;;;;;;;;;;;;;;;;;;;=*%%########++++@&&:::::::::::&&@@+++++O+++@O@@@@@&&&&&&&&&&::::::::::::::::::::::::::::::::::::::::::::::::::::::::::::::::::::::::::::::::::::::::::::::::::::::::::::::::::::::::::::::::::::::::::::::::::::::::&&&&&&&&&&@@@@@@@@@OOOOO@@@@OOOOOOOOOOO+++++++++++#&*=====**&&=====&&##%%**===*&#++++++++++++++++++++++++++++++++++++++X+++XXXXX++XX++++XXXXXXXX+++++++++@@&&&&&::::&&&@@@++$+++++++++++++++++XXXX.XXX++++++++++XXXXXX........O+++++OO@@@&:::&&@@@++++++++++++OO++++++OOOO+++OOOOOOOOOOO@@@@@&&&&&&&@@O+++++XOOXOXXXXXXX....XXX.o....oooo......o                              oooo                                            ooXXXXXXooo           ooooooXXXXXXXXXXXXXXoooooooooooooooooooXXX$$$###%%%%%**********%%%###$$$XXXoooooo                                             oooX$$",
"%%%%%%%%######$$$$$$XXooooXXX$$$$$$$$$$XXoooo oooooXXXooo          ooo                              ooX$$$###%%%%%%%%%%######%%%%########%#########%%%########$$$$$XXooo                                                                          o oX$$#####$##$$$$XooooooXXXXXXXXXXXXX$$$$$$$$$$$$XXXooooooooXooooooooooXXXXXooo     ..oooo.XXX....XXXXXXXXXO+++++@@@@@@&&::&&&@@@O@++++XXXXXXXXXXXXXXXXXXXXXXXXXXXXXXXX$$++$$$$#$$###########%****=;;;;;;;;;;;;;;;;;;;;;;;;;;;;;;;;;;;;;;;;;;;;;;;;;;;;;;;;;;;;;=*%%%##########++@&&&&&&&&&&&&&&&@@@@+++++++@++@@@@&&&&&&&&&&&&&&&&&&&&&&&&&&&&&&&&&&&&&&&&&&&&&&&&&&&&&&&&&&&&&&&&&&&&&&&&&&&&&&&&&&&&&&&&&&&&&&&&&&&&&&&&&&&&&&&&&&&&&&&&&&&&&&&&&&&&&&&&&&&&&&&&&&&&&&&&&&&&&&&&&&&&&&&&&&@@@@@@@@@@@@OOOOOOOOOOOOOOOOOO+++OOO++++++##*=====&&&&======*&###&*====*&#+++++++++++++++++++++++++++++++++++++X++++XXXXXXXX+XXXXXXXXXXX++++++++++@@&&&&&::::&&@@@++++++++++++++++++++XXXXXXXXX+X++++++++++XXXXXX.......++O+O+@@@&&&::&&@@@+++++++++++++++++OOOOO+OOOOOO+OOOOOOOOOOO@@&&&&&&&@@@OO++++OO++XXXXXXXX......XX..............                               oo                                               XXXXXXXXoo              ooooXXXXXXXXXXXXXoooooooooooooooooooooXXX$$$$##%%%%*********%%%%####$$$XXXoooo                                            oooX$$",
"%%%%%%%%######$$$$X$XXooooXXX$$$$##$$$$$Xooo ooooooXXoooo          ooo                              ooX$$$###%%%%%%%%%%#######%%%########%########%%%%########$$$$$XXooo  o                                                                       o oX$$$$####$$$$$XXoooooXXXXX$XXXXXX$$$XX$$$$$$$$XXXXXooo oooXXooooooooooooooooo      ..ooo.XXX.....XX.XXXXXX++++O@@@@@&&::&&&@@@@OOOO++XXXXXXXXXXXXXXXXXXXXXXXXXXXXXXXX$$X+$$$##$##########%%%***=-;;;;;;;;;;;;;;;;;;;;;;;;;;;;;;;;;;;;;;;;;;;;;;;;;;;;;;;;;;==**%%%###########++@@&&&&&&&&&&&&&&@@@@+++O++@@++@@@@@&&@&&&&&&&&&&&&&&&&&&&&&&&&&&&&&&&&&&&&&&&&&&&&&&&&&&&&&&&&&&&&&&&&&&&&&&&&&&&&&&&&&&&&&&&&&&&&&&&&&&&&&&&&&&&&&&&&&&&&&&&&&&&&&&&&&&&&&&&&&&&&&&&&&&&&&&&&&&&&&&&&&&&&&@@@@@@@@@O@@@OOOO@@OOOOOO@OOOOO+++OOO++++++##&=====&&&&======*&&#&&***=**&#++++++++++++++++++++++++++++++++++++++++++++XXXX+++XX+XXXX++XX++++++++++@@&&&&&&::::&&@@+++++++++++++++++++XXXXXXX.XXXXX+++++++++XXXXXXX.....XO+OOOOO@@@&&:::&&@@@++++++++++++++++OOOOOOOO+OOO+OOOOOOOOOOO@@@&&&&&&&@@@OO++++OO+XXXXXXXXXX.....X.................oo                                                                           ooXXXXXXoooo            ooooooXXXXXXXXXXXXXoooooooooooooooooooooXX$$$$###%%%**********%%%####$$$XXXoooooo                                         oooX$$",
"%%%%%%%######$$$$$X$XXooooXXX$$$$#$$$$$$ooooooooooXXXoooo           ooo                             ooX$$$####%%%%%%%%%%%#######%#######%%########%%%%########$$$$$$Xooo o                                                                          oX$$$$$###$$$$$XXoooooXXXX$$$$$$$$$$$$$$$#$$$$$XXXXooooooooXXooo    oooooooooooo   ..ooo..X.XX..X.XXXXXXXXXO++OO@@@@&&:&&&&@@@OO+O+++XXXXXX+XXXXXXXXXXXXXXXXXXXXXX+++$$$X+$+$############%%%***==;;;;;;;;;;;;;;;;;;;;;;;;;;;;;;;;;;;;;;;;;;;;;;;;;==-====***%%%%%#############++@@&&&&&&&&&&&&&&@@@@+++OO@@@+@@@@@@@@@@&&&&&&&&&&&&&&&&&&&&&&&&&&&&&&&&&&&&&&&&&&&&&&&&&&&&&&&&&&&&&&&&&&&&&&&&&&&&&&&&&&&&&&&&&&&&&&&&&&&&&&&&&&&&&&&&&&&&&&&&&&&&&&&&&&&&&&&&&&&&&&&&&&&&&&&&&@@@@@@&&&&&@@@@@@@@@OO@@@@OOOOOOOOOO@OOOOOO+++OOO+++++@@&&====*&*========&&&#&#&**&%##++++++++++++++++++++++++++++++++++++++++++++++++++++++++++++XX+++++++++++#@@&&&&&:::&&&&@@+@++++++++++++++++++XXX...XXXXXX+++++++++XXXXXXX..XX+X++O+O+@@@&&:::&&@@@+++++++++++O+++OO++++O++OO++O+OOOOOOOOO@O@@@&&&&&&&@OOO+++++OOXX...XXXXXX..XX........oooo.oo....o.o..                                                                       ooXXXXXXXXoo              oooooXXXXXXXXXXXXXoooooooooooooooooooooXX$$$$###%%%***********%%%####$$XXXoooooooo                                     oooXX$",
"%%%%%#####$$$$$$$$X$XXooooXXX$$$$#$$$$$$oooooooooooooooooo          ooo                             ooX$$$###%%%%%%%%%%%%#######%#######%%########%%%%########$$$$$$Xooo o                                                                        o oX$$$$#####$$$XXXooooXXXXX$$$$$$$$$$$$#####$$$$XXXXooooooooXXoo      oooooo ooo oooo.ooooX..XXXXXX.XXXXXXXXXO++O@@@&&&&&&@@@@@OO+O+O+XXX+X++XXXXXXXXXXXXXXXXXX++++++$$$$+$$#$###########%%%***==;;;;;;;;;;;;;;;;--======================****=********%%%%%%%%%%#%#############++@@&&&&&&&&&&&&&&@@+@@@OOO@@@@+@@@@@@@@&&@@@&@&&&&&&&&&&&&&&&&&&&&&&&&&&&&&&&&&&&&&&&&&&&&&&&&&&&&&&&&&&&&&&&&&&&&&&&&&&&&&&&&&&&&&&&&&&&&&&&&&&&&&&&&&&&&&&&&&&&&&&&&&&&&&&&&&&&&&&&&&&&&&&&@&&&@@@@@@&@@@@@@@@@@@@@OO@@@OOOOOOOOOOOOOOOOOO+++OOOOO++@@@&&=====&&*=======*&&@@##&#&####+++++++++++++++++++++++++++++++++++++++++++++++++++++++++++X+++++++++++++@@@&&&&&:::&&&@@+@++++++++++++++XXXXXXX...XXXXXX++++++++++XXXXXXXXXX+XO+O+OO@@@&&&:::&&@@@++++++++++OOOO+++++++++++O+OOOOOOOO+OO@@@@@@@&&:&&@@OO++++OO+O+X..XXXX....XXX....X..ooooooooo......                                                                         oXXXXXXXXoooo              oooooXXXXXXXXXXXXooooooooooooooooooooXXXX$$$$##%%%%**********%%%%##$$$$XXooooooo oo                                  oooXX$",
"%%%#######$$$$$$$$$$XXXXXXXXX$$$$$$$$$$Xooooooooooooooooo         oooo                              ooX$$$###%%%%%%%%%%#####%%%#%#######%%%########%%%########$$$$$$XXoooo                                                                          oX$$$$#$$$#$$$$XXXXooooXXX$$$$$$$$#######$$$$$XXXXoooooooooXooo               o   ooo.oo...XXXXXXXXXXXXX++++O+OO@@&&&&&&@@@@++O++++X++XXXXXXXXXXXXXXXXXXXXXXXXX+XX$$+++$$$$$###########%%%%*===;;;;;;;;;;;-===**********%%**********%%%%******%%%%******%%%%##############++++++@@@@@@@@@@@@@@@@@@@@@+++++@@@@@@@@@@@@@@@@&&@&&&&&&&&&&&&&&@&&&&&&&&&&&@&&&&&&&&&&&&&&&&&&&&&&&&&&&&&&&&&&&&&&&&&&&&&&&&&&&&&&&&&&&&&&&&&&&&&&&&&&&&&&&&&&&&&&&&&&&&&&&&&&@@&&&&&&&&&&&&&&@@@@@@@@@@&@@@@@@@@@@@@@@@OOOOOOOOOOOOOOOOOO++OOOO++++OOOO++++#&*====&***======&&&##########@++++++++++++++++++++++++++++++++++++++++X++++++++XXX+++++X+++X++++++++++++@@&&&&&::::&&&@@@+++++++++++++++XXXXXXX..XXXXXX++++++++XXXXXX....X++O+O++++@@@@&&&:::&&@@@@++++++++++OOOO++OOOO+OOOOOOOOO++OOOOOOOO@@@@&&&&&&@@OOOOXOXOXOXX......XXXXXX............oooo......o                                                                        oooXXXXXXXXoo                ooooXXXXXXXXXXXoooooooo oooooo  ooooooXXX$$$$###%%***********%%%###$$$$$XXooooooooo                               oooo$$",
"%%%#######$$$$$$$$$$$XXXXXXXX$$$##$$$$$Xooooo ooooooooooo          oooo                             ooX$$$###%%%%%%%%%%#####%%%%%#######%%%########%%%#########$$$$$XXoooo                                                                          oX$$$$$$#$#$$$$XXXXXooXXXX$$$$$$######$$$$$$XXXXXXooooooooooooo                  ooooooo...XXXXXXX.XXXXXXO+O++O@@&&&&&&@@@@O++O+++++++XXXXXXXXXXXXXXXXXXXX++X+++X$$$$$$$$$############%%%%**==;;;;;;;;;;-==***%**%%%%%*%%%%***********%%******%%%%%%%%%%%%%%############+++++++@@@@@@++@@@@@@@@@@@@@+@++++@@@@@@@@@@@@@@@@@&@@@@&&@@@@&&&&&@&&@@@@&&&&@@@@&&&&&&&&&&&&&&&&&&&&&&&&&&&&&&&&&&&&&&&&&&&&&&&&&&&&&&&&&&&&&&&&&&&&&&&&&&@@@@&&@@&&&@&&&&@@@@&&@@&@@@&&&&@@&&@@@@@@@@@@@@@@@@@@@@@@@@@@@OOOOOOOOOOOOOOOOOOOO+OOOO++O+O+OO+++++#&===============&&#######&####+++++++++++++++++++++++++++++++++++++++X+++++++X+X+X++++++++++++++++++++#+@@&&&&&:::&&&&@@++++++++++++++++XXXXXXXX.XXXXXX+++++++XXXXXX....X+OO+O++++O@@@@&&&:::&&@@@@+++++++++OOOO++OOOO+O++OOOOOO++OOOOOOOO@@@@@&&&&&&@@O++++XXXXXX..XXXXXX.XXX....XX......oooo...... .                            oo                                          ooXXXX+$XXXXoo              oooooXXXXXXXXXXXXoooooooo oo    oooooooXXX$$$$###%%%**********%%%###$$$$$XXXXooooooo                              oooX$$",
"############$$$$$$$$$XXXXXXXX$$$$$$$$$$$ooooo ooooooooooo          o oo                             ooX$$$###%%%%%%%%%%#####%%%%#########%#########%%%#########$$$$$XXoooo                                                                          oX$$$$##$$##$$$XXXXXooXXXXX$$$$####$$$+XXXXXXXXXXXooooooooooooo           oo  o  ooooo..ooXX..XXXXXXXXXX+O++OO@@&&&&&&@@@@+O+++++XXX+++XXXXXXXXXXXXXXXXXXXX+++++++$$$$$$############%%%%****=-;;;;;;;;;===*******%%%%%%%%%%%%%%%%%%%%%%%%%%%%%####%###################$++++++++@@@@@++++@@@@@@@+@+@@@@O+OOOO@@@@++@@@@@@@@@@@@@@&@&&@@@@&&&&&&@@@@&&&&&&@@@&&&&&&@&@&&&&@@@&@&&&&&&&@@@@&&&&&&@@&&&&&&&&&&&@&&&&&&&&@@&&&&&&@@&&&&&&@@@@&&&&&@@@@@&&@@&&&@@@@@@@@@&@@@@@@@@@@@@@@@@@@@@@@@@@@@@@@@OOOOOOOOOOOOOOOOOOOOOOOOOOOOOO++++++++++&*==============&&##+@@@@#&###++++++++++++++++++++++++++++++++++++++++++++++++++++++++++++++++++++++++++@@@&&&&&:::&&&@@@@+++++++++++++++++++XXX..XXXXXX++++++++XXXXXX++++O+++++++++@@@@&&&:::&@@@@@@@++++++++OO+++OOOOO++OO+++++++OOOOOOOOO@@@@&&&:&&@@@@OO+O+O+OXXXXXXXX..XX....XX.....XX.....ooooo...                          oo                                           oooXXX$$+XXXooo               oooooXXXXXXXXXXoooooo  ooo   o  oooooooXXX$$$####%%%*********%%%%###$$$$$$$XXXXXoooooo                          ooo$$",
"#############$$$$$$$$XXXXXXXX$$$$$$$$$$$oooooooooooooooooo           oo                             ooX$$$###%%%%%%%%%%#####%%%%###################%%%#########$$$$$XXXooo                                                                        o oX$$$$$#$#$$$$$XXXXXXXXXXX$$$$##$$$XXXXX$XXXXXXXXooooo oooooo            oooooo ooooooooooXX....XXXX....O++OOO@&&&&&&@@@@@OO++++XXXX+++XXXXXXXXXXXX+XXXXXX++++$$$$$$$$$$############%%%%***==;;;;;;;;;==******%%%%%%%%%%%%%%%%%%%%%%%%%%%%%%%########################$$$+++++++@@@@@++++@@@@@@+++++@@+OOOOO+@@@@++@@@@@@@@@@@@@@@&&&@@@@&&&&&@@@@&&&&&&&@@@@&&@@@@@@&&&&@@@@@@@&&&&&@@@@&&&&&&@@@@@&&&&&@@@@@@@&@@@@@@&&&&@@@@@@&&&&@@@@@&&&@@@@@@@&@@@&&@@@@@@@@@@@&&@@@@@@@@@@@@@@@@@@@@@@@@@@@@OOOOOOOOOOOOOOOOOOOOOOOOO+OOOO++++++++++#&&&============&&##++@@@@###@@@+++++++++++++++++++++++++++++++++++++++++++++++++++++++++++++++++++++++++@@&&&&&::::&&&@@@++++++++++++++++++++XXXX.XXXXXX++++++++XXXXX++++++++++++++@@@@@&&&&:&&&@@@@@+O++++++OO+++OOOO++++++OO++++++O+OOOOO@O@@@&&&::&&@@OO++X+XXXXXXXXXX..XXXX..XXXX...XX.X.......oo....                            o                                         ooXXXX$$$$XXXoo               ooooXXXXXXXXXXoooooo  oooo        oooooXXX$$$####%%*%*********%%%%###$$$$$$$$$XXoooooo                         ooo$$",
"%###############$$$$$XXXoooXX$$$$$$$$$$$ooooo oooooooooooo            oo                            ooXX$$####%%%%%%%%%######%%%#########%%########%%%%%#######$$$$$XXoooo                                                                        o ooX$$$$$$$$$$$XXXoooXXXX$$$$$$$$XXXXXXXXXXXXXXXXXoooo    o              ooo    .ooooo.....XX..XXXXXX..XX+OOO@@&&&&&&@@O+++X++++XXX+++XXXXXXXXXXXXX+++XXXXXX++++++++$$$$#############%%%%**==;;;;;;;;;===****%%%%%%%%%%%%%%%%##%%%%#################################$$$$$$+++++##@@@+++++++@++++++++@@@OOO++++++@@@+@@@@@@@@@@@@@@@&&@@&&&&@&@@@&@@@@@@&&&&&&@@@@@@@@@&&&&&&&@@&&&&@@@@&&&&@@&@@@&&&&@@&@@@@&&&&&@@&&@@@@@@@@@@&&&&@@@&@@@@&&@@@&@@@@&&&&@@@&&&@@@@@@&@@@@@@@@@@@@@@@@@@@@@@@@@@@@OOO@OOOOOOOOOOOOOOOOOOOOOOOOO+O+++++++++++#@&&&&&&&****&%###+++@@##@@@@@@@+++++++++++++++++++++++++++++++++++++++++++++++++XXXX++++X++++++++++++++#@@&&&&&&:::&&&@@@@++++++++++++++++++XXX...XXXXX++X+++++++++++++++++++++++++@@@@@&&&&:&&&@@@@+++O++++++++OOO+OOOOOOO+++++++OOOOOOO+++OO@@&&&::&&@@@OO+O+O+++XXX.X....XXX...X...XX......Xo...oo..o..                         ooo                                         oXXXXXX$$$XXXoo                oooXXXXXXXXXXXoooooo  oo          ooooooXX$$$$###%%%*********%%%%%%########$$$$$XXooo                        ooo$$",
"%%##############$$$$$XXXoooXX$$$$$$$$$$Xoooo  ooooooooooo                                           ooXX$$####%%%%%%%%%######%%%########%%##########%%%%%######$$$$$XXoooo                                                                          ooX$$$$$$$$$$XXXooooXX$###$$XXXXXXXXXXXXXXXXXXoooooo                    oo     .oooo......XXXXXX..XXOOX+OOO@@&&&&&&@@@OO+O+O+XXXXXX+XXXXXXXXXXXXXX++++XXXX++++++++$$+$#############%%%****=;;;;;;;;;==*****%%%%%%%%%%%%%%%%%#####################################$$$$$$+++++++##@+++++++++++++++++@@@@+O++++++++@+++@@@@@@@@@@@@@@@@@@&&@@@@@@@@@@@@@@@&&&&&@@@@@@@@@@@&&&&@@@&&&&@@@@&&&&@@&@@@&&@&@@@@@@&@&&&&@@@&@@@@@@@@@@&&@&@@@@&&@@&&@@@@@@@@&&&&@@@@@@@@@@@@&&@@@@@@@@@@@@@@@@@@@@@@@@@@@@@O@OOOOOOOOOOOOOOOOOOOOOOOOO++OO++++++++++@@@@#######&####++++@@@#@@@@@@@+++++++++++++++++++++++++++++++++++++++++++++++++++++++++++++++++++++++++@@@&&&&&:::&&&&@@@+++++++++++++++++++XXX.X..XXXXXXX+++++++++++++++++++++++O+@@@@@&&&&:&&@@@@OOOOOO++++++OOO+++OOOOO+++++++OOOOOOOOOO@O@@@&&&::&&@@OO++X++++XXXXXX.XXXXXXX......XX.....X.........oo. .                       oo                                          oXXXXXX$XXXXXXoo               ooooXXXXXXXXXXooooooooo          oooooooXXX$$$###%%%%%********%%%%%%%#######$$$$XXoooo                       ooX$",
"%%##############$$$$$XXXooooX$$$$$$$$$$Xoooo  ooooooooooo                                           ooXX$$$###%%%%%%%%%#######%%########%%%####################$$$$$XXoooo                                                                        o ooX$$$$$$$$$$XXooooooX$###$XXXXooXXXooXXXoooXoooooo                           ..oooo.X..X...XXXX....OO++OO@@&&&&&&@@OO+OX+X++++XXX++XXX+XXXXXXXXXX+++XX+X+X+++++$$$$$$############%%%%**==-;;;;;;;;-==***%%%%%%%%%###########################################$$$+$+++$+$+++++###++++++++++++++++++@@@@++++++++++@@++++@@@@@@@@@@@@@@@@@&@@@@@@@@&&@@@@@@@@@&@@&@@@@&@@@@&&@@@@&&&@@@@&&&@@@@&&@@&&&&@&&&&@&&&&@@@@&&&&@@&&&&@&&&@@@@@&&&@@@@@@&@&&@@@@@@@@@@&&&@@@@@@@@@@@@@@@@@@@@@@@@@@@@@@@@@@@@@@O@OOOOOOOOOOOOOOOOOOOOOO+++OOOO++++O++++++++++++++++@+++++++@++##@@@@++++++++++++++++++++++++++++++++++++++++++++++++++++++++++++++++++++++++++@@@&&&&&&:::&&&&@@@++++++++++++++++++XXXX....XXXXXXX++++++++++++++#+++++++++@+@@@@&&&:::&&@@@OOOO+OO++++OO++++OOOOOO++OO+OOOOOOOO+O+O+@O@@@&&&:&&&@@OO+OOO++XX+X++XXXXX.XXX...XXXXX....X.....o.o......                                                                  oooXXXXXXXXXXXXooo               oooooooXXXXXXoooooooooo         o  ooooooXX$$$$###%%%%**********%%%%%%%%%%###$$XXXooo                      ooXX",
"%%%#############$$$$XXXoooooXX$$$$$$$$$Xoooo  ooooooooooo                                           ooXX$$####%%%%%%%%%#######%#########%%##############%######$$$$$XXXooo                                                                          ooX$$$$$$$$$$XXoooooooX$$$XXoooooooooooooooooooooo                            ..oooo........XXXX....OO++OO@@&&&&&@@@OOOOXO++XX++XX++XXX+XXXXXXXXXX+++XX+++$++++$$$$#$$############%%***===;;;;;;;;;===***%%%%%%%%%###################################$$#$$$$$$+$$$+++++$+++++##+++++++++++++++++++@#@+O+++++++++@@++++@@+++@@@@@@@@@@@@&@@@@@@@&@@@@@@@@@@@@@@&&&&@&@@@@@&@@@@&&@@@@@@&&@@@@&@&&&&&@@@&&&&&&&&&@@@&&&&&&&&&&&&&&@@@@&&&&@@@@@@&&&&&@@@@@@@@@@&@@@@@@@@@@@@@@@@@@@@@@@@@@@@@@@@@@@@@@OO@@OOOOOOOOOOOOOOOOOOOOO+++OOOO++++++++++++++++++@+@@@++++++++#####@@#+++++++++++++++++++++++++++++++++++++++++++++++++++++++++++++++++++++++++@+@@&&&&&&::&&&&@@@@++++++++++++++++XXXXXXX...XXXXX++++++++++++####+++++++++@@@@@@@&&&::&&@@@@@@++OOO+++OO++++++OOO+++OO+OOOO+OOOOO+OOOO@@@&&&&::&&@OO+++++++X++++++XXXXXXX.X.XXXXX...XXXX....oo...oo.                                                                  oooooXXXXXXXXXXXooo               ooooooXXXXXXXooooooooo            ooooooXXXX$$$$##%%%%%********%%%%***%%%%###$$$XXooo                     ooXX",
"%%%###########$$$$$$XXoooooooX$$$$$$$$XXooooooooooooooooo                                           ooXX$$####%%%%%%%%##################%%########%%%%#########$$$$$XXooo                                                                           ooX$$$$$$$$$XXooo    oooooooooooooo oooooooooooo                       ooo o  .ooo..X....XX.XXXX...XOOOOO@&&&&&@@@OO+++XXXX+++++++XXXXXXXXXXXXXXXX++++X$$$$$$+++##$$$$###########%%%***==;;;;;;;;;===***%%%%%%%#####################################$$$$$$$$$$$$$+++++++++++++++++++++++++++++++++++++++++++++@+@@@@+@@+@@@@@@@@@@@@@@@@@@@@@@@@&&@@@@@@@@@@@@@@@@&&@@@@@@@@&&@@@&&@@@@@&&&@@&&&@@@@@@&&&&@@@@@@@&&@@@@@@&&&&&&&@@@@@@@@@@@@@@@@@@@@@@&&@@@@@@@@@@@@@@@@@@@@@@@@@@@@@@@@@@@@@@@@@@@@O@OOOOOOOOOOOOOOOOOOO+++++++OOOO++O+++++++++++++++++++++++++++++@@&&&&##@@++++++++++++++++++++++++++++++++++++++++++++++++++++++++++++++++++++++++@@&&&&&&::::&&&&@@@@++++++++++++++XXXXXXX..oo.XX++XX+++++++++##&&#@++++@++++@@@@@@&&&&:&&@@@@@OO+++O++OOOOOO++OOOOOOOOOOO+OOOOOOOO++OO@@@@@&&&::&&@@@@++++++X+XXXX......XXX...XXX.X..XX.....oooo....                                                                         oooXXXXXXXXoo                  oooooXXXXoXoooooo o              oooooooXXX$$$###%%%%%*%*************%%%%##$$$Xoooo                   oooX",
"%%%%#########$$$$$$$XXoooooooX$$$$$$$$XXooo oooooooooooo                                            ooXX$$####%%%%%%%%##################%%########%%%%#########$$$$$$Xooo                                                                           ooX$$$$$$$$$XXooo      oooo oooo o  oooooooooooo                       ooo o .ooo...XXX..X..XXXX....OOOO@@&&&&@@@@OO+++XXXXXXXX+XXXXX+XXXXXXXXXXXX++++XX$$$$+$++##$#$###########%%%%**==;;;;;;;;;-=****%%%%%%#####################################$$$$$$$$$$$$$$+++++++++++++++++++++++++++++++++++++++++++++++++@@@++++@@@@@@@@@@@@@@@@#@@@@@@@&&@@@@@@@@@@@@@@@@&&@&@&@@@@&@@@@&&&@@@@&&&@&&&&@@@@@@&&&&@@@@@@&&&&@@@@@@&&&&&&@@@@@@@@@@@@@&&&&&&@@@@@@@@@@@@@@@@@@@@@@@@@@@@@@&&&&&&&&@@@@@@@@@@@@@OOOOOOOOOOOOOO+OOOO+OOOOO+OOOOOOO++++++++++++++++++++++++++++++#&&&&##@+++++++++++++++++++++++++++++++++++++++++++++++++++++++++++++++++++++++++@@@&&&&&&&::&&&&@@@@++++++++++X++++XXXXXXXX.o.XXX++++++++++++##&&#@+++++++++@@@@@@@&&&:::&&@@@@O++++++OOOO++++OOOOOOOOOOOO++O+OOOO+O+O@@@@@@&&&::&&@@@++++++..XXOX...O.XXXXX..XXXX....X..o....oo.... o                                                                        ooooXXXXXXXoo                   ooooXXXXXXoooooooooo            ooooooooXX$$$###%%%%%%%%************%%%%##$$$Xoooo                  oooX",
"%%%%########$$$$$$$XXXooooooXX$$$$$$$$$Xooo   oooooooooo                                            oooX$$####%%%%%%%%########%#####################%%%#%%#####$$$$$$Xooo                                                                           ooX$$$$$$$$$XXooo                     o oooooo                         o   o.o..ooo.oX..XXXXX....XXXOOO@@&&&&@@@OO+++XXXXXXXXXXXXXXX++++XXXX++++XXXX++++++++$$$$################%%%%*==;;;;;;;;;;==***%%%%%%##########################$$####$$$$#$$$$$$$$+$$$$$+++++X+++++++++++++++++++++++++++++++++++++++++++@@@@++++@@@@@@##@@@@@@#@##@@@###@@@@@@@@@@@@@@@@@@#&@@@@&&&&&&@@@@&&@@&@&&@@@@@@&&&&@&&&@@@@@@&&@&&&&@@@@@@@&#&&@@&&@@&@&&@@@@&&&&&@@@@&@@@@@@@@@@@@@@@@@@@@@@@&&&&&&&&&&&&&&&@@@@@@@@@O@@OOOOOOOOOO+O+OOOOOOO++OOOO++O++++++++++++++++++++++++++++++##&&#++@@++++++++++++++++++++++++++++++++++++++++++++++++++++++++++++++++++++++++++@@@&&&&&&&:&&&&@@@O+++++++++X+++++XX+XXXX...XXXXXX+++++++++#&&&&@@++++++++++++@@@@&&&&::&&@@@@@@OO+OOO+++++++OOO+O++OOOO+++O++OO+OOOOO@@@@@&&&:::&@@@@OO+++++OXXXXXXO.XXXX..XXXX..XX........o....ooo.                                                                          oooooXXooo                   ooooooXXXXXXooooooooo             ooooooooXX$$$$###%%%%%%%***********%%%%%##$$XXoo                  oooo",
"%%%%#####$$$$$$$$$$$XXooooooXX$$$$$$$$$Xooo    ooooooooo                                            ooXX$$$###%%%%%%%%##############################%%##%%%####$$$$$$Xooo                                                                           ooX$$$$$$$$$XXoo                          oo                           o o  oo..ooXXXX..X.X.X...XX.OOO@@&&&&@@@@OOOOXXXXXXXXXXXXX+XX++++XXXX++++XXXX+++$+++$$$$$###############%%%%**=-;;;;;;;;;===***%%%%%%################$####$####$$$$$$$$$$$$$$$+XX++++$+++++++XX+++++++++++++++++++++++++++++++++++++++++++@++++++@@@@@@###@@@@@####@@####@@@@@@@#####@@@@######@@&&&&&&@@@@&&##@@&&@@@@@@&&&&@@&&@@@@&&@&&&&&&@@@@@@@@@@@@@&&@@&&&&@#@@@@@@@@@@@&@@@@@@@@@@@@@@@@@@@@@@&&&&&@@@@&&&&&&&&@@@@@@@@@@@@OOOOOOOOOOOOOOOOOOO+OOOO+++OOO+++++++++++++++++O+++++++++++#@#@++@@++++++++++++++++++++++++++++++++++++++++++++++++++++++++++++++++++++++++++@@@&&&&&&&::&&&&@@+++++++++++X++++XX+XXXXX...XXXXX++++++++++#&&&#@++++++++++O+@@@@@@&&:::&&@@@@@@@+++++++++++OOO++++++OOO+OOO+OO@@OOOO@O@@@@&&&:::&&@@OO+O+O++OXXXXX..+++X..XXX...XX........o...oooo......                                                                       o  oooooo                     ooooXXXXXXXoooooooo               ooooooX$X$$$###%%%%%%%%***********%%%##$$$Xooo                 oooo",
"%%%%##$$$$$$$$$$$$$$XXXoooooX$$$$$$$$$Xoooo     ooooooo                                             oooX$$$$###%%%%%%%%#######%%#############$$$####%%%%%%#####$$$$$$Xoo                                                                            ooX$$$$$$$$$XXoo                                                         ooooooo.XXXXX..X...X...XX+OOO@@&&&@O@OOXXXX.XXXXXXXXXXXXX++++XXXX++++XX+++X+++++++$+++$$############%%%%%**==;;;;;;;;;;===**%%%%%##############$$##$$$$$$$$$$$$$$$$$$$$$$$$$$$X+++++++XX+++XX+++++++++++++++++++++++++++++++++++++++++++@@@++@@@@######@@@#####@@@@##@@@@##########&&&&##&&##&&&@@@&####@@&&&&&@###@#&&@&@&##@###&&&&&&&&&&&&###&&#####&&&&#&&&&&&#@#@@@@@@@@@@@@@@@@@@@@@@@@@@@@@@@&&&&@@@@@@@@&&&&&&&&@@@@@@@@@OOOOOOOOOOOOOOOOOOOOOO++++++++++O+++O+++++++++++++++++++++++##@@@+@+++++++++++++++++++++++++++++++++++++++++++++++++++++++++++++++++++++++++++++@@&&&&&&:::&&&@@@@+++++++++++X+++X++XXXXX...XXXXXX++++++++##&&&#++++++++++++@+@@@@@&&:::&&@@@@@@@@++++O@O+++OOO++++++O+OOOO@OOOOOOOO@@@@@@@&&&:::&&@@@OO+OO+O...XXO+++XXX....X...X.X....XX....o......o.o                                                                                                      ooooooXXXXoooooooooooo            ooo ooooXX$$$$####%%%%%%**********%%%%##$$Xooo                 ooo",
"%%%%#$$$$$$$$$$$$$$$$XXoooooXX$$$$$$$$Xooo      ooooooo                                             oooX$$$$##%%%%%%%%%######################$$$#####%%%%######$$$$$XXoo                                                                            ooX$$$$$$$$$XXoo                                                       .oooooooo..XXX...........XOOOO@@&&@@@OOOOX+X..XXXXXXXXXXXX+++++XX+X++++XX++++++++++$$++$#############%%%%%***=-;;;;;;;;;====**%%%%###############$$$$$$$$$$$$$$$$$$$$$$$$$$++$$+X++X++++XXXX+XX+++++++++++++++++++++++++++++++++++++++++++++@+#@@@@######@@######@@@@##@@#@########&&&&&&#&&&&#&&##########&&##&&#@####&&@@###&&####&&&&&#&&&&&##&&&&####&#&&#&#&&&&#&#&&#@####@@####@@@@@@@&@@@@@@@@&&&&&&@@@@@@@&&&&&:&&@@@@@@@@@OOOOOOOOOOOOOOOOOOOOOO++++++++OOO+O++++++++++++++++++++++++++#@@@+@@++++++++++++++++++++++++++++++++++++++++++++++++++++++++++++++++++++++++++++@@@&&&&&&::&&&&@@@+++++++++++++++X++XXXX......XXXXX++++++++#&&&##+++++++++++@+@@@@@&&&:::&&&@@@@+@++++@OO+@@OOO+O+@@@OOOO@O@@@OOOOOO@@@@@@@@&&&&::&&@@+O+O++OOOO+X++OOXXX........XXX.........o......oooooo.                                                                                                     oooooXXXXoooooooooooo               oooooXX$$$####%%%%%%%**********%%%###$$Xooo                ooo",
"%%##$$$$$$$$$$$$$$$$$XXXooooXX$$$$$$$$oooo        oooo                                              oooX$$$$##%%%%%%%%%#######%%####$$########$$######%%#######$$$$$XXoo                                                                            ooX$$$$$$$$$XXoo                                                     o..ooooooooo..X....o...XX..X+OOO@@@@@OOOOX.XXXX..XXXXX.XXXXXX++++XX++++XXXX++++++++$$$$+$$#############%%%%***=-;;;;;;;;;-===**%%%%%##############$$$$$$$$$$$$$$$$$$$$$$$++XXX+++XXXXXX++XXXXX+XXX++++++++++++++++++++++++++++++++++++++++#++++####@#######@#@@####@####@@@########&&&&#&####&&#&&&####&#######&&&&&&&&#&&&######&#&#########&&####&&&&&&########&&&&&&&#&&######&#&#&&&&##@@&&###@@&&##&&&&&&@&@@@@@&&&&::&&@@@@@@@OOOOOOOOOOOOOOOOOOOOOO+O+OOOO+O++OO++O+O++++++++++++++++++++++#@@+++@@+++++++++++++++++++++++++++++++++++++++++++++++++++++++++++++++++++++++++++@+@@&&&&&&&:&&&&@@@@++++++++++++++X+XXXX..X.....XXXX+++++++##&&##+++++++++++++@+@@@@&&&:::&&&@@@@@@@@@@@++@@@@OOO@@@@@++OOO@@@OOOOOO@O@O@@@@@@&&:::&&@@@OO+++OOO+++++++++++O.....XX.X.......Xo........oooo... oo                                                                                                  oooooXXXXXooooooooooo               oooooXX$$$#####%%%%%%%********%%%%#$$$Xooo               ooo",
"%%##$$$$$$$$$$$$$$$$$XXoooooXX$$$$$$$Xoooo        ooo                                               oooX$$$###%%%%%%%%#########%###$$$########$$######%#######$$$$$$XXoo                                                                            ooX$$$$$$$$$XXoo                                                  oooo..oooooooo.o.....o...XXXX.O+OO@@@@@OOOOO.OX.XX..XXXXXXXXXXXX++XXXX++++XXXX++++++++$$$$+$$#############%%%***==;;;;;;;;;;===***%%%%###############$$$$$$$$$$$$$$$$$$$$$XX++XXXX+XXXXXXXXXXXXXXXXXX++++++++++++++++++++++++++++++++++++++++###++###############@####@@####@&######&&&&&&######&&##&&####&########&&&&&&&&#&&######&&&&&#######&&&&##&&&&&&&&###&##&&&&&&##&&&&####&&&&&&&&###@&&&###@&&&#&&&&&&&&@@@@@@&&&::&&@@@@@@@OOOOOOOOOOOOOOOOOOOO+++OOOOOOOOOO+O++O+O+++++++++++++++++++++++@@##+@@@+++++++++++++++++++++++++++++++++++++++++++++++++++++++++X++++++++++++++++++@@&&&&&&&&&&&&&@@@@++++++++++++++++XXXX.X.....XXXXXXO+++++#&&###@@++++++++++@+@@@@@&&&:::&&&@@@@@@@@@@++@@@@OO+@@@@OOOOO@@@@@@@@@O@OOO@@@@@@&&&&::&&@@OO+++++O+++++++++++O+....XXXXX.XXX..XX..........oo.... o                                                                                                   oooooXXoXooooooooooooo             o ooooXX$$$$####%%%%%%********%%%%##$$Xooo               ooo",
"##$$$$$$$$$$$$$$$$$$$XoooooooX$$$$$$$Xooo          oo                                               oooX$$$####%%%%%%%########%##############$$$####%%%%######$$$$$$XXoo                                                                             oXX$$$$$$XXooooo                                        ooo    oo ooo..oooo..oo....oo.......X..OOOO@@@OOO+XXXXX..X...XXXXXXXXXX++XXXXXXXX++X++XX+++$$++++$$$$##############%%%***=;;;;;;;;;;====**%%%%##########$#$##$$$$$$$$$$$$$$$$$$$$+++XXX+++XXXXXXXXXXXXXXXXXXXX+++++++++++++X++++++++++++++++++++######+###+######################################&&&&&###&&####&&&&&&####&&##&###&&&###&&&&##&&&&&#&&&&###&&&##&&&&&&###&&&&&&&&###&###&&&&########&&&&&###&&####&&##&&&&&&&@@&&&@&&&:::&@@@@@@@@@@OOOOO+OOOOOOOOOO++OOOOO++OO+++++++++++++++++++++++++++++++++#####@@+++++++++++++++++++++++++++++++++++++++++++++++++++++++++++++++++++++++++++++@@@@&&&&&&&&&&&&@@@@++++++++++XX+++XXXXXXX......XXXX++++++##&&@@++++++++++@@+@+@@@@@&&&::::&&@@@@@@@@@+@+@@@OOOO@@+++OOOO@@O++@@@@@@OOOO@@@@@@&&::::&&@@@@+O+O+O++++O.OO......XX.X.................oo......oo                                                                                                      ooooooooXXXoooooooo                oooooX$$$#########%%%%%****%%%%%##$$$Xoooo             ooo",
"#$$$$$$$$$$$$$$$$$$$XXoooooooX$$$$$$$Xooo          oo                                               oooX$$$###%%%%%%%#########%#####$########$$$#####%%%######$$$$$$XXoo                                                                             oXX$$$$$$XXooooo                                        ooo      o oo ooooo.o.......o.......X..OOO+@@@OOO+XXXXX.X..X.XXXXXXXXXXXX+++XXXX+++X++XX+$+$$++++$$$$#############%%%***==;;;;;;;;;;====**%%%%##########$$$$$$$$$$$$$$$++$+$$$$XX+++XXXXXXXXXXXXXXXXXXXXXXXXXX+++++++++X+++XX+X+++++++++++++++++#######################&&#&&&&&&&##&&##&&&&&&&&&#&&&&&&#&&#&###&&&&&&####&&&&&&%%&&&###&&&&&&&&&##&&&&&&&&#&&&#&&&&&&##&&&&&&&&#&##&&&#&&&&&&&&&&&&&&&&#&##&&&##&&&##&&&&&&@@@&@&@@&&&::&&@@@@@@@@OOOOOO+OOOOOOOOOO++OOOO+O++O+++++++++++++++++++++++++++++++++@@###@@+++++++++++++++++++++++++++++++++++++++++++++++++++++++++++++++++++++++++++++@@@@&&&&&&&&&&&&@@@@+++++++++XXXX+XXOXXXXXX.....XXXXX+++++@##@#@@@+++++++++@+@+@@@@@@&&&::::&&@@@@@@@@++++@@@O++@OOO@@@@@@@@++@@O@@@OOOO@@@@@@@&&::::&@@@@OO+++O+++++O.O..OO+.XXXXX........................oo.                                                                                                       ooooooXooXoooooooo                 oooX$$$$#########%%%%%%%%%%%%%##$$$Xoooo             ooo",
"$$$$$$$$$$$$$$$$$$XXXXoooooooX$$$$$$$Xooo                                                           oooX$$$###%%%%%%%##############$$$########$###############$$$$$$XXoo                                                                             ooX$$$$$XXXoooo                                         o      oo..oooooooooo..oooo..o.........O++++OO+OXXX..XXXXX.XXXXXXXXXXXXXXXX++XXXX++X+++++++$+$$$$$$$#############%%%***==;;;;;;;;;;====**%%%%###########$$$$$$$$$$$$$$XXXXX$$++XXXXXXXXXXXXXXXXXXXXXXXXXXXXXXX++++X++XXXX+XX+++++++++++++++++++############################################################%%######&&%%%%&&##&&%%%%&&%%%%&&%%#&####&&&&%##%&%##%%&%%%%#%%%%&#%%####%&#%#%&#%%#&#%#%#&######&&%%%%&&##########@@&&&&&&:::&&@@@@@@@@OOOOOO+OOOOOOOOOO+OOO++++O+OO+O++++++++++++++++++++++++++++++@@&&###+++++++++++++++++++++++++++++++++++++++++++++++++++++++++++++++++++++++++++++++@@&&&&&&&&::&&&@@@+++++++++XXXXX+XXXXXXXXX...oXXXXX+++++++#####++++++++++++@@@@@@@@@&&&::::&&@@@@@@@@@@@@@@@@@@OO+@@@@@@@@+@@OO+@@@@OO@@@@@@@@&&::::&&@@@@+@OO+++++OOO..XX++XXXXXX.....X....XX............oo..                                                                                                      oooooXoooooooooooooo              oooXX$$$$##########%%%%%%%%%###$$$$Xoooo             ooo",
"$$$$$$$$$$$$$$$$$$XXoooooooooX$$$$$$$Xoo                                                            oooo$$$#####%%%%%#############$$$$########$$##############$$$$$$XXoo                                                                             ooX$$$$XXoooooo                                        ooooo.oooo..oooooooo...ooX.o........X...OO++O+OOXXXXXXXXXX..XXXXXXXXXXXXXXXXXXXXXX++X++++$++$$$#####$############%%%%***=-;;;;;;;;;;====**%%%%##########$$$$$$$$$$$$$$+XXXXX++XXXXXXXXXXXXXXXXXXXXXXXXXXXXXXXXX+++XX++X+XXXX+++++++++++++++++++++######################%%%%%%%%%%%%%&&%%%%%%%%%%%%%%&&%&%%%%%%%%%%&&&&%%%%&&&&&&%%%%&&%%%%&&%%&&%%%%%%%%%%%%%%%%%%&&%%%%%%%%&%%%%%%%%&%%%%&&%%*&%%%%&%%%%%%%%%%%%%&&%%%######@@@@&@@&&&::&&&@@@@@@@+OOOOO+OOOOOO++OO++OO++++OOOO++++++++++++++++++++++++++++++++@@&&###+@+++++++++++++++++++++++++++++++++++++++++++++++++++++++++++++++++++++++++++++@@@&&&&&&&&&&&&&@@+++++++++XXXXX+OOXXXXXXX.o....XXXX+++++++#####+++++++++++@+@@@@@@@@&&&::::&&@@@@@@++@@@@@@@@@@O@@@@@@@@@@@@@OO@@@@OO@@@@@@@@&&&&:::&&&@@+++++++++OO+XX+++++X.XXXX.XXX..................ooo..... .                                                                                                   oooooXooXooooooooo              oooXX$$$$#############%%%%%%##$$$$XXXooo            oooo",
"$$$$$$$$$$$$$$$$XXoooo  oooooX$$$$$$$Xoo                                                            oooo$$$######%%%%%############$$$#########$#####%#########$$$$XXXXoo                                                                            oooX$$$XXXoooo                                         oo ..oooo oo.o..o..o.o.....oo.X......XXXXX+OOOO.XXXXXXXXXXXXXXXXXXXXXXXXXXXXXXX++XX++X+++++++++++###############%%%%%***=-;;;;;;;;;;====**%%%%###########$$$$$$$$$$$$$$$$XXXXXXXXXXXXXXXXXXXXXXXXXXXXXXXXXXXXXXX++++XXXXXXXXX++++X++++++++++++++#############%#%%######%%%%%%####%%%%%%%%%%%%%%%%%%%%%%%%%%%%%%%%%%%%%%%%****%*****%%%%**%%%%***%**%%%%%%%%%%%%%%%%%%%%%%%#%%%%%%%%%%*%*%%%*%%%%%%%%%%%%%%%%%**%%%%%%&%####%##&&#@@@@&&&:::&&@@@@@@@+OOOOOO+OO++O+++OO++++OOOOOO++++++++++++++++++++++++++++++++++@@#@#@+++++++++++++++++++++++++++++++++++++++++++++++++++++++++++++++++++++++++++++++++@@&&&&&&&&&&&&&@@@O@+++++X++XX+X+XXXXXXXX.o..o.XXXX+++++++#@###@++++++++++++@@@@@@@&&&&&:::&&@@@@@@@@@@@@+O+@@@@@@@OO++@@@O+O@@@O@@O@@@@@@@@@@&&&::::&&@@@+O++O++++++++++XXX+XXX.XXXXX....XX..............o......                                                                                                   oooooooooooooooooo               oooX$$$###########$#######$$$$$$$Xoooooo            ooX",
"$$$$$$$$$$$XXXXXoooooo  oooooX$$$$$$$Xoo                                                            oooo$$$######%%%%%############$$$#########$###############$$$$XXXXoo                                                                             oooXXXXooooo o                                     o ooo.oooooooo..o.....oooo.o...oo...oo...XXXXOOOO.XXXXXXXXXXXXXXXXXXXXXXXXXXXXXXX+X+XX++X++$+++++$++##############%%%%%%**==;;;;;;;;;;-===***%%%###########$$$$$$$$$$X$$$$$$XXXXXXXXXXXXXXXXXXXXXXXXXXXXXXXXXXXXXXX+++XXXXXXXX++++++X++++++++++++###############%%%%#%#######%%%%%%%%%%%****%%%%**%%*********************************************************************************==*************************************%%%&&#@#@&&@&&&:::&&&@@@@@@@@OOOOOOO++OO+O++O+++++OOOO+++OO++++++++++++++++++++++++++++++@#@##@@++++++++++++++++++++++++++++++++++++++++++++++++++++++++++++++++++++++++++++++@+@@@&&&&&&&&&&&&&@@+O+++++++OX++X++X+XXXXXX....oXXXXX+++++++@####++++++++++++@@@@@@@@@&&&::::&&@@@@@@@@@@@@@+@@@@@@OOOOOO@@@O@@@@@@@@@@@@@@@@@@&&&&::::&&@@+++OOO++++++++++XXOOOO..XXXXX.....X......................                                                                                                    ooooooooXXoooooo    o         oooX$$###########$$$$$$$$$$$$$$XXoooooooooo       ooooX",
"$$$$$XXXXXXXoooooooo     ooooXX$$$$$XXoo                                                            oooX$$$$#####%%%%%###$###################$$$##############$$$$$XXXoo                                                                             oooXXooooooooo                                    o    oo.o  oooooo..o.ooooooo..o..........X.XX........XXXX.XXXXX.X.XXXXXXXXXXXXXXXXXXXXXXX$++$$++$$$+$$#############%%%%%**==-;;;;;;;;;;====**%%%%###########$$$$$$$$+XX++XX$XXXXXXXXXXXXXXXXXXXXXXXXXXXXXXXXXXXXXXXX+++++XX+X++++++XXX+++++++++++#############%%*********=================================================================================================;====;;====;;;;=====;=====;;;;;;;;;;==================&%#####@@&&&&::&&&@@@@@@@@OOOO+OOOOOOOOOOOO+++OOO+++++OO+++++++++++++++++++++++++++++++###@@@++++++++++++++++++++++++++++++++++++++++++++++++++++++++++++++++++++++++++++++++++@@&&&&&&&&&&&&@@@@O+++++OO++X+OOXOXXXXXX........XX++++++++@@@@#@+++++++@++++@@@@@@@&&&&&:::&&@@@@@@@@@@@@@@@@@@OO@OO@@@@+O@@@@@@@@OO@@@@@@@@@@&&&&:::&&@@@OOOOO+++O+OOOO++XOOOO...X.XX............XXo.........oo..                                            oo                                                       oooooooXXXooooooooo          ooX$$$###########$$$$$$XXXXXXXoooooooooooooo  oooooooX",
"$$$$$XXXXXooooooooo      ooooXXX$$$$Xooo                                                            oooX$$$$#####%%%%%###$###################$$$##############$$$$$$XXoo                                                                             ooooooooooooooo                                  oo  oooo.o   oooooo.ooooooooo..o...oo.......X..........XXXXXXXXXXXXXXXXXXXXXXXXXXXXXXXXXXX$$+$$$$###+$$############%%%%%***==;;;;;;;;;;;===**%%%%%###########$$$$$$$$++++$XX+XXXXXXXXXXXXXXXXXXXXXXXXXXXXXXXXXXXXXXXXXX+++XX++++++XXXXX++++++++++########%======;;;;;;;;;;;;;;;;;;;;;;;;;;;;;;;;;;;;;;;;;;;;;;;;;;;;;;;;;;;;;;;;;;;;;;;;;;;;;;;;;;;;;;;;;;;;;;;;;;;;;;;;;;;;;;;;;;;;;;;;;;;;;;;;;;;;;;;;;;;;;;;;;;;;;;;;;;;;;;;;;==*####@@&&&&:::&&@@@@@@@@@OOO+OOOOOOOOOOOO+++OOO+O+++OO+++++++++++++++++++++++++++++++###@@@#+++++++++++++++++++++++++++++++++++++++++++++++++++++++++++++++++++++++++++++++++@@&&&&&&&&&&&&&@@@O+++++OO++++OOOXXXXXXX........XX+++++++++@@##@@+++++++++++@+@@@@@@@&&&&:::&&@@@@@@@@@@@@@@@@@O@@@@@@@@O@@@@@@@@@@@@@@@@@@@@@&&&&&:::&&&@@+OOO+++OOOOOO+XXOOO......XXX...........XXXXo.......ooo.                                            ooo                                                       ooooooooXoXXoooooo          ooX$$$##########$$$$$$XXXoooooooooooooooooooooooooooXX",
"$$$$XXXooooooo           ooooXXX$$$$Xooo                                                             ooo$$$######%%%%####$##########$########$################$$$$$$Xoooooo                                                                           ooooooooo oo                                   o      o o   ooooooooo...ooooooooo.oooooooXoX.XXX..XXXXXXXX.XXXXXXXXXXXXXXXXX++XX++XXX+++XX$$$$$++$$###############%%%%%***==;;;;;;;;;;;===***%%%%#########$$$$$$$$$$$$$$+XXX+XXXXXXXXXXXXXXXXXXXXXXXXXXXXXXXXXXXXXXXXXXXXXX+++++++X+++++++++++$#######*==;;;;;;;;;;;;;;;;;;;;;;;;;;;;;;;;;;;;;;;;;;;;;;;;;;;;;;;;;;;;;;;;;;;;;;;;;;;;;;;;;;;;;;;;;;;;;;;;;;;;;;;;;;;;;;;;;;;;;;;;;;;;;;;;;;;;;;;;;;;;;;;;;;;;;;;;;;;;;;;;;;;;;;;;;;=*&###@&&&&:::&&&@@@@@@@@OOOOOOOOO++O+O++++++++++++OO+++++++++++++++++++++++++++++++++@##++++++++++++++++++++++++++++++++++++++++++++++++++++++++++++++++++++++++++++++++++++++@@@&&&&&&&&&&&@@@@++++OO++++XXXXXXXXXX........XXXX++++++++++@@++++++++@@@@@@@@@@@@&&&&&::::&&@@@@@@@@@@@@@@@@@OO@@+OOO@@@OO@@@@@@O@@@@@@@@@@@@&&&&::::&@@@@@@@OO+++OOO++XXX.......XXXXX.X...........XXXXXX......                                                                                                          ooooooXXoooooo ooo     ooXXX$$###########$$$XXoooooooo oooooooooooooooooooooXX",
"$$$$XXoooooo             ooooXX$$$$$Xooo                                                             ooo$$$######%%%%####$#########$$$########$$$#############$$$$$$XXooooo                                                                            oooooooo oo    o                             oo    o oooo  ..oooooooo.ooooo.ooooo..o.o.o..X.XXXXXXXXXXXXX..XXXXXXXXXXXXXXXX++X+++XX++++XX++$+++$$$###############%%%%%**==-;;;;;;;;;;-==***%%%%#########$$$$$$$$$$$$$+XXXXXXXXXXXXXXXXXXXXXXXXXXXXXXXXXXXXXXXXXXXXXXXXXXXX++++++++++X+++++++$$#####*==;;;;;;;;;;;;;;;;;;;;;;;;;;;;;;;;;;;;;;;;;;;;;;;;;;;;;;;;;;;;;;;;;;;;;;;;;;;;;;;;;;;;;;;;;;;;;;;;;;;;;;;;;;;;;;;;;;;;;;;;;;;;;;;;;;;;;;;;;;;;;;;;;;;;;;;;;;;;;;;;;;;;;;;;;;;;;*%###@&&&&:::&&&@@@@@@@@OOOOOOOOO+OOOO+++OO+++++++O++++++++++++++++++++++++++++++++++@##++++++++++++++++++++++++++++++++++++++++++++++++++++++++++++++++++++++++++++++++++++++@@@&&&&&&&&&&&@@@@+@++++++++X+XX.XXXXXXX.......XXXX+++++++++@@++@@++++@@@@@@@@@@@@@@&&&&:::&&&&@@@@@@@@@@@@@@@@@OOOO@@@@@O@@@@@@OO@@@@@@@@@@@@&&&&&&::&&@@@@@@OO++OOOO++++..XX....XXXX..XX....XX...X....XX....oo..                                                                                                         oooooXooooooooooo     ooXXX$$###########$$$XXoooooo     oooooooooooooooooXoXX",
"$$$$Xoooooo              ooooXXXXXXXoo                                                               ooo$$$$#####%%%%%###$$#$######$$########$$$$#############$$$$$$$XXXXXooooo                                                                        oooooooo o    ooo                            oooooooooooo......oooooo.ooo..oo..o..o.....X...X....XXXX.XXX..XXXXXXXXXXXXXXXX++++++X++++++++++++$$$###############%%%%%***==;;;;;;;;;;;===***%%%%##########$$$$$$$$+$++XXXXXXXXXXXXXXXXXXXXXXXXXXXXXXXXXXXXXXXXXXXXXXXXXXXXXXXXXX+++XXXX++++++$######*=;;;;;;;;;;;;;;;;;;;;;;;;;;;;;;;;;;;;;;;;;;;;;;;;;;;;;;;;;;;;;;;;;;;;;;;;;;;;;;;;;;;;;;;;;;;;;;;;;;;;;;;;;;;;;;;;;;;;;;;;;;;;;;;;;;;;;;;;;;;;;;;;;;;;;;;;;;;;;;;;;;;;;;;;;;;;;=*###&&&&&&&:::&&@@@@@@+OOOOOO+OOO+OOOO++OOOOO++++++++++++++++++++++++++++++++++++#++++#+++++++++++++++++++++++++++++++++++++++++++++++++++++++++++++++++++++++++++++++++++++++@+@@@&&&&&&&&&&&@@++++++++++++OX..XXXXXXX.....o..XXX++++++++++++@+++++++++@+@@@@@@@@@@&&&::::&&@@@@@@@@@@@@@@@@@OO@@@@@@@@@@@@@OO@@@O@@@@@@@@@@@&&&&&:::&&@@@@O+++++OOO++OOOXXXX.OOX....XXXX...X........X......oo.....                                                                                                      oooooooooooooooo    oooXX$$$############$$XXooooo             ooooooooooXoXX",
"$$$XXooooo                oooooXXXXooo                                                               ooo$$$$#####%%%%%##$$$#$#######$$#######$$$$##############$$$$$$$XXXXXXXoo                                                                         ooooooo o    ooo                       o    oooooooo ooo. ....oooooo........oooo.o...o.XX.XX....XXXXXXXX.XXXXXXXXXXXXXXXXXX++++XX+++++++$$++$$$$$#############%%%%%***==;;;;;;;;;;;===****%%%%##########$$$$$$$$+XX+XXXXXXXXXXXXXXXXXXXXXXXXXXXXXXXXXXXXXXXXXXXXXXXXXXXXXXXXXX++XXXXX+++++$#######*=====;;;;;;;;;;;;;;;;;;;;;;;;;;;;;;;;;;;;;;;;;;;;;;;;;;;;;;;;;;;;;;;;;;;;;;;;;;;;;;;;;;;;;;;;;;;;;;;;;;;;;;;;;;;;;;;;;;;;;;;;;;;;;;;;;;;;;;;;;;;;;;;;;;;;;;;;;;;;;;;;;;;======*%####&&&&&&:::&&@@@@@@OOOOOOOOOOO+OOOOOOOOOOOOOO+++++++++++++++++++++++++++++++++#+++@#####+++++++++++++++++++++++++++++++++++++++++++++++++++++++++++++++++++++++++++++++++++@@@@@@&&&&&&&&&&@@@++++++++++++X++OOXXXXXX.....o..XXX+++++++++++@@@@+++@+++++@@@@@@@@@&&&&:::&&&@@@@@@@@@@@@@@@@@@@@@@@@@@@@@@@O@@@@@@@@@@@@@@@@&&&&&&::&&&@@@++++++OO+OOOOO++XXOOO.O...XXXX...X........XX..oo..o.......                                                oo o                                                  oooooooooooooooo  oooXX$$$############$$XXoooo                oooooooooooX",
"$$$XXXooooo                ooooooooo                                                                 ooo$$$$###%##%%%####$$$$#######$$#####$$$$$$#############$$$$$$$$$$$$$$$Xoo                                                                       o   oooo ooo                            o    oooo    o ....  ........ooo..ooooo.o.....o.o.....X..XXXXX.XXXXXXXXXXXXXXXXXXXX++++XX++++++++++++$+$$$############%%%%%***==-;;;;;;;;;;-==****%%%%%#########$$$$$$$++$$$X++++XXXXXXXXXXXXXXXXXXXXXXXXXXXXXXXXXXXXXXXXXXXXXXXXXXXXXXXXX+++X++$$#######%%%*****=***======================================================================================================================================================**====********######&&&@&&&&::&&&@@@@@OO@OOO++OOOOOO+++OOOOOOOOO++++XX++++++++++++++++####++++############++++#+++++++++++++++++++++++++++++++++++++++++++++++++++++++++++++++++++++++++++++++++++@@&&@&&&&&&&&@@+++++++++++++++XX+XXXXX...o....XXXX+++++++++@#######+++@@@@++@@@@@@@&&&&::::&&@@@@@@@@@@@@@@@@@@@@@@@@@@@@@@O@@@@@@@@@@@@@@@@@@&&&&&:::&&&@@@OO+++++OOOO+OOOO....OO.X...XXXXXXX......XXXX....ooo........ o                                             oooo                                                  ooooooooooooooooooooX$$$############$$XXooo                  ooooooooooo",
"$$$$XXooooo                ooooooooo                                                                 ooo$$$$$##%##%######$$$$#######$$#####$$$$$$#############$$$$$$$$$$$$$$$$Xooo                                                                    o  oooo oooooo    oo                   o o    o o ..  . .o. .o........o.....oooo........o..o......XXXXX.XXXXXXXXXXXXXXXXX+XX++++XX++++++$+$$+++$$$$###########%%%%%****==;;;;;;;;;;;===***%%%%%%########$$$$$$$$++$$+XXXXXXXXXXXXXXXXXXXXXXXXXXXXXXXXXXXXXXXXXXXXXXXXXXXXXXXXXXXXXXXXXX++$$######%##%%**********************************=******===********============**======********====*****=====******=======*=========****=====**********====***************************%*%*#######&&&&&&&&::&&&@@@@@+O@+OO+OOOOO+O++O+OOOOOOO++++++++++++++++++++++#####################+++++##+++++++++++++++++++++++++++++++++++++++++++++++++++++++++++++++++++++++++++++++++@@@&@&&&&&&&&&@@@@++++++++++++++++++XXXXX..o..XXX+++++++######&&####+++@@@++@@@@@@@@@&&&::::&&&@@@@@@@@@@@@@@@@@@@@O@@@O@@O@@@@@@@@@@@@@@@@@@@@@&&&&:::&&&@@@OO+++OOOOO+OO+OO..OOO++...XXXXXXX.X..X....X...........o.....                                             oooooo                                                  ooooooooooooooooooXX$$############$$XXooo                     oooooooo",
"$$$$XXXoooo                 oooooo                                                                   ooo$$$$$##%#########$$$#######$$$#####$$$$$$#############$$$$$$$$$$#####$$Xoo                                                                    o    oooooo ooo     oo                   o   ooo  o   o.oo..oooooo..oooo...ooo........ooo.oo.ooX.XXXXX.XXXXXXXXXXXXXXXXXX+XX+++XX+++++++$$+$$++$$#############%%%%****==;;;;;;;;;;;-===***%%%%#########$$$$$$$$$++$$$XXXXXXXXXXXXXXXXXXXXXXXXXXXXXXXXXXXXXXXXXXXXXXXXXXXXXXXXXXXXXXXXX++$$$#####%%##%%**********==========================================================================================================================**=*==******=*==********************%#########&&&&&&&&&::&&&@@@@+O++OOOOOOOOOO+++O++OO++++++++++++++++++++++++$+++###################++#####++++++++++++++++++++++++++++++++++++++++++++++++++++++++++++++++++++++++++++++++++@@+@@@&&&&&&&&######+++++++++++++++XXXXXX...XXX++++++###############++@@@@@@@@@@@@@@&&&:::&&&@@@@@@@@@@@@@@@@@@@OOOOOO@@@@@@@@@@@@@@@@@@@@@@@@&&&&&:::&&&@@@@O++OOO+++OOOO+OOO+OO+....X+.XXXXX....X.......o..o........oo..                                           ooooXooooo                                                ooooooooooooooXXX$$$###########$$XXooo                       oooooo",
"$$$$$XXXooo                 o  o                                                                     ooo$$$$$##%#########$$########$$$####$$$$$$$#############$$$$$$$$$$#####$$Xooo                                                                   oo  oooooo  ooo   o                          ooo      oooo..oooooooooooo....oo......ooooo...oooX.XXXXX.XXXXXXXXXXXXXXXXX++XX++XXXX+++++$$$+$$$$$#############%%%%%***==-;;;;;;;;;;;===***%%%%%#########$$$$$$$$$++$$$XXXXXXXXXXXXXXXXXXXXXXXXXXXXXXXXXXXXXXXXXXXXXXXXXXXXXXXXXXXXX+XXX++$$#############%%%%%%%%%********************************************************************************************************************************************%%%%%%%%%%%%%%%%%%##########&&&&&&&&:::&&&@@@@++++OOOOOOOOOO+++++OX+++O++XXX++++++++++++++++++############################++++++++++++++++++++++++++++++++++++++++++++++++++++++++++++++++++++++++++++++++++@@@@@@&&&&&&&&&&############++++++++++XXXX..XX++++++############&&###+@@@+@@@@@@@@@@@&&&:::&&&@@@@@@@@@@@@@@@@@@OOOOOO@@@@O@@@@@@@@@@@@@@@@@@@@&&&&&&::&&&@@@@OOOO++++OOOO++O..O++OO.O++..XXXX....XX.........o.o......oo....                                          ooXXXoooooo                                               ooooooXoooooXXX$$$$###########$$XXoo                         ooooo",
"$$$$$$$XXooo o                                                                                       oooX$$$$###########$$$$#####$$$$$######$$$$$$#############$$$$$$$$$#####$$$Xooo                                                                    oooooooo                        o  o ooo     oo oooo  ..o.ooooooooooo.......oooo.o......o..XXX.XXX.XXXXXXXXXXXXXXXXXXXXXXX++X+XX+++++$$$+++$#############%%%%%%**====;;;;;;;;;;;===***%%%%%##########$$$$$$$$$$XXXXXXXXXXXXXXXXXXXXXXXXXXXXXXXXXXXXXXXXXXXXXXXXXXXXXXXXXXXXXXXXXXXX+$$$$####################%%%%%%%%*******%%%**%%***********%%%***%****%%%%********************%%******%%%%%%***%%%*****%%%****%%******%*****%%%%%%%***%%%%*%%%%%%%**%%%%%%%%%%##%%%#################@&&@@@&&:::&&&@@@@@@++OOOO++OOOOO++OOOOOX+O+X++++XX+++++++++++$$++########################+++++++++++++++++++++++++++++++++++++++++++++++++++++++++++++++++++++++++++++++++++++++++++###&&&&%%%%%%%%###########+++++++++XXXXXX+++###############&&####@+@@++@@@@@@@@@&&&&&:::&&@@@@@@@@@@@@@@@@@@@OO@@@@@O@@@@@@@@@@@@@@@@@@@@@@&&&&&&:::&&&@@@@@@++++OOOO+OOOOOOOO..+XX....XX..............XX..XXX....ooo...o..o                                       ooXXXXXooo                                                 oooooooooXXXX$$$##########$$$XXoo                              ",
"$$$$$$$$XXoooo                                                                                       oooX$$$$############$$$######$$#$######$$$$$$############$$$$$$$$$$#####$$$Xooo                                                                    oooooooo               o             ooo  oooo  oo.o .oo..oo..oooooooo......oooooooo......oXXXXXXX.XXXXXXXXXXXXXXXXXXXXXXXX+XXXX+++$+$$$++$$$############%%%%%***===;;;;;;;;;;;;==****%%%%%##########$$$$$$$$$XXXXXXXXXXXXXXXXXXXXXXXXXXXXXXXXXXXXXXXXXXXXXXXXXXXXXXXXXXXXXXXXXX++++$$$$#########################%%%%%%%%%%%%%%%#%%%%%%%%%%%%#%%%%%%%%%%%%%%%%%%%###%%%%%%%%%%%%%%%%%%%%%%%%%%%%%%%%%%%%%%%%%%%%%%%%%%%%%%%%%%%%%%%%%%%%%%%%%%%%####%%%%%%%###########################@&&@&@&&:::&&&@@@@@@@+OOOO++OOOO++++OOOOX++O.+++++++++++++++++++###########**%###############++++#+++++++++++++++++++++++++++++++++++++++++++++++++++++++++++++++++++++++++++++++++++#####&####################+++##++++++XXXX+++################&&###@+@@@+@@@@@@@@@&&&&&&:::&&@@@@@@@@@@@@@@@@@@OO@@@@@O@@@@@@@@@@@@@@@@@@@@@@@@&&&&::::&&@@@@@@+++OOOOOO+OOOO.OO..XXX.O..XX....X.............XXX....ooo......                                        oooXXXXXooo                                                 ooooooooXXXX$$$$#########$$$XXoo                              ",
"###$$$$$$$Xooo                                                                                       ooo$$$$$$##########$$$$$#######$$$#####$$$$$$#############$$$$$$$$$$####$$$XXoo o                                                                 o ooooo  oo                       oo  ooo    ... oooo  ooo.o ..o.o.oooooo....oo..oooooo....oXXXXXXX..XXXXXXXXXXXXXXXXXXXXXXX+XXXX+++$++$$++$$#############%%%%****==-;;;;;;;;;;;==****%%%%%%###########$$$$$$$$$$$$XXXXXXXXXXXXXXXXXXXXXXXXXXXXXXXXXXXXXXXXXXXXXXXXXXXXXXXXXXXXXXX++++$$$############################%%%%%%####%%###%##%#%%%%####%#####%%####%%%%######%%#%##%%#####%##%%%%%%##%%%%###%%%##%#%%########%%%%%%####%%##%#%%####%%%%####%%%%#########################+#+##@&&#&&&&&::&&&&@@@@@++OOOO++OO+++++++++O++++.X++++++++++++++++###########%*===***%#############++++++++++++++++++++++++++++++++++++++++++++++++++++++++++++++++++++++++++++++++++++++#########################++++#+++++++XXXXX++###############&%&#####@++++@@@@@@@@@&&&&&&:::&&@@@@@@@@@@@@@@@@@@O@@@@OO@@@@@@@@@@@@@@@@@@@@@@@@&&&&&&:::&&&@@@@OO+OOOOO+OOOOO++O..X+O+O..XXXX..................XX.....o..o.... o                                       ooXXXXXXooo                                                 oooooooXXX$$$##########$$$XXoo                              ",
"#######$$$XXoo                                                                                        oo$$$$$$#########$$$$$$####$$#$$######$$$$$##############$$$$$X$$$$$$$$$$$XXoooo                                                                 o  ooooo oo                  o        ooo  ..oo.   o . ooo . ..o.....oooooo...o..oooooo....oXXXX.XX.XXXXXXXXXXXXXXXXXXXXXXXXX+++++++$+$$$++$#############%%%%*****==;;;;;;;;;;;;==***%%%%%%%%##########$$$$$$$$$$$$+XXXXXXXXXXXXXXXXXXXXXXXXXXXXXXXXXXXXXXXXXXXXXXXXXXXXXXXXXXXXXX++++$$####*##################################%%########%%%###########%%#####%%%#######%################%%%%####%%####%%##%%%%##########%##%####%%####%%####%%%%################################++#+##@@&#&@&&&&:&&&&@@@@@++++O++OO+O++++++++++X++XX+++++++++++++++$###########%=;;;=***%%%%############+++++++++++++++++++++++++++++++++++++++++++++++++++OO++++O+++++++++++++++++++++++++#+###############++$#++++++++++++++++++XXX+++##############%%&&####@@+++@@@@@@@@@@&&&&&::::&&@@@@@@@@@@@@@@@@@@@@@@@@@@@@@@@@@@@@@@@@@@@@@@@@@&&&&&&:::&&&@@@O@+++OOO+OOOOOOOOOOXOOOO..XX++..X.X......XX.....XX........oo....o..                                      ooXXXXXoooo                                                  oooooXXX$$$$#########$$$XXoo                              ",
"#####%###$$Xoo                                                                                        oo$$$$$$#########$$$$$$#######$$##$$$$$$$$$############$$$$$XXXX$$$$$$$$$$XXoo o                                                                    oooo  oo              o  o oo    o    oo..  oo    oooo... oo....oooo..oooo....oo..ooooXXXXXXXXXXXXXXXXXXXXXXXXXXXXXX++XXX+X++++++++++$$$##############%%%*****==;;;;;;;;;;;;==****%%%%%%###########$$$$$$+++$$$$XXXXXXXXXXXXXXXXXXXXXXXXXXXXXXXXXXX...XXXXXXXXXXXXXXXXXXXXXXXXX++++$#####*#################################################################################%##########%%%%%%%%######%%####%###########%%%############%##%%######%#############################++++###@&&&@&&&&::&&&@@@@@@+++++OO+++OOOOOO++++O++O+++++++++++++++++##########%*=;;;;=******%###########+++++++++++++++++++++++++++++++++++++++++O++++++++++O++++++++++++++++++++++++++++++++++++++++++++++++++++++++++++++++++++++XXX+++#############%%%%#%&###+++@@@@@@@@@@@&&&&&:::&&&&@@@@@@@@@@@@@@@@@@@@@@@@@@@@@@@@@@@@@@@@@@@@@@@@@&&&&&:::&&&@@@@@@++++OOOOOOOOO+++O...OOOOXXX.XX......X.......X...........oo.....                                       ooXXXXXXXoo                                                 ooooooXX$$$$########$$$XXXo                               ",
"#########$$Xooo                                                                                       ooX$$$$$#########$$$$$$$######$$##$$$$$$$$$$##########$$$$$$XXXXXX$$$$$$$$XXoooo                                                                     ooo  oo  oo ooo      oooooo     o    ooooo oo      oo.. . o.o..oo.o..oooo....o...ooooXXX..XXXXXXXXXXXXXXXXXXXXXXXXX++XX++X+++++++++##$##############%%%*****==-;;;;;;;;;;;-==***%%%%%%%########$$#$$$$$$$++XX$$XXXXXXXXXXXXXXXXXXXXXXXXXXXXXXXXXXXX..XXXXXXXXXXXXXXXXXXXXXXXXX+++$#######################################################%#%###############%%#######%####%%#####%######%%#%#%#######%####%%##########%#%%#%%%#######%##%%###################################++++++###&&&@&&&&::&&&@@@@@++++++OOO+OOOOOO+++++++++++++++++++++++++##########%%*=;;;;-=*****%#############+++++++++++++++++++++++++++++++++++++++++++++++++OOO++++++++++++++++++++++++++++++++++++++++++++++++++++++++++++++++++++++XX++++#############%&%%%&&###+++@@@@@@@@@@@&&&&&:::&&&@@@@@@@@@@@@@@@@@@@@@@@@@@@@@@@@@@@@@@@@@@@@@@@@@@&&&&&::::&&@@@@O++++OOOO+OOO++OOOOO.OOO+XXX.XX....XXXX.....XXX......X...oooo......                                      ooXXXXXXooo                                                 ooooXX$$$$$$$$$$##$$XXXoo                               ",
"%%%%%%####$$oooo                                                                                      ooX$$$$###########$$$$$#####$$$$####$$$$$$$$#########$$$$$$$XXXXXXX$$$$$$$$Xoooo                                                                      ooo     oooooooo   o  oooo    oooo  oo  o.ooo. ......... ooo...o......oo..oooo....ooXX.X.X.XXX..XXXXXXXXXXXXX+++XXX++++++++$++++$###$#############%%%%****==-;;;;;;;;;;;;==****%%%%%##########$$$$$$$$$$+XXX$XXXXXXXXXXXXXXXXXXXXXXXXXXXXXXXXXXXXXXXXXXXXXXXXXXXXXXXXXXXXXXXX++$$#####################################################################%####%#####%%#%%##%%%%####%%########%%########%%##%%%###%%%%########%%##########%%######################################++######&@&&&&::&&&&@@@@++++OOOO++++OOOO++++++++XX++++++++++++++++#########%%*=;;;;;=*******#############++++++++++++++++++++++++++++++++++++++++++++++++O++++++OO+++++++++++++++++++++++++++++++++++++++++++++++++++++++++++++++++++++++##############%%%%%####+++@@@@@@@@@@@&&&&&:::&&&&@@@@@@@@@@@@@@@@@@@@O@@@@@@@@@@@@@@@@@@@@@@@@@@@@&&&&&::::&&&@@@@+OOOO++++O++OOOOOO+X+++XXXXXXX...XXXXX....X........XX....oo........                                     oooXXXXXXoooo                                              ooooXX$$$$$$$$$$$$$$XXXoo                               ",
"%%%%%%%###$$ooo                                                                                       ooX$$$$###########$$$$$$####$$$$####$$$$$$$$#########$$$$$$$XXXXXXXX$$$$$$$Xoooo                                                                       o      oooooooo      ooooo   oooo  o     ooo........... .o...oo........oooooo....XXX..XXX..XX..XXXXXXXXXXXX++++XXX++++++++$$+++$#################%%*****===;;;;;;;;;;;;===****%%%%%##########$$$$$$$$$$+++X$+XXXXXXXXXXXXXXXXXXXXXXXXXXXXXXXXXXXXXXXXXXXXXX.XXXXXXXXXXXXXXX+++$#######################################################%%%############%%###%#%###%%%%%##%%%###%%%%%%######%%%#######%%%%%%%###%%%%%%%%####%%%#########%%#######################################+###@##&&&&&&&::&&&@@@@++O+OOOO+++OOO+O++++++++.X+++++++++++++++##########%%*=;;;;;;=******%#############++++++++++++++++++++++++++++++++++++++++++++++++++++++OO++++OO++++++++++++++++++++++++++++++++++++++++++++++++++++++++++++++++++#############%%%%%&#&##++@@@@@@@@@@@@&&&&&:::&&&@@@@@@@@@@@@@@@@@@@OOO@@@@@@@@@@@@@@@@@@@@@@@@@@@&&&&&&:::&&&&@@@+OOOO+++++++OOOOO+XXOOOXXX.XXO...XXXX....XX.....X.XXX....oo..ooo......                                   oooXXXXXXooo                                                oooXXXX$$$$$$$$$$$XXooo                               ",
"%%%%%%%###$$oooo                                                                                      oo$$$$$##########$$$$$$$#####$$$$$###$$$$$$$$##########$$$$$XXXooXXX$$$$$$XXooooo                                                                o    oooo ooo      o   oo            oooo   o..oooooo  ..oo....ooooo . .o..oooooo....ooXX..XXXXXXXXX.XXXXXXXXXXXX+++XXXXXX++++++++$$$$$#############%%%%%***===-;;;;;;;;;;;;===****%%%%####%########$$$$$$$$$$$XX++XXXXXXXXXXXXXXXXXXXXXXXXXXXXXXXXXXXXXXXXXXXXXXXXXXXXXXXXXXXXXX++$$##########################################################%############%#######%####%%############%%%###%%#######%##%%#########%%%####%%%#########%%######################################+++++++++@##&&&@&&&::&&&@@@@+++++++OOOOO+++++++++++OXOO+++++++++++++$#########%%%*=;;;;;;-=****%%############+++++++++++++++++++++++++++++++++++++++OOOO++O+OO+++++++++++++++++++++++++++++++++++++++++++++++++++++++++++++++++++++++++++X++++##############%%%&&&####++@@@@@@@@@@@@&&&&:::::&&@@@@@@@@@@@@@@@@@@@@@@@@@@@@@@@@@@@@@@@@@@@@@@@@@&&&&&&::::&&&@@@@@@OOOOOOOOOO+OOOOOO+XXXOO....+..XXXXX............XX...XXX....oo....                                        ooXXXXXXooo                                                oooXXXX$$$$$$XXXooo                                ",
"%%%%%%####$$oooo                                                                                      oo$$$$$##########$$$$$$$#####$$$$$###$$$$$$$$##########$$$$$XXooooXXX$$$$$XXoooo                                                                      oooo ooo   o ooo  o     oo       o      o.oooooooo.. oo...oo..o  .....oooooo....XXXX.XXXXXXXXXXXXXXXXXXXXXXX+++XXXXX++++++++$$################%%%%%%**===-;;;;;;;;;;;;-===***%%%%%###########$#$$$$$$$$$$+XX+$XXXXXXXXXXXXXXXXXXXXXXXXXXXXXXXXXXXXXXXXXXXXXXXXXXXXXXXXXXXXXX++$$###############################################%##########%%%########%%%%###%%%%###%%%###%%%####%%%%####%%%%#####%%%%%####%%###%%%####%%%#########%%##########%###########################++++#++++@##&&&&&&&:::&&@@@@++++++++OOO++++++++++++XXX+++++++++++++$$$########%%%*=;;;;;;;=******############+++++++++++++++++++++++++++++++++++++++OOOO++++OO+O++++++++++++++OO++++++++++++++++++++++++++++++++++++++++++++++++++++++++++++++##############%%%%&&&###@@@@@@@@@@@@@@@&&&&::::&&&@@@@@@@@@@@@@@@@@@@@@@@@@@@@@@@@@@@@@@@@@@@@@@@@@&&&&&&&:::&&&@@@@@@++++OOOOOO+OOOOOO...OO....++.X++XX..............X..X.X....oo....                                         ooXXXXXXoo                                                 oooXXXXXX$XXXXXooo                                ",
"#######$$$XXoo                                                                                        ooX$$$$$#########$$$$$$$####$$$$$$$$$$$$$$$$##########$$$$$XXoXoooXXXX$$$XXXoooo                                                                  o     oo  o    ooooo  ooooo    o          oo...o  o ooo.oo....o..  o  o....o..o....XXXXXX..XXXXXXXXXXXXXXXXXXX+++X++XXXXXX+++++$$$###############%%%%%***====;;;;;;;;;;;;;===****%%%%%####%######$$$$$$$$$$$$$XX++$XXXXXXXXXXXXXXXXXXXXXXXXXXXXXXXXXXXXX..XXXX..XXXXXXXXXXXXXXXX++$#####%##########################%######%%####%%%%%%%%%%##%%%%%%%%%%%%%%%%%%%%%%%%%%%%%%%%%%%%%%%%%%%%%%%%%%%%%%##%%%%%%%#%%%%####%%%%%%%%%%%%%%%%%%%%%%%%%%%%%%%%####%%%%###################+####+++++#&&&@&&&&::&&&@@@@+@OOO++OOO+++++++++++XX++++++++++++++++$#########%%%*==;;;;;;;=*****%##############++#++++++++++++++++++++++++++++++++++O++++++OOOOOO++++++++++++O++++++++++++++++++++++++++++++++++++++++++++++++++++++++++++++++###############%#&&##&&##@@@@@@@@@@@@@&&&&&::::&&&&@@@@@@@@@@@@@@@@@@@@@@@@@@@@@@@@@@@@@@@@@@@@@@@@@@&&&&&::::&&@@@@@O@OOOOOOOOOO++OOOOO.OO..OOO+XX+X.X..XXXXXX..........XX.....oo.o...     .                                  ooXXXXXXXooo                                               oooooXXXXXXXXoooo                                ",
"#######$$$XXoo                                                                                       oooXX$$$$#########$$$$$$$####$$$$$$$$$$$$$$$$$#########$$$$XXXXXXXXXXXXXXXXXooooo                                                                            oooo   oo   oooooo   o   o        ....  . oooo.... . .......oo...o......oXXXXXXX.X..XXXXXXXXXXXXXXXX++XX++++++X++$++$$$###$###########%%%%%****==-;;;;;;;;;;;;;===****%%%%%#####%#####$$$$$$$$$$$$$$+++X$XXXXXXXXXXXXXXXXXXXXXXXXXXXXXXXXXXXXXXXXXXXXXXXXXXXXXXXXXXXXX++$#########################%#####%%%%##%%%%##%%%%%%%%%%%%%%%%%%%%%%%%%%%%%%%%%%%%%%%%%%%%%%%%%%%%%%%%%%%%%%%**%%%%%%%%%%%%%%%%%%%%%%%%%%%%%%%%%%%%%%%%%%%%%%%%%%%%*%%##%%%%##################++####+++#+#&&&&&&&&:::&&@@@@+@OOO+++OOO++++++++++XXX+++++++++++++++$########%%%%**=;;;;;;;-=*****%##############+##+++++++++++++++++++++++++++++++++++O+++++OOOO+++OOOOOO+++OO+++++++++++++++++++++++++++++++++++++++++++++++++++++++##++++X+++################%&&&&&&&@@@@@@@@@@@@@@@&&&&&:::&&&@@@@@@@@@@@@@@@@@@@@@@@@@@@@@@@@@@@@@@@@@@@@@@@@@@&&&&&&&::&&&&@@@O@++++OOOOOO+OOOOOOOOO++OOO+....O...XXXXXX...........XX...oooo.oo...  ..                                   oooXXXXXXoo                                                oooooXXXXXoooooo                                ",
"####$$$$XXoo                                                                                         oooXX$$$$########$$$$$$$$$$##$$$$$$$$$$$$$$$$######$$$$$$$$XXXXXXXXXXXXooXXXooooo                                                                         ooo   ooo   oo  ooo     o      ..oooo ooo .o....o.     ..o ..  oo.....ooo.ooXX..X...XXXXXXXXXXXXXXXXXXXX+X++X+++++$++++$$$$$#############%%%*****==-;;;;;;;;;;;;;===****%%%%%%%%%###########$$$$$$$$+$++++$$X+++XXXXXXXXXXXXXXXXXXXXXXXXX..XXXXXXXXXXXXXXXXXXXXXXXXXXXXX+$$####%*##################%%####%%%%%%%%%%%%%%%%%%%%%%%%%%%%%%%%**%%%%%%%%%%%%%%%%%*%%%%%%%%****%%%%%%**%%%%%%%%%%%%%%%%%%%%****%%%%%%%%%%%%****%%%%%%%%****%%%%*****%%%**%%%#%###################++++##+#&&&&&&&&:::&&@@@@@@@++OOOO++OO++++++++OO++++++++++++++++++########%%%**=;;;;;;;;==******################++++++++++++++++++++++++++++++++++++++++OOOO++OOOOOO++O+++++O+++++++++++++++++++++++++++++++++++++++++++++++++++++++##++XX+++##############%%%%%%%&#&@@@@@@@@@@@@@@&&&&&&::&&&&@@@@@@@@@@@@@@@@@@@@@@@@@@@@@@@@@@@@@@@@@@@@@@@@@@&&&&&&::::&&&@@@@O@OOOOOOOOOO+++OOO++OOOO........XXX+XX......XXX.........X...oo.........                                     ooXXXXXXoo                                                ooooooooooooo                                 ",
"##$$$$XXoooo                                                                                          ooXX$$$$$#######$$$$$$$$$$##$$$$$$$$$$$$$$$$######$$$$$$$$XXXXXXXXXXooooooooooo                                                                             o   o   o   oooo     o o o ...  oo.ooo....oo....  ....o.o o.oo.....ooo.oXXX..X...XXXXXXXXXXXXXXXXXXXXXXXX++++$+$++++$$$$#############%%%%****==-;;;;;;;;;;;;;===****%%%%%#%%############$$$$$$++$+$$++XXXXXXXXXXXXXXXXXXXXXXXXXXXXXXXX..XXXXXXXXXXXXXXXXXXXXXXXXXXXXX$$#####%%################%%%%%%%%*%%%%%%%%*%%%%%*%%%%****%%%%%%***************************%%%******%*********************%%%%*****%******%%%%*****%*%**********************%%%%%#%%################++++##+#&&&&&&&&::::&&@@@@@+++OOO++++OO+++++OOOO++++++++++++++++++########%%%**=-;;;;;;;;==******%##############++++++++++++++++++++++++++++++++++++++++OO+++++OOOOO++OOO+++O++++++++++++++++++++++++++++++++++++X++++++++++++++++++##++++++++#############%%%%%&&&&&@#@@@@@@@@@@@@@&&&&&&::&&&@@@@@@@@@@@@@@@@@@@@@@@@@@@@@@@@@@@@@@@@@@@@@@@@@@@&&&&&&::::&&@@@@@@OOOOOOOOOOO+O+OO++++OO+....O..X.X+XX..X.XXX..X......XXXXo.ooo.o......                                      ooXXXXXoooo                                               oooooooooo                                   ",
"#$$$Xooooo                                                                                            ooXX$$$$########$$$$$$$$$###$$$$$$$$$$$$$$$$$$$$$$$$$$$$$$XXXXXXXXXoooooooooooo                                                                    ooo  oooooo    o oo   o      ..  oo..................ooo.......oooo.....o...ooooXX..XXX.X.XXXXXXXXXXXXXXXXXXXXX++++++++$$+$+$$#$$$###########%%%%****==;;;;;;;;;;;;;;===*****%%%%%%##############$$$$$$$$$$$$$$$$XXXXXXXXXXXXXXXXXXXXXXXXXXXXXX..XXXXXX.XXXXXXXXXXXXXXXXXXXXX+$$#####%%########%%%%%%%%%%**%%*********************************************************************************************************************************************%%%%%%%%##############++++###+#&&&&&&&&&::&&&@@@@++++OO+++++++++++++++OXX+++++++++++++++$########%%%%*==;;;;;;;;-=*******###############++++++++++++++++++++++++O+O+++++O+O+++++O+++++++O++++++++O+++O++++++++++++++++++++++++++++++++O+++++++++++++++++++++#++++++++###############%%%%%&#####@@@@@@@@@@@@@&&&&&&&&&&&@@@@@@@@@@@@@@@@@@@@@@@@@@@@@@@@@@@@@@@@@@@@@@@@@@@@&&&&&::::&&&@@@@@@OOO+++OOOOOOOO++OOOOO+++++OO....X...XXXXX.........X.XX.......o......                                      ooXXXXXXXoo                                                   oooo    o                               ",
"$$$XXooooo                                                                                            oooX$$$$#######$$$$$$$$$$##$$$$$$$$$$$$$$$$$$$$$$$$$$$$$$X$XXXXXXXXoooooooooooo                                                                   o oo  oooooo   oo oooo      ..... ooo.........  ........o.......ooo.....oo...ooo.X...XXXXX.XXXXXXXXXXXXXXX+XXXX+++++++++$$$$+$##$$###########%%%%****==-;;;;;;;;;;;;;;==*****%%%%%%%##############$$$$$$$$$$$$+X$$$XXXXXXXXXXXXXXXXXXXXXXXXXXXXX..XXXXXX.XXXXXX.XXXXXXXXXXXXXX+$$#####%%#######%%%%%%%%%************========**=========================================================================================================================*******%%%%%%#############+++######&&&&&&&&&:::&&&@@@@+++O++++++++++++++++OXX++++++++++++++++$#######%%%%**=;;;;;;;;;==******%##############+++++++++++++++++++++++++++++++++++++++++++++++++++++++++O+++O++++++++++++++++++++++++++++++++++X++++++++++++++++++++#$+++++++################%%%##&###@@@@@@@@@@@@@@&&&&&&&&&&@@@@@@@@@@@@@@@@@@@@@@@@@@@@@@@@@@@@@@@@@@@@@@@@@@@@&&&&&&::::&&&@@@@@OO++++OOOOOOOOOOOOOOOOO++OOO........XXXXXX......XX....XX.....oooo.......                                   oooXXXXXX.oo                                                  ooo    o                               ",
"XXoooooo                                                                                              oooX$$$$########$$$$$$$$$$#$$$$$$$$$$$$$$$$$$$$$$$$$$$$$X$$$XXXXXXoooooooo o                                                                            oooo   ooo    o...o     oo..  oo.....ooo .o....ooo.....ooo....o ..oooo.o...XXoX.XXXXXXXXXXXXXXXXXXXXXX+X+++++++$++++$$+++$############%%%%%***==;;;;;;;;;;;;;;-==****%%%%%################$$$$$$$$$$$+++++$$$XXXXXXXXXXXXXXXXXXXXXXXXXXXX.XXXXXXXX..XXXXXoXXXXXXXXXXXXXX++$##########%%%%%%%%%****===========---==----;;;;--;;;;;;;;;;;;;;;;;;;;;;;;;;;;;;;;;;;;;;;;;;;;;;;;;;;;;;;;;;;;;;;;;;;;;;;;;;;;;;;;;;;;;;;;;;;;;;;;;;;;;;;;;;;;;;;;;;;;-=====*****%%%%###############++++##@#&&&&&&&:::&&&@@@+@@++++++OOO++++O+++XXXX++++XX++++++++$$$#######%%%***=-;;;;;;;;;==***%%%%##############++++++++++++++++++++++++++++++++++++++++OO++++OOOOOO++OOOO+++OOO+++++O++++++++++++++++++++++OO+++++++OO++++O++++++++++++++++++###############%%%%%%###@@@@@@@@@@@@@@&&&&&&&&&&@@@@@@@@@@@@@@@@@@@@@@@@@@@@@@@@@@@@@@@@@@@@@@@@@@@@&&&&&&&::::&&&@@@@OO++OOOOO++OOOOOOO+O+OOO..XXXX..XXXX....XX.....XXXX.......o.......o..ooo                                      . XXXXXXXo                                                      o oo o                            ",
"ooooo                                                                                                 oooX$$$$#$$#####$$$$$$$$$$#$$$$$$$$$$$$$$$$$$$$$$$$$$$$$X$$$XXXXXXoooooo                                                                                   o o  .o    oo..    . oo....oo ...o.o...o....o.o.....o...... o..oooo..oX..XoXXX.XXXXXXXXXXXXXXXXXXX+++++++++$$++++$$$+$$###########%%%%****==-;;;;;;;;;;;;;===****%%%%%%################$$$$$$$$$$$+++++$+XXXXXX+XXXXXXXXXXXXXXXXXXXXXX.XXXXXXXXX.XXXXooXXXXXXXXXXXXXX++$#########%%%%%%%**=====;;;;;;;;;;;;;;;;;;;;;;;;;;;;;;;;;;;;;;;;;;;;;;;;;;;;;;;;;;;;;;;;;;;;;;;;;;;;;;;;;;;;;;;;;;;;;;;;;;;;;;;;;;;;;;;;;;;;;;;;;;;;;;;;;;;;;;;;;;;;;;;;;;;-===***%%%%##############++++++@#&&&&&&&:::&&&@@@+@++++++++O+++++++++XXOX+++++XX+++++++$$$#######%%%***==;;;;;;;;;-==***%%%###############+++++++++++++++++++++++++++++OO++++++++OOO+++OOOO++++OOOO+++OOO+++++O++++++++++++++++++++++OO+++++++OOO+++++++++++++++++++++++###############%%%%%%##&#@@@@@@@@@@@@&&&&&&&&&&@@@@@@@@@@@@@@@@@@@@@@@@@@@@@@@@@@@@@@@@@@@@@@@@@@@@@&&&&&&&::::&&@@@@OOO+OOOOOOOOOOOO+OO+OOOOOOXXXXOOX+XX....XX....XX..XXX....XX.......o..o.                                         oXXXXXXXo                                                            o                          ",
"oo                                                                                                    oooX$$$$$#$$####$$$$$$$$$$#$$$$$$$$$$$$$$$$$$$$$$$$$$$$$$XXXXXXXXooooo                                                                          oooooo  ooo   ..oo. ooo...oo....oo...............ooo..................oooo..ooo.oXX.XXXXX...XXXXXXXXXXXXXXXX++X+X+++++$$$+++$#$$$############%%%****==;;;;;;;;;;;;;;-=*****%%%%%%%##############$$#$$$$$$$$$$$$$+++$++XXXXXXXXXXXXXXXXXXXXXXXXXX..XXXXXXXX.XXXXXooXXXXXXXXXXXXXX$$$########%%%%%**===;;;;;;;;;;;;;;;;;;;;;;;;;;;;;;;;;;;;;;;;;;;;;;;;;;;;;;;;;;;;;;;;;;;;;;;;;;;;;;;;;;;;;;;;;;;;;;;;;;;;;;;;;;;;;;;;;;;;;;;;;;;;;;;;;;;;;;;;;;;;;;;;;;;;;;;;;;;-==**%%%%%##############++++@#&&&&&&&&&:&&&@@@+@++OO++++++++++++++++++++++++X+++++++$$+#######%%%%***=;;;;;;;;;;==*****%################+++#++++++++++++++++++++++++++++++++O+OO++++OO++++++++O+++++OO++++OOO+++++++++++++++++++OOO+++O+++++++++++++++++++++++++++++++###############%%#&&&&##@#@+@@@@@@@@@@@@@@@@&@@@@@@@@@@@@@@@@@@@@@@@@@@@@@@@@@@@@@@@@@@@@@@@@@@@@@@@@@&&&&&&&&&&&&@@@@OOOO++OOOOOO++++OOOO+OOOO.+++OX.++....XX..XXXX....X.....ooX....ooo....  o                                      ooooXXXoooo                                                     o                              ",
"                                                                                                      oooX$$$$$#$$####$$$$$$$$$$$$$$$$$$$$$$$$$$$$$$$$$$$$$$$$$XXXXXXXoooooo                                                                          oooooo   oo   .ooo.ooooo.. o....oo................oo..............o..ooooo...o..oXXXX.......XXXXXXXXXXXXXXX++++++++++$$$$+++$#$#############%%*****==-;;;;;;;;;;;;;;==****%%%%%%%###############$$#$$$$$$$$$$$$$$$$++++X+XXXXXXXXXXXXXXXXXXXXXXX..XX..XXXX.XXXXXXXXXXXXXXXXXXXXX$$$#######%%**===-;;;;;;;;;;;;;;;;;;;;;;;;;;;;;;;;;;;;;;;;;;;;;;;;;;;;;;;;;;;;;;;;;;;;;;;;;;;;;;;;;;;;;;;;;;;;;;;;;;;;;;;;;;;;;;;;;;;;;;;;;;;;;;;;;;;;;;;;;;;;;;;;;;;;;;;;;;;;;;;;==**%%%%%#############++##@#&&&&&&&&&:&&&@@@@@++OO++++++++++++O++XXXX+++++X+++++++$$$########%%%***==;;;;;;;;;-==*****%###############++##+++++++++++++++++++++++++O+++++++OOO++++OO++++++++O+++++OOOO++OOOO++++++++++++OO+++OO+O+++O++++++++++++++++++++++++++++++++##############%#%&&&&&&##@@@@@@@@@@@@@@@@@@@@@@@@@@@@@@@@@@@@@@@@@@@@@@@@@@@@@@@@@@@@@@@@@@@@@@@@@@@@&&&&&&&&&&&&@@@@@OOO++OOOOOOO+O++OOOO+OOOOO+OO..++O.XXXX..XXXX....XX....Xoo.....oo....oooo.                                     o XXXXXXXo                                                           o                        ",
"                                                                                                      oooX$$$$$$$$###$$$$$$$$$$#$$$$$$$$$$$$$$$$$$$$$$$$$$$$$$$$XXXooooooo                                                                                 o oooooooo   oooooooo......oo...............o................oooo..oo..oooo.XXXX.XXXX..XXXXXXXXXXXXXXXXXXX+++++++++++$################%%%****==-;;;;;;;;;;;;;-==***%%%%%%###################$##$$$$$$$$$$$$$$$++++XXXXXXXXXXXXXXXXXXXXXXXXXXXX...XXX...XX....XXXXXXXXXXXXXX$$$#####%%%*==;;;;;;;;;;;;;;;;;;;;;;;;;;;;;;;;;;;;;;;;;;;;;;;;;;;;;;;;;;;;;;;;;;;;;;;;;;;;;;;;;;;;;;;;;;;;;;;;;;;;;;;;;;;;;;;;;;;;;;;;;;;;;;;;;;;;;;;;;;;;;;;;;;;;;;;;;;;;;;;;;;;;;==***%%%%##############+###@#&&&&&&&&&&&&@@@@++OO++++++O++++XOX++XXXX+++++++++++++++#########%%****=;;;;;;;;;;-=******%#############+++##+++++++++++++++++++++++++++OOO+OOO+++++++++OOOOOO+++++++++OOO+++++OOOO+++OOO++OOOO++++OO++OO++++++O+++OO++++++++++++++++++++##############%%&&%%&&&&++@@@@@@@@@@@@@@@@@@@@@@@@@@@@@@@@@@@@@@@@@@@@@@@@@@@@@@@@@@@@@@@@@@@@@@@@@@@@&&&&&&&&&@@@@@OOOO++OOOOOO++OOOOOOO++++OOOOXOOOO+++XXOXXX...XXX.......X............. .ooo o                                     ooXXXXXXoo                                                                                  ",
"          ooooooo                                                                                     oooX$$$$$$$$###$$$$$$$$$$$$$$$$$$$$$$$$$$$$$$$$$$$$$$$$$$$$XXooooooo                                                                                ooooooooooo o   ooo.........oo..............................ooo.oo.ooo..oo.X.X..X.XX.X..XXXXXXXXXXXXXXXXXXX+++++++++++################%%%****===;;;;;;;;;;;;;;==****%%%%%%######################$$$$$$$$$$$$$$$$$$$$X+++XXXXXXXXXXXXXXXXXXXXXXXXX.XX....XX....XXXXXXXXXXXXXX$$$#####%%%==;;;;;;;;;;;;;;;;;;;;;;;;;;;;;;;;;;;;;;;;;;;;;;;;;;;;;;;;;;;;;;;;;;;;;;;;;;;;;;;;;;;;;;;;;;;;;;;;;;;;;;;;;;;;;;;;;;;;;;;;;;;;;;;;;;;;;;;;;;;;;;;;;;;;;;;;;;;;;;;;;;;;;;;-=***%%%#############++###@#&&&&&&&::&&&@@@@++++++O+++OO+++XXX++XXXX+++++++++++++++#########%%%***==;;;;;;;;;;==******%#############++##+++++++++++++++++++++++++++++OOOOO+++++++++OOOOOOO+++O++++OOOO++++OOOO++++O+++OO+O++++OO++OOOO++++OOO+OOOO++++++++++++++X++++###############&&#%&#&&#@@@@@@@@@@@@@@@@@@@@@@@@@@@@@@@@@@@@@@@@@@@@@@@@@@@@@@@@@@@@@@@@@@@@@@@@@@@@&&&&&&&&&@@@@@@OOOOOOOOOOOO++OOOO+OOO+++OOOO+OOOO+X+X.++X....XXX..XX...............oo....oo                  X                    oXXX+#+oo o                           oo                                       ooooooo oo  ",
"      oooooooooooooo                                                                                  oooX$$$$$$####$$$$$$$$$$$$$$$$$$$$$$$$$$$$$$$$$$$$$$$$$$$X$$Xooooooo                                                                          oo     oooo o.o.oo   oo...o...............................oooo....oo......oo.o.o..XX..X.XXXXXXXXXXXXXXXXXXXXXXXX+++++++++$+$$###############%%%***===;;;;;;;;;;;;;;===***%%%%%%#######################$$$$$#$$$$$$$$$$$+$$$$$++++XXXXXXXXXXXXXXXXXXXXXX.XXXX.XXXXXXXXXXXXXXXXXXXXX$$$#####%%*=;;;;;;;;;;;;;;;;;;;;;;;;;;;;;;;;;;;;;;;;;;;;;;;;;;;;;;;;;;;;;;;;;;;;;;;;;;;;;;;;;;;;;;;;;;;;;;;;;;;;;;;;;;;;;;;;;;;;;;;;;;;;;;;;;;;;;;;;;;;;;;;;;;;;;;;;;;;;;;;;;;;;;;;;;-=**%%%#############++++###&&&&&&&&::&&&@@+++++++OO+++++++++XOXXXXO++XX++++++++++$#########%%%%%*==;;;;;;;;;;-=*****%**##############++++++++++++++++++++++++++++++++++OOOOOOOO+++OOOOOO+++OOOOOOOOOOOO+++OOO++O+OO++++OO+++OOO+O++O+++OOOO++++++++++++++++++++++++++#############%%&%%%%&&&#@@@@@@@@@@@@@@@@@@@@@@@@@@@@@@@@@@@@@@@@@@@@@@@@@@@@@@@@@@@@@@@@@@@@@@@@@@@@@@@&&&&&@@@@@@@OOOO+++OOOO+++OOOOOOO++OOOO++++++++....+++...XXXX..X.XX....XXXX....oo.....o  .       +;;= X=;;=X=;;=+    #=;;= =;;#o#;;;;;% o====&    +==&    +=-==X +=;;;;;% X;;;;;+    o;;;;%                oooooooooooooo",
"    ooooooXXXXXoooooo                                                                                 oooX$$$$$$$###$$$$$$$$$$$$$$$$$$$$$$$$$$$$$$$$$$$$$$$$$$$X$$Xooooooo                                                                           o    ...o..oo.o...o.o....oo..............................oo......oo......oooooo.XX.....XXXXXXXXXXXXXXXXXXX+++X++++$+++$$$+++##############%%%***===-;;;;;;;;;;;;;===****%%%%%########################$$$$$#$$$$$$$$$$$$$+$$$$++++XXXXXXXXXXXXXXXXXXXXXXXXXXXXXXXXXXXXXXXXXXXXXXXX$$$#####%%*==;;;;;;;;;;;;;;;;;;;;;;;;;;;;;;;;;;;;;;;;;;;;;;;;;;;;;;;;;;;;;;;;;;;;;;;;;;;;;;;;;;;;;;;;;;;;;;;;;;;;;;;;;;;;;;;;;;;;;;;;;;;;;;;;;;;;;;;;;;;;;;;;;;;;;;;;;;;;;;;;;;;;;;;;;=***%%############+++#####&&&&&&&&::&&&@@@+++++++OOO+++X+++XO+++X+++XXX+++++++++$#########%%%%%**=-;;;;;;;;;;==*******###############+++++++++++++++++++++++++++++++++OOOOOOOO+++OOOOOO+++OOOOOOOOO+OO+++OOO++++OO+++++++++OOO+++O+++++OOO++++++++++++++++++++++++++##############%&%%#%&&&#@@@@@@@@@@@@@@@@@@@@@@@@@@@@@@@@@@@@@@@@@@@@@@@@@@@@@@@@@@@@@@@@@@@@@@@@@@@@@@@@@&@&@@@@@@@+OOOO++OOOOO+OOOOOO+O+OOOOO+++++++OOO..+++.X.XXXXX.XXXXXX.XXXXX...ooo...... .        &;;;=;;;;=+;;;;#    =;;;;.;;;;=;;;;;;;=o;;;;;    =;;;    =;;;; #;;;;;;;;= ;;;;;=    %;;;;=              ooooXXXXXXXXXXXo",
"  ooooXXXXXXX$XX$$XXXooooo                                                                             ooo$$$$$$$$##$$$$$$$$$$$$$$$$$$$$$$$$$$$$$$$$$$$$$$$$$$XXXXXooooo                                                                          oo   o..oo........oo....ooo................................ooo......oo......oo....oXXXXXXXX.XX.XXXXXXXXXXXXXX+++XX+++++++$$$+##############%%%%***===;;;;;;;;;;;;;;====***%%%%%%%#######################$$$$##$$$$$$$$$$++++$$++++XXXXXXXXXXXXXXXXXXXXXXXXXXXX..XXXX..XXXXXXXXXXXXXX$$$$######%**=-;;;;;;;;;;;;;;;;;;;;;;;;;;;;;;;;;;;;;;;;;;;;;;;;;;;;;;;;;;;;;;;;;;;;;;;;;;;;;;;;;;;;;;;;;;;;;;;;;;;;;;;;;;;;;;;;;;;;;;;;;;;;;;;;;;;;;;;;;;;;;;;;;;;;;;;;;;;;;;;;;;;;;;;-=**%%%%#########++#+###@&&&&&&&&&::&&&@@@++++++O+++++++++++XX++XXXXXX+++++++++$$$#########%%%****=-;;;;;;;;;;==*****%################+++++++++++++++++++++++++O+++++++++++++++++++OOO++++++OOOOOO++OOOOOOO+++OOOOO+++OOOO++++++++OOOOOOOOO+++OOOO++++++++++++++++++++################&&%%#&##@@@@@@@@@@@@@@@@@@@@@@@@@@@@@@@@@@@@@@@@@@@@@@@@@@@@@@@@@@@@@@@@@@@@@@@@@@@@@@@@@@@@@@@@@@@@OO+OOOOOOOOOOOOOOO++OOOOOO+OO+OO++XX..XXX.......XXXX........................oo    %;;;;;;;;;+;;;;#    =;;;; ;;;;;;;;;;;;;&&;;;;+   ;;;;#   ;;;;=+;;;;;;;;;;=#;;;;;X   ;;;;;               ooXX$$$$$$$$$$$$",
"  ooXXXXXX$$$$$$$$$XXXoooo                                                                             ooX$$$$$$$$##$$$$$$$$$$$$$$$$$$$$$$$$$$$$$$$$$$$$$$$$$$XXXXoooooo                                                                          oo    ..o.........oo....ooo................................o.o......oooo........o.X..XXXXX..XXXXXXXXXXXXXXXXX+++X++++++++$$$##############%%%*****==-;;;;;;;;;;;;;-==****%%%%%%%#########################$########$$$$$$$+++$$++++++XXXXXXXXXXXXXXXXXXXXXXXXXX..XXXX..XXXXXXXXXXXXXX$$$$######%%%**==-;;;;;;;;;;;;;;;;;;;;;;;;;;;;;;;;;;;;;;;;;;;;;;;;;;;;;;;;;;;;;;;;;;;;;;;;;;;;;;;;;;;;;;;;;;;;;;;;;;;;;;;;;;;;;;;;;;;;;;;;;;;;;;;;;;;;;;;;;;;;;;;;;;;;;;;;;;;;;;;;;;;;;=***%%%##########++++##@&&&&&&&&&::&&&@@@++++++O+++++++++++X++++XXXXX+++++++++$$$#########%%%%***==;;;;;;;;;;;==*****%%###############+++++++++++++++++++++++++O+++++++OO++++++++OOOO++++++OOOO+O++OOOOOO++++OOOO+++++OOO++++O+++OOOOOOOOO+++OOOO+++++++++++++++++++++##############&&%%%%&##&@@@@@@@@@@@@@@@@@@@@@@@@@@@@@@@@@@@@@@@@@@@@@@@@@@@@@@@@@@@@@@@@@@@@@@@@@@@@@@@@@@@@@@@@O@OOO+OOOOOOOOOOOOOOO++OOOOOO++OOOO++XX..XX....X...XXXX....X......X............oooo  &;;;;;;;;;+;;;;#    =;;;; ;;;;;;;;;;;;;;#;;;;&  #;;;;=  X;;;;#;;;;;;;;;;;;+;;;;;=  +;;;;=               ooXX$$$$#$$$$$$$",
"ooooXX$$$$$$$#$$$$$$$$XXooo                                                                            ooX$$$$$$$####$$$$$$$$$$$$$$$$$$$$$$$$$$$$$$$$$$$$$$$$$XXXXoooooo                                                                                  oooooo....oooo...o...............................o....oooo.ooo......oooo....XXXX.X..XXXXXXXXXXXXXXXX+++++++++$++++$###############%%*****==-;;;;;;;;;;;;;;===***%%%%%%#####################################$$$$$$$$$$$$$+++XXX++XXXXXXXXXXXXXXXXXXXXXX....XXXXXXXXXXXXXXXXXX$$$$######%%%%%%*===---;;;;;;;;;;;;;;;;;;;;;;;;;;;;;;;;;;;;;;;;;;;;;;;;;-;--;----;----;;;;;;-;;;;;-;;;;;;---;-;;-;;;;;--;;;;--;-;;;;;;;-;;--;;;;;-;;;;;;;;;;;;;;;;;;;;;;;;;;;;;;;;;;;;;==**%%%###########+++#+#@&&&&&&&&&&&&&&@@++++++O++++++X++++XX++++XXXX++++++++++$$$#########%%%***==;;;;;;;;;;;-=*****%%*################+++++++++++++++++++++++++++++OOOOOOOO++++++OOO+OOOO+++++++++++OOOOO+++++++++++OOOO+OOOO++++++OOOOO++++O++++++++++++++++++++++++##############%%%%&&%###@@@@@@@@@@@@@@@@@@@@@@@@@@@@@@@@@@@@@@@@@@@@@@@@@@@@@@@@@@@@@@@@@@@@@@@@@@@@@@@@@@@@@@@OO@OOOOOOOOO+OOOOOOOO++++++OO++++O+++OO..XXXX++XX....XXX.XXXX......XX......oo...o    &;;;;;;;;&#;;;;#    =;;;; ;;;;;;&+=;;;;;#;;;;;  =;;;;;. #;;;;X;;;;=  #;;;;#=;;;;;  =;;;;X               ooX$$###########",
"ooooXX$$$$#########$$$$Xoooo                                                                           ooX$$$$$$$####$$$$$$$$$$$$$$$$$$$$$$$$$$$$$$$$$$$$$$$$XXXXXoooooo                                                                              ..  ..oooo....oooo...................................o......oo..oo........oo....XXXX.XXXXXXXXXXXXXXXXXXXXX++++++$+++++###############%%%***===-;;;;;;;;;;;;;;====***%%%%%#########################################$###$$$$$$$$++XX++XXXXXXXXXXXXXXXXXXXXXXoooXXXXXXXXXXXXXXXXXXXX$$$$#######%%%%%%%**=========----------------===--=--==========================================================================================================-;;;;;;;;;;;;;;;;;;;;;;==***%%############+++++@#&&&&&&&&&&&&&@@++++++O+++++O+++XXXX++++XXXX++++++++++$$$#$$######%%%****=-;;;;;;;;;;;==****%%*%#############+#+++++++++++++++++++++++++++++OOOOOOOOOO++++OOO+OOOO++++++++++++OOO++++++++++++OOOO+OOOO++++++++OOO++++O++++O++++++++++++++++++++#############%%%%%&%#&&&&@@@@@@@@@@@@@@@@@@@@@@@@@@@@@@@@@@@@@@@@@@@@@@@@@@@@@@@@@@@@@@@@@@@@@@@@@@@@@@@@@@@@@@@OOOOOOOOOOOOOOOOOOO++++++++++++O++++OO.XXXX++X.....XXX.XXXX.............ooo.o..    &;;;;;+. .#;;;;#  . =;;;; ;;;;;#   =;;;;#=;;;;o ;;;;;;+ =;;;=    .   .;;;;=X;;;;;+ ;;;;;                ooX$############",
"ooXX$$$##############$$$Xoooo                                                                          ooX$$$$$$$$###$$$$$$$$$$$$$$$$$$$$$$$$$$$$$$$$$$$$$$$$$XXXooooooo                                                                                  ...ooooo....o..................OOOO.............oo...............oo.ooooXX..X.X..XXXXXXXXXXXXXXXX+XXXX+++++$+$+++$$$#############%%%***===;;;;;;;;;;;;;;====***%%%%%%%##########################################$$##$$$$$$+++++XXXXXXXXXXXXXXXXXXXXXXXXXXXXXXX..XXXXXXXXXXXXX$$$$$########%%%%%***********================**=====*====*************************************************=************************************************========-;;;;;;;;;;;;;;;;;;==***%%%%#############+####&&&&&&&&:&&&@@@++++++++++O+XX+XXXXXX+++X++XX+++++++++$$$$$#######%%%***==;;;;;;;;;;;;=********###############+++++++++++++++++++++++++++++OOO+++OO+++++OOOOOOO++++++++++++OOOO+O+++++OOOOOOO++OOOO++OOO+++OOOO++O+++OOOO++++++++++++++++++++++#############%%&&&%%&&&#@@@@@@@@@@@@@@@@@@@@@@@@@@@@@@@@@@@@@@@@@@@@@@@@@@@@@@@@@@@@@@@@@@@@@@@@@@@@@@@@@@@@OOOOOOOOOOOOOOO+OOOO++++++++OOOOOO+OOOO+XXXXOO++...X..+XXXXXXXX.............oo...o....&;;;;&    #;;;;&  ..=;;;; ;;;;;    X;;;;=X;;;;#+;;;;;;= ;;;;#   #=;;;;;;;;= =;;;;=+;;;;&                ooX$####%%%%%%%#",
"ooXX$$################$$Xoooo                                                                         oooX$$$$$$$$###$$$$$$$$$$$$$$$$$$$$$$$$$$$$$$$$$$$$$$$$$XXXoooooo                                                                                  .....oooo....o..............OOOOOOOOOOOOOO.....................oooo..X.oX.X.X..XX.XXXXXXXXXXXXXXXX+XXXX++++$$++++$$$#############%%%****==;;;;;;;;;;;;;;====***%%%%%%%#################################################$$$$$+++XXXXXXXXXXXXXXXXXXXXXXXXXoXXoXXXX.XXXXXXXXXXXXXXXX$$$$######%%%%%%%%%%************************************%%%%***************************************************************************************************===-;;;;;;;;;;;;;;;;-=****%%%##################&&&&&&&&:&&&@@@++++++++++++XXXXXXX++++++++XXX++++++++$$$$$#######%%%%***==;;;;;;;;;;;==*******################+++++++++++++++++++++++++++++O+++++O++OOOOOOOOOO++OO++++++++OOOO++++++++OOOOOO+OOO+O++OOOO++OOOO++O+++OOOO++++O++++++++++++++++++############%%%&&%%&&&&#@@@@@@@@@@@@@@@@@@@@@@@@@@@@@@@@@@@@@@@@@@@@@@@@@@@@@@@@@@@@@@@@@@@@@@@@@@@@@@@@O@OOOOOOO@O@OOOOO++OOOO++++++O+OOOOOO+OOO+O+XXXOO++..XX++++XXXX...XX.....oo....o.........%;;;;#  . #;;;;#  ..=;;;;o;;;;;    X;;;;& ;;;;==;;;;;;;+;;;;o X;;;;;;;;;;;= +;;;;;;;;;;.                ooX$###%%%%%%%%%",
"XX$$$#####%%%%%%%%%###$$$Xoo                                                                           ooX$$$$$$$$$##$$$$$$$$$$$$$$$$$$$$$$$$$$$$$$$$$$$$$$$$$XXooooooo                                                                         .... .o ...o...oo...................OOOOOOOOOOOOOOOOO.......o........o..ooo...XX..X..XXXXX.XXXXXXXXXXXXXXXXXXXX++++++$++$+$$#############%%%****==;;;;;;;;;;;;;;-===***%%%%%%###################################################$$$$$$++XXXXXXXXXXXXXXXXXXXXXXXXXXooXoXXXXXXXXXXXXXXXXXXXX$$$$##########%%%%%%%%%%%%%%%%%%%%%%%%**%%%%%%%%%%%%%%%%%%%%%%%%%%%%%%%%%%%%%%%%%%%%%%%%%%%%%%%%*%%*%%********%%%%%*%%%%%%%%%%%%%%%%%%%%***%%%******************====;;;;;;;;;;;;;;;-=****%%%##########+##++@@@&&&&&&&&::&&&@@@++++++++++++XX+O++++++++++XXXX++++++++$$$#########%%%%***=;;;;;;;;;;;;==*******##############+##++++++++++++++++++++++O++++++O++++++OOOOO+OO++++OOOO+O+++OOOO+++OO++OOOOOO++++OO++++OOOO+OOO++++OO+++OOO++OOOO++++++O+++++++++++#############%%%%%&&&&&&&@@@@@@@@@@@@@@@@@@@@@@@@@@@@@@@@@@@@@@@@@@@@@@@@@@@@@@@@@@@@@@@@@@@@@@@@@@@@@@@@@OO@@@@@@@OOOO++++OOOO+OOO+OOOOOOO+++OOOO+++OOOOOO.XXX+OX.X....XXXXX.XXX.X...o...oooo..#;;;;+ o  #;;;;#  ..;;;;;.;;;;;    X;;;;= &;;;;;;;;=;;;;;;;= .;;;;;;;;;;;;=  ;;;;;;;;;-                 ooX$###%%%%%%%%%",
"XX$$$####%%%%%%%%%####$$XXoo                                                                           ooX$$$$$$$$$##$$$$$$$$$$$$$$$$$$$$$$$$$$$X$$$$$$$$$$$$XXXXooooo                                                               ...        ......oo..oo....o.oo................OOOOOOOOOOOOOOOOO..............ooo..ooo..XXX...X.XXXX..XXXXXXXXXXXXXXX++XX+++++++++++$$#############%%%%***==-;;;;;;;;;;;;;;===***%%%%%%%###################################################$$$$$$++XXXXXXXXXXXXXXXXXXXXXXXXXXXXooXooXXXXoXXXXXXXXXXXXX$$$$$$$#######%%%%%%%%%%%%%%%%%%%%%%%%%%%%%%%%%%%%%%%%%%%%%%%%%%%%%%%%%%%%%%%%%%%%%%%%%%%%%%%%%%%%%%%%%%%%%%%%%%%%%%%%%%%%%%%%%%%%%%%%%%%%%%%%%%%%%%%%%********=====;;;;;;;;;;;;;;;=****%%%##########+##++#@#&&&&&&&&&:&&&@@@++++++++++++++++++++++++++XXXXX+++++++$$$$########%%%%***==;;;;;;;;;;;-=*******###############+#+++++++++++++++++++++++++++++O++++++OOOO++OO++++OOOOOO+O++OO++++OO++OOOOO+++++OO++++OOOO++OO++++OO+++OOOO+OOOO++++++O+++++++++++#############%%%%%&&&&&&&&@@@@@@@@@@@@@@@@@@@@@@@@@@@@@@@@@@@@@@@@@@@@@@@@@@@@@@@@@@@@@@@@@@@@@@@@@@@@@@@OOO@@@@@@@OOOO++++OOOO+OO+OOOOOOOO+++OOOOO+++OOOOOXXX++...X....XXXX..XXXXXX...o..oo.ooo#;;;;+    +;;;;=  . ;;;;; ;;;;;    .;;;;& +;;;;;;;&+;;;;;;;& =;;;;+   ;;;;=  #;;;;;;;;+                 ooX$###%%%****%%",
"$$$#####%%%%%%%%%%###$$$Xoo                                                                            oooX$$$$$$$$$$$$$$$$$$$$$$$$$$$$$$$$$$$$$XX$$$$$$XXXXXXXXooooo                                                                 ..        ..o...oo....oo..........XX...OOOOOOOOOOO@@@@@@@@@@@@OOOO.............oo....oooXX..XXXXXXX..XXXXXXXXXXXXXXXXX++++X+++++++$$##############%%%***==-;;;;;;;;;;;;;;====***%%%%%###################%%%%%%%%%%#%%%%%%%%%%%#############$$$$$$$$++XXXXXXXXXXXXXXXXXXooXXXXXo.XXXXXXoXXXXXXXXXXXXXX$$$$$$$#############%%%%%%%%%%%%%%%%%%%%%%%%%%%%%%%%%%%%%%%%%%%%%#####%%%%%%%%%%%%%%%%%%%%%%%%%%%%%%%%%%%%%%%%%%%%%%%%%%%%%%%%%%%%%%%%%%%%%%%%%%%%%%%%%%%%%******====;;;;;;;;;;;;;;==**%%%%%############++@@#&&&&&&&&&:&&&@@@++++++++++++OXX+++++++XX+++X+++++++++$$$$$$#######%%%%***==-;;;;;;;;;;;==****%*%############+++#++++++++++++++++++++++O+++++O+++++++OO++++++++++OOOOOOO+++++OO++OO++++++OOO+++OO+++OOO++OOOO++++OO+++++++++OOO++OOOO++++++++O++++###############&%&%%&&&&&@@@@@@@@@@@@@@@@@@@@@@@@@@@@@@@@@@@@@@@@@@@@@@@@@@@@@@@@@@@@@@@@@@@@@@@@@@@@@@@@@@OOOOOOO@@@OOOOOOOOO+OO+++++OOOOOO+OO++OOOO++O+OO+XXXOOXXXXXXXXXXX.XX..........oo....&;;;;+   .+;;;;;+  &;;;;; ;;;;;    +;;;;&  ;;;;;;;X ;;;;;;;. ;;;;=   X;;;;=   ;;;;;;;;                   oX$###%%%%**%**",
"$$######%%%%%%%%%%##$$$$ooo                                                                            oooX$$$$$$$$$$$$$$$$$$$$$$$$$$$$$$$$$$$$XXXX$$$$$XXXXXXXoooooo                                                                      .    .. . .......oo......X.X.X...OOOOOOOOOOOO@@@@@@@@@@@@OOO..........o..ooooo...XXXX..XXXX.XXX.XXXXXXXXXXXXX++X++++++++++++$$##############%%*****==;;;;;;;;;;;;;;-===***%%%%%%#################%%%%%%%%%%%%%%%%%%%%%%%%##############$$$$$$$++XXXXXXXXXXXXXXXX.XXXXXXoo..XXooX..XXXXXXXXXXXXXXX$$$$$$$#####################%%%%%%%%%%%##%%%%%%%##%##########%%%########%%%%%%##%%%%%%%%%%%%#%%%%%##%%##%%%%%%%%%%####%#%%%%###%%%%%%%%%%%%%%%%%%%%%%%%%%%%*****====-;;;;;;;;;;;;;==***%%%%##########++++@#@&&&&&&&&::&&&@@@+++++++++++XXXOX+X++++XX++XX++++X++++$$$$$$#######%%%%****==;;;;;;;;;;;;=******%#############+++++++++++++++++++++++++++++++OO+O+++OO+++++++++++OOOOOOO+++++OOO+OO++++O+OOOO++OO+++OOOO++OOOO+++OO++++OO+++OOO++OOOO++++++++O+++++##############%&&%%%&&&&&@@@@@@@@@@@@@@@@@@@@@@@@@@@@@@@@@@@@@@@@@@@@@@@@@@@@@@@@@@@@@@@@@@@@@@@@@@@@@@@@@OOOOOO@@@@OOOO+OOOO+OO++O+OOO+OO++OO+++OO+++OOOOXXXXOOXXXX.XXXXX........X......ooo..&;;;;+  .. ;;;;;;;;;;;;;;.;;;;;    +;;;;&  =;;;;;;  =;;;;;;  ;;;;;+ +;;;;;=   #;;;;;;=                  ooX$###%%%%*****",
"$####%%%%%%%%%%%####$$$Xoo                                                                             oooX$$$$$$$$$$$$$$$$$$$$$$$$$$$$$X$$$$$XX$XX$$$$$$$XXXXooooooo                                                                     ....      ..o.....oo....XXX........+++OOOO@@@@@@@&&&&&&&&@@OOO....o....oooo.oo.....oXX.XXXX...XXXXXXXXXXXXXXXX++X+X++++++$++++##############%%%****==;;;;;;;;;;;;;;-===***%%%%%#############%%##%%%%%%%%%%%%%%%%%%%%%%%%%%%%%%###########$$$$$$+XXXXXXXXXXXXXXXXXX.XXXoXX...o.Xo..ooXXXXXXXXXXXXXXX$$$$$$$$$$$$###################################################################################################################################%%#%%%%%%%%%%****====;;;;;;;;;;;;;==****%%%##########++++@#@#@&&&&&&&::&&&@@+++++++O++XXXXO.XX.XXXXXXXXX++++X+++++$$$$$########%%%%****=-;;;;;;;;;;;==******%%############+++#++++++++++++++++++++++++OOOOOO++OOOO++OO+++++O++OOOO++++OOOO++OOO+OOOOOOO++++O++OOOO++++OOOO++OO++OOOO++++OOOOO+OO+++++++++++++++#############%&%%%%%&##&&@@@@@@@@@@@@@@@@@@@@@@@@@@@@@@@@@@@@@@@@@@@@@@@@@@@@@@@@@@@@@@@@@@@@@@@@@@@@@@@@@@OOOOOO@@@O@OOOO++OOOO+OOOOOO++++++++OOOO++O+OO++XXO..X.O..XX........XXXX.....ooooo#;;;;+  ...=;;;;;;;;;;;;; ;;;;;    X;;;;%  X;;;;;&  +;;;;;&  =;;;;;;;;;;;;=    ;;;;;;X                   oXX####%%%%**%%",
"#####%%%%%%%%%#####$$$XXoo                                                                             oooX$$$$$$$$$$$$$$$$$$$$$$$$$$$$$XX$X$XXXXXX$$$$$$XXXXooooooo                                                                    .......   . ..o...oooo....X........O+O+OOOO@@@@@@&&&&&&&&&&@@OOO...........o..ooo...ooX...XXX...XXXXXXXXXXXXXXXX++XXXX++$$$$+++#############%%%%***===-;;;;;;;;;;;;;;===****%%%%##############%%##%%%%%%%%**%%%%%%%%*%%%%%*%*%%%%%%#########$$$$$$+XXXXXXXXXXXXXXXXXXXXXXXX.....oX....XXXXXXXXXXXXXXXX$$$$$$$$$$$$$$#################################################################################################################################%#%#%%%%%%%%****====-;;;;;;;;;;;;-=****%%%############+++@#@@&&&&&&&&&&&&@@+++++++OO+XXXXX....XXXXXXXXX++++XXX+++$$$$$$########%%%%***==;;;;;;;;;;;-==******%#############+###+++++++++++++++++++++++++OOO+++OOOO++OO+++++O++OOOO++++OOOO++OOOOOOOOOOO+++++OOOOOO++++OOOO++OO++OOOOO+OOOOOO++OOO++O+++++OO+++++#############%&%%%%%%#&#&@@@@@@@@@@@@@@@@@@@@@@@@@@@@@@@@@@@@@@@@@@@@@@@@@@@@@@@@@@@@@@@@@@@@@@@@@@@@@@@@@@OOOOO@@@@OOOOOOOOOOOOOOOOOOO+++++++OOOO++++OOOOXXOOXXOOO.XX.........XXX.....ooooo%;;;;+ .   X;;;;;;;;;;;;; ;;;;;    X;;;;%   ;;;;;X   ;;;;;o  o;;;;;;;;;;;;=    =;;;;=                    oXX####%%%**%**",
"##%%%%%%%%%%%####$$$XXooo                                                                               ooX$$$$$$$$$$$$$$$$$$$$$$$$$$$$$XXXXXXXX$X$$$$$$$$XXoooooooo                                                                    ..  ....    ..............XX......OOOOOO@@@@@@&&&&&&::&&&&&@@OO............ooo..ooo.........XXXX..XXXXXXXXXXXXX+XXXX+++++$+$$$##############%%%%***==-;;;;;;;;;;;;;;===****%%%%%##############%%#%%%%%%%**%********************%%%%%%#######$$$$$$XXXXXXXXXXXXXXXXXXXXXooX..XoXoooo.XXXXooXXXXXXXXXXXXXX$$XX$$$$$$$$$$$$$$######$$################################$$######################################################################################%%%%%%%%***====-;;;;;;;;;;;;-=*****%%%##########++++#@@#&&&&&&&::&&&@@++++++++++++O+XX+XXXXXXXXX++++XXXX+++++$$$$$########%%%%***==-;;;;;;;;;;;-=*******################+++++++++++++++++++++++++++++++++OO+++OO++++OO++OOOO+++OOO++++++O+OOOO+++OOO++OOOOOOOO++++OO++++++OOOOOOOOOOOO++++OOOOOO++++++++++++############%%%%%%%%&&&&@@@@@@@@@@@@@@@@@@@@@@@@@@@@@@@@@@@@@@@@@@@@@@@@@@@@@@@@@@@@@@@@@@@@@@@@@@@@@@@@@@@@@OOOOO@@@++O+OOOOOOOO+OOO+O+++++OO++++++++OOO.++O.O+XX....X...XX..X.......oooo%;;;;#.....oX=;;;;;;+&;;;.;;;;;    X;;;;#   =;;;;    =;;;;    +;;;;;;%o;;;=    ;;;;;+                    oXX$###%%%%****",
"#%%%%%%%%%%%###$$$$Xoooo                                                                                ooX$$$$$$$$$$$$$$$$$$$$$$$$$$$$$XXXXXXXXXX$$$$XXXXXooooooooo                                                                    ... ....  ......................OOOOOOOO@@@@@&&&&&&:::&&&&@@@OOO.....oo......o..oooo.........XXX..XXXXXXXXXXXXX+XX+X+++$$+$$$$##############%%%%**===;;;;;;;;;;;;;;-==****%%%%%%###############%%%%%%%%%******=============*****%%%%%%#######$$$$$XXXXXXXXXXXXXXXXXX.XoooX..XoXooo..oo..ooXXXXXXXXXXXXXXXXXXX$$$$$$$$$$$$$$$$$$$$$#$##$#$$$$#$########$$########$$$$########################################################################################%%%%%%***=====;;;;;;;;;;;;;==****%%%##########++++##@#&&&&&&&&&&&&@@@+++++++++++++XX++XXXXXXXX++X+XXXX+++++++++#$#######%%%%****==;;;;;;;;;;;;===*****%###############++++++++++++++++++++++++++++++++OO+O++OO++++OO++OOOO++OOOOOO++OOOOOO+O+O++O+OOOOOOOOOOO+OOOO++++++OOOOOOOO+OOOO+++OOOOOOOO+++++++++++###########%%%%%%%%&&&&&&&@@@@@@@@@@@@@@@@@@@@@@@@@@@@@@@@@@@@@@@@@@@@@@@@@@@@@@@@@@@@@@@@@@@@@@@@@@@@@@@@@@OOOOO@@@@@OOOOOOOOO++OO++OOO+OOOOOO++++O+OOOO+OOOO+++....X..XXXXXXX.X.........++++  ...    +%==+ ..+++ XXXXX     XXXX     XXXo     XX+o      #&=&o   XXo   +;;;;;                      XX$###%%%%****",
"#%%%%%%%%%%##$$$$$Xooo                                                                                  ooX$$$$$$$$$$$$$$X$$$$$$$$$$$X$$$XXX$$XXX$$$XXXXXoooooooooo                                                                .   ...      ......................XXOOOOOO@@@@&&&&&&::::&&&&&&@@OO...............o........XX.X...XXX.X.XXXXXXXXXXXX+XX++++$$+++$$#############%%%%****==;;;;;;;;;;;;;;;==****%%%%%%##############%#%%%%%%*****===-;;;;;;;;;;---====***%%%%%######$$$$$$XXXXXXXXXXXXXXXXXXXoo.oXXXXoo....ooooooXXXXXXXXXXXXXXXXXXXX$$X$$$$$$$$$$$$$$$$$$$$$$$$$$$$$$$##$#$$$$$$$$$$$$$$$$$$$$$$$$######$$###$################################$$$$######$$$$########################%%%%%***====;;;;;;;;;;;;;==****%%%###########+++##@#&&&&&&&&&&&&&@@@+++++O++++..X++XXXXXXXXXXXXXXXXXX++++++$$$$#########%%%****=-;;;;;;;;;;;;==******%##############++++++++++++++++++++++++++OO++++OOOOOOOOO++OOO++OOO+++OOOOOOO+OOOOOO+OO+OOOO+OOOOOOOOOOOOOOOOO+O++OOOOOOO+++OOOO++OO++OOOO++++++++++############&&&%%%%%%&&&&#&&@@@@@@@@@@@@@@@@@@@@@@@@@@@@@@@@@@@@@@@@@@@@@@@@@@@@@@@@@@@@@@@@@@@@@@@@@@@@@@@@@@OO@OOO@O@OOOOOOOOO++O+OO+OOOOOOOOOOOOOOOOO++++OO+XXX+.XXXX...XXX.X...XX.....X............      o o.                                                       =;;;;#                      oX$$##%%%%****",
"%%%%%%%%%###$$$$XXoooo                                                                                  ooX$$$$$$$$$$$$$XX$$$$$$$$$$$X$$$$XX$$$$XXXXXXXXooooooooooo         oo                                                  ....  ....      ..o...................XXOOOOO@@@@&&&&&:::::&&&&&&@@@OO...............o.........XXX..XXXXX..XXXXXXXXXXXX+X+++++$+++$###############%%%%***==-;;;;;;;;;;;;;;===****%%%%%###############%%%%%%%***===-;;;;;;;;;;;;;;;;;;-==****%%%%######$$$$++XXXXXXXXXXXXXXXX.ooo.XXXXoo.o...ooooooXXXXXXXXXXXXXXXXXXXXXXX$$$$$$$$$$$$$$$$$$$$$$$$$$$$$$$$$$$$$$$$$$$$$$$$$$$$$$$$$$$##$$$$$$#$$$#$$$$$$$$$$$$$$$#$$$$###$#$$$$##$$$########$$$#########################%%%%***====;;;;;;;;;;;;;==****%%%##########++++##@#&&&&&&&&&&&&&@@@+++++O++.XXX.++XXXXXXXXXXXXXXXXXX++++++++$$#########%%%****==;;;;;;;;;;;;-==*****%%#############+++++++++++++++++++++++++OOO++++OOOOOOOO+++OOO++OOOO++OOOOOOOOOOO++OOOOOOOOO++OOOOOOOOOOOOOOOOOOOOOOOOOO++++OOOOO+++O+++OO++++++++++#############%&&%&%%&&&&&#&&@@@@@@@@@@@@@@@@@@@@@@@@@@@@@@@@@@@@@@@@@@@@@@@@@@@@@@@@@@@@@@@@@@@@@@@@@@@@@@@@@@@@@@OOOO@OOOOOOOOO++OOOOOOOOOOOOOOOOOOOOO+++++O.XXXX++XXXX...XXX....XX.X....XX......... .   . o  o o                                                      ;;;;;.                      oX$$###%%%****",
"%#%%%%####$$$$$Xooooo                                                                                   oooX$$$$$$$$$$$$$$$$$$$$$$$$$X$$XX$$$XXXXXXXXXXXoooooooo                                                                ..    ..   ...  ...................X+OOOOO@@@@&&&&&&::::&&&&&&&&@@OOO...........oo............XXXXXXXXXXXXXXXXXXXXXXXXXX+XX+++$$++++#############%%%%***===;;;;;;;;;;;;;;===****%%%%%%################%%%%%***==;;;;;;;;;;;;;;;;;;;;;;;;==***%%%######$$$$XXXXXXXXXXXXXXXXo.oXXX.......ooo....oo..XXXXXXoXXXXXXXXXXXXXXXXX$$$$$$$$$$$$$$$$$$$$$$$$$$$$$$$$$$$$$$$$$$$$$$$$$$$$$$$$$$$$$$$$$$$$$$$$$$#$$$$$$$$$$$$$$$$$$$$$$$$$$$$$$$$$$$##$$$##########################%%%%***=====;;;;;;;;;;;;-=***%%%%############++++##&&&&&&&&:&&&&@@@+++++++OO...++XX.X.XXXXXXXXXXX++XXX++++++$$##########%%%****==;;;;;;;;;;;;==******%###############+++++++++++++++++++++++++O+++++++++O+OOOOOOOOO+++OOOOOO++OOOOOOOOOOOOOO+++OOOO+OOOO+OOOOOOOOOOOOOOOOOOOOO++O+OOOOO+++++OO++++++++#############%%%&%%&%%%%&&&&&&&@@@@@@@@@@@@@@@@@@@@@@@@@@@@@@@@@@@@@@@@@@@@@@@@@@@@@@@@@@@@@@@@@@@@@@@@@@@@OOOO@@@@@@OOOOOOOOOOOOOOO+OOOO++OOOOO+OOOO++OOOOOOO..XOO..XX+XXX...XXX..X...X.X.o....oo......                                                                $;;;;=                       oX$$###%%%****",
"##########$$$$$Xooooo                                                                                   oooX$$$$$$$$$$$$X$XX$$$$$$$$$XXX$$$$XXXXXXXXXXoooooooooo                                                                ..    ....   ......................X+.OOOO@@@@&&&&&&::::&&&&&&&&@@OO............oo......oo....XXXXXX..XXXXXXXXXXXXXX+X++++X+++$$+++$############%%%%***===;;;;;;;;;;;;;;-==****%%%%%%#################%%%%***=-;;;;;;;;;;;;;;;;;;;;;;;;;;-=***%%########$$XXXXXXXXXXXXXXXX...oXXoo.o..oooo....oX..XXXXXXooXXXXXXXXXXXXXXXXX$$$$$$XX$$$$$$$$$$$$$$$$$$$$$$$$$$$$$$$$$$$$$$$$$$$$$$$$$$$$$$$$$$$$$$$$$$$$$$$$$$$$$$$$$$$$$$$$$$$$$$$$$$$$$$$$$$$$$$###$#$$################%%%****====;;;;;;;;;;;;;==****%%############++++#@&&&&&&&&&&&&&@@@+++++++XO..XXXX.XX.XXXXXXXXXXXX+XXXX++++$$$##########%%%*****=-;;;;;;;;;;;-==******%##############++++++++++++++++++++++++OO+++++++++O+++OOO++O++++OOOO+++OOOOOOOOOOOOOOOO++OOOO+++OOOOOOOOOOOOOOO+OOOOOO+OOOO++OOOO++++++++++++++###############%#%%%&%%%%&&&&&&&@@@@@@@@@@@@@@@@@@@@@@@@@@@@@@@@@@@@@@@@@@@@@@@@@@@@@@@@@@@@@@@@@@@@@@@@@@@@OO@O@O@@OO@@OOOO@O@OOOOO++OOOO++OOOO++O+OO++OOOOOOO.XX++..XX++XX...XXX..X...XXX......ooo..o...o oo                                                           =;;;;+                       ooX$$##%%%****",
"########$$$$$$XXoooo                                                                                    ooXX$$$$$$$$$$$$$$$XX$$$$$$$XXXXXXXXXXXXXXXXooooooooooooo      oooo                                                   . .   .... .  ......................+OOOOO@@@&&&&&&&&&&&&&&&&&&&@@@OOO............ooo..o.ooXXX.XXX..XX.X..XXXXXXXXXXXX+X++++X++++++$$$############%%%%***==;;;;;;;;;;;;;;;==****%%%%%%#################%%%%***=-;;;;;;;;;;;;;;;;;;;;;;;;;;;;==*%%%%#######$$$+XXXXXXXXXXXXXXo....oo...oooo....oo.o.oXX.XXXo.oXXXXXXXXXXXXXXXXXXXXXXXXXX$$X$$XX$$$$$$$$$$$$$$$$$$$$$$$$X$$$$$$$$$$$$$$$$$$$$$$$$$$$$$$$$$$$$$$$$$$$$$$$$$$$$$$$$$$$$$$$$$$$$$$$$$$$$$$$$$$$$################%%%**=====;;;;;;;;;;;;;==***%%%%############+++@@@@&&&&&&&&&&&&@@O+++++XXXXXXXXXXXXXXXXXXXXXXXXX+XXXX++++$$$$$$########%%%%***==;;;;;;;;;;;;-=*******%#############+++++++++++++++++++++++OOOOOOO++++++++++++OOOO++++OOOO++OOOOOO+++++OOOOOOO++O++++OOOO+++++OOOO++OOOOOOO+OOOO++++OO++O+++++++#+#################%#&%%%%%%%%&&&&&&&&@@@@@@@@@@@@@@@@@@@@@@@@@@@@@@@@@@@@@@@@@@@@@@@@@@@@@@@@@@@@@@@@@@@@@@@@@@@@@@OOOO@@@@@@OOOOOOOOOOOO+OO+++OOO++++OO+++OOOO+O++++XX..XX..O.....XXX.XX............ooooo.....oo  ..                                                                                    ooX$$###%%%***",
"#######$$$$$$$XXooooo                                                                                  oooXX$$$$$$$$$$$$$$XXX$$$$$$XXXXXXXXXXXXXooooooooooooooooo   o oo oo                                                  ...    .....   ........................OOO@@@&&&&&&&&&&&&&&&&&&&&@@OOOO............oo..o.XXooXX..XX..XX...XXXXXXXXXXXXXX++++X++++++$$$############%%%****==-;;;;;;;;;;;;;;===***%%%%%%%###############%#%%%***==;;;;;;;;;;;;;;;;;;;;;;;;;;;;;;==*%%%######$$$$+XXXXXXXXXXXXXXX...o.oo..ooooo.oo.o.o.XX.....oXXXXXXXXXXXXXXXXXXXXXXXXXXXXXXXXXXXXX$$X$$$$$$$XXXXXXXX$$$$XXXXXXX$$$$$$$XXX$$$XX$$$$$$$$$$$$$$$$$$$$$$$$$$$$$$$$$$$$$$$$$$$$$$$$$$$$$$$$$$$$$$$$###############%%%***====;;;;;;;;;;;;;==***%%%%############+++##@@&&&&&&&&&&&&@@++++++XXXXXXXXX..XXXXXXXXXXXXXXXXXXXX+X+$$$$$$########%%%%****=-;;;;;;;;;;;;==******%#############+++++++++++++++++++++++OOOO+OOOO++++++++++++++++++O+OOO+OOOOOO++++O+OOOOOOOOOOOOOOOO+++O++O+OOOOOOOOOOOOOOOOO+++OO++O+++++++######################%%%%%*%%&&&#&&&&@@&&@@@@@@@@@@@@@@@@@@@@@@@@@@@@@@@@@@@@@@@@@@@@@@@@@@@@@@@@@@@@@@@@@@@@@@@@@@@OOO@@@@@@@OOOOOOOOOOOOOO+O+OOO+++++O++++OOOO+++++++OO.+..O.....XXX.XXX.X.........oooooo... oo  ..                                                                                    ooXX$$###%%***",
"$$$$$$$$$$$$$XXoooooo                                                                                  ooo$$$$$$$$$$$$$$$$XXX$$$$$$X$X$XXXXXXooooooooooooooooooooo    oo                                                     .........  oooo......................OOOO@@&&&&&&&&&&&&&&&&&&@@@@@@O.............o..o.o.XX....XXX....XXXX.XXXXXXXXXXXXXXXXX++++$$+$$#############%%%%***===;;;;;;;;;;;;;;-===**%%%%%##################%%%%%***=;;;;;;;;;;;;;;;;;;;;;;;;;;;;;;;-=**%%%####$$$$$+$$XXXXXXXXXXXXXXXoXX..ooo...oooooooooo...ooooooXXXXXXXXXXXXXXXXXXXXXXXXXXXXXXXXXXXXXXX$$$$XXXXXXXXXXXX$XXXXXXX$$$$XXXXXX$$$$XXXX$$$$XX$$$$XX$$$$XXXX$$$$$$$$$$$$$$$$$$$$$$$$$$$$$$$$$$$$$$$$$$$$$############%%%***====;;;;;;;;;;;;;==****%%%%########++###+##@@&&&&&&&&&&&&@@++++XX++.XXXXXXXXXXXXXXXXXXXXXXXXXX+X++++$$$$$$########%%%****==;;;;;;;;;;;;-=*****%%%##########+#####++++++++++++++++++OO++++O++++O++O+++++++++++OOO+OOO+OOOO++++OOOO++OOOOOOO..O.OOOOO+++++OOOOOOOOOOOOOOOOOOOO+O+O+OO+++++######################%%%%%%%%%&%%%##&&&&&&@@@@@@@@@@@@@@@@@@@@@@@@@@@@@@@@@@@@@@@@@@@@@@@@@@@@@@@@@@@@@@@@@@@@@@@@@@@@OO@@@O@@@@OOOOOOOOOOO@OOOO++++OO+++++O++++++++O+++....OOOXXXX...XXXXXX..........oooo.....oo...                                                                                        oX$$###%%%**",
"$$$$$$$$$$$$$XXooooooo                                                                                oooX$$$$$$$$$$$$$$$$XXXX$$$$$XXXX$XoXooooooooooooooooo    oo o  oo    oo o       o   o                                ... ......    ........................OOOO@@&&&&&&&&&&&&&&&&&@@@@@@OOO...........ooo.oo.XX.X...XXo....XXXXXXXXXXXXXXXXXXXXX+++++$$$$#############%%%%****==;;;;;;;;;;;;;;-===***%%%%###################%%%%%***=;;;;;;;;;;;;;;;;;;;;;;;;;;;;;;;;=**%%%####$$$$$+$$XXXXXXXXXXXXXXXooX...ooooooooooooooo..ooooooooXXXXooXXXXXXXXXXXXXXXXXXXXXXXXXXXXXXXXXXXXXXXXXXXXXXXXXXXXXXXXXXXXXXXXXX$$$XXXXX$$$$XXXX$$XX$$$$XXXX$X$$$$$$++XX$$$$$$$$$$++$$$$$$$$$$$$$$$$$$$$$$###########%%%%**====-;;;;;;;;;;;;==****%%%%########+###+###@@&&&&&&&&&&&&@@++++X+++..XXXX.XXXXXXXXXXXXXXXXXXXX+X++++$$$$$$########%%%%***==-;;;;;;;;;;;;==*****%%###############++++++++++++++++++++O+++++++++OOOOO++++++++++++++OO++OOOOOO++OOOOOOOOOOOOOOOOOOOOOOOOOOOOOOOOOOOOOOOOOOOOOOOOOOO+OO+++++########################%%%%%%&%%%%&&&&&&&&@@@@@@@@@@@@@@@@@@@@@@@@@@@@@@@@@@@@@@@@@@@@@@@@@@@@@@@@@@@@@@@@@@@@@@@@@@@@OO@@@O@@@@@@OOOOOOO@O@@OOO+O+OO+++O++O++O++O++O+++OOO.OOO+X+XX...XXXXX............oo..o..o ....                                                                                       oXX$####%%%%",
"$$$$$$$$$$$$$$oooooooo                                                                                oooo$$$$$$$$$$$$$$$XXXX$X$$$$XXX$Xoooooooooooooo  oooo  oooooo   ooo     oo     oo  oo                               ..     ....  ........................OOOO@@@&&&&&&&&&&&@@@@@@@@@@@OOO..............oo............XX...XXXX.XXXXXXXXXX++XXXXX++++++$$#$###########%%%%****==;;;;;;;;;;;;;;-===***%%%%%###################%%%%%%*==;;;;;;;;;;;;;;;;;;;;;;;;;;;;;;;;=**%%%#####$$$$$$+XXXXXXXXXXXXXoXo.o.ooooooooooo....oooooooooooooXXoooooooXXXXXXXXXXXXXXXXXXXXXXXXXXXXXXXXXXXXXXXXXXXXXXXXXXXXXXXXXXXXXXXXXXXXXXXXXXXXXXXXXXXX$$XXXXXXXXXXXXXXXX$XXXXXXX$$XX$$XX++$$$$$$$$$$$$$$$$$###########%%%***===-;;;;;;;;;;;;-=****%%%%########+###+#@@@&&&&&&&&&&&&&@@+++OX++OO.XXXX...XXXXXXXXXXXXXXXXXXX+++++++$$$$$########%%%%**===-;;;;;;;;;;;;==****%%%%#########+#+++++++++++++++++++++++++O+++++++OO+++++++++++++++OOOO++OOOOOOOOOOOOOOOOOOOOOOOOOOOOOOOOOOOOOOOOOOOOOOOOOOOOOOOOO++OOO++++#######################%%#&%%%%%&%%%%&&&&&&&@@@@@@@@@@@@@@@@@@@@@@@@@@@@@@@@@@@@@@@@@@@@@@@@@@@@@@@@@@@@@@@@@@@@@@@@@@@@@@@@@OO@O@@@@OOOOOO@@@OOOOOOOOO++OOOOOOOOOOOOOO++OOO+++++++OOO.XX......XXXX......o...oooooo..o      .                                                                                ooX$$$###%%%",
"$$$$$$$$$$$$$$Xooooooo                                                                                oooX$$$$$$$$$$$$$X$XXXXXXX$$$$XXXXoooooooooooo    oooo ooooooo   ooo  ooooo     oooooo                     .         ..     ...   ..........................OO@@&&&&&&&&&&&&@@@@@@@@@@OOOO.... .........oo............XoX...XXXXXXXXXXXXXX+XXXXXX++++$+$$############%%%%%***==-;;;;;;;;;;;;;;====***%%%%%###################%%%%%%*=-;;;;;;;;;;;;;;;;;;;;;;;;;;;;;;;;=**%%%####$$$$$$$+XXXXXXXXXXXXXooo..ooooooooo.oooooooooooooooooooooooooooXXXXXXXXXXXXXXXXXXXXXXXXXXXXXXXXXXXXXXXXXXXXXXXXXXXXXXXXXXXXXXXXXXXXXXXXXXXXXXXXXXXXXXXXXXXXXXXXXXXXXXXX$XXXXXXXXXXXXXXXXXX+++$$$$$$$$$$$$$##########%%%***====;;;;;;;;;;;;-==***%%%%########+####+@@@&&&&&&&&&&&&&@@+++OX+OO..XX.....XXXXXXXXXXXXXXXXXXX+++++++$$$$$########%%%%***===;;;;;;;;;;;;==*****%%%#########+#+++++++++++++++++++++++++OO++++++OO+++++#######++++OO+++OOOOOOOOOOOOOOOOOOOOOOOOOOOOOOOOOOOOOOOOOOOOOOOOOOOOOOOOO++OOOO++++#######################%#&%%%%%&&%%%&&&&&&&&@@&@@@@@@@@@@@@@@@@@@@@@@@@@@@@@@@@@@@@@@@@@@@@@@@@@@@@@@@@@@@@@@@@@@@@@@@@@@@@OOOOO@@@@O@@@OO@@@OOOOOOOOOOOOOOOOOOOOOOOOO++OO++++++++OO..XX....X.XXXXX.X...o...oooooo...o                                                                                      ooXX$$####%%",
"$$$$$$$$$$$$$$Xooooooo                                                                                 oooX$$$$$$$$$$$$$XXXXX$$$XXXXXXoooooooooooooooooo   oooo ooo ooo oo        oo                                    ....   .................................OOO@@&&&&&&&&&@@@@@@@@@@@@OOO.........................X.XXXXX...XXX...XXXXXXXXXXXXXXX+++++$$+++###########%%%%****==;;;;;;;;;;;;;;;-===***%%%%%#####################%%%%**=-;;;;;;;;;;;;;;;;;;;;;;;;;;;;;;;;=**%%%#####$$$$$$XXXXXXXXXXXXXX.....o..ooooooo..oooooooooooooooooo.....ooXXXXXXXXXXXXXXXXXXXXXXXXXXXXXXXXXXXXXXXXXXXXXXXXXXXXXXXXXXXXXXXXXXXXXXXXXXXXXXXXXXXXXXXXXXXXXXXXXXXXXXXXXXXXXXXXXXXXX$$$$XX$$$X$$$$$$$$$$$$$$########%%%***====;;;;;;;;;;;;-==***%%%%#########+#+++##@@&&&&&&&&&&&&@@++++++XXXXXX..XXXX...XXXXXXXXXXXXXXX+XX++++$$$$$$#######%%%%%***==;;;;;;;;;;;;;==*******############++#+++++++++++++++++++++O+OOO++OXO++++###%%%%###++++++O+OOOOOOO++OOOOOO+OOOOOOOOOOOOOOOOOOOOOOOOOOOOOOOOOOOOOOOOOO++OOO++++#########################%%%%%*&%&&&&&&&&&&@@@@&@@@@@@@@@@@@@@@@@@@@@@@@@@@@@@@@@@@@@@@@@@@@@@@@@@@@@@@@@@@@@@@@@@@@@@@@@@@@@@@OOOO@O@OOO@@OOOOOOOOOOOOOOOOOOOOOOOOOOO+O++++XX..OO...X+..XXX.........oo......ooo....ooo  .                                                                                   ooXX$$####",
"X$$$$$$$$$$$$$XXoooooo                                                                                oooXX$$$$$$$$$$XX$XXXXXX$$XXXXXooooooooooooooooo   oooooo oo ooo  oo    oooooo                            .. .    .... o ................o................OO@@@&&&&&&&&@@@@@@@@@@@@@OOO...........................XXXXX..XXXXX.XXXXXXXXXXXXXXX++++++++++$###########%%%****==-;;;;;;;;;;;;;;;==****%%%%%%######################%%%**=-;;;;;;;;;;;;;;;;;;;;;;;;;;;;;;;-=**%%%#####$$$$$$XXXXXXXXXXXXXX.o...oooooooooo..oooooooooooooooooo..o.ooooXXooooXXXXXXXXXXXXXXXXXXXXXXXXXXXXXXXXXXXXXXXXXXXXXXXXXXXXXXXXXXXXXXXXXXXXXXXXXXXXXXXXXXXXXXXXXXXXXXXXXXXXXXXXXXXXXXXXXXXX$$$X$$$$++$$$$$$$$########%%%***====;;;;;;;;;;;;;==***%%%%#########+++++##@@&&&&&&&&&&&&@@++++++..X.XX..XXXX...XXXXXXXXXXXXXXXXX+++++$$$$$$#########%%%****==;;;;;;;;;;;;-==******############++++++++++++++++++++++++O+++++OOOO++++##%*****%##+++++OOOOOOOOOOOOOOOOOOOOOOOOOOOOOOOOOOOOOOOOOOOOOOOOOOOO+OOOO+OO+OOOO++++++######################&%%%%%%%%%&*&&&&&&&@@@@&&@@@@@@@@@@@@@@@@@@@@@@@@@@@@@@@@@@@@@@@@@@@@@@@@@@@@@@@@@@@@@@@@@@@@@@@@@@@@@@OOOOOO@OOO@@OOOOOOOOOOOOOOOO+OOOOOOOOOO++++++XX.OOO...XX..XXX..........o.......o.....ooo                                                                                      ooXX$$####",
"XXX$XX$$$$$$$$XXooooooo                                                                               ooooX$$$$$$$$$$X$XXXXXXXX$XXXXoooooooooo  oo      o oooooooooo    ooo oo ooo     o  ooo                   oo..  oo....o ................................OO++@@@&&&&&&&@@@@@@@@@@OOOOO.....................oo........XXXX.XX....XXXXXXXXXXXXX+++++++$++++###########%%%****==-;;;;;;;;;;;;;;;-=****%%%%%%#######################%%%**=-;;;;;;;;;;;;;;;=;;;;;;;;;;;;;;;=**%%%%####$$$$$$$XXXXXXXXXXXX.X.ooooooooooooooooooo.oooo.ooooooooo..ooooooooooooXXXXooooXXXXXXXXXXXXXXXXXXXXXXXXXXXXXXXXXXXXXXXXXXXXXXXXXXXXXXXXXXXXXXXXXXXXXXXXXXXXXXXXXXXXXXXXXXXXXXXXXXXXXXXXXXXXXX$$$XXX++$$$$$$$$$#######%%%***====;;;;;;;;;;;;;===***%%%#########+#++++@@@&&&&&&&&&&&&@@+++++O....X...XXXX..XX.XXXXXXXXXXXXXXXXX++X+$$+$$$$#######%%%%***==-;;;;;;;;;;;;==*******%###########+++++++++++++++++++++++O+++++OO++++++##*******%##++++++OOOOOOOOOOOOOOOOOOOOOOOOOOOOOOOOOOOOOOOOOOOO++OOOOOOOOO+OOOOOOOO++@++++######################%&%&&&&%%*&&&&&&&&&&&&&&@@@@@@@@@@@@@@@@@@@@@@@@@@@@@@@@@@@@@@@@@@@@@@@@@@@@@@@@@@@@@@@@@@@@@@@@@@@@@@@OOOOOOOOOOOO@@OOOOOO++++OO+++OOOOOOOOOOO+O+++X++OO...X.XXXX...XX............o.o....oooo o                                                                                   ooooXX$$##",
"XXXXXXXX$$XX$$XXooooooo                                                                               ooooX$$$$$$$$$XX$$XXXXXXXXXXXXoooooooooo          oooooooo  oooo  ooo oooooo        oooo  ..         .    .... ooo.....................................O++++@@@&&&&&@@@@@@@@@@@OOOOOO.....................oooo.......XXXXXXX...XXXXXXXXXXXX++X+++++$+++$##########%%%%***==-;;;;;;;;;;;;;;;;==****%%%%%########################%%%%*==;;;;;;;;;;;;;;;==;;;;;;;;;;;;;;=**%%%%#####$$$$$$XXXXXXXXXXXXo..oooooooooo.oooooooo.oo....ooooooooooooooooooooooooXXoooooooXXXXXoXXXXXXXXXXXXXXXXXXXXXXXXXXXXXXXXXXXXXXXXXXXXXXXXXXXXXXXXXXXXXXXXXXXXXXXXXXXXXXXXXXXXXXXXXXXXXXXXXXXXXX$XXXXXX+$$$$$$$$#######%%%****===;;;;;;;;;;;;;===***%%%#########+#+++++@@&&&&&&&&&&&&@++++++O...XXX......X.XX...XXXXX.XXXXXXXXXXXXX++++$$$$######%%%%****==;;;;;;;;;;;;;==******%###########+#+++++++++++++++++++++OO++OOO+++++++##%***===*%%##++++OO++OOOOOOOOOOOOOOOOOOOOOOOOOOOOOOOOOOOOOOOOO+OOOOOOOOOOOOOOOOOO+++++++#######################%&%&&&&%**%%&&&&&&@@&&&&&&@@@@@@@@@@@@@@@@@@@@@@@@@@@@@@@@@@@@@@@@@@@@@@@@@@@@@@@@@@@@@@@@@@@@@@@@@@@@@OOOOOOO@@OOO@@@@@OOO+O++++++OOOO+OOOOOOO++XX++++O....XXXX....XXX...........oo......ooo  o                                                                                    oooX$$$#",
"XXXXXX$$XX$$$Xooooooooo                                                                               ooooXX$$$$XXXX$$$$XXXXXXXXXXXooooooooo         ooo  oooooo ooo  oooo  oooo    o    ooo    ..      ..    ..oo  ........................................O+++++@@@@@@@@@@@@@@@OOO+O............  ........oo......oo....XXXX.XX..XXXXXXXXXXXXXXXXX++++$+$$$##########%%%%***===;;;;;;;;;;;;;;;-===***%%%%%#########################%%%%**=-;;;;;;;;;;;;;==-;;;;;;;;;;;;;-=**%%%%#####$$$$$XXXXXXXXXXX...o.o.oooooooo....oooo.......ooooooooooooooooooooooooooo..oooooooooooooooXXXXXXXXXXXXXXXXXXXXXXXXXXXXXXXXXXXXXXXXXXXXXXXXXXXXXXXXXXXXXXXXXXXXXXXXXXXXXXXXXXXXXXXXXXXXXXXXXXXXXXXXXX+$$$$$$$#######%%%%**====;;;;;;;;;;;;;-==***%%%############++++@@&&&&&&&&&&&@@@+++XXXXXXX.XXX....XXXXXXXX.XXXXXXXXXXXXXXXXXX+++$$$$########%%%%**==-;;;;;;;;;;;;-=******%%%############+++++++++++++++++++++++++XO+++++++###%***==***####++++++OOOOOOOOOOOOOOOOOOOOOOOOOOOOOOOOOOOOOOOOOOOOOOOOOOOOOOOOOOOO++OO++++++#####################&%%%%%**&%%%%&&&&&&&@@@&&@@@@@@@@@@@@@@@@@@@@@@@@@@@@@@@@@@@@@@@@@@@@@@@@@@@@@@@@@@@@@@@@@@@@@@@@@@@@@@OOOO@@OOOO@@@@OOOO++OOOO++OOOOOOOO+OOO+O++OO+X....+.XX..XXXX....XXX.....o.oo..o....... o.                                                                                    oooXX$$",
"XXXXXX$$XXXXXXoooooooooo                                                                              ooooXX$$$$XXXX$$$XXXXXooooXooooooooooooo       ooo oooooooooooo ooooooooo  o      oooo    oo      .. o  ...  .......................................X+++++++@@@@@@@@@@@@@@OOOOOO............ .........oo......oo....XX.X..X....XXXXXXXXXXXXXX+++++$$$$$#########%%%%%***==;;;;;;;;;;;;;;;;==****%%%%%###########################%%%**===;;;;;;;;;;;-==;;;;;;;;;;;;;;==**%%%%####$$$$$$XXXXXXXXXXXoX.o....ooo..oo..oo..o.. .......oooo.oooooooooooooooooooooooooooo..ooooooooooooXXoXXXooooooXXXXXoXXXXXXXXXoXXXXXXXXXXXXXXXXXXXXXXXXXXXXXXXXXXXXXXXXXXXXXXXXXXXXXXXXXXXXXXXXXXXXXXXXXX+$$$$$$########%%%***===;;;;;;;;;;;;;-==***%%%############++++@@&&&&&&&&&&@@@@+++XX.XXXX...X....XXXX.XXX....XXXXXXXXXXXXXXX++++$$$$#######%%%%***==;;;;;;;;;;;;;==*******%############+++++++++++++++++++++++++++++++++++###****=***%###++++++OOOOOOOO+OOOOOOOOOOOOOOOOOOOOOOOOOOOOOOOOOOOOOO+OOOOOOOOOOOO++++++++++++####################%%%%%%%%%%%%&&&&&&&@@&&&&&@@@@@@@@@@@@@@@@@@@@@@@@@@@@@@@@@@@@@@@@@@@@@@@@@@@@@@@@@@@@@@@@@@@@@@@@@@@@@@OO@@@@OO@@@@OOOOO+OOOOOOOO+OOOOO++OO++++OO++O...XXXXX.XXXX....XXX.....o....ooo......  o.                                                                                  ooooXX$$",
"X$$$$$X$XXXXXXooXooooooo                                                                              oooooXXX$$XXXXXXXXXXXXXXooooooooooo oooooo o  oooo oooooooooooooooooooooo oooooo  ..oo  oo.ooo   ..o..   ..  ....................................XXX++++++++@@@@@@@@@@OOOOOO............ ............oo.......XX.....X.........XXXXXXXXXXXXX++++++++$$$#########%%%%***==-;;;;;;;;;;;;;;;-==***%%%%%############################%%%%***===---;;;;;-===;;;;;;;;;;;;;-==**%%%%####$$$$$XXXXXXXXXXXXoo.o....oo...ooo.o...ooo oo..    oo.o .  .o..ooooooooooooooooooooooooooooooooooooooooooooooooXXoooooooooooXoooXXXooXXXXooXXXXXXXXXXXXXXXXXXXXXXXXXXXXXXXXXXXXXXXXXXXXXXXXXXXXXXXXX$X$X$$$$$$$######%%%%***===-;;;;;;;;;;;;-==***%%%##########++++++@@&&&&&&&&&&@@@++++XXXXX....XXXX..XXXX..XXXX..XXXXXXXXXXXXXXXX++++$$$$######%%%%%**==-;;;;;;;;;;;;;==*******%%##########++++++++++++++++++++O+++++++++++++++###***==****###++++++OOOO+OO+OOOOOOOOOOOOOOOOOOOOOOOOOOOOOOOOOOOOO++OOOOOOOOOOOOOOOOO+++++++####################%%%%&&%*%%&%%%&&&&&&&&&&&&&&&@&@@@@@@@@@@@@@@@@@@@@@@@@@@@@@@@@@@@@@@@@@@@@@@@@@@@@@@@@@@@@@@@@@@@@@@@@@@@@@@@OO@O@@@OOO@@@@OOOOOO+OOOOO++OOO+OOOO+...X+X+XXO...XX..XXXX............ooo...... oo..                                                                                  o ooXX",
"$$$$$$$XXXXXXXXoXooooooo                                                                              oooooXXX$$XXXXXXXXXXXXXooooooooooo o ooooooo ooooo oooooooooooooooooooooo oooooo ...oo  oo.ooo   ....o   ........................................XX+++++++++@@@@@@@@OOOOOOOO.........................o.o......XXXX...X......X..XXXXXXXXXXXXXX+++++++$$#########%%%%***==-;;;;;;;;;;;;;;;;==***%%%%%%############################%%%%%****============-;;;;;;;;;;;;;==**%%%%#####$$$$$XXXXXXXXXXXXoooo....o....ooooo.. oooooo      ooo         ..oooooooooooooooooooooooooooooooooooooooooooooooooooooooooooXoooXXXoooXXXooXXXXXXXXXXXXXXXXXXXXXXXXXXXXXXXXXXXXXXXXXXXXXXXXXXXXXXXXXX$$X$$$$$$$$#####%%%%***===-;;;;;;;;;;;;;==***%%%#########+++++++@@&&&&&&&&&@@@@+++OXXXXX....XXX......X..XXX.XXXXXXXXXXXXXXXXXXX+++$$$$#######%%%%***==;;;;;;;;;;;;;;==*******%##########++++++++++++++++++++O+++++++++++++++####********%###+++++OOOO+OOOOOOO+OOOOOOOOOOOOOOOOOOOOOOOOOOOOOOOO++OOOOOO+OOOOOOOOO+O+++++++####################%%%%&&%%*&%&%&&&&&&@@@&&&&&&@@@&&@@@@@@@@@@@@@@@@@@@@@@@@@@@@@@@@@@@@@@@@@@@@@@@@@@@@@@@@@@@@@@@@@@@@@@@@@@@OOOOO@@OOOO@@@OOOOOOOOOOO++O+OOO+OOOOO+O.++X+XXOO.......XXX............ooo......  o..                                                                                  o oooo",
"$$$$$$$$XXXXXXoooooooooo                                                                                oooXXXXXXXXXXXXXooooooooooooo ooooooooooo oooooooooooooooooooooooo..oooo ..ooo .  . o.o ooooo...    ..........oo...............................O+++++++++++++OOOOOO+OO.......... ...  .....o........oo.o....oo......XXXXXXXXXXXXXXXXXXXXXXXX++++$$$#########%%%%***==-;;;;;;;;;;;;;;;;-=****%%%%%##############################%%%%%%*****========-;;;;;;;;;;;;;;==**%%%#######$$$$$XXXXXXXXXXXX...ooooo..oo....oo  . ooo  oooo  .. o.        o  .ooooooooooooooooooooooooooooooooooo.oooo....ooooooo..oooXX..oo.ooooooXXoXXXXooXoXXXXXXXXXXXXXXXXXXXXXXXXXXXXXXXXXXXXXXXXXXXXXXXXXXX$$$$$$$########%%****===;;;;;;;;;;;;;==***%%%#%#######+#+++++@@&&&&&&&&&@@@@+++++XX..XXXXXX.XX..........XX.XXXXXXXXXXXXXXXXXXX+$$$$$#######%%%%**==-;;;;;;;;;;;;;-==*****%%###########++++++++++++++++++++++++OO++++X++++$$###%********###+++++O+OOOOOO++OOOOOOOOOOOOOOOOOO+++OOOOOOOOOOOOOOO++OOOOOOOO+OOOOOOO++++++++++#################%%%%&&&%**&&&%%%&&&&@@&@@&&@@@@&&@@@@&@@@@@@@@@@@@@@@@@@@@@@@@@@@@@@@@@@@@@@@@@@@@@@@@@@@@@@@@@@@@@@@@@@@@@@@@OOOOO@@OOOOOOOO@@OOOOOOOOOOOOOOOO+O+++OOOXXXOO...XX...XXX..........o.oo......oo                                                                                            ",
"$$$$$$$$XXXXXoooXooooooo                                                                                oooXXXXXXXXXXXXXoooooooooooooooooooooooo  oooooooooooooooooooooooo..oooo..oooo .  ..o.o    .....  . ..........................................+++++##++++++++OOOOO+OO........... ..........o........o.......ooX.X...XX.XXXXX.XXXXXXXXXXXXXXX+++$$$##########%%%****==;;;;;;;;;;;;;;;;-==***%%%%%##########$$####$###############%%%%%%*****=======-;;;;;;;;;;;;;-==**%%%######$$$$$$XXXXXXXXXXo....ooooo...oo   ooo .  o    oo   ooo .    oo o    ooooooooooooooooooooooooooooooooooooo.oooooooooooo....ooo.....ooooooooXXXXXXXoXXoooXXXooooXXXXXXXXXXoXXXXXXXXXXXXXXXXXXXXXXXXXXXXXX$$$$$$$$#######%%****===;;;;;;;;;;;;;-==**%%%%#######$$#+++++@@&&&&&&&&&&@@@+++++XX..X.XX.XXXX.........XX....XXXXXXXXXXXXXXXXX+$$$$$$######%%%%%**==-;;;;;;;;;;;;;==*****%%###########++++++++++++++++++++++++++++++++++++$####********%###++++OOOOOOOO++OOOOOOOOOOOOOOOOOOOOOOOOOOOOOOOOOOOOOOOOOOOOOOO+OO+OOOOO++++++++###################%%%%&%****%%&%&&&&&@@@@&&@@@@&&&&&&&@@@@@&&@@@@@@@@@@@@@@@@@@@@@@@@@@@@@@@@@@@@@@@@@@@@@@@@@@@@@@@@@@@@@@@@@@OO@@@@OOOOOOOOOOOOOOOOOOOOOOOOOO+++++OOO+XOOOO..XX....XX..........oo.o.o....oooo                                                                                          ",
"##$$$$$$$$$XXXooXXoooooo                                                                                ooooXXXXXXXoXXoooooooooooooo o    oooo   oooooooooooooooooooooooo..ooooo....oooo.o.o.   oooo.................................O...............+++++#####+++++++OO+++.........  ......................oX..........XX.....XXXXX.XXXXXXXXXXXX++++++$$$##########%%%***==;;;;;;;;;;;;;;;;;==***%%%%%%#########$$$$$##$$##############%%%%%%%******=====-;;;;;;;;;;;;;-==**%%%######$$$$$$XXXXXXXXXXoo...ooo....oooo  ...      oo    o       o   ooooo ooo.ooooooooooooooooooooooooooooooooo..oooooooooooo.ooooooo..ooooooo.oo....ooo.ooooXXXXooooooXoXXoXooooXXXXooXXXXXXXXXXXXXXXXXXXXXXXX$$$$$$$#######%%%***===-;;;;;;;;;;;;-==**%%%########$$#+++++@@&&&&&&&&&@@@+++++XXX........XX..........XX.....X.XXXXXXXXXXXXXX++$$$$#######%%%%%%**==;;;;;;;;;;;;;;==****%%%%###########+++++++++++++++++++++++++++++++++++$####********%##++++++++++OOOOOOOOOOOOOOOOOOOOOOOOOOOOOOOOOOOOOOOOOOOOOOOOOOOO+++OO+OO++++++++++#################%%%%&%&%%%%%&&&&&&&&&@@&&&&@@@&@@&@&&@@@@@&&@@@@@@@@@@@@@@@@@@@@@@@@@@@@@@@@@@@@@@@@@@@@@@@@@@@@@@@@@@@@@@@@@@@@O@@OOOOOOOO@OOOOOOOOOOOOOOOOOO+++OOOOXXXOOO......X.......XX........oooo...o....    .                                                                                   ",
"###$$$$$$$$$XXoXXXoooooo                                                                                oooooXXXXoooXXoooooooooooooo      ooooo  oooooooooooooooooooooooo..oooo.....ooo..ooo...o oo.....oo.........................................X++++++####+++++++++OXX........    .................................XXX......XXXX.X.XXXXXXXXX++++++$$$$#########%%%***==-;;;;;;;;;;;;;;;;===***%%%%%#########$$$$$###$$###############%%%%%%%******====;;;;;;;;;;;;;;==***%%%#######$$$$$XXXXXXXXXXoooo.ooo....ooo          o              o .o  oooo  .o  ...ooo....oooooooooooooooooooooo..oooooooooooooooooooooooooooooooooooooooooooo....oooooooo....ooooooooooooXXXXXXXXXXXXXXXXXXXXXX$$$$$$$#######%%%***===-;;;;;;;;;;;;-==***%%%#######$$##++++@@@&&&&&&&&&@@+++++XX.........XXX.........XX.....XX.X.XXXXXXXXXXXX+$$$$$#######%%%%%**==-;;;;;;;;;;;;;==*****%*%###########+++++++++++++++++++++++++++++++++++$$###%********###+++O+OO++OOOOOOOOOO++OOOOOOOOOOOOOOOOOOOOOOOOOOOOOOOOOOOOOOOOOO+OOOOOOO++++++++###################%%%%*%%%%%&&&&&&&&@@@@&&&@@@@@@@@&&@@@@@@&@@@@@@@@@@@@@@@@@@@@@@@@@@@@@@@@@@@@@@@@@@@@@@@@@@@@@@@@@@@@@@@@@@@@@@@@@@@@OO@@@OOOOOOOOOOOOOOOO+O++OOOOXXOOOOOO....X......XX.XX......oooo..o....  oo ..                                                                                  ",
"####$$$$$$$$XXXXXXXooooo                                                                                oooooooooooooooooooooooooooooooo  oooo  oooooooooooooooooooooooooooo.o..oooo...oooo...o.....o...........................OOOOOOOOOOOOOOO..XX+O++#######+++++++XXXX...... .     .. ...............................X..X.....XXXXXX.XXXXXXX+XX++++++$$########%%%%**==-;;;;;;;;;;;;;;;;-==***%%%%%#########$####$$$#####$##############%%%%%******===-;;;;;;;;;;;;;;==***%%%#######$$$$XXXXXXXXXXXooooooo.....oooooo    o           o   oo  . o  o ooooo    o.o...oo ooooo.ooooooooooooo.ooooooooooo..ooooooooooooooooooooooooooo...oooooo..ooooooooooooooooo.oooooXooXXXXXXXXXXXXXXXXXXXXXX$$$$$$######%%%***===-;;;;;;;;;;;;-==***%%%#######$+++++++++@&&&&&&&&@@@++++XX..XXXX....X..........XXX.o.....XXXXXXXXXXXXXXXXX$$$$$$######%%%%***==;;;;;;;;;;;;;;==*******############+++++++++++++++++++++++++++++++++X++$###%*******%###++++++++OOOOOOOOOOOOOOOOOOOOOOOOOOOOOOOOOOOOOOOOOOOOOOOOOOOOOOOOOOOOOOOO++++++++##################%%%%%%****&&%&&&&&&@@@@@@@@&@@&&&&@@@@@@&&&&@@@@@@@@@@@@@@@@@@@@@@@@@@@@@@@@@@@@@@@@@@@@@@@@@@@@@@@@@@@@@@@@@@@@@@@@@@@@OOOOOOOOOOOOOOOO+OO++OOO+++OXXOOO..X.....XXX.............oooo...... ..  ..                                                                                  ",
"####$$$$$$$$$$XXXXXooooo                                                                                oooooooooooooooooooooooooooooooooooooooooooooooooooooooooooooooooo.o..o.oooo...ooo.............................X......OOOOOOOOOOOOOOOO..X++++++######+++++++XXXX......         .  .........o.o.......o...............X.X.XXXXXXXXXXXXXX+XX++++++$$########%%%***=-;;;;;;;;;;;;;;;;-==***%%%%%%########$$###$$$$$#$##$###############%%%%%*****===-;;;;;;;;;;;;;-==***%%%#######$$$$XXXXXXXXXXooooooooo... ooo                               ooo  ooo    oo.ooooo  oooooooooo....oooo...ooooooooooooooooooooooooooooooooooooooooooooooooooooooooooooooooo.oooooooooooXXXXXXXXXXXXXXXXXXXX$$$$$$######%%%***===-;;;;;;;;;;;;-==***%%%%######$$++++++++@@&&&&&&&&@@++O+XX..XXX............o....XX.......X.XXXXXXXXXXXXXXX$$$$$$#######%%%%***=-;;;;;;;;;;;;;;==******#############+++++++++++++++++++++++++++++++XX++$$##%********%###+++@O++OOOOOOOOOOOOOOOOOOOOOOOOOOOOOOOOOOOOOOOOOOOOOOOOOOOOOOOOOOOOOOOO+++++++++##################%%%%%%&**&&%%&#&&&@@@@@@@@@@@&&&&@@&@@@&&&&&&@@@@@@@@@@@@@@@@@@@@@@@@@@@@@@@@@@@@@@@@@@@@@@@@@@@@@@@@@@@@@@@@@@@@@@@@@@O@OOOOOOOOOOOOOOO+OO+OOOOO+OXXOXXXX.OO...XXX....X.........ooo.....o    o .                                                                        oo        ",
"#####$$$$$$$$$ooXXXoooooo                                                                               oooooooooooooooooooooooo ooooo  oooooooo  oooooooooooooooooooooooooooooooooo..ooo...ooo.....oooo.....................OOOOOOO@@@@@@@@OOOOO+++++@#####++++++++XXX.........        ............oooo.......o....oo.......XXX.X.XXXX.XXXXXXXXXX+++$+$$$########%%%**==;;;;;;;;;;;;;;;;;-==***%%%%%#######$$$$##$$$$$$$$$$$$##$$##########%%%%%%****===;;;;;;;;;;;;;;===**%%%%%#####$$$$XXXXXXXXXXXo....ooooooooo o ..                oo             o  o o               ooo         oo    .oo .ooooo..oooo. oooo.ooo.o..oooooooooooooooooooooooooooooooooooo..oooooXooooXXXoXXXXXXXXXXXXXXXXX$$$$$######%%%****===;;;;;;;;;;;;-==***%%%%######$$++++++++@@&&&&&&&@@@++O+X...XXX............o...............XXXXXXXXXXXXXXXXX+$$$$$#####%%%%%**==-;;;;;;;;;;;;;-==*****%%#########+#+++++++++++++++++++++++++++++++XX++++$###%*******%###++++OOOO++++OOOOOOOOOOOOOOOOOOOOOOOOOOOOOOOOOOOOOOOOOOOO+OOOOOOO++O+OOOO++++++++##################%%%&&%%**%%%%%&#&#@@@@@@@@@@@&&@&@&&@@@@&&&&&&@@@@@@@@@@@@@@@@@@@@@@@@@@@@@@@@@@@@@@@@@@@@@@@@@@@@@@@@@@@@@@@@@@@O@O@O@@@O@@OOOOOOOOOOOO+OOOOOOOOOOO.OXXXXOO....XX....XX..........oo....oo. ..                                                                         oooo o     ",
"#####$$$$$$$$XXoXoooooooo                                                                               oooooooooooooooooooooooo  oooo  oooooooo  oooooooooooooooooooooooooooooooooo..ooo...ooooo....ooo....................OOOOOOO@@@@@@@@@@OO.O++++@######++++++XXXX..... ....       .. .....o...o.ooo...........o........oXXXX...XXXXXXXXXXXXX++++$++$$#######%%%**==;;;;;;;;;;;;;;;;;-==***%%%%%########$$$$$$$$$$$$$$$$$$##$$##########%%%%%%****==-;;;;;;;;;;;;;;===**%%%%%#####$$$$XXXXXXXXXXXX...oooooooooooo...                oo                .                 oo                ooo .........ooo..oooooooooooooooooooooooooooo.ooo.ooooooooooooo.oooooooooooooo.ooXXXXXXXXXXXXXXXXX$$$$$######%%%****===;;;;;;;;;;;;;==***%%%%#######$++++++++@@@&&&&&&@@@OOO+X..............o...................XXXXXXXXXXXXXXXXX++$$$$######%%%%***==;;;;;;;;;;;;;;-==*****%##########++++++++++++++++++++++++++++++++XX++X+$####%******%###++@+OOOO++O+OOOOOOOOOOOOOOOOOOOO@OOOOOOOOOOOOOOOOOOOOOOOOOOOOOOOOO++OOOOOO+++@+++################&#%&&&%***&*%%%&&&#@@@@@@@@@@@&@@@@&&@@@&&&&&&&@@&&@&&@@@@@@@@@@@@@@@@@@@@@@@@@@@@@@@@@@@@@@@@@@@@@@@@@@@@@@@@@@@OO@@OO@@@@@OOOOOOOOOO+OOOOOOOOOOOOOO..XXXXOX....XX...XXX..........oo....o.....                                                                      ooooooooo     ",
"######$$$$$$$$XXXXoooooooo                                                                                 ooooooooooooo  ooooooooooo  ooooooooooooooooooooooooooooooooo..ooooooooooooooo...oooo......................XX..O.OOOO@@@@@&&&&&@@@@OO++++########++++XXXXoooo.o    .. .      oo....o...ooo.....oo....oo......XXXXXX..XXXX.XXXXXXXXXXXXX++$$+$#######%%%%***=-;;;;;;;;;;;;;;;;-==***%%%%%%########$$$$$$$$$$$$$$$$$$$$$$$########%%%%%%%****==;;;;;;;;;;;;;;;==***%%%%#####$$$$$$XXXXXXXXXooooooo...oooo                                      o          o o      oo       ooooooooo.     .oo... .... o  o ooo ooooooooooooo..ooo...oo...oooooooooooo.oooooooooooo...oXXXXXXXXXXXXXXXXXX$$$#######%%%****===;;;;;;;;;;;;;-=***%%%%########$+$+++++@@@&&&&&&@@@OOO+X...........oooooooooooo......oo...XXXXXXXXXXXXXXXXX+++$$$$#####%%%%***==-;;;;;;;;;;;;;;-=*****%%%########+#+++++++++++++++++++++++++++++XXXXX+++$####*******%###++++OOOOOOO++OOOOOOOO@OOOOOOOOO@@OOOOOOOOOOOOOOOOOOOOOOOOOO@O+OOOO@OO++++O+++++++##################%%%&%%**%*&&&&&#&#@+@@@@@@@@@@@@&&&&&&&&&&&@&&&&&@@@@@@@@@@@@@@@@@@@@@@@@@@@@@@@@@@@@@@@@@@@@@@@@@@@@@@@@@@@@@@@OOOOOO@@OO@@OOOOOOOOOOOOOOOO++OOOOOOOXXXXX......................o.....o.o                                                                        oooooooooooo   ",
"#######$$$$$$$XXXXoooooo                                                                                    oooooooooooo  o ooooooooo oooooooooooooooooooooooooooooooooooo.oo..ooooo..ooo..oooo.oo....................XO..OOOOOO@@@&&&&&&&@@@@OO+++########+++++XXX.oo.o       ... .  . o......o..........oo.....o....o...XX.X..XXX...XXXXXXXXX+XX++$$$$#######%%%***==;;;;;;;;;;;;;;;;;==****%%%%%#########$$$$$$$$$$$$$$$$$$$$$$$#########%%%%%%****=-;;;;;;;;;;;;;;-==***%%%%#####$$$$$$XXXXXXXXXoo..ooooo.o. o                                                          oooo      oooooooooo    .....   ..  .oooooooo oooooooooooo   ooooo.o...ooooooo..oooooooooooooooo...oXooXoXXXXXXXXXXXXX$$$$######%%%****===;;;;;;;;;;;;;-==**%%%%########$+++++++@@@&&&&&&@@@OOO+XX..........oooo.....ooo......o....XXX....XXXXXXXXXXX++$$$$#######%%%%**==-;;;;;;;;;;;;;;-==****%%########+++++++++++++++++++++++++++++++++XXX+++$$###%*******###+++++OOOOOO++OOOOOOOO@@OOOOOO@@OOOOOOOO@OOOOOOOOOOOOOOOOOOO@O+OOOOOO+++O+OOO+++++####################&%%%%**%&&&&&#&#@@@+@@@@@@@@@@&&&&&&&&&&@@&&&&&&&&@@@@@@@@@@@@@@@@@@@@@@@@@@@@@@@@@@@@@@@@@@@@@@@@@@@@@@@@@@@@OOOOOO@OOO@@OOOOOOOOOOOOOOOO++OOOOOOOXXXXX.X.........X................oo                                                                        oooooXXXoooooo  ",
"#########$$$$$XXXooooooo                                                                                    oooo o ooooo     ooooooooooooooooooooooooooooooooooooo..o.oooooo.oooooo....oooo.oo..ooo.........X.........XOOOOOO@@@@@&&&&&&&&@@@@O@++#########++++XXX.o..o           .... .....................o.........oo.............XXXXXXXXXX+XX++++$$######%%%%**==;;;;;;;;;;;;;;;;;-==***%%%%%%######$##$$$$$$$$$$$$$$$$$$$$$$$$$$#######%%%%%***==-;;;;;;;;;;;;;;-=***%%%%#####$$$$$$$XXXXXXXXoo...ooooo...    o                                                        ooo            oooo o  oo      o oo      oo        oooo        oo oo . oo  oo..oooo. oooooooooooo....ooooXXXXXXXXXXXX$$$$######%%%%***===;;;;;;;;;;;;;;==**%%%%######$$$$+++++++@@@&&&&&&@@OO++XX................oo..oo..o..oo.....XXXX..XXXXXXXXXXXXXX$$$$$#####%%%%***==-;;;;;;;;;;;;;;-=****%%%%######++++++++++++++++++++++++++++++++++XX++++$$###********###+++++OOOOO+++OOOOOOOOOO+O+OO+OOOOOOOO@OOOO@OOOO@OOOOOOOOOOO+++OOOOOOOOOOOOOO++++++##################&&%%%%*%%&*%%%&#&#++++OO@@O@@@@@@@@&&&@@@@@@@@@@&&@@@@@@@@@@@@@@@@@@@@@@@@@@@@@@@@@@@@@@@@@@@@@@@@@@@@@@@@@@OOOOO@@@@OOOOOOOOOOOOOOOOOOOOOO+OOOOOO..XXXXXXOX.....XXXX.X...........o.....  ...                                                                 ooooXXXXXXXoooo ",
"##########$$$$XXXooooooo                o oo                                                                       o o      oooooooooooooooooooooooooooooooooooooo....oo.....o..oo.....o........oo..........XXXX......O+..OOO@@@&&&&&&&&&@@@@@O@@#########++++XX..o..           ............................o...oo....oo........XX..XXXXXXXXXXX+XX+++$$$$#####%%%**==-;;;;;;;;;;;;;;;;;==***%%%%%%######$$$$$$$$$$$$$$$$$$$$$$$$$$$$$$#######%%%%%***==;;;;;;;;;;;;;;;==***%%%%#####$$$$$$$XXXXXXXooooooooooo...                                                              oo              o.    o      ooooo      oo                   ooo  o    ooooo  o..  . ...oooooooooooo.oooXXXXXXXXXXXXX$$$######%%%%****==;;;;;;;;;;;;;;==**%%%%######$$$+++++++++@@&&&&&&@@OO+OXX........................ooooo..o..o.oo..XXXXXXXXXXXXXX$$$$$######%%%%**===;;;;;;;;;;;;;;;==*****%#########++++++++++++++++++++++++++++++++XX+++++$####%******%###++++OO+OOOOOOOOOOOOOOO+++OO+OOOOOOO@OOOOO@OOOOOOOOOOOOOOOO+++OOOOOOOOOOOOOO+++++++#################&&&%%%%**&*%%%&&&&++++OOOOOO@@@@@@@@@&@@@@@@@@@@&@@@@@@@@@@@@@@@@@@@@@@@@@@@@@@@@@@@@@@@@@@@@@@@@@@@@@@@@@@@@@O@@@@@@@OOOOOOOOOOOOOOOOOOOOO++++OOOOOOOXXXXX.....XXXXXX.X..........ooo...  ...                                                                 ooXXXXXXXXXXooo ",
"########$$$$$$XXXXooooooo            oooooooo                                                                      o   ooo oooooooooooooooooooooooooooooooooooooX......ooo.o....o....o..oo..................XX.X.....OOOOO@@@@&&&&&&&&&&&@@@@+@@&&######+++++XXX..o.       .       ...........oo.........o......oo..............XXX.XXXXXXXXXXXXX++++$$$######%%%**==;;;;;;;;;;;;;;;;;-==***%%%%########$$$$$$$$$$$$$$$$$$$$$$$$$$$#$$#######%%%%%**==-;;;;;;;;;;;;;;;=***%%%%#######$$$$$XXXXXXXXoooooooo.ooooo..                                                                              o oo o   o    oo    oooooooo      o oooo    ooo   oooo   oo...oo  ...oooooooooooooo.ooXXXXXXXXXXXXX$$$$#######%%%***==-;;;;;;;;;;;;;==**%%%%#####$$+$+++++++++@@&&&&&&@@OO+XX.......................oo...ooo.......o...XXXXXXXXXXXXX$$$$$$######%%%%**==-;;;;;;;;;;;;;;;==****%%##########++++++++++++++++++++++++++++++XXXX++++$####*******%###++++++OOOOOO+OOOOOOOO@@@OOOO@O@OOOOOO@@OOOOOO@@OOOOOOOOO@+++OOOOOOOOOOOOOOOO++++++#################%&%&%%%&&**%%%%&###++++++OOOOOOO@@@@@@@@@@@@@@@@@@@@@@@@@@@@@OOOOOOOOOOOOOOOOOOOOOOOOOOOOO+OOOOOO+++OOOOOOOOOOOOOOOOOOOOOOOOOOOOOOOOOOOOOOOOO++..O.OOOOOXXX..X.XX..X.........oo........o oo  .                                                               oXXXXXXXXXXXoooo",
"########$$$$$$XXXXoooooooo        ooooooooooo                                                                      o    o oooooooooooooooooooooooooooooooooooo.oXo......ooo.....oo..o.o...........................XXOOOOOO@@@@&&&&&&&&&&@@@@@@@@&######++++++XXXoo.o              .............o.........o......oo......Xo......XX...XXXXXXXXXXXX++++$$$######%%%**=;;;;;;;;;;;;;;;;;-=****%%%%%######$$$$$$$$$$$$$$$$$$$$$$$$$$$$$#$$#######%%%%%**==-;;;;;;;;;;;;;;-=***%%%%#####$$$$$$XXXXXXXXXoooooooo..ooo.o                                                                                   oo  oo o                        oooo    oo      oo      oo    .o..oo....oooooooo.ooXXXXXXXXXXXX$$$$#######%%%***==-;;;;;;;;;;;;;==**%%%%####$$$+$+++++++++@+@&&&&&@@OO++X............................o.o..o........XXXXXXXXXXXXXX$$$$$$#####%%%%%**==-;;;;;;;;;;;;;;-==***%%##########+++++++++++++++++++++++++++++++X+X++++$$####******%###++++++OOOOOO+OOOOOOOO@O@OOOO@@@OOOOOO@OOOOOOOO@@@@@@@@@OOO++OOOOOOOOOOOOOOOOO++++++#################%%%&&&%&**%%&&&###+++++OOOOOOOOOOOOO@O@@OOOOOOOOOOOOOOOOOOOOOOOOOOOOOOOOOOOOOOOOOOOOOOOOOOOOOOOOOOOOOOOOOOOOOOOOOOOOOOOOOOOOOOOOOOOOOOOOOOOO++O.OOOOOOOOXXX.X.XX.XX......o..oo........oo  ....                                                              oXXXXXXXXXXXoooo",
"########$$$$$$XXXXooooooooo       oooooooooooo                                                                  o  oo  ooo  o oooooooooooooooooooooooooo..oooo..oo...o.ooo.....ooo..ooooo....o.................O...X+OOO@@@@&&&&&&&&&&&@@@@@@@@&######@++++++XXXo.ooo       .  .  ............o..........o....o.oo......oooo.........XXXXXXXXXXX+++++$$$######%%%*==;;;;;;;;;;;;;;;;-==***%%%%%%######$$$$$$$$$$$$$$$$$$$$$$$$$$$$$#$#######%%%%%%**==;;;;;;;;;;;;;;;==***%%%%#######$$$XXXXXXXXXXoo.oooo..ooo.o                                                                                    o   o                                    ooo oo         o       o     ..ooooooooooooXXXXXXXXXXX$$$$$$$####%%%***==-;;;;;;;;;;;;;==**%%%%####$$$+++++++++++++@@&&&&@@+O++X.............................ooo........X....XXXXXXXXXXX+$$$$########%%%%***=;;;;;;;;;;;;;;;-==***%##########++++++++++++++++++++++++++++++++++XX++++$####******###++++++OOOOOOOOOOOOOOOOOOOOOOOO+OOOOOOOOOOOOOOO@@O+@@@@@@OO++@OOO++OOOO++++OO++++++++#################%%%%*%%%%*%%%%%####++++XX......OOOOOOOOOOOOOO.O.O.........................................................OOOOOOOOOOOOOOOOOOOOOOOOOOOOOOOOOOO+OO..XOOOO..X.......XXXX......oo..........    ..                                                              oXXXXXXXXXXXXooo",
"########$$$$XXXXXXooooooooo    o ooooooXXXoooo                                                              o     oo  oo o    o ooooo oooooooooooooooooo...oooo.o......ooo...oooo...o.oo........XX.................OOOOO@@@@&&&&&&&&&&@@@@@@+@@&#####+++++++X.XXoooo     .   ...  ............o..........oo...oooo....o.oooo.....X.XXXXXXXXXXXXX+++++$$$######%%*==;;;;;;;;;;;;;;;;;-==***%%%%%#######$$$$$$$$$$$$$$$$$$$$$$$$$$$$$#$#######%%%%%***==;;;;;;;;;;;;;;;==***%%%%######$$$$XXXXXXXXXXoo.ooooo.ooo..                                                                                  o ..                                        oo  o        o        oo     .ooooooooooooooXXXXXXXXX$$$$$$$####%%%***===;;;;;;;;;;;;;-=**%%%%#####$$+$+++++++++++@&&&&&@@+O++X................oo...o.......ooo....o...X...XXXXXXXXXXXX+$$$$#$######%%%%%**==;;;;;;;;;;;;;;;-=***%%#########++++++++++++++++++++++++OO+++++++XXXX+++$$####******##+++++OOOOOOOOOOOOOOOO@OOOOOOOO++OOOOOOOOOOOOOO@@O+@@@@@@OO++OOOO+++OOO++++OOO++++@+++################%%%%*%%%***%%&%&###+++++X....................................................................................OOOOOOOOOOOOOOOOOOOOOOOOOOOOOOOOOOOOOXXXOO..........XXXX......ooo.........     .                                                              oXXXXXXXXXXXXooo"
};
