/* XPM */
static const char *final_frame_017[] = {
/* columns rows colors chars-per-pixel */
"1280 720 16 1 ",
"  c #0D0313",
". c #0E0A2F",
"X c #2C0631",
"o c #24041D",
"O c #0C164E",
"+ c #1D1C60",
"@ c #5D135B",
"# c #4A0C3D",
"$ c #902072",
"% c #15348D",
"& c #3A4DAA",
"* c #A83391",
"= c #B14DA2",
"- c #F69695",
"; c #D6B3D9",
": c #45A4DF",
/* pixels */
"XXXXXXXXXo                                         oooooooXXXX##@@@@@$*******$$@@@@@@@$$*******$$$@$@@$***$@@@@@@@@@@@@@@$$*$$@@XXXoo   oo           ooooo    oo  ooooooooooooooXXXXXXXXXX#####@@@$**==;;;==**$$$$@$$************$@@@@@@@@@@@@@@@@@$*====;;;==*$$$@@##XXXXXXXXXXooooo                                                          oXXXXXXo              .......OOOOOOOOOOOOOOOOOOOOOOOOOOOOOOOOOOOOOOOOOOOOOOOOO................             ..                                                                                                          ..                                                ..OO.. ...  ....OO..                                                    ...........OOOOOOOOOOOOOOOOOOOOOOOOOOOOOOOOOOOOOOOOOOOOOOOOOOOOOOOOOOOOOOOOOOOOOOOOOOOOOOOOOOOOOOOOOOOOOOOOOOOOOOOOOOOOOOOOOOOOOOOOOOOOOOOOOOOOOOOOOOOOOOO...OOO.OO.........OO....................OO..OO................        ....       ...       ..  ..      ....  ... .. ..    ....     .         . ..   .............OOOOO..O.OOO+++%%&&&&&&::::::&%%%%%&&&:::&&&&&:;;;======**$$@@@@@******==;;;;=*******$$@@@@@@#######XXX##XXXXXXXXXXXXXXXoXXoooooooXoooooooooooooXXX##########@###@@#@#@$*******$@@@@@@@@@$$**********$*****====;;;;-====**$@@##Xoooo                                                                 ",
"XXXXXXXXXXoo                                         ooooooXXXXX#@@@@@********$$$$@@@@$$********$$@@@@@$$$@@@@@@@@@@@@@@@@$$$@@@#XX..o   o          o oooo    oo oooooooooo.ooXXXXXXXXXXX######@@@$**==;;;==**$$$$@$$************$@@@@@@@@@@@@@@@@@$**===;;;==*$$$@@####XXXXXXXXooooo                                                           oXXXXX..            .........OOOOOOOOOOOOOOOOOOOO++OOOOOOOOOOOOOOOOO+O+OOOOOO..............               ..                                                                                                          ..                                                ..OO..  ..  ....OO..                                                     .........OOOOOO++++++++++++++++++++++++++++++++++++OO+++++O++++OO++++++++++O+++++O++++++OOO+++++++++++++++OOOOOOOOOOOOOOOOOOOOOOOOOOOOOOOOOOOOOOOOOOOOOOOOOOOOOOOOOOOOOOOOOOOO...OOOOOOOOOOOO....OO..OO.....O.O.......         ....        ..    .   . ..    ..  ..   ..  .  ..    .     .. . .        ....  .............OO..O....OOO+++%%&&&&&:::::::&%%%%%&&:::&&&&&:;;;=======**$@@@@@@******==;;;;==*****$$@@@@@@@#########XXXXXXXXXXXXXXXXXXoXooooooooooooooooooooooXXX##########@@@@@@@@@$*******$@@@@##@@@$$****************===;;;;;-====**$$@##Xooo                                                                   ",
"XX##XXXXXXXXoo                                oo      oooooXXXXX###@@@@@$$*******$$@@$$$$********$@@@@@@@@@@@@@@@@@@@@@@@@@@@@@@XXX.o   oooo            o     oo ooo..oooo..ooXXXXXXXXXXX######@@@$*==;;;;==*$$$$$$$$************$@@@@@@@@@@@@@@@@$$**===;;;==*$$$@@####XXXXXXXoooooo                                                           oXXXXXXo              ... ...OOOOOOOOOOO........................O.OOO.....O...............                                                                                                                            ..                                                ..OO.. .... ....OO.. .                                                      .......OOO++++++++++++++++%+%%%%%%%%%%%%%%%%%%%%%%%%%%%%%%%%%%%%%%%%%%%%%%%%%%%%%%%%%%%%%%%%%%%%%%%%%%%%%%%%%%%%%%%%++++++%%++++++++++++++++++++++++++++++++++++++OO++++++++OOOOOOOO++OOOOOOOO++OOOOOOOOOOOOOO.....  ...   .....       .... ....    .    ...           .          ..    .......    ..... .....................O.OOO+++%%&&&&::::::::&%%%%&&:::&&&&&:;;;;=======**$@@@@$$******==;;;;==*****$$@@@@@@@#########XXXXXXXXXXXXXXXXXXXXooooooooooooooooooooooXX##########@@@@@@@@@$*******@@@@@@@@@@$$*******$*******===-;;;;-====***$@@##Xoooo                                                                   ",
"XX########XXXooo                               o      ooooooXXXX###@@@@@@$********$$$$$$$$*******$$@@@@@@@@@@@@@@@@@@@@@@@@@@@@#XXX.o           oooo    oo    ooooooooooooo.oXXXXXXXXXXXX#####@@@@$*==;;;;==*$$$$$@$*************$@@@@@@@@@@@@@@@@$$$*===;;;==*$$$@@###XXXXXXXXoooooo                                                           .oo.oooo.              ......OOOOOO......................................................                                                                                                                             ..                                                ..OO.. .... ....OO..                                                          .....OOOOOOO+++O++++++++++++++++++++++%%%%%%%%%%%%%%%%%%%%%%%%%%%%%%%%%%%%%%%%%%%%%%%%%%%%%%%%%%%%%%%%%%%%%%%%%%%%%%%%%%%%%%%%%%%%%%%%%%%%%%%%%%%%%%%%%%%%%%%%%%%%%%%%%%%%+++++++++++++++++++++++++++++++OOO..... . ..   ......       ... ....            ...                    .    ........ .....................O.......OOOO++++%%&&&&:::::::&&%%%&&&:::&&&::;;;;=======***@@@@@$$******==;;;;==******$$@@@@@@@########XXX#XXXXXXXXXXXXXXoXooooooooooooooooooooooXX##########@@@##@@@$******$$@@@@@@@@$$*******$$$******===;;;;;-====***$$@@##oooo                                                                    ",
"XX###@@@###XXXooo                                     o o  oooXXXXXX##@@@@$*********$$$$$$********$$@@@@@@@@@@@@@@@@@@@@@@@@@@#XXXXooo           o  o   oo         oooooooo.oXXXXXXXXXXXXX####@@@@$*==;;;;==*$$@@@@$*************$@@@@@@@@@@@@@@@@$$*====;;;==*$$$@@@##XXXXXXXXoXoooo                                                             ooo. oo..           .. ....OOOOOO............. .. ..  ..............................                                                                                                                              ..                                                  ..OOO...........OO.. .                                                         ....OOOOOOOOOOOOOOOOOOOOOOOOOOO++++++++++++++%%%%%%%%%+%%++%%%%++++%%%%++++++%%%%%%%%%%%%%%%%%%%%%%%+%%%%%%%%%%%%%%%%%%%%%%%%%%%%%%%%%%%%%%%%%%%%%%%%%%%%%%%%%%%%%%%%%%%%%%%%%%%%%+++++++++++++++OOOOOOOOO...... ..    ....  ........  ....  ..  .         .                             .     ...     ...........OO....OOOOOOO++%%%%%&&&::::::&&%%%&&::&&&&&::;;;;==**====**$@@@@@@$$$$**===;;;;==******$$@@@@@@@#############XXXXXXXXXXXXXoooooXooooooooooooooooooXX###########@@@@$$**==***$@@@@@@@@@$*********$$*****===-;;;;;-===***$$@@##XXoooo                                                                    ",
"XX###@@@@###XXXoo                                          oooooXXXX####@@@$$$********$$$$$********$$@@@@@@@@@@@@@@@@@@@@@@@@##XXXooooo       oo    o   oo    o   ooooooooo.ooXXXXXXXXXXXX####@@@@$*==;;;;==*$$@@@@$*************$@@@@@@@@@@@@@@@@$$*====;;;==*$$$@@@##XXXXXXXXXXoooo                                                               .. .o..              .....OOOOO.............................  ....................                                                                                                                          . .......                                             . ..OOO. .........OO.. .                                                         ....OOOOOOOOOOOOOOOOOOOOOOOOOOOOOOOOOOOOO++++++++++++++++++++++++++++++++++++++++++++++++++++++++++++++++++++++++++++++++++++++++%+%%+%%%++%%%%++%%%%++++++++++++++++++++++++++++++++++OOOOOOOOOOOOOOOOOO....... ..  . ..... ........  .. .  .. ..                                    .. ..    ... ..............OO....OOOOOO++++%%%%%&&:::::::&&%%&&:::&&&&:::;;===&*=====**$@@@@@$$$$$**===;;;;=*******$$@@@@@@@##############XXXXXXXXXXXXoooooooooooooooooooooooXXX#####XX####@@@$**===**$$@@@@@@@@$$********$$$$****===;;;;;;===****$$$@###XXooo                                                                     ",
"XXX##@@#@@###XXXoo                                            ooooXXXXXX@@@@@@$********$*$$********$$@@@@@@@@@@@@@@@@@@@@@@@@#XXXXoo  o       oo    o   oo    oo   ooo.oooo.ooXXXXXXXXXXX#####@@@@$**==;;;==*$$@@@@$*************$@@@@@@@@@@@@@@@@@$*====;;;==**$$@@@###XXXXXXXXooooo                                                               . .  o.               .......OO.....      ..        .     .             ..........                                                                                                                          ......  .                                               ..OOO.... ......OO.. .                                                        .......OOOOOOOOOOOOOOOOOOOOOOOOOOOOOOOOOOOOOOOOOOOOOOOOOOOOOOOOOOOOOOOOOOOOOOOOOOOOOOOOOOOOOOOOOOOOOOOOOOOOOOOOOOOOOOOOOOOOOOOOOOOOOOOOOOOOOOOOOOOOOOOOOOOOOOOOOOOOOOOOOOOOOOOOOOOOOOOOOOOOOOOOOOOOO............. .     ....    ....    ..    ....                   ...........................................O..O..OOOOOOO++++%%%%%%&:::::::&&%%%&:::&&&&::;:==&&***=====**@@@@@@@@$$$**==-;;;;=*******$$@@@@@@@############XXXXXXXXXXXXXXXoooooooooooooooooooooXXXX#####XXX###@@$**===**$@@@@@@@@@$$*******$$$$$***====;;;;;====***$$$@@##XXooooo                                                                     ",
"XXX##@##@@####XXoo                                         o   oooXXXXXX##@@@@@$$$$****************$$@@@@@@@#@@@@@@@@@@@@@@@##XXXooo                oo  oo    oo    oo..ooooooXXXXXXXXXXXX#####@@@$**==;;;==*$$@@@@$$************$@@@@@@@@@@@@@@@@$$*====;;;==**$$@@@###XXXXXXXXooooo                                                                     ..              ..............         .. ......   .             ...........                                                                                                                          ......  .                                               ..OOO.... ......OO..                                                          .................OOOOOOOOOOOOOOOOOOOOOOOOOOOOOOOOOOOOOOOOOOOOOOOOOOOOOOOOOOOOOOOOOOOOOOOOOOOOOOOOOOOOOOOOOOOOOOOOOOOOOOOOOOOOOOOOOOOOOOOOOOOOOOOOOOOOOOOOOOOOOOOOOOOOOOOOOOOOOOOOOOOOOOOOOOOOOOOOOOOOO..........      ......     .      ..    .......  .            ......................................OOO...O..OOOOOOOO+++++%%%%%%&&:::::::&&%&&&:::&&&::;::=&&&$&*====***@@@@@@@@$$$**==-;;;;=******$$@@@@@@@@###########XXXXXXXXXXXXXXXXooooooooooooooooooooXXXXX#####XX####$$**==***$@@@@@@@@$$********$$$*$***===-;;;;-====***$$$@@###ooooo                                                                       ",
"XXXXX####@@###XXXXo                                         ooooooooXXXXXX###@@@@@$$****************$@@@@@@@@@@@@@@@@@@@@@@@##XXXooo                    oo oo   ooooooooo...oXXXXXXXXXXXXX####@@@@$*==;;;;==*$$$@@@$$************$@@@@@@@@@@@@@@@@@$$*===;;;==**$$@@@###XXXXXXXXXoooo  o                                                             o.oooo.                 ............               .. .....                ........                                                                                                                      ........  ...                                             ..OOOO...   ....OO.. .                                                        ....................................................................OO....OOOO......OO......OO....OOOO.OOOOOOOOOOOOOOO....OOOO....OOOO.......O....OO..........................................................  ..       ...      .... . .............             ....... ......   ............ .........OO..O..OOOOOOOOOO+++%+%%%%%%&&&&:::::&&&&::::&&&:;;;=&$$$$****===***$@@@@@@@$$$***=-;;;;=*******$$@@@@@@@#########XXXXXXXXXXXXXXXXXXXXXoXXooooooooooooooooXX##########@$***==**$@@@@@@@@$$********$$$$****===-;;;;-====***$$@@###XXooooo                                                                        ",
"XXXXXX########XXXXoo                                        ooooooooXXXXXXX####@@@@$****************$$@@@@@@@@@@@@@@@@@@@@@@##XXXoooo          o                o ooooo.o...oXoXXXXXXXXXXX####@@@@$**=;;;;==*$$$$@@@$************$@@@@@@@@@@@@@@@@@$**===;;;==**$$@@@###XXXXXXXXoooo                                                            ooo  o.ooo.   ...             ............     .  .....     .....               ........                                                                                                                      ........  ...                                             ..OOOO...   ....OO.. .                                                        ................................................................................................................O.............................................................................................            ..  .   ..    .. ...........           .......                            ..........O..OOOOOOOOO++++%+%%%%%%&&:::::::&&&&:::&&&::;;:&&@$$*****=*****$@@@@@@@$$$***=-;;;;=*******$@@@@@@@###########X#XXXXXXXXXXXXXXXXXXoXXooooooooooooooXoXX#########@$**===**$@@@@@@@@@$*********$$$$***===--;;;====***$$$@@###XXoooooo                                                                        ",
"oXXXXXXXX#####XXXXXo        oo oooooo                      o    oooooXXXXXXXX###@@@@@$***************$$$@@@@@@@@@@@@@@@@@@@@##XXXoooo   oo                         oooo.oo..oXooXXXXXXXXXX####@@@@$**=;;;;==*$$$$@$$$************@@@@@@@@@@@@@@@@@@$*====;;;==**$$@@@###XXXXXXXXooooo                                                         oooooo.oooo    .....              .........      .........   ........            .  .....                                                                                                                      ..........                                                 ..OOOO....  ....OOO... .                                                      ..  ..........................................................................................................................................................................................................      .                     ....OOOOOO....         .....                              .. ...........OOOOOOOO++++%%%%%%%%&&::::::&&&&:::&&&&:;;=&&&$**$****=*****$@@@@@@@$$$$**=-;;;;=*******$@@@@@@@###########X###XXXXXXXXXXXXXXXXoXXXoooooooooXXXXXoXX#######@@$**==**$$@@@@@@@@$$******$$$$*****====;;;;;====***$$$@###XXoooooo                                                                          ",
"oooXXXXXXXX####XXXXoo     ooooooooooooo                         ooooooooXXXXXXX##@@@@@$******************$@@@@@@@@@@@@@@@@@@##XXXoo o   oo                         ooo.ooo..oooooXXXXXXXXX####@@@@$**==;;;==*$$$$$$$$************@@@@@@@@@@@@@@@@@@$*====;;;;=***$@@@###XXXXXXXXXooooo                                                       oooooooooXXooooooo...               .  .....      .......................         .  .....                                                                                                                      .........  .    .                                      .. ...OOOO.... .....OOO... . .                                                    ..............................................................................................................................................................................  ..............................      ..                    ...O++++++O...        ....                           .   ..............OOOOOOOOO++++%%%%%%%&&&:::::::&&::::&&&::;:=&&&*=*$****=*****$@@@@@$$$$$$**=-;;;;=*******$@@@@@@@################XXXXXXXXXXXXXXooXXXXXoXoooooXXXXXXXX######@@$***=**$$@@@@@@@@$*******$$$******====;;;;-===***$$$@@@###Xoooooo                                                                           ",
"ooooooXXXXXX####XXXXo    oooXXXXXXXXXXoo                         ooooooooXXXXXXXXX##@@@@@$$***************$$*$@@@@@@@@@@@@@@##XXXoo                     o    ooooo ooooooooooXXXXXXXXXXXXX#####@@@$**==;;;==*$@@@@@$$************$@@@@@@@@@@@@@@@@$$*====;;;;=**$$@@@####XXXXXXXXoooo  o                                                     ooXXooXXXXXXXoooooo...               .........   ......................... .  .   . .......                                                                                                                     ...O.....                                                ....O+OO....  ....OOOO.......                                                     . ........................................................................................................................................................................      ..    .......  .....  ..   ..    ...                 .....O+++OOOO....      .....              .            ...   ..............OOOOOOOO++%+%%%%%%%&&:::::::&&::::&&&::::&&&$***************$@@@@@$$$$$$**=-;;;;=*******$$@@@@@@@###########XXX##XXXXXXXXXXXooooXXooXXXooXXoXXXXXXX#####@@$**==***$$@@@@@@@$$********$$$*****===-;;;====***$$$@@@###XXoooooo                                                                            ",
"XoooooooXXXXX###XXXXoo   ooXXXXXXXXXXXXooo                         ooooooooooXXXXX###@@@@@@$*******==***********$@@@@@@@@@@@##XXXX.o                    oo  oo  ooooooooooooooXXXXXXXXXXXX#####@@@$**==;;;==*$@@@@@$$************$@@@@@@@@@@@@@@@@$$*====;;;;=**$$@@@###XXXXXXXXXooooo o                                                     oXXXoooXX##XXXXXooo....                ..  .... .............................     .........        ..                                                                                                           ...OO....              .                          .     .....O+OO..........O+OO.........                                   ..            ... ..    ............................................................. ......................................................................  .... .....    ... ..... ....    ....  . ......  ..  .         .    ... ...   ....   .  ....OO++OO.......      ....                            ...    ......O.....OOOOOOOOO++%%%%%%%%%&::::::::&&::::&&&::::&&&**==************$@@@@@$$$$$$**=-;;;;=*******$$@@@@@@@##########XXXXX#XXXXXXXXXXXXoXXXXooXXXXXXXXXXXXXX####@@@$**==***$$@@@#@@@$$*******$$$$$***===-;;;;====***$$$@@@####Xooooooo                                                                            ",
"XooooooXXXXXXX##XXXXXoooooXXXX######XXXXoo                           oooooooooXXXXXXX###@@@@$$*****=====**********$@@@@@@@@@##XXXXoo o                  oo     oooo.oooo...ooXXXXXXXXXXXXX#####@@@$**=;;;;==*$@@@@@$$***=**=*****$@@@@@@@@@@@@@@@@$$**===;;;;=**$$@@@@##XXXXXXXXXooooo                                                      ooXXXXooXXXXXXXXXXooo...                  . .................................       ............ .......                                                                                                        ....OO.....                                       ..    .....OO+OO..........O+OO....  ... ..                  ....  ..    .....                  . .............................................................. ......................  ....  ........  ................  .............. .........  ....    ..    ..  ..... . ....        ...       ....   ..................  ....OOO.........       ...                             ...     ...........O.OOOOOO+++%%%%%%%%%&::::::::&&:::&&&::::&&&&****************$@@@@@$$$$$$**=-;;;;=*******$$@@@@@@@##########XXXXXXXXXXXXXXXXXXXXXXXXXXXXXXXXXXXXXXX##@@$$**===**$$@@@@@@@$$*******$$$$$***=====-;--==****$$$@@@####XXooooooo                                                                             ",
"XooooooXXXXXXXX#XXXXXoo.ooXXX#########XXooo                          oooooooooooXXXXXX###@@@@@$$***=======*********$@@@@@@@@##XXXXooo                   oo      ooo..ooo...ooXXXXXXXXXXXXX#####@@@$**==;;;==*$@@@@@$$***=**==****$@@@@@@@@@@@@@@@@$$**===;;;==**$$@@@@##XXXXXXXXXXooooooo                                                   ooXXXooooXXXX#@@#Xooo.o. .                 ................................... .   ........... ...........      .                                                                                               ....OO...... ...    ..          ..            .. .... .......OO++O..........O+OO....   ....   ....  ..    .. ....   .. .  . ...               ...  .....................................................................................   ...    ..   ..................   .............  ...   ...   ...     .    ..   ....   ....        .        .. .... .......OO.........   ..OOOO....  .       .....                                   . ....O....OOOOOOOOO++++%%%%%%%%%&::::::::&:::&&&&:::&&&&&****************@@@@@@@@$$$$**=-;;;;=*******$$@@@@@@###########X#XX#XXXXXXXXXXXXXXXXXXXXXXXXXXXXXXXXXX##@@$**==***$$@@@@@@@$$******$$$$*****====-;;;====***$$$@@#####Xooooooooo                                                                             ",
"Xoo...ooooXXXXX#XXXXXXooXXXXX###@@@@##XXXXo                          oo ooooooooooXXXXXX###@@@@@$*****=====******$@@@@@@@@@@##XXXXXoo                  ooo   ooo  ooooooooo.ooXoXXXXXXXXXXXX##@@@@$**==;;;;=*$$@@@@$****=***==****@@@@@@@@@@@@@@@@@$*====;;;;=**$$@@@###XXXXXXXXXXoooo..oo                                                  ooXXXXooXXXX##@@@#XXoo o                    ...................................    . .........  ............                                                                                           ....   .....OOOO.....  ...... ...     ...   ...         ...   ........OO++OOO........O+OO.....  .    ..         ...             .     ...    ..     .  .......................................................   ......  ........    . ....    ............  ...     ............    ........        ..      ......   ......   ..     ...      .    .      .. ..  ......OOOOO+OOOOOO.........OOO....        .  ...                                 ..    ......OOOOOOOOOOOO++%%%%%&%%%%%&&:::::::::::&%&::::&&&****=*************$@@@@@@@$$$$**=-;;;;=*******$$@@@@@@@############XXXXXXXXXXXXXXXXXXXXXXXXXXXXXXXXX####@@$***==***$$@@@@@@$$******$$$******======;;====****$$@@@#####XXXooooooo                                                                              ",
"XXo.o.ooooXXXXXXXXXXXXooXXXXX###@@@@##XXXXo                          oooooooooooooXXXXXXXX##@@@@$$$***======******$$@@@@@@@@##XXXXXooo                 o  oooooo  oo.ooooo..o.ooXXXXXXXXXXXX##@@@@$**==;;;;=*$$@@@@$****=***==***$@@@@@@@@@@@@@@@@@$*====;;;;=**$$@@@###XXXXXXXXXXooo...oo                                                  oXXXXXooXXXX##@$@@#Xoo o   .                  .................................. ..........................   .                                 ..                                                  ........ ......OOOO....... ..... .........................................O++OOO.......OO+OO......... .  .        ....    .      ...     ...    ....  ......................  ...................................  .......  ........    . ....    ............  ....    ........ ....   ....   .        .. .  . ......  .......  ....    ...             .    ....  .......OOOOOOOOOOOOO........OOO...         . ....                                 ..   .......OOOOOOOOOOOO++%%%%&&&%%%%%&::::::::::&%&&:::&&&&**=*=*************$@@@@@@@$$$$**=-;;;;=*******$$@@@@@@@############XXXXXXXXXXXXXXXXXXXXXXXXXXXXXXXXX###@@$**====*$$$@@@@@@$$*****$$$$$******===---====*****$$$@@####XXXXooooooooo                                                                             ",
"XX..ooooooXXXXXX##XXXXXXXXXXX####@@@@#XXXXo                         ooooooooooooooooXXXXXXX###@@@@@$$***===******$$$**@@@@@@#XXXXXXXooo                     oo  ooo .oooo.XooooXXXXXXXXXX#XX##@@@@$**==;;;==*$$@@@@$$***==*===****@@@@@@@@@@@@@@@@@$*====;;;==**$$@@@####XXXXXXXXXoooo.ooo                                                  oXXXXXooXXXX##@$*@@Xoo.o o .                    ............................................................            ...... .              ....      ....                                        ...... . ......OOOO...........  .........................................OO++OOO.......OO+OO........    ........    ........ ...  ....  ....... ...........................  .....  ............ ....    . .  .. ......... . . .  ............    ..  .. .      ......  ..    ..  .........    ...    ........ .          ......  ....    ..             ...   ..  .......OOOOOOOOOOOO.OOO.OOOOOOO....        .......                                 .   ........OO.OOOOOOOOO++%%%%&&&&%%%%::::::::::&%%&&:=&&&&&===*=*************$$@@@@@@$$$$**=-;;;;=*******$$@@@@@@@#############XXXXXXXXXXXXXXXXXXXXXXXXXXXXXX####@@$**===**$$@@@@@@@$$*****$$$$$$***=====----====****$$$$@#####XXXXoooooooooo                                                                            ",
"XXo.ooooo.XXXXXX##XXXXXXXXXXX####@@@@##XXXo                           ooooooooooooooooXoXXXX####@@@@$$****=*****$$$$***$@@@@#XXXXXXXooo        o            o   .oooooo.o.oXoXXXXXXXXXXXX#XX##@@@@$**==;;;==*$$@@@@$$***=**===****@@@@@@@@@@@@@@@@@$*====;;;==**$$@@@####XXXXXXXXXoooo.ooo                                             o    oXXXXXooXXXX##@$*$@#XXoo o .                       .         ....... ...........  ..................  ......  .         ..   .       . .    .    .      ....    ....                        .    ........... ......O++O...........  ..........................................O++OOO.......O++OO....................    ..................  ...................................    ...   .................          ............   .  ............                  ......         .  ....... ....  ..     .........           ....   ....    .... .   .      ..   .   .....OOOOOOOOOOOOOOOOOOOOOOOO......        .... .                              ..  .   ........OO..OOOOOOOO+%%%%&&:&&&%%&::::::::::&%%&&&&&&&&&===***************$$@@@@@$$$$$**=-;;;;=*******$$@@@@@@@#############XXXXXXXXXXXXXXXXXXXXXXXXXXXXXX##@@$**=====*$$@@@@@@$$$*****$$$$$$***======--=====*****$$$$@#####XXXXooooooooo                                                                             ",
"XXooooooooXXXX###XXXXXXXXXXXX#####@@###XXXo                               ooooooooooooooXXXXXXXX##@@@@$********$@******@@@@@#XXXXXXooo         o o.               .ooooooooXXXXXXXXXXXXXX######@@@$**=;;;;==*$@@@@@@$***=**===***$@@@@@@@@@@@@@@@@$$*====;;;==*$$$@@@@####XXXXXXXXXoo..oo                                                  ooXXXXXooXXXX##@$*$@#XXXo o                                            ....    .. ... ....... .........................  ..  .     .         ..          ....      ..    ....        ......  ....   .. ....  .......O++OO........... ......    ..............................OOO++OOO......OO+++O.................... .. ......................................................  ......  ............... . ..     ... .........    ..  .............                 ..  ....         ....... .  ... ..    .........           ...               .... ...             ....................................         .....                                 .   ..........OO.OOOOOOOO+%%%%%&&:&&&%%&:::::::::&%%&&&&&&======**=************$$@@@@@$$$$$$**=-;;;;=*******$$@@@@@#@##############X##XXXXXXXXXXXXXXXXXXXXXX####@@$$**====**$$@@@@@@$$*****$$$$$$$***====----==*********$$$@@#####XXXXXooooooooooo                                                                          ",
"XXoo.oooooXXXX#####XXXXXXXXXX#####@@####XXo                               ooooooooooooooooXXXXXX####@@@$******@@@@@$$*@@@@@@##XXXXXooo            o               .oooo.oooXXXXXXXXXXXXXX######@@@$**=;;;;==*$@@@@@@$***=**===***$@@@@@@@@@@@@@@@@$$*====;;;;=*$$$@@@@####XXXXXXXXooooo.oo                                                ooXXXXXXooXXXX##@$*$@@#XXooo                                                        ..  ......   ...... ..................... ..   .......   .....    ... ......  .....   .....  . ...............    ......  .......O++OO..........  ........................................OOO+++OO......OOO++O......................................................................................  ....................... .............. .....  .............    .  ....  .   ... ......        ................    .......             ..                .... .               ..................................          .....                                  ..............OOOOOOOOOO++%%%%&&::&&&%&&::::::::&%%%&&&&&&&======*=*********=***$@@@@@$$$$$$**=-;;;;=*******$$@@@@@#@##########X###X##XXXXXXXXXXXXXXXXXXXXX#####@@$**===***$$@@@@@@$$*****$$$$$$$***====--====**********$$@@@#######XXXXXooooooooo                                                                          ",
"XXXooo.oooXXXXX######XXXXXXXX####@#####XXXo                                ooooo oooooooooXXXXXXXXX###@@@$***@@@@@@@@@@@@@@@##XXXXXXooo           o       oooooo  oooo..ooXXXXXXXXXXXXXXXX####@@@@$**==;;;==**@@@@@@****=**===***@@@@@@@@@@@@@@@@&&**====;;;;=**$$@@@@####XXX#XXXXooooooo                                                 ooXXXXXXXoXXXX##@$*$@@@#XXoo                                                         . .......    .............................................................. .......   ....   ....  .. .       .  ..  ...........O++OO........... ........................................OOO+++OO......OOO++O...........................................................................................................................................   ......  ............ ...    ......    ...................  .......     ...       .      ..    ......                   ..................................          .....                                   .............OOOOOOOOOO++%%%%&&:::&&%&&:::::::&&%%%&&&&&&==*====*=*************@@@@@@$$$$$$**=-;;;;=*******$$@@@@@############X###XXXXXXXXXXXXXXXXXXXXXXX####@@$**====**$$@@@@@@$$****$$$$$$$$$***====--===************$$$@@#######XXXXXXoooooooooo                                                                        ",
"XXooo...ooXXXXX######XXXXXXXX#########XXXXo                                 oooo oooooooooooXXXXXXX###@@@@@@@@@@@@@@@@@@@@@@##XXXXXXooo           oo   .  oooooo ..ooo..ooXXXXXXXXXXXXXXXX####@@@@$**==;;;==**@@@@@@****=**===***@@@@@@@@@@@@@@@@&&&*====;;;;=**$$@@@#####XXXXXXXXooooooooo o                                            oooXXXXXXXXXXXX##@$*$@@@#XXoo                                                            .... .       .   .... .   ..............  ......................................   ........... .....   .  ... .  ............O++OO....................................................OOO+++OO......OOO++O.................................................................................................... .... .... ...........................      ..................  ..  .  ............................  ... ..     .....             ..     .....      ..           .....O........................              ....                               ..   .............OOOOOOOOOO++%%%%&&:::&&%&&:::::::&%%%%&&&&&&&=&*=***=*************@@@@@@$$$$$$**=-;;;;=*******$$@@@@@############X###XXXXXXXXXXXXXXXXXXXXXX####@@$**===***$$@@@@@@$$****$$$$$$$$$***=========*************$$$@@@########XXXooooooooooo                                                                        ",
"XXooo..ooooXXXX#######XXXXXX##########XXXXo                                 oooo  oooooooooooooXXXXXXX##@@@@@@@@@@@@@@@@@@@@##XXXXXXo               ..oo.ooo     . o.oo.ooXXoXXXXXXXXXXXXX####@@@@@**==;;;==**$@@@@$****=***==****@@@@@@@@@@@@@@@@@&&====;;;;=**$$@@@@####XX##XXXXXXooo.o                                             oo  ooXXXXXXXXXXXX#@@**$@@@@XXoo                                              ....      ..  ......             .................  ....    ..   ................ ........................... .. ..........................O+++O.....................................................OO+++OO......OOO++OOO..........................................................................................................................................................................    ....  .....OOOOOO.......  .   ...  .   .  .   ...   ...   . ......            .      ...OO........................             .....                                 ...  ............OOOOOOOOO+%%%%%%&::::&&&&&::::::&%&%&%%&&&&&**&*==***********==***$$@@@@@@$$$$**=-;;;;=*******$$@@@@@@############XXXX##XXXXXXXXXXXXXXXX#X####@$$**==***$$@@@@@@@$$****$$$$$$$$$***===---==***************$$$$@@#########XXXooooooooooo                                                                       ",
"XXoo..oooooXXXX########XXXXXXXX#######XXXXo                                  ooo  ooooooooooooo.oXXXXXX##@@@@@@#@@@@@@@@@@@###XXXXXXo           .    ooooooo       .oo.Xo.XXoXXXXXXXXXXXXX####@@@@$**==;;;==**$@@@@$****=***==****@@@@@@@@@@@@@@@@@&&====;;;;=**$$@@@@####XXX#XXXXXXooooooo                                           oo  ooXX##XXX#XXXX#@@***@@@@XX.o                                           .....         .  ......    ..       .................. ......................................................................................OOO+OO....................................................OOO+++OO......OOO++OOO.................................................................................................................................................................... .......  .... .....OO+++OOO......  ..  ...... .    ..        ....    .  ...           ..     ....O............. .........              .....                                 .... .............OOOOOO++++%%%%%%&:::&&&&&&::::::&%%%%%%&&&&&**&*==***********==***$$@@@@@@$$$$**=-;;;;=*******$$@@@@@@############XXXX##XXXXXXXXXXXXXXXX####@@$*******$$$@@@@@@$$$****$$$$$$$$$**====---==**$$$$**********$$$$@@@########XXXXooooooooooo                                                                      ",
"XXooo..ooooXXX#########X##XXXXXXXXXXXXXXXoo                                   oo   ooooooooooooooooXXXXX###@@@####@@@@@@@@####XXXXXXo o  oo     ..    oo.o.ooo  ooooooXXoX.XXXXXXXXXXXXXXX####@@@@$**==;;;==*$@@@@@$****==**==****@@@@@@@@@@@@@@@@@&&====;;;;=**$$@@@@####XX##XXXXXXXooooooooo                                        oo ..oXX##XX###XX##@@$**@@@@XXoo                                          ......                ..      ..    ....   ............   ....................................................................................OOO+OOO...................................................OOO+++OO......OOO++OOO.......................................................................................................................................................................................OOOOOOOOO......  ..   .. ...... ...  ....     ..       .   .. .     ..  ......OO.............    .                  .....                                    ...............OOOOOOOO+++%%%%%%&:::&&&&&&::::::&%%%%%%&&&&&**&===****************@@@@@@$$$$$$$*=-;;;;=*******$$@@@@@##############XXX##XXXXXX##XXXXXXX####@@$**=****$$@@@@@@@$$*****$$$$$$$$***=========*$$$$$$$**********$$$@@@@#########XXoooooooooooo                                                                     ",
"XXooo.ooooXXXX#########X##XXXXXXXXXXXXXXXo                                     o   ooooooooo.oooooXXXXXX#####@####@@#########XXXXXXXo o               o oo.o..  ooooooXXXX.XoXXXXXXXXXXXXX####@@@@@**==;;;==*$@@@@@$$***==**==****@@@@@@@@@@@@@@@@@&&====;;;;=**$$@@@@####XX##XXXXXXXooooooooo  ooo                                    oo..oXX##XXX######@@$*$@@@@XXoo                                             .                   .       ..    ...      ........    ....  ......................................................................OO......OOO++OOO.O...............OOO.O.............OOOOOO.OOO.OOOOOOO+++OOO.....OOO++OOOOO...................................................................OO................................................................................................................OOOOOOOO.....    ..        ... . ..  ....      .       ..  ....        ......OO..............                       ....                                     ...............OOOOOOOO+++%%%%%&&:::&&&&&&::::::&%%%%%%%&&&&&*&*==****************@@@@@@$$$$$$$*==;;;;=*******$$@@@@@##############XXX#XXXXXXX#XXXXXX#####@@$*******$$@@@@@@@$$****$$$$$$$$$***========***$$$$$$$$*********$$$@@@@#########XXXoooooooooooooo                                                                  ",
"XXoo.ooooooXXX###@@####X##XXXXXXXXXXXXXXXoo                                          oooooooooooooXXXXXXXX#########@#####XXXXXXXXXXXoo. o       oo    oooo ooooo.ooooo.o.o.XXXXXXXXXXXXXXXX###@@@@@**==;;;==*$@@@@@$****==*===****@@@@@@@@@@@@@@@$$$*====;;;;=**$$@@@@####XXXXXXXXXXXoooo..o.o  oo                                      .oooXX#@#XX######@@@@@@@@@XXXo.                                                      .         ...      .... ..             ..    ..... ....................................................................O.OO.....OOOOO+OOOOOOOOOOOOOOOOOOOOOOOOOO.....OOOOOOOOOOOOOOOOOOOOOOOOO+++OOO.....OOO+++OOOO.OOOOOOOOOOOOOOOOOOOOOOOOO.OOOOOOOO....OOOO.......OOOO.OOOOOOOOOOOOOOO............OO....OOOO..OO.....................................................................................OOOOOOO....................... .... ...        ....    ..  .          . ....OOO..............                      ....                                      .... ...........OOOOOOOO++%%%%%%&::::&&%&&:::::&&%%%%%%%&&&&&&**==***********=***$@@@@@@@$$$$$$*=-;;;;=*******$$@@@@@#@###############XXXX#XXXXXX#######@@$$******$$@@@@@@@@$$****$$$$$$$$***====-===***$$$$$$$$$$*********$$$@@@@@#########XXXoooooooooo o                                                         ooo       ",
"XXoo.ooooooXXX####@###XX##XXXXXXXXXXXXXXXoo                                         oooooooooooXXXXXXXXXXX#############XXXXXXXXXXXXXoo.         oo     o   ooo.o..oooooo.oXXXXXXXXXXXXXXXXX###@@@@@**==;;;==**$@@@@$****==*===****@@@@@@@@@@@@@@@@&&*====;;;;=*$$$@@@@@###XXXXXXXXXXX.oo....o.. oo                                 oo   oooXX##@#XX######@@@@@#@@@#XXo.                                                 .  . ..       ......... ....          ..    ..........................................................................................OOOOOOOOOOO...OOOO..................OO.....OOOOO...O..OOOOOOOO++OOOO.....OO+++OOOO..OOO.O.OOO...OOO.OOOOOO....O.OOOOO...OOOOO.......OOOO..OOOOOOOOOOOOOO....OOOO..OOOO....OOOO.OOOOO..OOOO.OOO......................................................................................................................................  ........  ...OO.......    ...     .                 ....                                 . .  ................OOOOOOOOO+%%%%%%&::::&&%&&:::::&%%%%%%%%&&&&&&**==***********=***$@@@@@@$$$$$$**=-;;;;=*******$$@@@@@@@###############XXXX#XXX##XX######@$******$$$@@@@@@@$$*****$$$$$$$$***========**$$$$@@@@$$$$$********$$$$@@@@##########XXXoooooooooooooo                                                     oooo       ",
"XXoooooooooXXX####@###XX##XXXXXXXXXXXXXXXoo                                      o   oooooooooXXXXXXXXXX###########@###XXXXXXXXXXXXXoo.         o        ooo  ......o.ooooXXXXXXXXXXXXXXXXXX###@@@@**==;;;==**$@@@@$****==*===****@@@@@@@@@@@@@@@@&$*====;;;;=**$$@@@@####XXXXXXXXXXXooooooooo  ooo  oo                        o   ooooooooXX#@@#XXXXXX##@@@@###@@#XXo..                                    ....          ...  .  . .......... .  ....   .......  .............................................................................................OOOOOOO..................................................OOOOO+OOOO.....OO++OOO..........................................OOO........OO.....OO....OOOOO.......O.....OOO.........OOOO........OO................................................................................................................................................. ..OO.......... .  . . ....                ...                                       ...  ............OOOOOOOOO+%%%%%&&:::&&%&&::::&&&%%%@+%%&&*&&***==***************$$$@@@@@@$$$$**==;;;;=*******$$@@@@@@@###########XX##XX####XXXX######@@$******$$@@@##@@@$$****$$$$$$$$$**========**$$$$@@@@@@$$$$$********$$$$@@@@@##########XXXooooooooooooo                                                     ooooo      ",
"XXoooooooooXXX###@@@#XXX##XXXXXXXXXXXXXXXooo                                    oo   ooooooooXXXXXXXXX#################XXXXXXXXXXXXXooooo              ooo     o.......oo..XXXXXXXXXXXXXXXXX###@@@@**==;;;==**$@@@@$****==*===****@@@@@@@@@@@@@@@@&&*====;;;;=**$$@@@@@####XXXXXXXXXXXoooooooo  oo o ooo                       o  o oooooooXXX###XXXXXXX##@@@###@@#XXo.o                                    ....    ..    ..   .  ............     ............................................................................................................OOOOOO...................OOOOO...OOOO................OO..OOOOO+OOO.....OOO++OOO.O.........O.....O......O...........OOO...OO.O......OO......OO....OOOO........................................................................................................................................................................................ ...OO.........    ....                     ...                                       ...  ............OOOOOOOOO+%%%%&&&:::&&%&&::::&&&%%+++@%&&******==***********=***$$$@@@@$@$$$$**=-;;;;=*******$$@@@@@@@###########XXX####X####XXX#####@$*****$$$@@#@##@@$$***$$$$$$$$$$**========**$$$$@@@@@@@$$$$$********$$$$@@@@@@#########XXXooooooooooooo                                                    oooooo      ",
"XooooooooooXXX##@#@@#######XXXXXXXXXXXXXXooo                                o      oooooooooXXXXXXXXXX#X###########@##XXXXXXXXXXXXXXXo o.    oo. ..o   o ....     oo.oooXX.XXXXXXXXXXXXXXX#####@@@@**==;;;==*$@@@@@@$******===****@@@@@@@@@@@@@&@@&&&====;;;;==*$$@@@@@###XX##XXXXXXXo...ooooo   oo    o                     o  o ooooooooXXXX###XXXXXXX#@@@@###@@#Xoo.                                       ....       .    ....       ...........   . .............................OO............OOOOOO..OOOO..OO..........O.....OO.................O....OOOOOOOOOO....OOOO..OO......O...OOOO....OOOOOOOOOOOO....OOOOOOOOO+OOOO.....OO+++OOOO..OOOOO.O..O....OOOOOOOOOOOOOOOOOOOOOO..OOO...OOOO..OOOOOOOOOOOOOOOOOOOOOO....OO..................................................................................................................................    ....     . ..      . ...    .. .   ..................   .. .        .           ....                                     .    ................OOOOOOO++%%%%&&::::&&&&&:::&&&&%%%%+@@&&&&&**===***********=****$$@@@@@$$$$$**==;;;;=*******$$@@@@###############XXX###XXXXX#X####@$$$***$$$@@@####@@$$****$$$$$$$$$**======**$$$@@@######@@$$$$$********$$$$$@@############XXXooooooooooooooo                                                  oooXooo     ",
"XXXooooooooXXX###@@########XXXXXXXXXXXXXXXoo                                       ooooooooXXXXXXXXXX#################XXXXXXXXXXXXXXXo      ooo.   .oo   .... oo  .o..ooXo..XXXXXXXXXXXXXX####@@@@@**==;;;==**@@@@@@*******===****@@@@@@@@@@@@@@@&&&&====;;;;=**$$@@@@@@##XX##XXXXXXXo...ooooo   ooo   o                        oooo..ooooXXXX###XXXXXXXX#@@@###@@#XXo.. .                                   ......     ..   .....    .........................................................O........O.O..O...........O....OO..........OOO....OOO.OOOO...OOOOOOOOOO....OO....OOOO..OOOOO.OOOOOOO.OOOOOOOOOOOO....OOOOOOOO++OOOO....OOOO++OOOOOOOOOOOOO...O...OOO.........OO....OO....OOO..OOOOOO.OOOO..OOOOOOOOOOOOO...................OO......................................................................................................................    ....     .....    ......     . .    ..................     .                    ...                                           ................OOOOOOO++%%%%&&::::&&&&&:::&&&&%%+++@@&&&&***===**=********=****$$@@@@@$$$$$**==;;;;=**$****$$@@@@################XX###XXXXX#####@$$$***$$$@@#####@@$$****$$$$$$$$**======***$$$@@@#######@@$$$$$*********$$$$@@############XXXoooooooooooooo                                                   oooXooo     ",
"XXXXo.ooooXXXX############XXXXXXXXXXXXXXXXXoo                                      o   oooXXXXXXXXXX######@@##########XXXXXXXXXXXXXXXo       .o.   oo     .o.  oo.o.....XXo..XXXXXXXXXXXXX##X##@@@@**==;;;==**@@@@@@*****=**==***$@@@@@@@@@@@@@&@@@$&====;;;;=**$$@@@@@@##XX##XXXXXXoo..ooooooo   oooooooo          oo    oo    o.oo..ooooXXXX##XXXXXXXXX#@@@##@@@#XXooo...                                   .... .  ...  ...........................................OO.O.OOOOOOOOOOOOOOOOOOOOOOOOOOOOOOOOOOOOOOOOOOOOOOOOOOOOOOOOOOOOO..OOOOOOOOOOOOOOOOOOOOOOOOOOOOOOOOOOOOOOOOOOOOOOOOOOOOOOOOOOOOOOOOOOOOOOOOOOOOOOOOOO++OOOO....OOO+++OOOOOOOOOOOOOOOOOOOOOOOOOOOOOOOOOOOOOOOOOOOOOOOOOOOOOOOOOOOOOOOOOOOOOOOOOOOOOOOOOOOOOOOOOOOOOOOOOOOOOOOOOOOOOO..OOOOOOOO......................................................................................................... ........    .....   ....  . ....................   ......  .           ...                               .    ......  ................OOOOOOO+%%%%%&&::::&&&&&:::&&&&%%+++@@&&&***&===****************$@@@@@@$$$$$**==;;;-=**$***$$$@@@@@#################X####XX#####@$$**$$$$@@#####@@$$$***$$$$$$$$$**=====***$$$@@@##########@$$$$$*********$$$@@@@@###########XXXooooooooooooo                                                   oooXooo     ",
"XXXXXoo ooXXXX#########X###XXXXXXXXXXXXXXXXoo     oo oooo                               ooXXXXXXXXXXX#############@###XXXXXXXXXXXXXXXoo      ..o         o....ooo.XX....XXXXXXXXXXXXXXXXXXX#X##@@@@**==;;;==**@@@@@@****==*===***$@@@@@@@@@@@@@&@@&$&&===;;;;=**$$@@@@@@###X##XXXXXXoo..ooooooooooooooooooo  o o   ooo    ..oo oooooooooooXXX###XXXXXXXX##@@@##@@@@XXooo.o.                                      .    ... ..................................OOOOOOOOOOOOOOOOOOOOOOOOOOOO++++++++++++++OOOO++++OO++++++OOOOOOOOOOOOOOOOOOOOOOOOOOOOOOOOOOOOOOOOOOOOOOOOOOOOOO....OOOOOOOOOOOOOOOOOOOOOOOO.OOOOOOOOOOOOOOOOOOOO++OOO....OOO+++OOOOOOOOOOOOOOOOOOOOOOOOOOOOOOOOOOOOOOOOO...OOOOOOOOOOOOOOOO..OOOOOOOOOOOOOOOOOOOOOOOOOOOOOOOOOOOOOOOOOOOOOOOOOOOOOOOOOOO....O.OO........................................................................................................... .............  ................  ...... ...... ...          ...                              ..      ....  ................OOOOOOO+%%%%%&&::::&&&&&::&&&&&%%+++@@&&&***&===****************$@@@@@@$$$$$**==;;;;=**$****$$@@@@@@###########X####X#XX#######@$$$**$$@@#######@$$****$$$$$$$$***=====***$$$@@@###########@@$$$$*********$$$@@@@@###########XXXXooooooooooooo                                                 oooXXXooo    ",
"XXXXXooo.oXXXX#########XXXXXXXXXXXXXXXXXXXXooo  oooooooooo                              oooXXXXXXXXXXXXXX#########@####XXXXXXXXXXXXXXXo            o   ooo.  .oooX.XXXXXXXXXXXXXXXXXXXXXXX#####@@@@**==;;;==***@@@@$****==*====***@@@@@@@@@@@@@@@@&&*====;;;;=**$$@@@@@#######XXXXXXoooooooooooo.oooooo oooo  oooooooo   ooo oo. o.oo.oooooXX#@@#XXXXXXXX#@@@##@@@@#XXoooo  . .                                          ...................................OOOOOOOOOOOOOOOOOOOOOO++++++++++++++++++++++++++++++++++++++++++++++++OOOOOOOOOOOOOOOOOOOOOOOOOOOOOOOOOOOOOOOOOOOOOOOOOOOOOOOOOOOOOOOOOOOOOOOOOOOOOOOOOOOOOOOOOOO++OOO....OOO+++OOOOOOOOOOOOOOOOOOOOOOOOOOOOOOOOOOOOOOOOOOOOOOOOOOOOOOOOOOOOOOOOOOOOOOOOOOOOOOOOOOOOOOOOOOOOOOOOOOOOOOOOOOOOOOOOOOOOOOOOOOOOOOOOOOOOO.....................................................................................................................................................  .                                              .     .....................OOOOOOOOO+%%%&%&&::::&&&&&::&&&&&%@+++%@&$*&&&*===***************$$@@@@@@$$$$$**=-;;;;=**$****$$@@@@@@@##########XXX####XX#####@$$$***$$@@######@@$$*****$$$$$$***======***$$$@@#############@@$$$$*********$$$@@@@@@@##########XXXXoooooooooooo  o                                              oooXXXooo    ",
"###XXXooooXXX##########X##XXXXXXXXXXXXXXXXXoooo oooooooXoo                                oooXXXXXXXXXXXXX#####@#@@@@##XXXXXXXXXXXXXXXoo   ...  oooo.oooooo....XoXXXXXXXXXXXXXXXXXXXXXXXXX#####@@@@**==;;;==**$@@@@$****=======***$@@@@@@@@@@@@@@@&&*====;;;;=**$$@@@@@#######XXXXXXXoooo.oooooo......o oooooo..oooo..   ooo o o oooooooooXXX#@@#XXXXXXX#@@@@###@@@#XXXo.ooo....                                                  ....    ........................OOOOOOOOOOOOOOOOOOOOOOOOOOOOOOOOOOOOOOOOOOOOOOOOOOOOOOOOOOOOOOOOOOOOOOOOOOOO+++++++OOOOOOOOOOOOOOOOOOOOOOOOOOOOOOOOOOOOOOOOOOOOOOOOOOOOOOOOOOOOOOOOOOOOOOOO++OOO....OOO+++OOOOOOOOOOOOOOOOOOOOOOOOOOOOOOOOOOOOOOOOOOOOOOOOOOOOOOOOOOOOOOOOOOOOOOOOOOOOOOOOOOOOOOOOOOOOOOOOOOOOOOOOOOOOOOOOOOOOOOOOOOOOOOOOOOOOOOO.................................................................................................................  .............................................   ...  .  .                        .  ..  ....................OOOOOOOOO++%%%%%&::::&&&&&&&&&&&&%@+@+%@$***&&*===***************$$@@@@@@$$$$$**==;;;;=**$****$$@@@@@@@###########XX#X##XX####@@$$****$@@######@$$$******$$$$$***======***$$$@@###############@@$$$*********$$$$@@@@@@##########XXXXXoooooooooooo oo                                             ooXXXXXooo   ",
"@@##XXXXXXXXX###@@########XXXXXXXXXXXXXXXXXXoooooooooXXXoo                  ..              ooooXXXXXXXXXXXXX###@@@@@###XXXXXXXXXXXXXXoo   .ooo ......oooooo..XXXXXX##XXXXXXXXXXXXXXXXXXXXX###@@@@@**==;;;==**@@@@@$***=*======***@@@@@@@@@@@&@@@&&&*====;;;;=**$$@@@@@#######XXXXXXXXoo.....ooooo.o....oooooooo..oo..  oooo.o..oooo.oooooXXX#@@#XXXXXXX#@@@@###@@@#XXXo..o..o.                                                            ..... .........................................OO......OO..OOOOO.OOOOOOOOOOOOOO.O..............OOOOOOOOOOOO+++++++++++++++++%%%%%%+++++++++%%++++%%%%%++%%%%++++++++++++++++++++++++OOOO..OOOO+++++++++++++++++++++++++++++++++++++++++++++O+++++OO++++O++++++++++++++++++++++OOO++++OOOOOOOOOOOOOOOOOOOOOOOOOOOOOOOOOOOOOOOOOOOOOOOOOOOOOO..................................................OOOO................................................................................................................                           . ....  . .................OOOOOOOO+++%%%%%&::::&&&&&&&&&&&&%@+@@@&$***&&*===***************$$@@@@@$$$$$$$*==;;;-=******$$$@@@@@@###########XXXXX##XX###@@$$*****$@@####@@$$*********$$$**======*****$$$@#######X########@@$$**********$$$$@@@@@@##########XXXXXXXooooooooooooo                                             ooXXXXXooo   ",
"@@@##XXXXXXXX###@@@########XXXXXXXXXXXXXXXXXXoooooooXXXXoo                oooooo              oooXXXXXXXXXXXXX##@@@@@@###XXX###XXXXXXXoo . .o.oo......oooo...XXXX##@@@@@##XXXXXXXXXXXXXXXXX###@@@@@**==;;;==*$@@@@@$***===*====***$@@@@@@@@@@&@@@&&&*====;;;;=**$$@@@@@#######XXXXXXXXooo.....oooooo... oo.ooooo.ooo.. .oooooooooooo..ooooXXX#@@#XXXXXXX#@@@@###@@@#XXXoooo.oo.                                                            .      ..  ....................................OO....OOOOOOOOOOOOOOOOOOOOOOOOOO..................OO.OOOOOOO++++++%%%%%%%%%%%%%%%%%%%%&%%%%%%%%%&&&&&&&&&&&&&&&&&&&&&&&&&&&&&&&&%+++++OOOO.OOOOO++++%%%%%%&&&&&&&&&&&&&&&&%%&%%&&%&%&&%%%%%%%%%%%%%%%%%%%%%%%%%%%%%%%%%%%%%%%%%%%%%%%%%++++%++%%+++++++++%++++++++++++++++++++++++OOOOOOOOOOO..............................  .................O++O.......................................................................................................   ......    ..                     . ....  .  ................OOOOOOOO+++%%%%%&:::&&&&&&&&%&&&&%@+@@@&$&***&*===***************$$@@@@@$$$$$$$*==;;;==**$***$$$@@@@@#############XXXX##XX###@$$*****$$@##@@@@$********$$*****=====****$**$$$@######XXX#######@@$$**********$$$$$@@@@###########XXXXXXXooooooooooooo                                             ooXXXXXooo   ",
"@@@@@@#X########@@############XXXXXXXXXXXXXXXooooooooooooo                o.oo.               ..  o.oooooXXXXX##@@@@@@@@####XXXXXXXXXXooooo.....ooooo.oooo.XXXXX#+@@@@@@@@@@@+++#++++XXXXXXX####@@@**==;;;==**@@@@@@***===*===***$@@@@@@@@@@@@@@@&&&&====;;;;=***$@@@@@#######XXXXXXooo........ooo.ooooooooooooo..ooooooooooooooooooooooooXXX#@@##XXXXXX#@@@@@#@@@@#XXooo.oo   o                                                    ..                ......... ..................................................................................OOOO++%+++OOOO++++++++++++++++++++%%%%%%%%%%%%%%%%%%%%%%%%%%%&%%%%%%%%%%%+++++OOOO..OOOO++++%%%%%%%%%&&&&&&&&&&&&&&&&&&&&&&&&&&&&&&&%%%%%%%%%%&%%&%%%%%%%%%%%%%&&%%%%%%%%%%%%%&&&&%%%%&&&&&&&&%%%%%%&&%%%%%%%%%%%%%%%%%%%%%%%%%++++++OO.............................................OO+++O.O..............................................................................  ............      ....  ......   .                        ..   .....................OOOOOOOOO++%%%%%&::::&&%&&&&%%&&&@+++@@&&&*&&**===****************$$@@@@@@$$$$$*==;;;==**$****$$@@@@@#############XXXX###X##@@$*=====*$@@@@@$$*********$$*****===****$$$$$$$$@########XXX#####@@$$$*********$$$$@@@@@@###########XXXXXXXoooooooooo    o                                         oooXXXXXoooo  ",
"$$@@@@@@######@#@@############XXXXXXXXXXXXXXXoooooooXooooo                .XXoo.oo                  ooo.oooXXX##@@@@@@@@####XXXXXXXXXXoooo......oooo..o....XXXXX++@@$$$$$$@@@@@+++++####XXXX##@@@@@**==;;;==**@@@@@@***==**====***@@@@@@@@@@@&@@@&&&&====;;;;=***$@@@@@@######XXXXXXXoo.o.......oo..oooooooo.oo...oooo....ooooooooo.ooooooXXX#@@##XXXXXX#@@@@@@@@@@#XXXXooo  ...                                                    ..                 .......  ..................................................................................OOOO+%%++OOOOOOOOOOOOOOOOO+O++OO++++++++++++++++++++++++++++++++++++++++++O+++OOOO..OOOO++++++++++++%%%%+%%%%%%%%%%%%%%%%%%%%%%%%%%%%%%%%%%%%%%%%%%%%%%%%++++%%&%%++++%%%%%%+%%%%%%%%%%%++%%%%%%%%%%%%%%%%++%+%%%%++++++%%%%++++++++++OO............................................OO+%+OOO............................................................................................    . ..   ......    .                    .   .    .....................OOOOOOOO+++%%%%&&::::&&%&&&%%%&&&@+++@@&$***&*====**=*******=*=***$$@@@@@$$$$$**=-;;;==**$****$$@@@@@#############XXXX#X#X##@@**=====*$@@@@$$********$*$*****=*****$$$$$$$$$$@######XXX#XX####@@$$$*********$$$$@@@@@@###########XXXXXXXooooooooooo   oo                                        oooXXXXXXooo  ",
"$$$@@@@@@@##@@@@@@@###########XXXXXXXXXXXXXXXooooooXXXoooo               ooooXooooo                     oooXXXX##@@@@@@@###XXXXXXXXXXoooooo.oo..ooo.....XX.XXXXX++@@@$$****$$@@@@@@@#####XXXX###@@@**==;;;==**@@@@@@***===*====**$@@@@@@@@@@@&&@@$&&&&===;;;;=***$@@@@@@######XXXXXXXooooo.....o.oo.oooooo........ooo.......oooooooooooooXXXX#@@@#XXXXXX#@@@@@@@@@@#XXoX..o ....                                                    ..  ..            . ........ ..     .    .....................................................................OOOO%%%+OOOOOOOOOOOOOOOOOOOOOOOOOOOOOOOOOOOOOOOOOOOOOOOOOO++++++OOO+++OOOOO+++OOOO..OOOO++++OOO+OO++++++++OO+O++++OOOO++OO++++++++++++++++++++++++%%%%++++++++%&&%++O+OOOO+OO+OOOOOOOO++++O+++++++++++++++OOOOOOOOOOOOOOOOOOOOOOOOO+++OOO..........................................OOO+%+OOO....................................................................................  ....... .. . . .          ..           ...     .    ..    ....................OOOOOOOO+++%%%%&&::::&&&&&&%%&&&&%+++@@@$***&*====*==*************$$@@@$@$$$$$**==;;;==**$****$$@@@@@#############XXXX#XXX##@$*======*$$@@$$$*********************$$$$$$$$$$$@#####XXX########@@$$$*********$$$$@@@@@@@###########XXXXXXXoooooooooo   oo                                        oooXXXXXXooo  ",
"$$$$$$@@@@@@@@@@@@@###########XXXXXXXXXXXXXXXXooooXXXXooo.              ooooXXXoooo                     ooooXXX##@@@@@@@@##XXXXXXXXXXoooooo.ooooooo.....XX...XXXX#+@@@$$$$$$$$$$@@@@@@@###+####@@@@**==;;;==**@@@@@@$**===*====**$@@@@@@@@@@&&&@@@&&&&===;;;;=***$@@@@@#######XXXXXXooooooo....o......ooo.........oooooo...oooo.oo...XooXXXXX#@@@#XXXXXX#@@@@@@@@$@#XXoo..o  ...                                                          ...           ..........   .     ...  ..................................................................OOO+%&%+OOOOOOOOOOOOOOOOOOOOOOOOOOOOOOOOOOOOOOOOOOOOOOOOOOOOOOOOOOOOOOOOOOO+++OOOOOOOOOO+++++O++OOOOOO++++OOOO++++OOOO++OOO+++++++++++++++++++O++++%%%++++++++%&&%++++OOOOOOOOOO++OOOOOOOOOOOOOOOOOO++++++OOOOOOOOOOOOOOOOOOOOOOOOO++%OOOO.........................................OOO%%+O.O..............................................................................    .    .....  ....              ..           . .     .   ...    ....................OOOOOOOO+++%%%%&&::::&&&&&&%%&&&&%++@@@@******====*==*************$$@@@$$$$$$$**=-;;;==**$****$$@@@@###########X####XXXXXX##@$**=====*$$@@$$$***$$$*************$$$$$@@$$$$$$@####XXXXX######@@@$$$*********$$$@@@@@@@@@############XXXXXooooooooooo   o                                        ooXXXXXXXooooo",
"$$$$$$$$@@@@@@@@@@@@##########XXXXXXXXXXXXXXXXoooXXXXXooo                 oooXXooo.                       ooXXXX#@@@@@@@##XXXXXXXXXXXooooooooo.o....XX..XXXXXXXXXX#@@@@@@@@@$$$$$$$$@@@@@@@#+##@@@@**===;;==**@@@@@@$***==*====**$@@@@@@@@@&&&@@@@&&&&===;;;;=***$@@@@@#######XXXXXXXoooooo...oo..oo........o...ooo.oooooooo.o.oooo.ooooXXXXX#@@@#XXXXXX#@@@@@@@@@@@XXXo..oo    ..                                                         ...          .........       ..  ....................................................................OOOO++%&%+OOOOOOOOOOOOOOOOOOOOOOOOOOOOOOOOOOOOOOOOOOOOOOOOOOOOOOOOOOOOOOOOOOO+++OOOOOOOOOO++++OOOOOOOOOOOOOOOOOOOOOOOOOOOOOOOOOOOOOOOOOOOOOOOOOOOOO++%&%+++OOOO+%&&%++OOOOOOOOOOOOOOOOOOOOOOOOOOOOOOOO++OOOOOOOOOOOOOOOO........OOOOO++%OOOO....................OO...................OOO%%+O.O.............................................................................             ....         .                                  ....   ....................OOOOOOO++%%%%%&&::::&&&&&%%%&&&&@+++@@$******====****************$$@@@@$$$$$$**==;;;-=*$$***$$$@@@@###########XXX####XX####@$*=====**$$@@$$*$$$$$************$$$$@@@@@$$$$$$@####XXXXXX######@$$$$*********$$$$@@@@@@@@############XXXXXXooooooooooooo                                         ooXXXXXXXooooo",
"$$$$$$**$$@@$@@@@@@@@@#########XXXXXXXXXXXXXXXoooXXXXXooo                 oooXXXoo.                       ooXXXX#@@@@@@@##XXXXXXXXXXoooooooooo.o....XX..XXXXXXXXXXX###@@@@@@@@@@$$$$$@@@@@@@##@@@@@**==;;;==**@@@@@@$**===*====***@@@@@@@@@&@&&@@@&&&&===;;;;=***$@@@@@########XXXXXXXooooo...oo..oo........o..oooo...oooooo.o.oo...ooooXXXXX#@@@#XXXXXX#@@@@@@@@@@#XXXX.Xoo.    .                                                                     .. ........     ........................................................................OOOOO++%&%+OOOOOOOOOOOOOOOOOOOOOOOOOOOOOOOOOOOOOOOOOOOOOOOOOOOOOOOOOOOOOOOOOOO+++OOOOOOOOOO++++OOOOOOOOOOOOOOOOOOOOOOOOOOOOOOOOOOOOOOOOOOOOOOOOOOOOO++%&%+OOOOOOO%&&%++OOOOOOOOOOOOOOOOOOOOOOOOOOOOOOOOO++OOOOOOOOOOOOOOOOOOOOOOO.OOOOO+%+OOO...................OOOO.................OOO+%%+OOO............................................................................     .                  .. .                     ..        .. .. .  ....................OOOOOOOO+++%%%%&&::::&&&&&%%%%&&@@+++@@$*****=====****************$$@@@@$$$$$$**==;;;;=*$$***$$$@@@@###########X#X####XX####@$*=====**$$$$$$$$$$$************$$$@@@###@@$$$$$@#####XX#XX######@$$$$*********$$$$@@@@@@@@############XXXXXXoooooooooooooo                                       oooXXXXXXXXXooo",
"$$@@$$**********@@@@@@@@@@#####XXXXXXXXXXXXXXoooooXXXXooo                .oXoXX.oo.                       ooXXXX##@@@@@@###XXXXXXXXXoo..oo.o......ooXX....XX.XXXXXX####@@@@@@@@@@@@@@@@@@@@@@@@@@@$**===;;==***@@@@@$**===*====***@@@@@@@@@&@@@@&&&&&&===;;;;=***$@@@@@#######XXXXXXXoooooo..ooo..oooo..ooo.oooo.o......ooo..oooX...oooXXXXXX#@@@#XXXXXX##@@@@#@@@@#XXXX..Xoo   .                                                             ..        .  ...................................................................................OOOOOO++%&%+OOOOOOOOOOOO....OOOOOOOOOOOOOOOOOOOOOOOOOOOOOOOOOOOOOOOOOOOOOOOOOOO+++OOOOOOOOOO++++OOOOOOOOOOOOOOOOOOOOOOOOOOOOOOOOOOOOOOOOOOOOOOOOOOOO++%%&%+++OOOO+%&&%++OOOOOOOOOOOOOOOOOOOOOOOOOOOOOOOOO+OOOOO...................OOOOO+%%+OOO..................OO+OO.................OOO+%%OOOO.............................................................................. . ...     ..       .   . ...               . ..        ..       .. ..................OOOOOOOO+++%%%%&&::::&&&&&%%%%&&@@++++@$&*&&&&====****************$@@@@@@$$$$$**==;;;==*$$***$$$@@@@#############X##XXXX####@@**===**$$$$$$$$$$$$**********$$$@@@######@@$$$@@#####X##XX######@$$$$*********$$$$@@@@@@@@############XXXXXXXoooooooooooo   o                                    ooXXXX#XXXXXoXX",
"$$@@@@$**********$@@@@@@@@@####XXXXXXXXXXXXXXooooooXXXXoo                ..ooXX.oo.            .        oooooXXX##@@@@@@###XXXXXXXXXo..o.o......oooooX....XX.XXXXXXXX##@@#++@@@@@@@@@@@@@@@@@@@@@@$**==;;;==***$@@@@$**===*====***@@@@@@@@@&@@@@&&&&&&===;;;;=***$@@@@@@######XXXXXXXXooooo..ooooooooooooooooooo..oooo..ooo...XXXXXXoXXXXXXXX#@@@#XXXXXX##@@@@#@@@@#XXXX..ooo   . .                                                     .     .. ...    . ............. ......................................................................OOOOOO++%&%+OOOOOOOOOOOOOO..OOOOOOOOOOOOOOOOOOOOOOOOOOOOOOOOOOOOOOOOOOOOOOOOOOOO++OOOOOOOOOO+++++OOOOOOOOOOOOOOOOOOOOOOOOOOOOOOOOOOOOOOOOOOOOOOOOOOO++%%&%++++++++%&&%+OOOOOOOOOOOOOOOOOOOOOOOOOOOOOOOOOO++OOOOOOO.O...OOO.OOOOOOOOOOOO+%%+OOO..................OO+OO.................OOO+%%OOOO................................................................................  ..     ...      ....  ..        .          .        ..      .....................OOOOOOOO++++%%%%&&::::&&&&%%%%&&&@@++++@@&&&&&&====***************$$$@@@@@$$$$$**==;;;==*$$***$$$@@@@#############XXXXXXX####@@***==**$$$$$$$$$$*********$$$$$$@@#######@@$$$@@####XXXXX#######@$$$$*********$$$$@@@@@@@@############XXXXXXXXooooooooooo   ooo                                  ooXXXX#XXXXXXXX",
"$$@@@@$$$*********$$@@@@@@@#####XXXXXXXXXXXXXoooooXXXXoooo                 oo.oooo.                    o oooXXXX##@@@@@@###XXXXX.oooo.....oooo....oXXXXXXX..XXXXXXXXXX###+####++###@@@@@@@@@@@@@@@$$*==;;;==**$@@@@$***========**$$@@@@@@@@@@&&&&&&&&&:==;;;;==**$@@@@@########XXXXXXXooooooo...oooo...ooo.....ooX..oXXX....XXXXXX.XXXXXXXXXX#@@@#XXXXXXX#@@@@@@@@@#XXXXooooo...                                                               ...     ... ........................................................................OO..........OOOOO++%&%+OOOOOOOOOOOOOOOOOOOOOOOOOOOOOOOOOOOOOOOOOOOOOOOOOOOOOOOOOOOOOOOOOOOO++OOOOOOOOOO++++OOOOOOOOOOOOOOOOOOOOOOOOOOOOOOOOOOOOOOOOOOOOOOOOOOOO++%%%%++++++++%&&%++OOOOOOOOOOOOOOOOOOOOOOOOOOOOOOOOO++OOOOOO...OOO...OOOOOO..O.OOO+%%+OOOOO..............OOOO+OO.................OOO+%%OOOO.....................................................OOO...................... ..........           ...   ..          ...         ..      . .  ...................OOOOOOOOO+++++%%%%&&:::&&&&&%%%&&&&@@@@@@&&****=====***************$$$@@@@@@$$$$**==;;;==**$***$$@@@@@############XXXXXXX#####@@$**=***$$$$$$$$$$*******$$$$@@@##########@$$$$@@######XX########@@$$$********$$$$$@@@@@@@@@@@########XXXXXXXoooooooooooo                                          ooXX###XXXXXXX",
"$$@@@@$$$**********$$@@@@@@@###XXXXXXXX#XXXXXoooooXXXXooo                  ooooooo          o             ooXXXX##@@@@@@@###XXXX.oooo.....oooo....XXXXXXXXXX.XXXXXXXXX####+#########+@@@@@@@@@@@@@$**==;;;==**$@@@@$$**========**$@@@@@@@@@@@&&&&&&&&&===;;;;=***$@@@@@@#######XXXXXXXoooooo....oooo..oooo....ooXX..ooXX..o.ooXXXXXXXXXXXXXXX#@@@#XXXXXXX#@@@@@@@@@#XXXXoooo....                                                               ....     ................  .........................................................OOO........OOOOOO++%&%+OOOOOOOOOOOOOOOOOOOOOOOOOOOOOOOOOOOOOOOOOOOOOOOOOOOOOOOOOOOOOOOOOOOO++OOOOOOOO+O++++OOOOOOOOOOOOOOOOOOOOOOOOOOOOOOOOOOOOOOOOOOOOOOOOOOOO++%%%%+++++%%%%&&%++OOOOOOOOOOOOOOOOOOOOOOOOOOOOOOOOO++OOOOOO...OOOO..OOOOOO..OOOOO+%%+OOOOO..............OOOO+OO.................OOO+%%OOOO....................................................OOOO...............................        . .  ...   ..          ..    .. .  .       ..  .....................O.OOOOOO+++++%%%%&::::&&&&&%%%&&&&@@@@@@@&*****====***************$$$@@@@@@$$$$**==;;;==**$***$$@@@@@############XXXXXXX#####@@$$*****$$$$$$$$$$$**$$$$$$$@@#######XX###@$$$$@@#####XXX########@@$$$*********$$$$@@@@@@@@@##########XXXXXXXooooooooooooo                                         oXXX###XXXXXXX",
"$$$$@@$$$***********$$@@@@@@####XX#XXXXXXXXXXXooooXXXXooo                  ooo.ooo.       . oo            oooXXX###@@@@@@###XXXX.ooo........ooo...oo....XX.X.XXXXXXXXX+#+###########++++++@@@@@@@@$**==;;;==**$$@@@@$**========***@@@@@@@@@@@@&&@@&&&&===;;;;==**$@@@@#@#######XXXXXXXo.XXXo..o...oo..ooooXoooooXXXooXXXXX.XXoX.XXXXXXXXXXXXX#@@@#XXXXXX##@@@@#@@@@#XXXXoo......     .                                                  .      .....     .......................OOOOOOOOOOOOOOOOOOOOOOOOOOOOOOOOOOOOOOOOOOOOOOOOOOOOOO....OO.OOOOOOO+%&&%++OOOOOOOOOOOOOOOOOOOOOOOOOOOOOOOOOOOOOOOOOOOOOOOOOOOOOOOOOOOOOOOOOOO+++OOOOOOO+O++++OOOOOOOOOOOOOOOOOOOOOOOOOOOOOOOOOOOOOOOOOOOOOOOOOOOO++%%%%%%%%%%%%%&&%++OOOOOOOOOOOOOOOOOOOOOOOOOOOOOOOO++OOOOOOO.OOOOO....O..O...OOOOO+%%++OOOOO.O............OOO+OOO..............O.OO++%%OOOO..........................OOOOOOOO.OOOO...........OOOOOO...............................       ....   .    ..         .        .   ......  ..........................OOOOOOO++++%%%%&&::::&&&&&%%%&&&&@+@++@&&****=====***************$$$@@@@@@$$$$$*==;;;==*$$***$$@@@@@############XX###XX######@@$$$$$$$$$$$$$$$$$$$$$$@@@########XXXX###@$$$$@@####X#XX########@@$$$********$$$$$@@@@@@@@@###########XXXXXXXXoooooooooooo    oo                                oooXXX#####X####",
"***$$$$$*************$@@@@@@####XX####XXXXXXXoooooXXXXooo                  oooooooo       .ooo            ooooXXX##@@@@@@###XXXXXoo.o.......ooo...oo....XXXXXXXXXXXXXX+++++###+#++#+++++++@@##+@@@$**==;;;==**$@@@@@$**========***@@@@@@@@@@@@&@@@&&&&===;;;;==**$@@@@#@#######XXXXXXXooooXXo.oo.ooo..ooXXXXooXXXXXoXXXXXXXX.XX.XXXXXXXXXXXXX#@@@#XXXXXX##@@@##@@@@#XXXX.o.......   .....                                                 .    ......    ........................O....OO..OOOOOO...OOOOOOOOOOOOOOOOOOOOOOOOOOOOOOOOOOO..OOOOOOOOOOOO+%&&%+OOOOOOOOOOOOOOOOOOOOOOOOOOOOOOOOOOOOOOOOOOOOOOOOOOOOOOOOOOOOOOOOOOO++++OOOOOOO++++%+O+OOOOOOOOOOOOOOOOOOOOOOOOOOOOOOOOOOOOOOOOOOOOOOOOOO++%&&%+%%%%%%%%&%%++OOOOOOOOOOOOOOOOOOOOOOOOOOOOOOOO++OOOOOOOOOOOOOO......O...OOOOO+%%++OOOO.OOOOO.......O.OOO+OO...............OOOO++%%OOOO......................O...........................OOOOO................................       ....        .         ..            ....... ..........................OOOOOOO+++%%%%%&&::::&&&&&%%%&&$@@++++@&&*&**=====***************$$$@@@@@$$$$$$*==;;;==*$$$**$$@@@###############X####X#######@@@@@@@@@@@@@@@@@@@@@@@@########XXXXXXX##@$$$$@@####XXX#XXX#####@@$$$*********$$$$@@@@@###@@###########XXXXXXXoooooooooooo    oo  oo                            oooXXX#########@",
"******$$$$$$**********$@@@@@@#######XXXXXXXXXoooooXXXXXXooo               oooXooooo      .oo    ..          ooXXX##@@@@@@@##XXXXXX.ooooooooo...o.....XXX..XXXXXXXXXXXXXX#########+++#+###@@@++@@@@$*===;;;==*$$@@@@@$$*========***$@@@@@@@&&@@@&@@&&&====;;;;==**$@@@@#########XXXXXXXXoooooooXoXX....ooXX..XXXX..ooooooXX..XXXXXXXXXXXXXXXXX#@@@#XXXXXX##@@@@@@@@@#XXXX....o.....   ...                                               . ...     ......     ..............OOOOOOOOOOOOOOOOOOOOO++++++++++++++++++%%%%%%%++%++++++++OOOOOO..O..OOOOOO+%&&&%++O++O+OOOOOOOOOOOOOOOOOOOOOOOOOOOOOOOOOOOOOOOOOOOOOOOOOOOOOOOOOOOOO+++OOOOOOO+++%%+++OOOOOOOOOOOOOOOOOOOOOOOOOOOOOOOOOOOOOOOOOOOOOOOO++++%&&%+++++++%%&%%++OOOOOOOOOOOOOOOOOOOOOOOOOOOOOOO+++OOOOOOOOO.OOOOOO......OOOOOOO+%%++OOOO.OOO....O.....OOO++OOO..............O.OO+%%%OOOO..OO.............O.OOOOOOOOOOOOOOOOOOOOOOOOOOOOOOOOOOOOO..................... ................ .    .    .              ....       .....     ...................OO..OOOOOOOO++++%%%&&::::&&&&&%%%&&&@@@@++@&&&&&&&====************=**$$$@@@$$$$$$$$*==;;;==*$$$**$$@@@@#################XXXXX#################################XXXXXXXXXXX###@$$$@@####XXXXXXX####@@$$$$********$$$$@@@@@@#################XXXXXXXXoooooooooo    ooooo                           ooooXXX#####@@@@@@",
"*********$$$*********$@@@@@@@#######XXXXXXXXXoooooXXXXXXXooo              oooXoooo.       .o    oo o  o    oooXXX##@@@@@@@##XXXXXX.ooooooo.o...o......XX.XX.XXXXXXXXXXXXXX#######+++++##@@@@+@@@@@$*===;;;==*$$@@@@@$$*========***$@@@@@@@%&@@@@@&&&&====;;;;==**$@@@@@########XXXXXXXooXXoXooXXXXXo..XXXX.oXXXX..ooXXooXXX.XXXXXXXXXXXXXXXXX#@@@##XXX####@@@@@@@@@#XXXXXo..o....   ....                                                 .        .....     ..............OOO+OO++++++++++++++++++%%%%%%%%%%%%%%%%%%%%%%%%%%%%%%%%+++OOOO..OOOOOOOOO%%&:&%+++++O++OOOOOOOOOOOOOOOOOOOOOOOOOOOOOOOOOOOOOOOOOOOOOOOOOOOOOOOOOOOO+++OOO++OO++++%%++OOOOOOOOOOOOOOOOOOOOOOOOOOOOOO++OOOOOOOOOOOO+++O++++%&&%++++++++%&&%+++OOOOOOOOOOOOOOOOOOOOOOOOOOOOOO+++OOOOOOOOOOOOOOOOOO.OOOOOOOOOO+%%++OOOOOOOO....OO..OOOOO++OOOO.............OOOO+%%%OOOO..OO.....O....OOOOOOOOOOOOOOOOOOOOOOOOOOOOOOOOOOOOOOOOOO..................... .............. . .      .                 ....     ....... .. ....................OO..OOOOOOOO++++%%%&&::::&&&&&%%%&&&@@@@++@&&*&&======**********==***$$$@@@@$$$$$$**==;;;==*$$$**$$@@@@################XXXXXXXX##############################XXXXXXooXXXXX##@$$$@@###XXXXXXXX####@@$$$*********$$$$$@@@@@#################XXXXXXXXooooooooooo   ooooo                           ooooXXX####@@@@@@$",
"=*******************$$@@@@@@@@######XXXXXXXXXoooooXXXXXXXoooo  o          oooXXoo...      o.    oooo   o o oooXX##@@@@@@@@##XXXXXX....oooooo.oooo...XXXXXXXXXXXXXXXXXXXXXX++#######+#@@@#@++++@@@@$*===;;;==*$$@@@@@$$*=========*$@@@@@@@@&&@@&&@&&&&====;;;;==**$@@@@@########XXXXXXX.XXXXoo..oXXXX.ooXXXoo..Xo..XXXX..XXXXXXoXXXXXXXXXXXXXX#@@@@#######@@@@@@@@@@#XXXXXXoooo....   ....     ..    .                                .        .     ..... ..............OOO+++++OO+++O++++++++++O+++++++++++++++++++++++%%%%%%%++++++OOO....OOOOOOOO%%&:&%%%%%%+%%++++OOOOOOOOOOOOOOOOOOOOOOOOOOOOOOOOOOOOOOOOOOOOOOOOOOOOOOOO++++OO++++++++%%++++++O+++++++++++++++++++++++O+++++++++++++++++++++++%&&%++++++++%&&%++++OOOOOOOOOOOOOOOOOOOOOOOOOOOOO+++OOOOOOOOOOOOOOOOOOOOOOOOOOOO++%%%+OOOOOOOOO...OOOO.OOOO++OOOO..........OO.OOOO+%%%OOOOOOOOOO........OOOOOOOOOOOOOOOOOOOOOO+++++++++%%%+++OOOO..............................   ...... ...  ...   . ..        ......    .... .     .....................OO.OOOOOOOO+++++%%%&&::::&&&&&%%%&&&&@@@++@&****======*=********==***$@@@@@@$$$$$$**==;;;;=*$$***$$@@@@##############XXXXXXXXXX#########XXXXXXXXXXX####XXXXXXXXXXooXoXXXXX##$$$$@@##XXXXXXXXX####@@$$$$********$$$$@@@@@@@@@###############XXXXXXXXooooooooooo  ooo oo                          oooXXX####@@@@****",
"==****************$$@@@@@@@@@@@#########XXXXXooooXXXXXXXXooo   o          oooXoXoo.      o.oo   oooo   .ooooooXX###@@@@@@@@#X#XXXX....oooo....oooX.XoXXXXXXXXXXXXXXXXXXXXXX+#########@@@@+++++@@@@$&===;;;==*$$@@@@@$$*========**$@@@@@@@@@&@@&&&&&&&====;;;;==**$@@@@@########XXXXXXXXXXoooo...XXXXoooXXXo..XoX.XXXXX..XXXXXooXXXXXXXXXXXXXX#@@@@######@@@@@@@@@@@#XXXXXooooo.... . ..       .     ..                                        .     .....................OO+OOOOOOOOOOOOOOOOOOOOOOOOOOOOOOOOOOOOOOOOOOOOOOOOOOOOOOOOOOOO....OOOOOOO+%%&:&%%%%%%%%%%%%+++OOOOOOOOOOOOOOOO+++OOOOOOOOOOOOOOOOOOOOOOOOOOOOOOOOO++++++OO++++++++%%++++++++++++++++++++++++++++++++++++++++++++++++++++++%&&%++++++++%&&%++++OOOOOOOOOOOOOOOOOOOOOOOOOOOO++++OOOOOOOOOOOOOOOOOOOOOOOOOOOO++%&%+OOOOO.OOOOOOOOOO..OOOO+OOOOO........OOOOOOOO+%%%OOOOOOOOOO..OOO...OOOOOOOOO+++++++++%%+%%%%%%%%%&&&&%%+++OOO.............................  ......  ...  ...  ..  ..   ..  .......   ....        .....................O.OOOOOOO+O++++%%%&&::::&&&&&%%%&&&&@@@++@&***===========*******=***$@@@@@@@$$$$$**==;;;;=$$$***$$@@@@##############XXXXXXXXXXX########XXXXXXXXXXXXXX#XXXXXXXoXXooooXoXXX##$$$$@@##XXXXXXXXX####@@$$$$********$$$$@@@@@@@@@###############XXXXXXXoooooooooooo  oo o o   ooooo                  ooXXXX##@@@@$*****",
"*****************$$@@@@@@@@@@@@@@@@#####XXXXXXXXoXXXXXXX.oo o              oooXoX....    oo.ooo      .ooo.oooXXX##@@@@@@@@@##XXXXXooooo.o...oooooXXXXXXXXXXXXXXXXXXXXXXXXX++++++#####++++++++@@@@@&&*==;;;==*$$$@@@@$**=========*$@@@@@@@@@@@@&&&&&&&&===;;;;=***$@@@@@@#######XXXXXXXXX..XXX...oXXX.ooXXX..XXo..ooXXXoXXXXXXXXXXXXXXXXXXXXX##@@@@#######@@$@@@@@@@#XXXXXXX.o..............                                                  . .      ..................OO++OO..........................OO..............OO..OOOOOOOOOOOO.OOOOOOOOOOO%%&:&%%%%%%%%%%%%+++++O+OOOOOOOOOOO++++++++++++++++++++++++++++++++O+OOO+++++++OOO+++++%%%+++++++++++++++++++++++++++++++++++++++++++++++++++++%%&&%++++++++%&&%++++OOOOOOOOOOOOOOOOOOOOOOOOO+++++++OOOOOOOOOOOOOOOOOOOOOOOOOOOO++%&%+OOOOOOOOOOOO..OO.OOOO++OOOOO...OOO....O.OOOO+%%%+OOOOOOOO.OOOOOOOOOOO++++%%%%%%%&&&&&&%%%%%%%%%%%++++OOOOOOOOO.......O..OOOOO.................... .... ...    .... ...........     ....    .........................OO.OOOOOOOOO++++%%%&&::::&&&&&%%%&&&&@++@@@&&**=&=========******==***$$@@@@@@$$$$$**==;;;==*$$$**$$@@@##########XX#XXXXXXXXXXXXXXXXXXX#XXXXXXXXXXXXoXXXXXXXXXooooooooXXXXX#@@$$$@@###XXXXXXX######@@$$$********$$$$@@@@###@@@##############XXXXXoooooooooooooooo  o oo                    ooo ooooXX##@@@@$*****==",
"*******==*********$@@@@@@@@@@@@@@@@@@###XXXXXXoXoXXXXXXX..o               .oXXXXXo...    oooooo       ..oo.ooXXX##@@@@@@@@@@##XXXXooooo.o...ooooXXXXXX.X.XXXXXXXXXXXXXXXXX++++++#####@++++++++@@@&&*===;;;==*$$$@@@@$**=========*$@@@@@@%%@@@@&&&&&&&&===;;;;==**$@@@@@@#######XXXXXXXXXXXXXX...XXX..ooooX..XXXX.XXXXXXXXXXXXXXXXXXXXXXXXXXX##@@@@#######@@$$@@@@@@#XXXXXXX.X.............       .                                         .   . ..   ..................OO++OO..............................................OOOOOOOOOOOO.O.OOOOOOOO+%%&:&%%+++++++++++++OOOOOOOOOOOOOOOO++++++++++++++++++++++++++++++++++++++++++++OOOO+++%%%+++++++++++++++++++++++++++++++++++++++++++++++++++++%%&&%++++++++%&&%++++OOOO+OOOOOOOOOOOOOOOOOOO++++++++OOOOOOOOOOOOOOOOOOOOOOOOOOOO++%&%%+OOOOOOOOOOO..OO.OOOO+++OOOO...OOOO...O.OOOO+%%%+OOOOOOOO.OOO.OOOOOOO+++++%%%%%%%%%%+++++++++O+OOOOOOOOOOOOOOO..........OOOOOO.................... ..   ..    ............. ..      ...    .........................OO..OOOOOO++++++%%%&&::::&&&&&%%%&&&&@++@@@&***=&&=====;==******==***$$@@@@@@$$$$$**==;;;==*$$$**$$@@@@#########XXXXXXXXXXXXXXXXXXXXXXXXXXXXXXXXXXoooooXXXXXoooooooooXXXXX##@$$$@@###XXXXXXX######@@$$*********$$$$@@@@@##@@@##############XXXXXXoooooooooooooooo   o       o              o ooooXXX#@@@$*****====",
"*******=======****$$@@@@@@@@@@@@@@@@@@@##XXXXXXXXXXXXXXXXo. oo           oooXXXXXoooo   oo..o...     o  oooooXXX##@@@@@@@@@@##XXXXoooo..oooo......XXXX.X.XXXXXXXXXXXXXXXXXX+++##++++@@@@#@+@+++@&&&&===;;;==*$$$$@@@$**=========**$@@@%%%@&&@&&&&&&&&&==:;;;;==**$@@@@@@@@#####XXXXXXXXXXXXXXXoXXX..XXoXXo.oXXXXXXXXXXXXXXXXXXXXXXXXXXXXXXXX##@@@@#######@@$*@@**@@#XXXX..X.X.......   ..         . .                                  . .    ...    ...................O+++OO................................................OO.OOO..OO...OOOOOOO++%%&:&%+++++OOOOOOOOOOO+O++++++++++++++++++++++++++++++++++++++++++++++++++++++++OOOO+++%%%%+%%++++++++++++%%+++++++++++++++++++++++++++++++++++%%&&%++++++++%&&%++++++++++++++++++++++++++OO++++++++++++O+OOOOOOOOOOOOOOOOOOOOOO++%%%++OOOOOOOOOOO..OOOOOOO+++OOOOOO..OOOO..O.OOOO+%%%+OOOOOOOOOOOOOOOOOOO++++O+++++++++++OOO+OOOOOOOOOOOOOOOOOOOOOOOOOOOOOO.OOOOOOO......................  . ..   ...............  ..      .. . .... ....................OO..OOOOOO++++++%%%&&::::&&&&&%%%&&&&@++@@@$***=&======;;=******==***$@@@@@@$$$$$$**==;;;==$$$$**$$@@@@##########X#XXXXXXXXXXXXXXXXXXXXXXXXXXoXXXXXooooooooooooooooooooXXX#@@$$$@@##XXXXXXXX######@@$$*********$$$$@@@@@##@@@###############XXXXXXXooooooooooooooo         o  oooo        ooooXXXX#@@@$*******====",
"@*******======*****$$@@@@@@@@@@@@@@@@@@@#XXXXXXXXXXXXXXXXoo             oooXXXXXoX..o o ...o...ooo  ..o oooooXXX##@@@@@@@@@@@#XXXXooooo.oooo.......XXXXXXXXXXXXXXXXXXXXXXXX++++#++++@@@@@@@@+++@@&&*===;;;==*$$$$@@@$**=========**$@@@%@%&&&@&&&&&&&&&==:;;;;==**$@@@@@@@######XXXXXXXXXXXXXXXXXXX..XXXXXXooXXXXXXXXXXXX..XXXX..XXXXXXXXXXXX##@@@@######@@@$*@@**@@#XXXX......XX....   ..      .. ....                                ....   .....  ...................OO+++OO.....................................................O...O...OOOOOOO+++%&:&%++++OOOOOOOOOOOOOO++++++++++++++++++++++++++++++++++++++++++++++++++++++++OO++++%%%%%%++++++%+%%+++++%%+%++%%%%+++%%%%%%%%%%%%++++++++%%%%%&&%%+++++++%&&%%%+++++++++++++++OO+++++OOOO+++++++++++++++OOOOOOOOOOOOOOOOOOOOO++%%%%+OOOOOOOOOOOOOOOOOOOO+++OOOOOO..OOOO..OOOOOO+%%%+OOOOOOOOOOOOOOOOOOOOOOOOO+++O+++OOOOOOOOOOOOOOOOOOOOOOOOOOOOOOOOOOOOOOOOOOOOO......................  ....  ...............   ....   ..  . .........................OO..OOOOOO+O++++%%%&&::::&&&&&%%%&&&&%+++@@$**&========;;==*****==***$@@@@@@@$$$$$**==;;;=*$$$$**$$@@@############XXXXXXXXXXXXXXXXXXXXXXXXXXXoXXXXoooooooooooooooooooooXXX#@@$$$@###XXXXXXXX######@@$$*********$$$$@@@@@##@@@###############XXXXXXXooooooooooooooo  o o       oooo    ooooooooXXX#@@@$****==*=====",
"@@@*******=====*****$$@@@@@@@@@@@@@@@@@@##XXXXoXXXXXXXXXXooo    o       ooXXXXXXXoooo......o....oooo ooooooooXXX#@@@@@@@@@@@@#XXXXoooooooo..oo...oXXXX.X.XXXXXXXXXXXXXXXXXX+#+##++#+++@#+@+@@@++@&&*&==;;;;=*$$@@@@@$**=========**$@@@@@@@@@@&@&&&&&&&===;;;;==**$@@@@@@@######XXXXXXXXXXXXXXXX.XXXX.XXXXXXXXXXXXXXXXXXX.XXXXXX.XXXXXXXXXXXXX#@@@@#######@@$$@@**@@#XXXX.XX........... ....   .........                             . .         .....................OOOO+++OO.......................................................OOO..OOOOOOOO++%%&:&%++OOOOOOOOOOOO++++%%%%%%%%%%%%%%%%%%%%%%%%&&&&&&%&&&&%%%%%%%%%%%%%%%%%+++++++++%%%%&%%%%%%%%%%%%%%%%%%%%%%%%%%&&%&%%%%&%%%&&&&%%%%%%%%%%%%&&&%%++++++%%%%%%%%%%%%%%%%%%%%%%%%%%%%%%%%%%%%%%%%%%%%%%%%%%%%%%%%%%+++OOOOOOOO++%&%%++OOOOOOOOOOOOOOOOOOO+++OOOO...O.OOOOOOOOOOO%%%%%+++++++++++++++++++++++++++++++OOOOOO++OO+OO+OOOOOOOOOOOOOOOOOOOOO+OOOOOOOOOOOOOOO.................  ..    ................  ..  ......   ...........................OOOOOOOOOO++%%%%%&&::::&&&&&%%&&&&@@++%@@$&*=========;;=******==***$@@@@@@@$$$$$**==;;;=*$$$$***$@@@##############XXXXXXXXXXXXXXXXXXXXXXXoXoXXoXooooooooooooooooooooXXXX#@@$$$@###XXXXXXXX#####@@$$$$********$$$$$@@@@@@##################XXXXXXXXXooooooooooooo    oooo       oooooooooXXX###@@$******=========",
"@@@@*******======*****$@@@@@@@@@@@@@@@@@##XXXXXXXXXXXXXXXooo    o.      ooXXXXXXXXooo...o...o.o.oo o .oooooooXXX#@@@@@@@@@@@@#XXXXoooo..oo..oo.X..XXXX....XXXXXXXXXXXXXXXXX+++###+##++++++++@@+@@@&&&==;;;;=*$@@@@@@$**==========*$@@@@@@@@@@@&&&&&&&&===;;;;==**$@@@@@@#######XXXXXXXXXXXXXXXX.XXXX.XXXXXXXXXXXXXXXXXXX..XXXX..XXXXXXXXXXXXX#@@@@######@@@$$@@**@@#XXXX.XX.................. ........                              ....    .   .. ..................OOOO+++OO............................................................OOOOOOOO++%%&:&%++OOOOOOOOOOOO++%%&&&:::::::::::::::::::::::::::::::::::::::::::::::&&%+++++++%%%%&&::::::::::::::::::::::::::::::::::::::::::::::::::::::::&%%%+++%%%%&&&&&&&&&&&&&&&&&&&&&&&&&&&::&&::::&&&&&&&:::&&&&&&&&&&&&%%+OOOOOOO++%%%%+OOOOOOOOOOOOOOOOOOOO+++OOOO.OOOOOOOOOOOOOO+%%&%%%%%%%%%%%%%%%%%%%%%%%%%%%%%%%%%%%+%++++++%+%%%%+%++++++++++++++++++OOOOOOO+++OOOOOOOOOOOOOOOO..........  ................... ..........   ...........................OOOOOOOOOO++%%%%%&&::::&&&&&%%&&&&@@%++@@&&&*========;;==*****=****$$$@@@@@$$$$$$**=;;;==$$$$***$@@@##############XXXXXXXXXXXXXXXXXXXXooooooooooooooooooooooooooooooXXXX##@$$$@##XXXXXXXXX#####@@$$$$*******$$$$$@@@@@@@###################XXXXXXXXoooooooooooooooo oooo      oooooooXXXXXX#@@@@*****=========**",
"@@@@@@********=====****$@@@@@@@@@@@@@@@@##XXXXXXXXXXXXXXXoooo   oo      ooXXXXXXXXoo.o..ooooooo..ooo o..ooooXXXX#@@@@@@@@@@@@@#XXXXoo...o...oooX...XX....XXXXXXXXXXXXXXXXXX+########++++++++@@@@&&&&&&:;;;;==$$@@@@@$**==========*$@@@@@@@@@&&@&@@&&&&&:=;;;;==**$@@@@@@#######XXXXXXXXXXXXXXXXXXXXX.XXXXXXXXoXXXXXXXXXXXXXXXXXXX.XXXXXXXXXXX#@@@@######@@@$$@@**@@#XXXXXXX..XX............... . ......   . ..                 . .   ...  ....   ...    .............OOOO+++OO......................................................OOOO.OOOOOOOOO++%%::&%++OOOOOOOOOO+++%&&&&&&&&&&&&&&&&&&&&&&&&&&&&&&&&&&&&::::&&::::&&&&&&&%%++++++%%%%%%%&&&&&&&&&&::::::::::::::::::::::::::::::::::::::::::::&&&%%%%&&&&&&&&&&&&&&&&&&&&&&&&:::&:&&&&:::&&&&&&&&&&&&&&&&&&&&&&&&&&&&&%+++OOOO+%%&%%+OOOOOOOOOOOOOOOOOOOO+++OOOO..OOOOOOOOOOOO++%%&%%&%%%%&&%%&&&&&%&&&&&&&&&&%%%&%%%%%%%%%%%%%%%%%%%%%%%%+++++++++++++OOOOOOO++++OOOOOOOO.OOOOO................................. .......................................OOOOOOOOO++++%%%%%&&::::&&&&&%%&&&&@@@+@@@$&&*&=======;;==*****=****$$@@@@@@@$$$$$**=;;;=*$$$$**$$@@@##########XXXXXXXXXXXXXXXXXXXXXXXXXXoooooooooooooooooooooooooooooXXX##@@$$@##XXXXXXXXX#####@@$$$$********$$$@@@@@#@##################X###XXXXXXXoooooooooooooooooooooooooooooooXXXXX##@@@*******=========***",
"@@@@@@@$*******====*****$@@@@@$$@@@@@@@@##XXXXXXXXXXXXXXXoooo   ooo    .ooXXXXXXXXoo.oo.ooo.oooo..oo o....ooXXXX#@@@@@@@@@@@@@##XXXoooo.oo..oooX..oXX.....XXXXXXXXXXXXXXXXXXX#######++++++++@@@@&&&&&&::;;;==$$@@@@@$**==========*$@@@@%@@@&&&@@@&&&&&&:=;;;;==**$@@@@@@#++####XXXXXXXXXXXXXXXXXXXXX.XXXXXXXXXXXXXX...XXXXXXXXXXX.XXXXXXXXXXX#@@@@######@@@$*@@**@@#XXXXXXX................... . ......   ........             ...   ...  ....   ...    ..............OOO+++OO......................................................OOOOOOOOOOOOOO++%%::&%++OOOOOOOOOO++%%&&%%%%%%%%%%%%%%%%%%%%%%%%%%%%%%%%%%%%%%%%%%%%%%%%%%%%++++++++++++%%%%%%%%%%%%%%%%%%%%%%%%%%%%%%%%%%%%%%%%%%%%%%%%%%%%%%%%%%%%%&&&&&%%%%%%%%%%%%%%%%%%%%%%%%%%%%%%%%%%%%%%%%%%%%%%%%%%%%%%%%%%%%%&&%+OOO+++%%&%%++OOOOOOOOOOOOOOOOOOO+%+OOOO.OOOOOOOOOOOOO++%&&%%%%+%%%%%%%%%%%+%%%%%%%%%%%++%%%%%%%%%%%%%%+++%++++++++++O+++OOOOOOOOOOOO++OOO......................................................................................OOOOOOOOOOO+++%%%%%&&&::&&&&&&%%&&&&@@++@@@$&&*&&======;;==*****=****$$$@@@@@$$$$$$**=;;;=*$$$$**$$@@@#########XXXXXXXXXXXXXXXXXXXXXXXXooooooooooooooooooooooooooooooooXXX#@@@$@@##XXXXXXXXX#####@@$$$*********$$$$@@@@####################X#XXXXXXXXXoooooooooooooooo ooooooooooooooXXX##@@@@*****===============",
"@@@@@@@@@$********==******$@@@$$@@@@@@@@@##XXXXXXXXXXXXXooo           ooooXXXXXXXXXX......oXX......ooo...o.oXXXX##@@@@@@@@@@@@##XXXXXooo..oooo..ooo..XXX.XXXX...XXXXXXXXXXXXXX++####+++@+++@+++%&&&&&&::;;;=&*$$@@@@$*==========**@@@@%%@@@@&&&&&&&&&&::;;;;;=****@@@@@@@@####+#XXXXXXX.XXXX.X..XXXXXXXXXXXXXXXX...XXXXXXXXXXXXXXXXXXXXXXXXX##@@@@@#####@@@$*@@$$@@##XXXXXXXXX..................  ...   ..    ...                               ......................OO++%+OO........................................................OOOOOOOOOOOO++%%&:&%++O+OOOOOOO+++%&&%%+++++++++++++++++++++++++++++++++%%++++++++++++++++++++OOOO++++++++%%+%%%%%%%%%%%%%%%%%%%%%%%%%%%%%%%%%%%%%%%%%%%%%%%%+++++%%%%%%++++++++++++++++++++++%%%%++++++++++++++++++++++++++++++++++%%&&%++O+++%%&%%++OOOOOOOOOOOOOOOOOOO+%+OOOOOOOOOOOOOOOOOO+%%&%%++OOOOOOOOOOOOOOOOOOOOOOOOOOOOOOOOOOOOOOOOOOOOOOOOOOOOOOOOOOOOOOOOOOOOOO+++OO.........................    ............OO...........................................OOO..OOOOOOOO+++%%%%&&::::&&&&&%%%&&&&@+++@@$&&&=======;;;=************$@@@@@@$$$$$$*==;;;==*$$$**$$@@@###########X##XXXXXXXXXXXXXXXXXXXXooooooooooooooooooooooooooooooooXX#@@$$@@##XXXXXXXXX#####@@$$$$********$$$$@@@####@@###################XXXXXoooooooooooooooooooo  o    oooXXXX##@@@$******==========*==***",
"@@##@@@@@@$$**************$$$$$$@$$$@@@@@#XXXXXXXXXXXXXXooo ..        ooooXXXXXXXXX.o...XXoXX.......oo..o.oXXXXX##@@@@@@@@@@@@##XXX..ooooooooo..Xo...XXXXXXX....XXXXXXXXXXXXXX++####++++++@@++%%&&&&&&:::;===&*$$@$$$*==========**$@@@%%@@@@&&&&&&&&&&::;;;;;==***@@@@@@@@######XXXXXX.XXXXXXXXXXXXXXXXXXXXXXXXX..XXXXXXXXXXXXXXXXXXXXXXXXXX##@@@@@#####@@@$*@@*$@@@#XXXX..X.X.................. ....   ..    ....             .    ....       ... ...................OO++%+OO.........................................................OOOOOOOOOOO++%%&:&%++O+OOOOOOO+++%&&%+++++++++++++++++++++++++++++++++++++++++++++++++++++++++OOO+++++++++++++++++++++++++++%+++++%++++++++%+%%+++++%+%++++++++++++++++++++++++++++++++++++++++++++++++++++++++++++++OOOO+++OO+++++%%&&%%+O+++%%&%%++OOOOOOOOOOOOOOOOOOO+%+OOOOOOOOOOOOOOOOOO+%&%%++OOOOOOOOOOOOOOOOOOOOOOOOOOOOOOOOOOOOOOOOOOOOOOOOOOOOOOOOOOOOOOOOOOOOOO+++OOO..................   ....     ...........OOO..........................................OOO..OOOOOO++++%%%%%&&::::&&&&&%%%&&&&@+++@@$&=&=======;;;==*******=***$@@@@@@$$$$$$*==;;;=*$$$$**$$@@@###########X#XXXXXXXXXXXXXXXXXXXXXXoooooooooooooooooooooooooooooooXX##@$$@@##XXXXXXXXX######@$$$*********$$$$@@@####@@##################XXXXXXXoooooooooooooooooooooooooooooXXX#@@@@$*********==**==********",
"#####@@@@@@@@*****************$$$$$@@@@@##XXXXXXXXXXXXXXooo..           ooXXXXXXXXXXo.ooooXXXX....oooooooooXXXXX##@@@@@@@@@@@@@#XXX...ooo.oXoo..XX....XX..XX.X.XXXXXXXXXXXXXXX++++##++++++@@++@&&&&&&::::::&&&&&&&@@&&===========*$@@@&&@@@&&&&&@&&&&&==;;;;;==***@@@@@@@@######XXXXXXXXXXXX..XXX.XXXXXXXXXXXXXXXXXXXXXXXXXXXXXXXXXXXXXXXXXX#@@@@@@#####@@@$*@@*$@@@#XXX..XXX........................   ..     .               .  ....................................OO++%+OO........................................................OOOOOOOOOOOO++%%&:&%++O+OOOOOO++++%&&%++++OO++++++++++++++++++++++++++++++++++++++++++++++++++++OOOO+++++++++++++++++++++++++++++++++++++++++++++++++++++++++++++++++++++++++++O+O++++++++++OO+++++++++++++O+OOOOOOOOOOOOOOOOOOOOO+++%%&%%+O+++%%&%%++OOOOOOOOOOOOOOOOOOO+%+OOOOOOOOOOOOOOOOOO+%&%++OOOOOOOOOOOOOOOOOOOOOOOOOO..OOOOOO.OOOOOOOOOOO......O.............OOOOO++OOO....................  . ...  . ..........OOOOO..........................................OO.OOOOOOO++++%%%%%&&:::&&&&&&%%%&&&&@+++@@$*=========;;;==*****===***@@@@@@@$$$$$**==;;;=**$$$**$$@@@#############XXXXXXXXXXXXXXXXXXXXXooooooooooooooooooooooooooooooooXX#@@$$@###XXXXXXXXX#X####@$$$********$$$$$@@@####################XXXXXXXXXXXoXXooooooooooo  oooooooooXXXX##@@@$**************************",
"########@@@@@$$*****************$$$@@@@@##XXXXXXXXXXXXXXooo...          ooXXXXXXXXXXoooooXXXX.o...ooooooooooXXXX##@@@@@@@@@@@@@#XXXX..ooo.oooo..oX....XX...XXXXXXXXXXXXXXXXXXX++++##++++++++++@&&&&&::::::::&&&&&&&&&&===========*$@@@&&@@@&&&&&&&&&&&==;;;;;==**@@@@@@@@########XXXXXXXXXXX..XX.XX.XXXX...XX...XXXXXXXXXXXXXXXXXXXXXXXXXXXX#@@@@@@#####@@@$*@@*$@@@##XX..X.X.........................                        ........................................OO++%+OO........................................................OOOOOOOOOOOO++%%&:&%++O+OOOOOO++++%&&%+++OO+++OO++OOOOOOOO+++++++++++++++++++++++++++++OOO++++++OO+OO+++++++++++++++++++++++++++++++++++++++++++++++++++++++++++++++++OOOOOOOOOOOOOO++++++++OOOOOOOO+++OOOOOOOOOOOOOOOOOOOOOOOOOOO+++%%&%%+++++%%&%%++OOOOOOOOOOOOOOOOOO++%+OOOOOOOOOOOOOOOOO+%&&%++OOOOOOOOOOOOOOOOOOOOOO.O......O....................................OOO++OOO.............      ..    ....  ...........OOO+OO........................................OOO..OOOOOO++++%%%%%&&:::&&&&&&%%%&&&&@+++@@$*=========;;;==*****==****@@@@@@@$$$$$**==;;;=**$$$**$$@@@##############XXXXXXXXXXXXXXXoXXXXooooooooooooooooooooooooooooooooXX#@@$@@###XXXXXXXXXXX####@$$$********$$$$$@@@####################XXXXXXXXXXXXXXXXooooooooooooooooooooXXX##@@@$***************************",
"#########@@@@@@@@******************$@@@@##XXXXXXXXXXXXXXoo..            .XXXXXXXXXXX.ooo.XXXXXoo.oooooooooooXXXX#@@@@@@@@@@@@@@@XXXX.ooooo..o...o......X...XXXXXXXXXXXXXXXX+XX##++++++++++++@+@&&&&&:::::::::::&&&&&&&&=========**$@@@@@&&&&@&&&&&&&&&==:;;;;==***@@@@@@#####+###XXXXX.XXXXX.XXX..XXXXXX.XXXXXXXXXXXXXXXXXXXXXXXXXXXXXXXXXXX#@@@@@@#####@@@$*@@**@@##XXXX..X............................    ..   .    ..     .........................................OO++%+OO.....................................................O...OOOOOOOOOOO++%%::&%++O+OOOOOOO+++%&&%++OOO+++++++OOOOOO++OO++++O+++++++++++++++++++OOOOOOOOOO+O++++O+O+++O+++++++++++++++++++++++++++++++++++++++++++++++++++++O++OOOOOOO+O++OOOOOOOOOOOO++++OOOOOOOOOOOOOOOOOOOOOOOOOOOOOOOOOOOOOO+%&&%%++++%%%&%%++++OOOOOOOOOOOOOOOO+%%+OOOOOOOOOOOOOOOO++%&&%+OOOOOOOOOOOOOOOOOOOOOOOOOOO....OO.................................OOOO++OOO..........      .   ..     ................OOOOOO............................................OOOOOOO++++%%%%%&&:::&&&&&&%%%&&&&@@@@@@&&&&&&=====;;;==*****=****$$$@@@@@$$$$$**==;;;==*$$$**$$@@@#############XXXXXXXXXXXXXXXXoooXXooooooooooooooooooooooooooooooooXX##@@@@###XXXXXXXXXXX###@@$$$********$$$$@@@@@#####################XXXXXXXXXXXXXoooooooooooooooooXXXX##@@@@$*****************************",
"##########@@@@@@@@@****************$@@@@##XXXXXXXX###XXXXo.o          ..XXXXXX##XXXX.ooo.XXXXXXo.ooooooo.o.oXXXX#@@@@@@@@@@@@@@@XXXXX.ooooX.oo..X.....XX..XXXXXXXXXXXXXXXXX+XX+++++++++++++@@@@&&&&:::::::::::::::&&&&==========**$@@@@@&%&&@&&&&&&&&&==:;;;;==**$@@@@@@#####+###XXXXXXXXXXX.XXX..XXXXXX.XXX.XXXXXXXXXXXXXXXXXXXXXXXXXXXXXXX#@@@@@@#####@@@$*@@**@@@X#+XX.XX............................ .. .   ....  ..    ..........................................OO++%+OO........................................................OOOOOOOOOOOO++%%::&%++O+OOOOOO++++%&&%++OO++++OO++OOO+OO+OOOOO++OO++O+++++++++O+++++OOOOOOOOOOOOOO++++O+++O+++++++++++++++++++++++++++++++++++++++++++++++++++OOOO++OOOOOOO+++OOOOOOOOOOOOOOOOOOOOOOOOOOOOOOOOOOOOOOOOOOOOOOOOOOOO+++%&&%%++++%%%&%%++++OOOOOOOOOOOOOOOO+%%++OOOOOOOOOOOOOO++%&&%%OOOOOOOOOOO.OO..........OOOO....O..............O...................OOO+%+O............      ..  ..      ..............OOOOOOOO...........................................OOOOOOO++++%&&&%&&::::&&&&&%%%&&&&@@@@@@&&&&&&=====;;;==*****=****$$$@@@@@$$$$$$*==;;;==*$$$**$$@@@#########XXX##XXXXXXXXXXXXXXXoooXoooooooooooooooooooooooooooooooooXX##@@@@###XXXXXXXXXXX####@$$$********$$$$@@@@@@@@###################X#XXXXXXXXXXoXXooooooooooXXXXXXX#@@@@$*****************************$$",
"XX##########@@@@@@@@@@$*$**********$@@@@##XXXXXXXX###XXXXooooo.      ..oXXXXX###XXXX..oo..XXXXXo.o..oooo...oXXXX#@@@@@@@@@@@@@@@#XXXXXXXooXoooXX........XXXXXXX.XXXXXXXXXXXXXXXX##++++++@@@@++%&&&:::::::::::::::::::&::=========*$@&&@@@%@@@@&&&&&&&&:::;;;;==**$@@@@@@@###+###XXXXXX...X..XXXX..XXXX.X...XXXXXXXXXXXXXXXXXXXXXXXXXXXXXXXXX#@@@@@@##@#@@@@$*@@**$@@X#+XOXX.XX.X..............................  ....   ...   ........................................OOO++%%OO...........................................................OOOOOOOOO++%%::&%++O+OOOOOOO+++%&&%++++OOOOOOOOOOOOOOOOOOOO++++++OOO+++OOOOOO++++++OOOOOOOOOOOOOOOO++++++++OO+++++++++++++++++++++++++++++++++++++++++++++OOOOO++OOOOOOOOOOOOOOOOOOOOOOOOOOOOOOOOOOOOOOOOOOOOOOOOOOOOOOOOOOOOOO+O+%&&%%++++%%%&%%++O+OOOOOOOOOOOOOOOO+%%%++OOOOOOOOOOOO++%%&&%+OOOOOOOOOO......................O...................................OO++OO................  ....          ............OOOOOOOOOO.....................................O..OOOOOO++++++&&&&%&:::::&&&&&%%%&&&&@@@@@@$&&&&======;;;==*****=****$@@@@@@@@$$$$**==;;;=*$$$$$*$$@@@#########XXXXXXXXXXXXXXXXXXXXXooXoooooooooooooooooooooooooooooooooXX##@@@@@##XXXXXXXXXX####@@$$$*********$$$@@@@@#@@###################XXXXXXXXXXXXXXXXXoooooooXXXXX##@@@@******************************$$$$",
"XXX###########@@@@@@@@@@@@$$*******$@@@@##XXXXXXXX###XXXXooo  .. .   ..oXXXXX###XXX....o.XXXXXXX......oo...oXXXX#@@@@@@@@@@@@@@@##XXXXXXoo.oooXXX.......XXXXXXX.XXXXXXXXXXXXXXXX###+++++@@@@++%&&&::::::::::::::::::&&::=========*&&&&&@@@@@@@&&&&&&&&=::;;;;==**$@@@@@@@@######XXXXXX......XXXX..XXXXXXX.XXXXXXXXXXXXXXXXXXXXXXXXXXXXXXXXXX##@@@@@@@@##@@@$*@@**$@#XXXXXXXXXXXX..............................  ....  .. .  .........................................OOO+%%%OO...........................................................OOOOOOOOO++%%::&%++++OOOOOO++++%&&%++++OOOOOOOOOOOOOOOOOOOOO+++OOOOO+++OOOOOOOO++++OOOOOO++OOOOOOO+++OO++++OO++OO++++++++++++++++++++++++++++++++++OO++++++OOOO++OOOOOOOOOOOOOOOOOOOOOOOOOOOOOOOOOOOOOOOOOOOOOOOOOOOOOOOOOOOOOO+O%%&&%%++++%%%&%%++O+OOOOOOOOOOOOOOOO+%%%++OOOOOOOOOOOO++%&&%++OOOOOOOOOO..........................................................OOOOO........................     ..    ..........OOOOOOOOOO.....................................OOOOOOOOO++++++&&&%%&::::&&&&&&%%%&&&&@@@@@@$==&&======;;;==*****=****$@@@@@@@@$$$$**==;;;=**$$$$*$$@@@#########XXXXXXXXXXXXXXXXXXXXXooXXooooooooooooooooooooooooooooooooXX##@@$@@##XXXXXXXXXX#####@$$$*********$$$@@@@@##@##################XXXXXXXXXXXXXXXXXXoooooooXXXX#@@@@$*****************************$$$$@@",
"XXXXXX##########@@@@@@@@@@@@@$**$**$@@@@###XXXXXX####XXXXX....  .    .oooXXX####XXXXoooo.XXXXXX.X.oo  .. o.XXXXX##@@@@@@@@@@@@@@##XX.X.Xoo....XXoo......ooXXXX..XXXXXXXXXXXXX+X+X++++++++++++%&&&&::::::::::::::::::::::::=======*$&&&&@%@@@@&&&&&&&&&::::;;;==**$$@@@@@@@###++XXXXXXXXX....XXXXXXXX...XXXXXXXXXXXXXXXXXXXXXXXXXXXXXXXXXXXXX##@@@@@@@@@@@@@$*@@**$@#XXO+XXXX.OX............................ . . ..........   ............OOOO.......................OOOO+%%%OO......................................................O.OOOOOOOOOOO+++%%::&%++++++++++++++%&&%++++OOOOOOOOOOOOOOOOOOOOO+++OOO++++++++++++++++++++++++O+++OOOO+++++++++++++++++++++++++++++++++++++++++++++++++++++++++++OO++OOOOO++++OOO++OOOOO+OOOOOOOOOOOOOOOOOOOOOOOOOOOOOOOOOOOOOOOOOOO++%&&%%++++%%%&%%++++OOOOOOOOOOOOOOOO+%%+++OOOOOOO+++++%%&&%%+OOOOOOOOOO...OO.................................................................  ............ ...     ........  ......OOOOOOOO++OOO.................................OOOOOOOOOOO++++%&:&&&&:::::&&&&&%%&&&&&@++%@@$&&&=======;;;==*****=****$@@@@@@$$$$$$**==;;;=*$$$$$*$@@@@##########XXXXXXXXXXXXXXXXXXXXooooooooooooooooooooooooooooooooooooXX#@@@@@@##XXXXXXXXXX####@@$$**********$$$@@@@####################XXXX#XXXXXXXXXXXXXXXXXXXXXXX#@@@@$******************$$$$****$$$$$$$$$@@@",
"XXXXXXX###############@@@@@@@@$$@@$$@@@@###XXXX#X####XXXXX....    .  ..oXXX#####XXXXo....XXXXXX.oooooo.. ooXXXXX#@@@@@@@@@@@@@@@##XXXXXXoo....XXoo.o....o.XXXX..XXXXXXXXXXXX++++X+++++++@+++++&&&&:::::::&:::&&&&&&&&&&&&&=======*&@&&&&%@@@@&&&&&&&&&::::;;;==**$$@@@@@@@###++XXXXXXX....X.XXXXXXXX..XXXXXXXXXXXXXXXXXXXXXXXXXXXXXXXXXXXXXX##@@@@@@@@@@@@@$*@@**$@#XXX+XXXX...X..........................  . . ..........   .....................OOOOOO............OOOO+%%%OOO......................................................OOOOOOOOOOOO+++%%::&%+++++++++++++%%&&%++++++OOOOOOOOOOOOOOOOOO+++++++++O++++++++O+++++++++++++++++++++O++++++++++++++++++++++++++++++++++++++++++++++++O++++O+OOOOOOOOOOOOOOOOOOOO+O+++++OOO+++OOOOOOOOOOOOOOOOOOOOOOOOOOOOOOOOOOOO++%&&%%++++%%%&%%++++OOOOOOOOOOOOOOOO+%%++++O++O++++%%%%&&&%++OOOOOOOOO.......................................................................   ........... . ..    ....... . ......OOOOOOOO++++OO................................OOOOOOOOOO+++++&&:&&&&:::::&&&&&%%%&&&&%++%@@$&&&=======;;;==****==****$@@@@@@$$$$$$**==;;;=*$$$$$*$@@@@#########XXX##XXXXXXXXXXXXXXXXooooXXooooooooooooooooooooooooooooooXX#@@@@@@##XXXXXXXXX######@$$**********$$$@@@@####################XXXXXXXXXXXXXXXXoXooXXXXXXX#@@@$***************$****$$$$$$$$$$$$$$$$@$$@",
"XXXXXXXXXX#################@@@@@@@@@@@@@###XXXX######XXXXX....    .o .ooXXX######XXXo.oXXXXXXXXX.o.......o.XXXXX##@@@@@@@@@@@@@@##XXXXXoooo....XooXoXXXX....XX..XXXXXXXXXXXXX+++X+++#+++@++++@&&&&&:::::&&&&&&&&&&&&&&&&&&=======*&@&&@@%%@@@&&&&&&&&&:::;;;;==*$$$@@@@@@@@#@+#X##XXXXXXXXXXXXXXXX.X.XXXXXXXXXXXXXXXXXXXXXXXXXXXXXXXXXXXXXXX##@@@@@@###@@@@$*@@**$@##XXXXXXXO..X........................... .......................................OOOOOOOOO........OOOO+%%%OOOO..................................................O..O.OOOOOOOOOO+++%%::&%+++++++++++++%%&&%++++++OOOOO+OOOOOOO+++++++++++++++++++++++++++++++++++++++++++++++++++++++++++++++++++++++++++++++++++++++++++++OOO+++++++OO++++++++++++++++OOOOOOOOOOOOOOOOOOOOOOOOOOOOOOOOOOOOOOOOOOOOOOOOO++%&&%%++++%%%&%%+%++OOOOOOOOOOOOOO+O+%%++++%%%&&&&&&&&&&&%++OOOOOOOOOO..............................................................................  ...   ...... ..........  ......OOOOOO++++++OO..............................O.OOOOOOOOO+++++&::&&&&::::&&&&&&%%&&&&&@++%%@&&&&===:=&:;;;==****==*****@@@@@@$$$$$$**==;;;=*$$$$$*$$@@@#@########XX#XXXXXXXXXXXXXXXXXooXoXXooooooooooooooooooooooooooooooXX#@@@@@@##XXXXXXXXXX####@@$$**********$$$@@@####################X##XX#XXXXXXXXXXXXXXXXXXX##@@@$*************$$$$$$$$$$$@@@@@@@@@@@@$$$$$$",
"XXXXXXXXX###################@@@@@@@@@@@@###XXXX######XXXXX..         .ooXXX######XXXo.oXXXXXXXXX........oooXXXXX##@@@@@@@@@@@@@@@#XXXXXoooooo...ooXoXXXX...XXX..XXXXXXXXXXX+X+++X+++##+++@@+@@&&&&&&&&&&&&&::&&&&&&&&&&&&:=======*&@&@%@&@%@@&&&&&&&&&=:::;;;==*$$$@@@@@@@@@@@#X##XXXXXXXXXXXXXXXXXXXXXXXXXXXXXXXXXXXXXXXXXXXXXXXXXXXXXXXXXX##@@@@@#####@@@$*@@**$@#XXXXXXX+OO..........................................................................OOOOO......OOOOO+%%%OOO..................................................OOO.OOOOOOOOOOO++++%%::&%+++++++++++++%%&&%++++++OOOO+++O+O++++++++++++++++++++++++++++++++++++++++++++++++++++++++++++++++++++++++++++++++++++++++++++++++++++++++++OO+++O+++++OOOOO++++++++OOOOOOOOOOOOOOOOOOOOOOOOOOOOOOOOOOOOOOOOOO+++%&&%%++++%%%&%%+%+++OOOOOOOOOOOOOO++%%%%%%&&&&&&&&&&&&%%%++OOOOOO..................................................................................  ..     ...............  .......O+++++O++++++OO.............................O.OOOOOOOOO++++%&::&&&&::::&&&&&&%%&&&&&@@@%%@&&&&===::=:;;;==****==*****@@@@@@$$$$$$**==;;;=*$$$$$*$$@@@##########XXXXXXXXXXXXXXXXXXXoooooooooooooooooooo   ooooooooooooooXX#@@$@@@##XXXXXXXXXX####@@$$**********$$$@@@####################X##XX#XXXXXXXXXXXoXXXXXX#@@@@$*************$$@@@@$$$@@@@@@@@@@@@@@@$$$$$$",
"XXXXXXXX#######################@@@@@@@@@###XXXXX#####XXXXo....  ..    o.XXX##@###XXX.o.XXXXXXXXXooo....o....XXXX#@@@@@@@@@@@@@@@@#XXXX.oo.oo....ooXoXoooXXX...XXXXXXXXXXXXXXX+X+X#++##++++++@+%&&&&&&&&&&&::::&&&&&&:::::::======*&@&&@@&&@@%&&&&&&&&&=:::;;;==**$$@@@@@#@##@@#X#XXXXXXXXX..XXXXXXXXXXXXXXXXXXXXXXXXXXXXXXXXXXXXXXXXXXXXXXXX#@@@@@##@###@@@$$$$$*$@@XXXXXOO+XXXX................................................  ............................O....OOOOO+%%%OOO........................................................OOOOOOOOOOO++%%&:&%++++++O++++++%%&&%++++++OOOO++++++++++++++++++++++++++++++++++++++++++++++++++++++++++++++++++++++++++++++++++++++++++++++++++++++++++++++++++++++++++++++++++++++++++++++++++++++++++OOOOOOOOOOOOOOOOOOOOOOOO++%%&&%%++++%%%&%%%%+++OOOOOOOOOOO+O++%%%%%%&&&%%%%%%%%%++++OOOOOO..O............................................................................ ....  ..  .. . ......   .............O+++++OOO++++++OO.............................OOOOOOO++++++%&::&&&&::::&&&&&&%%&&&&&@+@@@&&&&&&::===:;;;==****==****$@@@@@@@$$$$$**==;;;=*$$$$$*$$@@@#######X##XXXXXXXXXXXXXXXXXXoooXoooooooooooooooo    oooooooooooooooX#@@$@@@##XXXXXXXXXX#####@@$$*********$$$@@@#######################XXXXXXXXXXXXXXXXX###@@@$**************$$$@@@@@@@@#@@######@@@@@@$$$$$$",
"XXXXXXX################X##XX###############XXXXXX#####XXXo....o ..   oo.XXX#@@@##XXXoo.XXXXXXXXXXo.....ooo.XXXXX#@@@@@@@@@@@@@@@@#XXXX.oooooo...ooXXXo..XX....XXXXXXXXXXXXX+X+++X#####++++++@+%&&&&&&&&&&&::::::&&&:::::::=======*&&&&@@&&@&%&&&&&&&&&=:::;;;==**$$@@@@@#@##@@##+XXXXXXXXXXXXXXXXXXXXXXXXXXXXXXXXXXXXXXXXXXXXXXXXXXXXXXXXXXX#@@@@@###@@@@@@$$$$$$$@@XX+X+OOOXXOOO............................................     .......  .......................OOOOOO+%%%OOO.O.......................................................OOOOOOOOOO++%%&:&%+++++++++++++%%&&%+++++++O++++++++++++%%%++%%%+++++%%%%%%%%%%%%%%%%%%%%%%%%+++++%%+%%+++%%%%%%%%%%%%%%%%%%%%%%%%%%%%%%%%%%%%%%%%%%%%%%%%%%%%%++++%++++++++++++++++++++++++++++++++++++++OOOOOOOOOOOOOOOOOOOOOO++%%&&%%++++%%%&%%%%+++OOOOOOOOOOO+O++%%%%&&&%%%%%%+++++++OOOOOOO...OO..........................................................................    ..       . .  .....    .............OOO+OOOOO++++++OO............................OOOOOO+++++++%&::&&&&::::&&&&&&%%&&&&&@@@@@&&&&&&=:===:;;;==*****=****$@@@@@@@$$$$$**==;;;=*$$$$$*$$@@@#######X##XXXXXXXXXXXXXXXXXXooXooooooooooooooooooooooooooooooooooooX#@@$@@###XXXXXXXXXX#####@$$$*********$$$@@@#@#####################XXXXXXXXXXXXXXXX###@@@***************$$$$@@@@@@@##########@@@@@@$$$$$$",
"XXXXXX####################XXXX#XX##########XXXX#X#####XXXoo..oo .   .oooXXX#@@@###XX.oXXXXXXXXXXXXoo....oo.XXXXX#@@@@@@@@@@@@@@@@##XXXXoooooX...oo.X....XXX..XXXXXXXXXXOXXXXX+X+XX++++++++@@@@&&&=&&&&&&&&:::::&&&::::::::=:=====*$@&@@@&&&&%&&&&&&&&&::::;;;==**$@@@@@@##+#@@++XXXXXX.XXXXXXX.X..XXXXXXXXXXXXXXXXXXXXXXXXXXXXXXXXXXXXXXXXXX##@@@@@#@@@@@@@$$$$$$$@@##XXOXXXXXOOOOO...........................................    .....  .........................OOOOOO+%%%OOOOOOO...............................................O.OOOOOOOOOOOO++++%%::&%+++++++++++++%%&&%+++++++++++++%%%&&&&&&&&&&&&&&&&&&&&&&&&&&&&&&&&&&&&&&&&&&&&&&&&&&&&&&&&&&&&&&&&&&&&&&&&&&&:::::::::&&&:&&&&::&&&&:::::&::::&&&&&&&&&&&&&&&&&&:::&&:&&&&&&&&&&&&&&&&%%++OOOOOOOOOOOOOOOOOOOO++%%&&%%++++%%%&%%+++++OOOOOOOO+OO+O++%%&&&&%++++++O+OOOOOOOOOOOO.....OO.......................................................................     ...      ...      .. .  ............OOOOOOOOOOO+++++OO..........................OOOOOOOO++++++%&::&&&&::::&&&&&&%%&&&&&@@@@@&&**===:====;;;==*****=****$@@@@@@@$$$$$$*==;;;=*$$$$**$@@@@############XXXXXXXXXXXXXXXXooXoooooooooooooooooo ooooooooooooooooXX#@@@@@###XXXXXXXXXX####@@$$$*********$$$@@@@@#################X####XXXXXXXXXXXXX##@@@$*****************$$$@@@@@@########X####@@@@$$$$$$$",
"oXXXX#####@####@@@########XXXXXXXX###########XX#######XXXoo...    .o.oooXXX#@@@###XX.oXXXXXXXXXXXXooo...oooXXXXX@@@@**@@@@@@@@@@@@#XXXXooooooX..oo......XXX.XXXXXXXXX.OOXXXXXXXXXX+++++++++@@@&&&=&&&&&&&&:::::&&&::::::::::=====*&@&@@&&&&&%&&&&&&&&&::::;;;==**$@@@@@@##+#@@+#XXXXXXXXXXXXX......XXXXXXXXXXXXXXXXXXXXXXXXXXXXXXXXXXXXXXXXX##@@@@@#@@@@@@@$$$$$$@@@##XXXXXXXXXOOOOO............................................  ...... .........................OOOOOO+%%%+OOOOOO...............................................OOOOOOOOOOOOOO++++%%::&%++++++O++++++%%&&%++++++++++++%%&::&&&&&&&&&&&&&::::::::::::::::::::::::::::::::::::::::::::::::::::::::::::::::::::::::::::::::::::::::::::::::::::::::::::::::::::::::::::::::::::::&&%++OOOOOOOOOOOOOOOOOOO++%%&&%%++++%%%&%%+++++OOO++OOOO+OOO++%&&&&%%+++++OO+OOOOOOOOOOO.......O.......................................................................     ... ..   ...      ...   ............OOOOOOOOOOO++++++O..........................OOOOOOOO++++++&&::&&&&::::&&&&&&%%&&&&&@@@@@&&*=========;;;==*****=****$@@@@@@@$$$$$$*==;;;=*$$$$**$@@@@############XXXXXXXXXXXXXXXXooXXoooooooooooooooo  oo        ooooooXX#@@@@@###XXXXXXXXXX####@@$$$*********$$$@@@@@#####################XXXX#XXXXXX####@@@*****************$@@$@@@@@#######XXXX####@@@@$$$$$$$",
"XXXXX######@####@@@######XXXXXXXXXXXX######X##########XXXX..oo.  .   ooXXXX#@@@#@XXX..oXXXXXXXXXXX.oo.oooooXXXX#@@@$$*@@@@@@@@@@@@#XXXoo..ooo...XooXXX..XXXXXXXX.XXXXXXXOOXXXX++XXXX#++++++++@&&&==&&&&&&&::::&&&&::::::::;:======&@@@&&&&&@@&&&&&&&&&&::;;;;==**$$@@@@@++@@####+XXXXXX.XXXXXX.X..XXXXXXXXXXXXXXXXXXXXXXXXXXXXXXXXXXXXXXX+XX##@@$@@#@@@@@@@$$$$$$@@##XXXXXOOOOXX...OO..................................................... ........................OOOOO+%%%+OOOOO...............................................O.O...OOOOOOOOO++++%%::&%++O+O+O++++++%%&&%%%++++++++%%&::&%%%%%%%%%%%%%%%%%%%%%%%%%%%%%%%&&&&&&&&&&&&&&&&&&&&&&&&%&&&&&&&&&&&&&&&&&&&&&&&&&&&&&&&&&&&&&&&&&&&&&&%&&&&&&&&&&&%%%%%%%%%%%%%%%%%%%%%%%%%%%%%%%%%%&&&%++OOOOOOOOOOOOOOOOOO++%%&&%%++++%%%&%%+++++++++OOOOOOO++++%::&%%++++OOOOOOOOOOOOOOOO...............................................................................................   ..........................OOOOOOOO+++%+++O.O......................OOOOOOOO++++++&&::&&%&::::&&&&&&%%%&&&&@@@@@@&&=&===::::;;;==*****==***$@@@@@@@@$$$$$*==;;;=*$$$$**$@@@@########XX##XXXXXXXXXXXXXXXXXoooooooooooooooo      o      ooooo ooXX##@@@@###XXXXXXXXXXX###@@@$**********$$$@@@####################XXXXX##########@@@$*********************$$@@@#####XXXXXXXXX###@@@@$$$$$@@",
"XoXXX####@@@@@##@@@#@@###XXXXXXXXXXXX#####XX#XX#######XXXX..oooo .  .ooXXXX#@@@@#XXX.ooXXXXXXXXXXX..oooooooXXXX#@@$***$@@@@@@@@@@@#XXXoooooo...XXXooXX..XXXXXXXX.XXXXXOXXOXXXX++XXX+++++@+@+@@&&&==&&&&&&&::::&&&&::::::::::======&@@@&&@&&%%&&&&&&&&&&::;;;;==**$$@@@@@++@@@###+XXXXXXXXXXXX...XXXXXXXXXXXXXXXXXXXXXXXXXXXXXXXXXXXXXXXXX+XX#@@@$@@#@@@@@@@$$$$$$@@##XXXXXOOOOXX....OO.............................................   ..... .......................OOOOO+%%%+OOOOO................................................OO...OOOOOOOOO++++%%::&%++O+O+O++++++%%&&%%%++++++++%%::&%%%%+%%%%%%%%%%%%%%%%%%%%%%%%%%%%%%%%%%%%%%%%%%%%%%%%%%%%%%%%%%%%%%%%%%%%%%%%%%%%%%%%%%%%%%%%%%%%%%%%%%+%%%%%%%%%%%%%%%%%%%%%%%%%%%%%%%%%%%+++++%%%%%%&&&%++OOOOOOOOOOOOOOOOO++%%&&&%+%++%%%&%%%+++++++++OOOO+O+O+%%::&%%++OOOOOOOOOOOOOOOOO........................................................................................... ...    ......  ..................OOOOOOOOO+++++++OO......................OOOOOOOO++++++&&::&&%&::::&&&&&&&%%&&&&@@+@@&&&&*===::::;;;==**********$@@@@@@@@$$$$**==;;;=**$$$**$@@@@########XXXXXXXXXXXXXXXXXXooXooooooooooooooooo      oo o  oooooooooX#@@@@@###XXXXXXXXXXX###@@$$**********$$$@@@###################XXXXXX#######@@@@@**********************$$@@@@####XXXXXXXXXX###@@@@@$$$@@@",
"XXXXX####@@@@@###@@#@@###XXXXXXXXXXXX###XXXXXXXX######XXXXo.oo.o.   ..oXXXX#@@@@#XXXooXXXXXXXXXXXX.o..oX...oXXX#@@****$@@@@@@@@@@@#XXXXXoooo...X.X..X....XXX...X.XXXXXXXOXXXXX++++++++++++@+@@@&&===&&&&&&:::::&&:::::::::;:======$@@@&&@&@@&&&&&&&&&&:::;;;;==**$@@@@+@##@@@###+XXXXXXX..XXXX..XXXXXXXXXXXXXXXXXXXXXXXXXXXXXXXXXXXXXXXXX#XX#@@@$@@@@@@@@@@$$$@$$$@#+XXXXOOOXXXX...OOOO.OO..................................OO...... .............................OOOOOO+%%%+OOOO.................................................OO.OOOOOOOOOOO++++%%::&%++++++O++++++%%&&%+++++++++%%&::%%%%%%%+++++++++++++++++++++++++++++++%+++++++%%+++++++%%%%%%%++++++%%++++%+++++%+++++%%++++%%%%%+++++++++++++++++++++++++++++++++++++++++++++++++++++%%&&%+++OOOOOOOOOOOOOOOO++%%&&%%%%+++%%&&%%%++++++OOOOO++O+O+%%::%%%++OOOOOOOOOOOOOOOO........................................................................  ..  ......  ....    ....   .  .   ....................OOOOOOOO++++++OO....................OOOOOOOOO+++++++&&::&&&&::::&&&&&&&%%&&&&@+++%&&&&&&==::==;;;==*****=****$@@@@@@@@$$$$**==;;;=*$$$$**$@@@@########XXXXXXXXXXXXXXXXXXooooooooooooooooooooo   oooooooooooooooooX#@@@@@###XXXXXXXXXXX###@@$$**********$$$@@@###################XXXX####@@@@@@@@$***********************$$@@@###XXXXXXXXXXXX###@@@@@@@@@@@",
"XXXX###@@@@@@@@##########XXXXXXXXXXXXX##XXXXXXXX######XXXX...oo...   .oXXXX#@@@@#XXXoooXXXXXXXXXXX.o..o....oXXX#@@****$@@@@@@@@@@@##XXXX....X.......X....XXX..XXX..XXXXXOXXXXX++++++++++++++@@@&&===:&&&&&::::&&&:::::::::;=======$@@@&&&&@%&&&&&&&&&&:::;;;;==**$$@@@+@@@@@@##+#+XXXXXXX.XXXX..XXXXXXXXXXXXXXXXXXXXXXXXXXXXXXXXXXXXXXXXXX#X#@@@$@@@@@@@@@@$$$$$$$@#XXXXXXOOXXXX...OOOOOOOO.................................OO............ .......................OOOOOO%%%%+OOOOO..OOO.OOOOOOOO....OOO..O.O......................OO.OOOOOOOOOOO++++%%::&%++O+O+++++++%%%&&%+++++++++%%&:&%%%%%%%+++++++++++++++++++++++++++++++++++++++++++++++++++++++++++++++++++++++++++++++++++++++++++++++++++++++++++++++++++++++++++++++++++++++++++++++%%&&%+++OOOOOOOOOOOOOOO+++%%&&%%%%++%%%&&%%+++++++++OOOO+O+++%%&:%%%++OOOOOOOOOOOOOOO...O......................................................................  . ..   ..    ..  . ....   .      .....................OOOO++O+++++++O..................OOOOOOOOOOO+++++++&&::&&&&::::&&&&&&&%%&&&&@+++%&&&&&&======;;;==*****=****$@@@@@@@@$$$$**==;;;=*$$$$**$@@@@########XXXXXXXXXXXXXXXXXXooooooooooooooooooooo    ooooooooooooooooX#@@@@@###XXXXXXXXXXX###@@$**********$$$$@@@###################XXXXXX#@@@@@@@$*************************$@@@####XXXXXXXXXXXX###@@@@@@@@@@@",
"XXXXX##@@@@@@@@###########XXXXXXXXXXXXX#XX#XXXXX######XXXX.........o...XXX#@@@@@##X...XXXXXXXXXXXXoo..o.o.XoXX##@$*****@@@@@@@@@@@##XXXXXoXXXXXX..........XXXXXX..XXXXXOXXXXXXXXXX++++++++++@%&&&&==:&&&&&::::::::::::::::::=====*&@@&&&&&&&&&&&&&&&&&::::;;;==**$$@@@@@@#@@@@+++XXXXXXXXXXXXXXXXXXXXXXXXXXXXXXXXXXXXXXXXXXXXXXXXXXXXXXXXXXX#@@@$@@@@@@@@@@$$$$$$$@#+XXXXXXOX.....OOOOOOOO....O.............................OOO.................................OOOOOOOO%%%%+OOOOOOOOOOOOOOOOOOOOOOOOOO.OO.........O...........O..OOOOOOOOOOOOOOO+++%%:::%++++++++++++%%%&&%+++++++++%%&:&%%++%+++++++++++++++++++++++++++++++++++++++++++++++++++++++++++++++++++++++++++++++++++++++++++++++++++++++++++++++++++++++++OOOOOOOO+O+OOOOO++++++++%%&&%%++OOOOOOOOOOOOOO++++%%&&%%+++%%%&&&%%%++++++OOOOOO+++++%%::%%+++OOOOOOOOOOOOOOOO..OO................................................................ .... .       .         ....         .........................OOOO++++++++++O...................OOOOOOOOO+++++++&&::&&&&:::::&&&&&&%%&&&&@@@+%&&&&&&::====;;;=******==***$@@@@@@@$$$$$**==;;;=*$$$$**$@@@@######XX##XXXXXXXXXXXXXXXXXXoXooooooooooooooooo   oooo    oooooooooX#@@$@@###XXXXXXXXX#####@@$**********$$$@@@################XXXXXX####@@$******************************$@@@###XXXXXXXXXXXXXX####@@@@@@@@##",
"XXXXX##@@@@@@@###########XXXXXXXXXXXXXXXX##XXXXX######XXXX.......o....o.XX#@@@@@##XX..XXXXXXXXXXXXoo..oo.XXXXX##@$*****@@@@@@@@@@@##XXXXXooooX...X..o.....XXXXXX..XXXXXOXXXXXXXXXX++++++@+@++%&&&&==:&&&&&::::&:&:::::::::::======&@@@&&&&&&&&&&&&&&&&::::;;;==**$$@@@@@++@@@@++++XXXXXXXXXXXXXXXXXXXXXXXXXXXXXXXXXXXXXXXXXXXXXXXXXXXXXXXXXX##@@$@@@@@@@@@@$*$$$$$@#+XXXXXXOX....XOOOOOOOOO.................................OOO.................................OOOOOOOO%%%%++OOOOOOOOOOOOOOOOOOOOOOOOOOOOOO.....OOO.O........OO..OOOOOOOOOOOOOO++++%%::&%++++++++++++%%&&&%+++++++++%%&:&%%++++%%++++++++++++++++++++++++++++++++++++++++++++++++++++++++++++++++++++++++++++++++++++++++O+++++++++O+++++++++++++++++++++++++++OOOOOOOO+++++++++%&:&%++OOOOOOOOOOOOOO++++%%&&%%+++%%%%&&%%%+++O++OOO+O+++++%%%::%%%O+OOOOOOOOOOOOOOOO..OO.......................................................................       .         ..          ...........................OOOO+++++++++OO..................OOOOOOOOO+++++++&&::&&&&:::::&&&&&&%%&&&&@@@+@&&&*&&::::==;;;==*****==***$@@@@@@@$$$$$**==;;;=*$$$$**$@@@@######XX#XXXXXXXXXXXXXXXXXXXoXoooooooooooooooo    ooooo o oo    oooX#@@@@@##XXXXXXXXXXX####@@$**********$$$@@@###############XX###X####@@*******************************$@@@####XXXXXXXXXXXXXX##############",
"XXXXX##@@@@@@@####XX####XXXXXXXXXXXXXXXX###XXXXX#######XXX...ooo    ....XX#@@@@@@#XX...XXXXX##XXXX....oooXXXXX##@$*****@@@@@@$@@@@##XXXXX.oooo..oXoXoo.....XXXXX.XXXX.XOXXXX++XXXXX+++#++++++%&&&&====&&&&&&&&&&&:::::::::::=====*&&@@@@%%&&&&&&&&&&&&&:::;;;==**$$@@@@@++++@@#+#XXXXX.XXXXXXXXXXXXXXXXXXXXXXXXXXXXXXXXXXXXXXXXXXXXXXXXXXXXX##@@$@@@@@@@@@@$*$$*$$@#+XXXXXXX....X.X.OOOOOOO......................OO.........OOO.............................OOOOOOOOOOO+%%%%++OOOOOOOOOOOOOOOOOOOOOOOOOOOOOOOO..OOOOOOOO...........OOOOOOOOOOOOOO+++%%::&%++++++++++++%%&&&%%%++++++%%%&:&%%++++%%%%%++++++++++++++++++++++++++++++++++++++++++++OO++++++++++++++++++++O++++++++++++++++++OO++++++++++++++++++++OOOOOOOOOOOOOOOOOOOOOOOOOOO+++++%%&:&%++OOOOOOOOOOOOO+++++%%&&%%+++%%%%&&%%+++OO+OOOO+++++++%%&::%%%++OOOOOOOOOOOOOOOO..OO........................................................................    ......     ...      .................................OOOOO+++++++O..............O.....OOOOOOO+++++++&&::&&&&:::::&&&&&&%&&&&&@@@@@&&**&=:::=&=;;;==*****==***$@@@@@@@$$$$$**==;;;=*$$$$**$@@@@##########XXXXXXXXXXXXXoooXXXXooooooooooooooooo o ooooo    ooo  ooXX#@@$@@##XXXXXXXXXXX####@@@$*********$$$@@@###############XX######@@@*******************************$$@@@####XXXXXXXXXXXXXX#############X",
"XXXXX###@@@@@###XXXXXXXXXXXXXXXXXXXXXXXX###XXXX########XX....ooo   .....XX#@@@@@##XX..X.XXXX##XXXXX...oooXXXXX##@$*****@@@@@@$@@@@##XX.XX.o.....XooXXo.....XXXX.XXXXX.XOXXOX+++XXXXX++++++@++%&&&&====&&&&&&&&&&&&::::::::::======&&@@@@%&&&&&&&&&&&&&::::;;;==**$$@@@@+++++@@#+#XXXX..X.XXXXXXXXXXXXXXXXXXXXXXXXXXXXXXXXXXXXXXXXXXXXXXX++XX##@@$@@@@@@@@@@$*$$**$@#+XXXX.XXX...X.......OOO..OOOO................OO........OOOOO...........................OOOOOOOOOOOOO%%%%++OOOOOOOOOOOOOOOOOOOOOOOOOOOOOOOOOOOOOOOOOO..........OOOOOOOOOOOOOOOO++%%::&%++++++++++++%%&&&%%%++++++%%%&:&%%++++&:&%%+++++++OO+++++++++++++++++++++OOOO+OOOOOO++OO+++++++++++++++++++++++++++++++OOO+++++OOO++++OO++++++O+++++OOOOOOOOOOOOOO+OOOOOOOOOOOOOOOO+++%%&:&%++OOOOOOOOOOOOO+++++%%&&%%%%+%%%%&&%%%+++O+O+OO+++++++%%&::%%%++OOOOOOOOOOOOOOOO..OO....OO.............................................................................. . ...    ...................................OOOOO++++++++..............O.....OOOOOO++++++++&&::&&&&:::::&&&&&&%&&&&&@@@+@@&*=&==:::&:;;;==*****==***$@@@@@@@$$$$$**==;;;=*$$$$**$@@@@##########XXXXXXXXXXXXXXXXXXXooooooooooooooooooooooooo     ooooooooX#@@$@@##XXXXXXXXXXXX###@@@$**********$$@@@###############XX#####@@@*******************************$$@@@###XXXXXXXXXXXXXXXX#X#########XXX",
"XXXX###@@@@@@##XXXXXXXXXXXXXX.ooooXXXXXX###XXXXXX#####XXXXo...  . .ooo..XX#@@@@@#XXXoXXXXXXXX##XX.....oo..XXXX#@@$****$@@@@@@@@@@@##XXXXXX.o...o....XXXXXX..XXXX..XXXXXXOOXXXX++XXXX#++++++++@&&&&::=&&&&&&&&&&&&&::::::::::======&&%&&&&%&&&&&&&&&&&&::::;;;==***$@@@@+++@+@@+###XOXXXX...XXXXXXXXXXXXXXXXXXXXXXXXXXXXXXXXXXXXXXX++XXXXX+XX#@@@$@@@@@@@@@@$$$$**$@#X#XX.XXOXXXX...OOO..OOOOOO..OO.............O.OOOO......OOOOO..................OOOOOOOOOOOOOOOOOOO+++%%&%%+++OOOO++++OOOOOOOO++++OOOOOOOOOOOOOOOOOO...OOOOO......OOOOOOOOOOOO++++%%::&%%+++++++++++%%&:&%%+++++++%%%::&%%+++%&:::%%++++++++++++++++++OOOO++OO++OO+++++++OOO++++++++++++OOO+++++++++OOO++++OO++++++++++++OOO++OOOOOOOOOOOOOOOOOOOOOOOOOOOOOOOOOOOOOOOO+OOOO+++%%&:&%++OOOOOOOOOOO+++++++%%&&&%%%%%%%&&&%%%++++++++++OO++++%%&::&%%++OOOOOOOOOOOOOOOO......OO..O..................................................................       ..  ..  ....  ..   ................................OOOOO++++++...............OOOOOOOOOOO++++++++&&::&&&&::::&&&&&&&%&&&&&&@@+@@&&&&&==::::;;;==*****=****$@@@@@@@@$$$$**=;;;;=*$$$$**$@@@@#########XXXXXXXXXXXXXXooXXXoooooooooooooooooooo    oo   ooo   ooooX#@@$@@##XXXXXXXXXXX####@@@$$*********$$@@@###################@@@@$******************************$$$@@@###XXXXXXXXXXXXXXXXXXXXXXXXXXXXXXX",
"XXXX###@@@@@@##XXXXXXXXXXXXXoo.ooo.XXXXX####XXXX######XXXXo...oo. .o....XX##@@@@##XXXXXXXXXXX#XXXX....oX.XXXXX#@@$****$@@@@@@@@@@@##XXXXXXXo..oo.X..XXXXXX..XXXX..XXXXXOOOXXXX++X+XX+++++++++%&&&&=:=&&&&&&&&&&&&&::::::::::=====*&&%%&&&&&&&&&&&&&&&&::::;;;==**$$@@@+++++@@@+++#XXXXXXXX.XXXXXXXXXXXXXXXXXXXXXXXXXXXXXXXXXXXXXXXX+XXXXX+#X#@@@$@@@@@@@@@@$$$$**$@###XXXXX..XXX...OOO...OOOOO.................O.OOOO......OOOOO..................OOOOOOOOOOOOOOOOOO++++%%&%%%+++++++++++++++++++++++++OOOOOOOOOOOOOOO....OOOO......OOOOOOOOOOOO++++%%::&%++++++++++++%%&:&%%+++++++%%%::&%%+++%%:::%%+++++++++++++++++OOOOO++OOO+OO++++++++OO++OOOO++++++OO++++++++++++++++++++OOO+++OO++++++++OOOOOOOOOOOOOOOOOOOOOOOOOOOOOOOOOOOOOOOO+O++++++%%&:&%+++OOOOOOOOOOO++++++%%&&%%%%+%%%%&&%%%++++++++++OO++++%%&::%%%+++OOOOOOOOOOOOOOOO....OO...O..................................................................       ... .   ...   .. .  ...............................OOOOOO++++O..............OOOOOOOOOOOOO+++++++&&::&&&&::::&&&&&&&%&&&&&&+++@@&&&&&==:=::;;;==*****=****$@@@@@@@$$$$$**=;;;;=*$$$$**$@@@@######X###XXXXXXXXXXXXXXooooXooooooooooooooooooo    o   oooo   ooooX#@@@@@##XXXXXXXXXXX####@@@$$$********$$@@###################@@@@*******************************$$$@@@###XXXXXXXXXXXXXXXXXXXXXXXXXXXXXXXX",
"XXXX##@@@@@@@##XXXXXXXXXXXXoo...oooXXXXX####XXXX#######XXXo.......oooo..XX#@@@@@@XXXXXXXXXXX##XXXXX....o..XXXX#@@$****$@@@@@@@@@@@##XXXXXX..X.oo..XXXXXXXX...XXX..XXXXXXOXXXXX+++++++++++++++@&&&====&&&&&&&&&&&&&::::::::::=====*$&@@&@&&&&&&&&&&&&&&::::;;;==**$@@@@++++@@@@++++XXXXOOXXXXXXXXXXXXXXXXXXOXXXXXXXXXXXXXXXXXXXXXXXXXXXXXXX#X#@@@$$@@@@@@@@@$*$$**$@###+XXX..X.X..........OOOOO................OO.OOOOO.....OOOOO...............OOOO++++++++%%%%%%%%%%%%%%&&&&%%%%%%%%%%%%%%%%%%%&&&&%%%%++OOOOOOOOOOO........OO..O..OOOOOOOOOOOO++++%%::&%%+++++++++++%%&:&%%++++++%%%%::&%%+%%%%&::&%+++++++++++OOO+++O++OO++++OOOO++++++++OOO+O+OO++++++++++++++++++++++++++++O+++O+OO++++OOO+OOOO+O+OOOOOOOOOOOOOOOOOOOOOOOOOOOOOOOOO++++++++%%&&&%++++++OOOOOOOO++++++%%&&%%+%++%%%&&%%%++++++++OOOO++++%%&::%%%+++OOOOOOOOOOOOOOOOOO.OOOO..O..................................................................... .  ......  ....  .....................................OOOOOO++++O..................OOOOOOOOO+++++++&&::&&&&::::&&&&&&&%&&&&&%+++@@&&&&&===:==;;;==*****=****$@@@@@@@$$$$$**==;;;=*$$$$**$$@@@#######X##XXXXXXXXXXXXXXXXooXXooooooooooooooooooooo o    oooo  ooooX#@@@@@##XXXXXXXXXXX####@@@@$$$*******$$@@@#################@@@******@@@@@@********************$$@@@#####XXXXXXXXXXXXXXXXXXXXXXXXXXXXXXXX",
"XXXX##@@@@@@@##XXXXXXoooX....... oooXXXXXX##XXX########XXXo...oo.ooo..o.XX#@@@@@@XXXXXXXXXXXX#XXXXX.X.ooo.XXXX#@@$****$@@@@@@@@@@@##XXXXXX.....o.XXXXXXXXX....XX..XXXXXXOOXXXX++++++++++@++++@&&&====&&&&&&&&&&&&:::::::::::=====*&&&@@&%%&&&&&&&&&&&&::::;;;==**$@@@@++++@@@@++++XXXOXO.XXXXXXXXXXXXXXXXXXXXXXXXXXXXXXXXXXXXXXXXXXXXXXX++###@@@$$@@@@@@@@@$$$$**$@###+++OO....X.........OOOOO.................O.OOOOO.....OO+OO..............OO+++++%%%%%%%%%%%%%%&%%%%%&&::&&&&&::::&&:::::::::::::::&&%+++OOOOOOOOOOOO....OOOOOOOOOOOOOOOOOOO++++%%::&%++++++++++++%%&:&%%++++++%%%%::&%%%%%%%&::&%+++++++++++O+++++O+++++++++++++++++++++++++++++++++++++++++++++++++++++++++++++++++++++OOO++++++++O+++OOOOOOOOO+++OOO+OOOOOOOOOO++++++++++%%:&&%++++++++++++++++++++%%&&%%%++%%%%&%%%%++++++++OOO+++++%%&::%%%++O+OOOOOOOOOOOOOOOOO.OOOO..OOO.O...........................................................................  ....  .....................................OOOOOO+++++...................OOOOOOOO+++++++&&::&&&&::::&&&&&&&%&&&&&&+++%@$&&&&=====:;;;==*****=****$@@@@@@@$$$$$**==;;;=*$$$$**$$@@@#####XXX###XXXXXXXXXXXXXXoooXooooooooooooooooooo o oo    oooooooooXX#@@@@@##XXXXXXXXXXXX####@@@@$$$******$$@@###############@@@@$$****$@@@@@@@@*****************$$$@@@#####XXXXXXXXXXXXXXXXXXXXXXXXXXXXXXXXo",
"XXXX##@@@@@@@@#XXXXXoooooooo..o....oXXXXXXXXXXXX#######XXX...........ooXXX#@@@@@#XXX..XXXXXXX#XXXXXX......XXXX#@@$****$@@@@@@@@@@@##XXXooXXXXX.....XXXXXXXXX..XX.XXXXXXXXXXXXXXXX+++++++++++++&&&&===&&&&&&&&&&&&&::::::::::=====*$@@@&&%&&&&&&&&&&&&&&:::;;;;=**$$@@@+@##@@@@#++++XOXXX.XXXXXXXOXXXXXXXXXXXXXXXXXXXXXXXXXXXXXXXXXXXXXXX+++##@@@$$@@@@@@@@@$$$@$*$@#++++XXOO..............OO..............O.....OOOOOO.....OO++O..............OO+%%%++%%+++%++++%%%%%%%%%%%&&&%%%%%%%%%%%%&%&&&&&&&&&::::&%++OOOOOOOOOOOO.....OOOOOOOOOOOOOOOOOO++++%%::&%++++++++++++%%&:&%%+++++++%%%::&%%%%%%%&::&%%++++++++++++++++++++++++++++++++++++++++++++++++++++++++++++++++++++++++++++++++++++++++O++++++++++++++O++++++++++++++OOOOOO+++++++++++++%%::&%++++++++++++++++++++%%&&%%+++%%%%&%%%%++++++++++++++++%%&:&%%%++++OOOOOOOOOOOOOOOOOOOO....O...O....................................................................... ...........  ...   .............................OOO+++++++O.............O....OOOOOOOOO+++++++&&::&&&&:::::&&&&&%%&&&&&@+++@@&&*&&::::==;;;==*****=****$@@@@@@@$$$$$$*==;;;=*$$$$**$@@@#######XXXXXXXXXXXXXXXXXXXXXXooooXooooooooooooooooooo  o   oooo oooXX#@@@@@##XXXXXXXXXXXX####@@@@$$*******$$@@#############@@@@******@@@@@@@@@@@@****************$$@@#####XXXXXXXXXXX#XXXXXXXXXXX#XXXXXXXXooo",
"XXXX##@@@@@@@##XXXX.o..ooo....  ..ooXXXXXXXXXXXX#######XXXX.o........oooXX#@@@@@@#XX..XXXXXXX#XXXXXX.oo...XXXX#@@$****$$@@@@@@@@@@##XXXooXXXXX.X..XXXXXXXX.X.XXX..XXXXXXXXXXXXXXXX++#+++++++++&&&&::=&&&&&&&&&&&&&::::::::::=====*$$@&&&%&&&&&&&&&&&&&&:::;;;;=**$$@@@+@@@@@@@#++++XOXXX..XXXXOXOXXXXXXXXXXXXXXXXXXXXXXXXXXXX+XXXXXXXXX#+#+##@@@$@@@@@@@@@@$$@@$*$@#+#++X+XOO............OO..O..OOO.............OOOOOO.....OO++O..............OO%%%+++++++++++++++++++%%%%%%%%%%%%%%%%%%%%%%%%%%%%%%%%&:::&%+++OOOOOOOOOOO....OOOOOOOOOOOOOOOOO+++++%%::&%%+++++++++++%%&:&%%+++++++%%%::&%%%%%%%&::&%%%+++++++++++++++++++++++++++++++++++++++++++++++++++++++++++++++++++++++++++++++++++++++++++++++++++++++++++++++++++++++++O+++++%%%%+++++%%::&%++++++++++++++++++++%&&&%%%%+%%%&&&%%%++++++++++++++++%%&:&%%%++++OOOOOOOOOOOOOOOOOOOOOO..O...OOOO............OOOO................................................................ ....   .............................OOO+++++++OO............O.O..OOOOOOOOO+++++++&&::&&&&:::::&&&&&%%&&&&&@+@@@@&&*&&::::==;;;==*****=*****@@@@@@@@$$$$**==;;;=*$$$$$*$@@@@######XXXXXXXXXXXXXXXXXXXXXXooooXoooooooooooooo oooo        o oooooX#@@@@@##XXXXXXXXXXXXX###@@@@$$******$$@@@###########@@@@*****$@@@@@@##@@@@@@@*************$$$@@@####XXXXXX#########XXXXXXXXX####XXXXXooo",
"XXXX##@@@@@@@##XXX.o....oo....  ..ooXXXX##XXXXXX####@##XXXXooo...  .o.oXXX#@@@@@##XX..XXXXXX###XXXXX..oXXXXXXX#@@$*****@@@@@@@@@@@##XXXooXXX...X....XXXX.....XXXXXXXXXOOXXXX++X+XXX+#++++++++%&&&:::=&&&&&&&&&&&&&:::::::::&======*$&&&&&&&&&&&&&&&&&&&:::;;;==***$@@@++@@@@@@#++X+XXOXXXXOXXXOXOXOXXXXXXXXX+XX+XXXX+XXXXXXXX+++XX++XXXX##+###@@$@@@@@@@@@@$$@@$*$@###X#XXXOXX.X..........O.OOOOOOO.......O.....OOOOOOOO...OO++O..............OO++++OOOOOOOOOOOOOOOOOOO+++++++++++++++++++++++++++%%%%%&:::%%++OOOOOOOOOOOOOOOOOOOOOOOOOOOOOOO++++++%%::&%%+++++++++++%%&:&%%+++++++%%%::&%%%%%%%:::&%%%++++++++++++++++++++++++++++++++++++++++++++++++++++++++++++++++++++++++++++++++++++++++++++++++++++++++++++++++++++++++++++++%%&&%%+++%%%::&%++++++++++++++++++++%&::%%%%%%%%&&&%%%++++++++++++++++%%&::%%%++++OOOOOOOOOOOOOOOOOOOOOOOOOOOO.OOOOOOO.........OOO..OOOO..........................................................  ....  ............................OOOO++++++++O............OOO.OOOOOOO+O++++++++&&::&&&&:::::&&&&&%%&&&&&@@@@@$&*&&&:::===;;;==*****=*****$@@@@@@@$$$$**==;;;=*$$$$$*$@@@@#######XXXXXXXXXXXXXXXXXXoXXXoXXXoooooooooooooo oo o  oooo   ooooooX#@@@@@##XXXXXXXXXXXXXX##@@@@$$******$$$@@#######@@@@@$*****$@@@@####X###@@@@@@$*********$$$@@@######XX##############XXXXXXXX####XXXXXXoo",
"XXXX##@@@@@@@##XXX.o...o.....   ...XXXX####XXXXX####@##XXXXooo... ..ooooXX#@@@@@##XX..XXXXXX##XXXXXX..oXXXXXXX#@@$****$@@@@@@$@@@@@#XXXXoXX..XXX....XX........XXXXXXXXOOOXXX++++XXX##++++++++%&&&:::=&&&&&&&&&&&&&:::::::::&======*$&&&&&&&&&&&&&&&&&&::::;;;;=***$@@@++@@@@@@@@++XXXXXXXOOXXXOOXOOXXXXXXX+XX+X+XXXXXXXXXXXXX+##X+#+XXXX##+###@@$@@@@@@@@@@$$@@$*$@##XXXXXXX++OXO........OOOOOOOOOOO......O.....OOOOOOOO...OO++O..............OO%%++OOOOOOOOOOOOOOOOOOOO+++++++++++++++++++++++++++%%%%%:::&%+++OOOOOOOOOOOOOOOOOOOOOOOOOOOOOO++++++%%::&%%+++++++++++%%&:&%%+++++++%%%&::&%%%%%%:::&%%%%%%+++++++++++++++++++++++++++++++++++++++++++++++++++++++++++++++++++++++++++++++++++++++++++++++++++++++++++++++++++++++++++%%&&&%+++%%&::&%+++++++++++++++++++%%&::%%%%%%%%&&&%%%++++++++++++++++%%&::%%%++++OOOOOOOOOOOOOOOOOOOOOOOOOOOOOOOOOOOOOO..OO..OOOO..OOOO............................................... .........   ...... .. ........................OOOO++++++++OO..........OOOO..OOOOOO++++++++++&&::&&&&::::&&&&&&%%&&&&&@@+@@@&&&&&=:::==;;;==*****=*****$@@@@@@@$$$$**==;;;=*$$$$$$$@@@#########XXXXXXXXXXXXXXXXXooXXXXXXXooooooooooooooooo    ooooo  oooooX#@@@@@##XXXXXXXXXXXXXX###@@@$$******$$@@@@######@@@*******@@@@@@##XXXX#####@@@$*********$$@@@######XXX###############XXXXXXX####XXXXXXoo",
"XXXX##@@@@@@@@#XXXo...          o.oXXXX#X#XXXXXX#######XXX..oo..o   ..oXX##@@@@@@#XXX.XXXXX###XXXXXXX.XXXXXXXX#@@$****$@@@@@@$@@@@##XXXXXXX...XXXXXXXX....XXXXXXXXXXXXX..OOOXXXXX++XX++++++++%&&&&::=&&&&&====:&&&::::::::::======&&&&&&&&&&&&&&&&&&&&&:::;;;==**$$@@@@++@@@@@@+++XXXXXXOOOOXXXXXXXXXX++XXX+XXXXXX++XXXXXXXXXXXXXX+++####+#X##@@$$@@@@@@@@@$$$@$*$@#+XOXOXOO..O.OOX.....OOOOOOOOOOO.............OOOOOO...OOOO++OOO............OO+%++OO..OOOOOOOOOOOOOOOOOOOOOOOOOOOOOOOOOOOOOOOO++++%%%%&:::&%++++OOOOOOOOOOOOOOOOOOOOOOOOOOOOOO+++%%%::&%%++++++++++%%%&:&%%%+++++%%%%&&&&&%%%%%&::&%%%++%%%%++%%%%%+++%+++%%%%%%%%%%%+%%%+++%%%+++%%%%++%%%+++%%%%%%%++%%%%%%%%%%++%%%%%%%%%%+++%%%%++++%%++++++++%%%++++++++++++++++%&:%%+++%%%::&%++++++++++++++++++%%%%&&%%%%%%%%%&&%%%++++++++++++++++%%&::%%%+++O++OOOOOOOOOOOOOOOOOOOOOOOO.OO....OOOO.O.OOOOOOOOOO......................................................  ...      ...  ..........................O.OOO++++%+%+O..............OOOOOOOOOO+OO+++++++&&::&&&&:::::&&&&&&%&&&&&%@@@@&&&&&&==::&:;;;=******=****$@@@@@@@$$$$$**==;;;=*$$$$$*$@@@##########XXXXXXXXXXXXXXoXoooooooooooooooooooooo  ooo   o ooo  oooooX#@@@@@##XXXXXXXXXXXXXXX##@@@@$$****$$$@@@@@@@@@@@*******@@@@####XXXXX#####@@@@$$$****$$@@@@##XXXXX#####@@@@@@########XXXXXX#####XXXXXXoo",
"XXXX##@@@@@@@@#XXXo...o.        o.oXXXXX###XXXXX###@@@#XX...oo....  ..oXX##@@@@@##XX...XXXX####XXXXX..XXXXXXXX#@@$****$@@@@@@@$@@@@#XXXXXX....XoXX.XXX....XXXX.X..XXXXXXOOOOXXXX++X+X++++++++%&&&&::=&&&&&===::&&&::::::::::======&&&&&&&&&&%&&&&&&&&&&:::;;;==**$$$@@@+@+@@@@@@++XXXXXXOOOOXXXXX+XXXX++XXX+XXXXXX++XXXXXXXXXXXXXX+X+###+#####@@$$@@@@@@@@@$$$@$*$@#OXOXOXXX....OOX.....OOOOOOOOOOO.............OOOOOO....OOO++OOO............OO+%+OOO....OOOOOOOOOOOOOOOOOOOOOOOOOOOOOOOOOOOOOOO+++%%%%%:::&%++++OOOOOOOOOOOOOOOOOOOOOOOOOOOOOO+++%%%::&%%++++++++++%%%&:&%%%++++++%%%%%%%%%%%%%&::&%%%%%%%%%%%%%%%%%%%%%%%%%%%%%%%%%%%%%%%%%%%%%%%%%%%%%%%%%%%%%%%%%%%%%%%%%%%%%%%%%%%%%%%%%%%%%%%%%%%%%%%%%%%%%%%%%%%%%%%%%%++++++++%&:&%+++%%&::&%++++++++++++++++++%%%%&:%%%%%%%%%&&%%%++++++++++++++++%%&::%%%+++O++OOOOOOOOOOOOOOOOOOOOOOOOOOOO.OOOOOOOOOOOOOOOOOOOO.OOOO............................................ ...........  ................................OOOO+++++%%%+O..............OOOOOOOOOO+OO+++++++&&::&&&&::::&&&&&&%%&&&&&%@@@@&&&&&&====&:;;;=******=*****@@@@@@@$$$$$**==;;;=*$$$$$*$@@@##########XXXXXXXXXXXXXXXXXooooooooooooooooooooo  ooo o ooooo  ooooXX#@@@@@##XXXXXXXXXXXXXXX##@@@@$$$$*$$$$@@@@@@@@@*******@@@@@@####XXXX###@@@@@@@$$$$$$$$@@@@###XXXXX###@@@@@@@@@#######XXXXX#######XXXXXoo",
".XXX##@@@@@@@@#XXXo.......     ...oXXXX####XXXXX###@@@#XXX...ooo.. o....XX#@@@@@@#XX...XXXXX###XXXX...XXXXXXXX#@@$*****@@@@@@$$@@@##XXXXXooo..oo....XXXX.XXX..XX..XXXXXXXXOXXX++++++++++++++++&&&&=:==&&&&====::&&&:::::::::======&&&&&&&&%&%&&&&&&&&&::::;;;==**$$@@@++++@@@@+++++XXOO+OOXXXXXXOXXXX+++XX++XXXXXXXXXX++XX++X#XXXXXXX###+#####@@$$@@@@@@@@@$*$@**$@#XX..XXXXXXXXOOO.....OOOO...OOOO.O........OOOOOOOOOO.OOOOO+++O.............OO++++OO....OOOOOO.OOOOOOOOOOOOOOOOOOOOOOOOOOOOOOO++++%+%%%&:::&%++++OOOOOOOOOOOOOOOOOOOOOOOOOOOOO+++%%%::&%%++++++++++%%%&:&%%%++++++++++%%%%%%%%%%::::::::::::::::::::::::::::::::::::::::::::::::::::::::::::::::::::::::::::::::::::::::::::::::::::::::::::::::::::::::::::&&%%++%%%%&:&%%++%%&::&%++++++++++++++++++%%%%::&%%%%%%%%&&%%%++++++++++++++++%%&::%%%+++++OOOOOOOOOOOOOOOOOOOOOOOOOOOOOOOOOOOOOOOOOOOOOOOOOO.OOOO...OOOOOOO.O............................... ............  ................................OOOO++%%%%&&++O.............OO.OOOOOOOOO++++++++&&::&&&&::::&&&&&&%%&&&&&@@@++&&&&&&=====;;;;=*****==*****$@@@@@@$$$$$**==;;-=*$$$$$*$@@@###########XXXXXXXXXXXXXXXXooXoooooooooooooooooooooooooooooooooooooXX#@@@@@##XXXXXXXXXXXXXX####@@@@@@@@$$$@@@@@@@$******$@@@@###XXXXXXX##@@@@@@@@@$$$$$$$@@@@####XXXX###@@@@@@@@@@@######XXXXXX#######XXXXXoo",
"..XX##@@@@@@@@#XXXo.........   ...oXXXX####XXXXX###@@@#XXXX.oo.o...o....X##@@@@@@#XX...XXXXX++#XXXX...XXXXXXXX#@@$****$@@@@@@$@@@@##XXXXXoooo.oX....XXXX.XXX.X.X..XXXXXXXXXXXX+++++++++++++++%&&&&====&&&&====::&&&:::::::::&:=====&&&&@&&&&%&&&&&&&&&::::;;;==**$&@@@++@@@@@@@+++XX+OO+XOXXXXXX++XXXX+XXX+++XXXXXXXXX++XX+++XXXXXXXX########@@@$$@@@@@@@@@$*$@**$@#XX.....XXXXX....................OO...OOO.OOOOOOOOOO.OOOOO+++O............OOO+%+OOO......OOOO...O..O.OOOOOOOOOOOOOOOOOOOOOOOOOO++++%%%%::::%+++++OOOOOOOOOOOOOOOOOOOOOOOOOOOO+++%%%::&%+++++++++++%%%&:&%+%++++++++++%%%%%%%%%%%&&::&&&&:::&&::&&&&:::::&::::::::::::::::::::::::::::::::::::::::::::::::::::::::::::::::::::::::::::::::::::&&::::&&&&:::&&&%%%%%%%%&:&%%%%%%&::&%%%++++++++++++++++%%%%::&%%%%%%%&&&%%%++++++++++++++++%%&::%%%+++O++OOOOOOOOOOOOOOOOOOOOOOOOOOOOOOOOOOOOOOOOOOOOOOOOOOOOOO..OOOOOOOOOO............................................................................O.OOOO+%%%%%&&++O.............OO..OOOOOOOO++++++++&:::&&&&::::&&&&&&%%&&&&&%@@@+&&&&&&======;;===*****=*****$@@@@@@$$$$$**==;;-=*$$$$$*$@@@#####X####XXXXXXXXXXXXXXXXXooooooooooooooooooooooo ooooooooooooooooXX#@@@@@##XXXXXXXXXXXXXXX####@@@@@@@@@@@@@@@$*******@@@@@##XXXXXXX###@@@@@$$$$$$$$$$$@@@@###XXXXXX##@@@@@@@@@@@#######XXXXXX#######XXXXXXo",
"..XX##@@@@@@@@#XXXo.......    ....ooXX#####XXXXX###@@@#XXX.o......  ooXXX##@@@@@@#XXX...XXX###XXXXX.XXXXXXXXXX#@@$****$@@@@@@@@@@@##XXXXX..o......XXXXXXX....XXXXXXXXXXXXXXXXX++XXXX+#++++++++&&&&=:=&&&&&&=======&&:::::::&&&=====*$&&&&&&&&&&&&&&&&&:::::;;;==**&$@@@+++@@@@+++++++OXXXXXXXXXX++XXXXXXXXXXXXXXXXXXXXX+X+++++XXXXXXX+++#X##+@@@$$@@@@@@@@@$*@$**@@#XXXXXX....X...............OOOO....OO......OOOOOOOOOOOOOOO+++O............OOO+++OOO............OOOO...OOOOOOOOOOOOOOOOOOOOOOOOO++++%%%%&:::&%++++OOOOOOOOOOOOOOOOOOOOOOOOOOO++++%%%::&%%++++++++++%%%&:&%%%++++++++++%%%%%%%%%%%%%%%%%%%%%%%%%%%%%%%%%%%%%%%%%%%%%%%%%%%%%%%%%%%%%%%%%%%%%%%%%%%%%%%%%%%%%%%%%%%%%%%%%%%%%%%%%%%%%%%%%%%%%%%%%%%%%%%%%%%%%%%%%%%%%%%%&&&%%%%%%&::&%%%++++++++++++++++%%%%&&&%%%%%%%&&&%%%++++++++++++++++%%&:&%%%+++++++OOOOOOOOOOOOOOOOOOOOOOOOOOOOOOOOOOOOOOOOOOOOOOOOOOOOOOOOOOOOOOOOOO...OO........................................................................OOOO+%%%%%&&++OO........OO.OOOOOOOOOOOOO+++++++%&:::&&&&::::&&&&&&%%%&&&&@@@+%@&*&&&:::&&;;;;==****==****$$@@@@@@@@$$$**=;;;;=*$$$$$*$@@@@####XXXX#XXXXXXXXXXXXXXXXXXoXoooooooooooooooooooo oooooooooooooooooX#@@@@@#XXXXXXXXXXXXXXXXXX#########@@@@@@@$*****@@@@@##XXXXXXXX##@@@@*******$$@@@@@@@####XXXXXXXX#@@@$$$$@@@@@######XXXXXXX#######XXXXXXX",
"XXXX##@@@@@@@@#XXooo..o...    oo..oXXX######XXX####@@@#XXX........ oooXXX##@@@@@@#XXX...XXX#+##XXXXXXXXXXXXXXX#@@$*****@@@@@@@@@@@@#XXXXXXooX.X...XX....X....XXXXXXXXXXXXXOXXX++XXXX+#++++++++&&&&::=&&&&&*=======&&::::::&&&&======&$&&&&&&&&&&&&&&&&:::::;;;==**&@@@@+++@@@@+++++++OXX+XXXXXXX++XXXXXXXX++XXXXXXXXXXXXX#++XX++XXXXX+++#X##+#@@$$@@@@@@@@@$*@@**@@#XXXXXX....................OOO.....OOOO...OOOOOOOOOOO.OOOO+++OO...........OOO+++OOO..............OO..OOOOOOOOOOOOOOOOOOOOOOOOOO++++%%%%&::::%%++++OOOOOOOOOOOOOOOOOOOOOOOOOO++++%%%::&%%++++++++++%%%&:&%%%+++++++++++++%+%%%%%%%%%%%%%%%%%%%%%%%%%%%%%%%%%%%%%%%%%%%%%%%%%%%%%%%%%%%%%%%%%%%%%%%%%%%%%%%%%%%%%%%%%%%%%%%%%%%%%%%%%%%%%%%%%%%%%%%%%%%%%%%%%%%%+++%%%%&&&%%%%%%&::&%%%++++++++%+++++++%%%%&&%%%%%%%%%&&%%%++++++++++++++++%%&:&%%%+%+++++++OOO+O+++++++OOOOOOOOOOOOOOOOOOOOOOOOOOOOOOOOOOOOOOOOOOOOOOOOOOOOOOOOOOOOOO.O.................................................................OOOO+%%%%&&&++OOO.....OO.O..OOOOOOOOOOOO++++++++&&::&&&&:::::&&&&&%%%&&&&@@@++@&&&&&:::&=;;;;==****==****$@@@@@@@@@$$$**==;;;=*$$$$$*$@@@@####XXXX#XXXXXXXXXXXXXXoXXXoXXooooooooooooooooooo oooooo.oo.oooooooX#@@@@@#XXXXXXXXXXXXXXXXXXX#########@@@@$*****$@@@@###X##XXXX##@@@@**********$@@@@@######XoXXXXX#@@@@****@@@@#######XXXXXXXXXXXXXXXXXXXXX",
"XXXX##@@@@@@@##XXXoo..oo... ..o...oXXXX#####XXX###@@@@#XXXX..o..... ooXXX##@@@@@@##XXX..XXX####XXXXXXXXXXXXXXX#@@$****$@@@@@@@@@@@##XXXXXXXXoX..XXXX....XX..XXXXXXXXXXXXXXXOXXX+XXXX++#+++++++&&&&::&&&&&&$*======:&&&&&&&&&&&&======*&&&&&&&&&&&&&&&&&::::;;===**$$@@@++@@@@+++++++XXXX+X++XXXXXXX+XXX+++++++++++++XXXX+#++XXXXXXXX##+###++#@@@$$@@@@@@@@@$$@@$*@@#XXXXX.....................OOO.OO...OOO..OOOOOOOOOOOO.OOOO+++OO...........OOO+++OOO.............OOOO.OOOOOOOOOOOOOOOOOOOOOOOOOO++++%%%%%&:::&%%++++OOOOOOOOOOOOOOOOOOOOOOOO+++++%%%::&%%++++++++++%%%&:&%%%+++++++++++++++++%%%%%%%%%%%%%%%%%%%%%%%%%%%%%%%%%%%%%%%%%%%%%%%%%%%%%%%%%%%%%%%%%%%%%%%%%%%%%%%%%%%%%%%%%%%%%%%%%%%%%%%%%%%%%%%%%%%%%%%%%%%%%%%%%%%+++%%%&&&%%%%%%%::&%%%%%%%%%%%%%%%++%%%%%&&&%%%%%%%%%&&%%%%%++++++++++++%%%%&:&%%%+%+++++++++++++++%%%++OOOOOOOOOOOOO++++++++++++++++++++++++++++OOOOOOOOOOOOOOOOOOOOOOO..............................................................O.OOOO+%%%%&&%++OOOO......OO....OOOOOOOOOO++++++++&:::&&&&:::::&&&&&%%%&&&&@@+++@&&&&&:::&&;;;===*****=****$@@@@@@@@$$$$**==;;;=*$$$$$*$@@@@######XX#XXXXXXXXXXXXXXXXXXoXXXooooooooooooooooooooooooo.ooo.ooooooX#@@@@@##XXXXXXXXXXXXXXXXXXXXXXX####@@@@*$**@@@@@###XXXXXX###@@@$***********$@@@@@###XXXXooooXX##@@$*****$@@@#######XXXXXXXXXXXXXXXXXXXXX",
"XXXX##@@@@@@@##XXXo...oo..  ......oXXXX#####XXX###@@@@#XXXX...o....oooXXX##@@@@@@##XXX..XXX####XXXXXXXXXXXXXXX#@@$****$@@@@@@$$@@@@#XXXXXXXXXo..XXXX....XX.XXXXXXXX.XXXXXXOOXXX+++X+++++++++++&&&&:::&&&&@$$*=====:&&&&&&&&&&&&&======&&&&&&&&&&&&&&&&&::::;;;==**$$@@@@++@@@++++++XXXXX+++++XXXXXXXXXX+++++++++++++XXXXX##+XXXXX+X#####+#+++@@@$$@@@@@@@@@$&@@$*@@#XXXXX.X...................OOOOOO...OOO..OOOOOOOOOOOOOOOOO+++OO............OO++++OO..............OOO..OOOOOOOOOOOOOOOOOOOOOOOOO++++%%%%%&::::%%+++++OOOOOOOOOOOOOOOOOOOOOOO+++++%%%::&%%++++++++++%%%&:&%%%++++++++++++++++%+%%%%+%%%%%%%%%%%%%%%%%%%%%%%%%%%%%%%%%%%%%%%%%%%%%%%%%%%%%%%%%%%%%%%%%%%%%%%%%%%%%%%%%%%%%%%%%%%%%%%%%%%%%%%%%%%%%%%%%%%%%%%%%%%%%+++%%%&&&%%%%%%%&&&&%%%%%%%%%%%%%%%%%%%%%&&&%%%%%%%%%&&%%%%%++++++++++++%%%%&:&%%%++++++++++++++++%&&%++OOOOOOOOOOOO++%%++++++++OOOOOOOOOOOOOOOOOOOOOOOOOOOOOOOOOOOOOO+OO..........O.............................................OOOOOOOOOOO%%%%%&&%++OOOO.......O.....OOOOOOOOO++++++++&&::&&&&::::&&&&&&%%%&&&&@+++%@&&&&&=::&&;;;==*****==****$@@@@@@@@$$$$**==;;;=*$$$$$*$@@@@#######X#XXXXXXXXXXXXXXXXXXoXXXXooooooooooooooooooooooooo.oo.oooooXX#@@@@@##XXXXXXXXXXXXXXXXXXXXXXXX##@@@@$@@@@@@@####XXXXXXX##@@@$***********$$@@@@###XXXXXooooXX#@@@******$$@@#######XXXXXXXXXXXXXXXXXXXXX",
"#XX##@@@@@@@@@##XX....o   ....  o.XXXX#####XXXXX###@@#XXX...oo.. . ...XXXX#@@@@@@#XXXXXXXXX####XXX..XXXXXXXXXX#@@$****$@@@@@@$$@@@@#XXXXXXXoooXXX...XXXXXXXXXXXXXXXXXXOOXXXXXXXX++++X+++++++++&&&&::=&&&&&@&&**====&&&&&&&&&&&&&&=====&&&&&&&&&&&&&&&&::::;;;==**$&@@@@@++@@@@++@##XXX++++O++++XXXXXXXXX+++XXX++++XXXX+XXXXXXX##+#++XX+######@@@$$@@@@@@@@@$$@@$*@@#XXXXX..........X...........OOO....OOOOO.OOOOOOOOOOOOOOOOO+++OO............OO+%++OO............OOOOOOOOOOOOOOOO+++++++++++++++++++%%%%%%&::::&%%%+++OOOOOOOOOOOOOOOOOOOOOOO+++++%%%::&%++++++++++%%%%&:&%%%+++++++++++++%+++%%%+++++%%%%%%%%%%%%%%%%%%%%%%%%%%%%%%%%%%%%%%%%%%%%%%%%%%%%%%%%%%%%%%%%%%%%%%%%%%%%%%%%%%%%%%%%%%%%%%%%%%%%%%%%%%%%%%%%%%%%%%%++%%++%%%%&&&%%%%%%%&&&&&&&&&::&&&&%%%%%%%%%%&&&%%%%%%%%%&&%%%%%+++++++++%+%%%%%&&&%%%%+++++++++++++++%&&&%+O+OOOOOOOOOO+%&%+OOOOOOOOOOOOOOOOOOOOOOOOOOOO.....OO......OOOO++OO.........O............................................OOOOOOOOOOO+%%&%%&&%++O.........OOOO....OOOOOOOO++++++++&:::&&&&:::::&&&&&&%&&&&&&++@@@&&&&&==:&&;;;==*****==****$@@@@@@@$$$$$**==;;;=*$$$$$*$@@@@########XXXXXXXXXXXXXXXXXooXXXXoooooooooooooooooooo oooooooo.oooooXX##@@@@##XXXXXXXXXXXXXXXXXXXXX###@@@$*$@@@@@#XXXXXXXXX###@@@*************$$@@@@##XXXXoooooooXXX#@@@******$$@@@###XXXXXXXXXXXXXXXXXXXXX#X#",
"####@@@@@@@@@@#XXX....oo   ..   ..XXXX#####XXXXX##@@@##XX....oo.oo ...XXXX#@@@@@@#XXXXXXXXX#+##XXX..XXXXXXXXXX#@@$****$@@@@@@$$@@@@#XXXXXXooooXXX...XXXXXX..XXXXXXXX..OOXXXXXXXX++++XX++++++++&&&&::=&&&&&@@@&&*===&&&&&&&&&&&&&&&==;;::&&&&&&&&&&&&&&::::=;;==**$$&@@@@++@@@@++@##XXX+++O++++++++X+XXXX++++XX+X++XXX#++X#XX++##+#++++#######@@@$$@@@@@@@@@$$@@**@@#XXXX.XXX..................OOO....OOOOOO..OOOOOOOOOOOOOOOO+++OO...........OOO+%++OO.O........O..OOOO+O++++++++%+%%%%%%%%%%%%%%%%%%%%%%%%&&::::&%%++++OOOOOOOOOOOOOOOOOOOOOO+++++%%%::&%%%++++++++%%%%&:&%%%++++++++++++%%+%%%%%++++%%%%%%%%%%%%%%%%%%%%%%%%%%%%%%%%%%%%%%%%%%%%%%%%%%%%%%%%%%%%%%%%%%%%%%%%%%%%%%%%%%%%%%%%%%%%%%%%%%%%%%%%%%%%%%%%%%%%%%%%%+%%++%%%%&&&%%%%%%%%%%%%&&&&&&&&&&%%%%%%%%%%&&&%%%%%%%%%&&%%%%%+++++++++%%%%%%%&:&&%%%%++++++++++++++%%&&%+O+OOOOOOOOOO%%&%+OOOOOOOOOOOOOOOOOOOO.OO.OOO......OO......OOO+++OO........OOOO..........................................OOOOOOOOOOO+%%&%&&&&++OO........OOOO....OOOOOOOO++++++++&:::&&&&:::::&&&&&&%&&&&&&++@@@&&&&&==:=&:;;==*****==****$@@@@@@@$$$$$**==;;;=*$$$$$$$@@@@########XXXXXXXXXXXXXXXXXooXXXXooooooooooooooooooooooooooooo.oooooXXX#@@@@##XXXXXXXXXXXXXXXXXXX###@@@$**@@@@@####XXXXXXXX#@@@@*************$@@@@####XXXoooooooooXX#@@@******$$@@@###XXXXXXXXXXXXXXXXXXXXX###",
"@@@@@@@@@@@@@@#XXXX.....  ..........XX#####XXXXX##@@@@#XX.o.oo..oo....XXX##@@@@@@#XXXXXXXXX++###XXX.XX.XXXXXXX#@$$****$@@@@@@$$@@@@#XXXXoooooooXXX....XXXXX.XXXXXXX.X.XOXXO+XXXXXX++XX++++++++&&&&=:=&&&&&@@@@@$**=&=&&&&&&&&&&&&&&:=;====&&&&&&&&&&&&:::::;;;=*&$&@@@@@++@@@@@+++#+XXXXXX++++XX++++++X+++XXXXXXXXXX++++###+++####+#++X#++####@@$$@@@@@@@@@$$@@**$@#XX.X...X.X..................OO....OOOOO.OOOOOOOOOOOOOOOOO+%+OOO.........OOOO+%++OO..........OOOOO+++%%%&&&&&&&&&&&&&&&&&&&&&&&&&&&&&&&&&&:::::&%%+++++OOOOOOOOOOOOOOOOOOOO+++++%%%:::%%%%+++++++%%%%&:&%%%+++++++++++++%++%+%%%+%%%%%%%%%%%%%%%%%%%%%%%%%%%%%%%%%%%%%%%%%%%%%%%%%%%%%%%%%%%%%%%%%%%%%%%%%%%%%%%%%%%%%%%%%%%%%%%%%%%%%%%%%%%%%%%%%%%%%%%%%%%+%%%%%%%%&:&%%%%%%%%%%%%%%%%%%%%%%%%%%%%%%%%&::%%%%%%%%%&&%%%%%%%%%++%%%%%%%%%%&:&%%%%%++++++++++++++%%&&%%O+OOOOOOOOO+%&&%+OOOOOOOOOOOOOOOOOOO...OOO.....O..OOO.....OOO+++OO........OOOOO.........................................OOOOOOOOOOO+%%%%&&&&++OO.......OOOOOO...OOOOOOOOO+++++++&&::&&&:::::&&&&&&&%&&&&&&+++@@&&&&&=====;;;==*****==****$@@@@@@@$@$$$**==;;;=*$$$$$$$@@@@######XXXXXXXXXXXXXXXXXXXXooXXXoooooooooooooooooooooooooooooooooooXXX#@@@@#XXXXXXXXXXXXXXXXXXX##@@@@@@@@@@###XXXXXXXX###@@@$***********$$@@@@@###XXXXXXoooooooooXX#@@@*******$@@@####XXXXXXXXXXXXXXXXXX###@@",
"@@@@@@@@@@@@@@#XXXXX....o . ........XX#####XXXX###@@@@#XXXoooo..oo....XXX##@@@@@@#XXXXXXXX++####XXXXX..XXXXXXX#@$$****$@@@@@@$*@@@@#XXXXXoooooooXX....XXXXX.XXXXXXXXXXXOXXX+++XXXXX+XX+++++++%&&&&=:=&&&&@@@@@@@$***===&&&&&&&&&&&&&=======&&&&&&&&&&&::::=;;;=*&$$$@@@@@@@@@@@+++#+XXXXXXXX++XX+++++++++++XXXXXXXXX+++++##++++#X++#+++#++####@@$$@@@@@@@@@$$@@**$@#OX.X...XX...................OO....OOOOOOOOOOOOOOOOOOOOOOO+%%+OOO....OO.OOOOO+%++OO....OO....OOOOO++%%%%%%%%%%%%%%%%%%%%%%%%%&&%&%%%%%%%&&:::::::&%++++++OOOOOOOOOOOOOOOOOO+++++%%%:::%%%%+++++++%%%%&:&%%%++%%%%++++%%%%+%%%%%%%%%%%%%%%%%%%%%%%%%%%%%%%%%%%%%%%%%%%%%%%%%%%%%%%%%%%%%%%%%%%%%%%%%%%%%%%%%%%%%%%%%%%%%%%%%%%%%%%%%%%%%%%%%%%%%%%%%%%%%%%%%%%%%%%%%%%%&:&%%%%%%%%%%%%%%%%%%%%%%%%%%%%%%%&::%%%%%%%%%&&&%%%%%%%%++++%%%%%%%&&&&%%%%%+++++++++++++%%%&&%%++OOOOOOOOO+%&&%+OOOOOOOOOOOOOOOOO.......O....OO..........OOO+++OO........OOOOO.........................................OOOOOOOOOOO+%%&%&&&%+OOOO.OOOO.OOOOOO..OOOOOOOOOO+++++++&&::&&&:::::&&&&&&&%%&&&&&+++%@&&&&&=====;;;==*****==****$@@@@@@@$@$$$**=;;;;=*$$$$$$$@@@#######XXXXXXXXXXXXXXXXXXXXooXXXoooooooooooooooooooooooooooooooooooXXX#@@@#XXXXXXXXooXXXXXXXX##@@@@@@@@@@@####XXXXXXXX#@@@@*************$@@@@####XXXXooooooooooooXX#@@@******$$@@@###XXXXXXXXXXXXXXXXXX##@@@@",
"$$$$@$$$$$@@@@#XXXXX..oo..........oXXX#####XXXX###@@@@##XXXo.o........XXXX#@@@@@@#XXXXXXXX+#+###XXXX...XXXXXX##@@$*****@@@@@@$@@@@@#XXXX..oooo..XXXX...XXX.XXXXXXXX.XXXXXOOO++++XX+++++++++++%&&&&=:==&&@@@@%&@@@@&&*====&&&&&&&&&&&&&==:::=&&&&&&&&&&&:::::;;=**$$$&@@@@@@@@@@+++##++XXXX++++XX++++++++XXXX+++XXX++X###X+++++++XX++++##++###@@@$$@@@@@@@@@@$$$**$@#XXXXX..................OOO..O...OO.O.OOOOOOOOOOOOOOOOOOOO+%%+OOO........OOOO+%++OO...OOO....OOOO+OO+OOOOO+++OOOOOOOO+++++++++++++++%%%%%%&:::::::&%%+++++OOOOOOOOOOOOOOOOO+++++%%%&::&%%%%%%%%%%%%%%&&&%%%%%%%++++%%%%%%%%%%%%%%%%%%%%%%%%%%%%%%%%%%%%%%%%%%%%%%%%%%%%%%%%%%%%%%%%%%%%%%%%%%%%%%%%%%%%%%%%%%%%%%%%%%%%%%%%%%%%%%%%%%%%%%%%%%%%%%%%%%%%%%%%%%%%%%%%%%%&&&&%%%%%%%%%%%%%%%%%%%%%%%%%%%%%%&::&%%%%%%%%&&%%%%%%%%%%%%%%%%%%&&&&&%%%%%+++++++++++++%%%%&&&%++OOOOOOOO++%&&%+OOOOOOOOOOOOOO........OOOO..OO...........OOO+++OO.O......OOOOO.........................................OOOOOOOOOOO+%%%%&&&&+OOOOO..OOOOO.OOOOOOOOOOOOOO++++++++&&::&&&&::::&&&&&&&%%&&&&&+++%@&&&&&:::&=;;;==*****==****$@@@@@@@@$$$$**=;;;-=*$$$$$*$@@#########XXXXXXXXXXXXXXXXXXXXoXXoooooooooooooooooooooooooooooooo.oooXXXX#@@#XXXXXooXooXXXXXXX#@@@@@@@@@@##XXXXXXXXXXX#@@@$************$@@@@###XXXXXXooooooooooooooXX##@@******$$@@@###XXXXXXXXXXXXXX#####@@@@*",
"$$$$$$$$$$$$@@@#XXXX.X.ooo........oXXX#####XXXX###@@@@##XXXo.o........XXX##@@@@@@#XXXXXXXX######XXXXX..XXXXXX##@@$*****@@@@@@@$@@@@#XXXX..Xooo..XX.....XX.XXXXXXX...XXXXXXOOO+++XX++++++++++%%&&&&&:=&&&@@@@%%@@@@&&*======&&&&&&&&&&&&=::::==&&&&&&&&&:::::;;=**$$$&@@@@@@@@@@@++##++++XX++++XX++++++XXXXXX+++XX+++XXXXXX++++++XX++#+##++###@@@$$@@@@@@@@@@$$$**$@#XXXXXX...............OOOOOOOOO.....O.OOOOOOOOOOOOOOOOOOOO+%%+OOOO.......OOOO+%++OO..OOOO.OOOOOO+++OOOOOOOOOOOOOOOOOO+++++++++++++++++%%%%%&&%%&:::&%++++++OOOOOOOOOOOOOOOO+++++%%%&:::&%%%%%%%%%%%%%%&&&%%%%%%%%%%%%%%%%%%%%%%%%%%%%%%%%%%%%%%%%%%%%%%%%%%%%%%%%%%%%%%%%%%%%%%%%%%%%%%%%%%%%%%%%%%%%%%%%%%%%%%%%%%%%%%%%%%%%%%%%%%%%%%%%%%%%%%%%%%%%%%%%%%%%%%%%%%%%%%%%%%%%%%%%%%%%%%%%%%%%%%%%%%%%%%%&::&%%%%%%%%&&&&%%%%%%%%%%%%&&&&&&&&%%%%%%%%%%%%++++++%%%%%&:&%++OOOOOOO+++%&&%++OOOOOOOOOOOOO.O...OO..OOOOO.O.......O..OOOO+%+OO.O......OOOOO.........................................OOOOOOOOOOO+%%%%&&&&+OOOO...OOOOO.OOOOOOOOOOOOOO++++++++&&::&&&&::::&&&&&&&%%&&&&&++++@&&&&&:::&&;;;==*****==****$@@@@@@@$$$$$**=;;;==*$$$$$*$@@#########XXXXXXXXXXXXXXXXXXXXXXXooooooooooooooooooooooooooooooooooooXXX#@@@#XXooooooXXXXXXX#@@@@@@@@@@@###XXXXXXXXX##@@@************$$@@@@####XXXXXooooooooooooooXXX##@@******$@@@####XXXXXXXXXXXXX####@@@@$**",
"$$$$$$$$$$$$@@@@##XXX.Xoo.....ooooXXXX#####XXXXX##@@@@##XXXoo.oo......XXX##@@@@@@#XXXXXXXX####+#XXXXXXXXXXXXXX#@@$*****@@@@@@@@@@@##XXXXX..ooo...oo.....XX.X..XX.XXXXXXXXXOOOOXXXX+++++++++++%&&&&&::&&&&@%%%%@@@@&&&*=======&&&&&&&&&&&::::;::&&&&&&&&:::::====**$&&@@@@@@@@@++++++++++X++++XXX++++XXXXXX++++##X#+++XXXXXXXX+++#+##+###+#####@@$$@@@@@@@@@$&$$**$@#XXXXXXXX.............O++OOOOO.......OOOOOOOOOOOOOOOOOOOOO+%%+OOOO.O.OO...OOO+%++OO....OO.OOOOO+++OOO....OOOOOOOOOOOOOOOOOOOOOOOOOOO+++%%%%%%%%&::::%%+++++++OOOOOOOOOOOOOOO++++%%%%&:::&&%%%%%%%%%%%%%&&&%%%%%%%%%%%%%%%%%%%%%%%%%%%%%%%%%%%%%%%%%%%%%%%%%%%%%%%%%%%%%%%%%%%%%%%%%%%%%%%%%%%%%%%%%%%%%%%%%%%%%%%%%%%%%%%%%%%%%%%%%%%%%%%%%%%%%%%%%%%%%%%%%%%%%%%%%%%%%%%%%%%%%%%%%%%%%%%%%%%%%%%%%%%%%%&:&&%%%%%%%%%%&&&&%%%%%%%%%&&&&&&&%%%%%%%%%%%%%%%++%%%%%%%%&&&%+++OOOOOOO++%&&%++OOOOOOOOOOOOOOOOOOOOO...OOOO........O.OOOOO+%+OO.O......OO+OO.........................................OOOOOOOOOOO+%%%%%&&%+OOOO...OOOO....OOOOOOOOOOOO++++++++&:::&&&&::::&&&&&&&%&&&&&&++@@@&&&&&:::&=;;;==*****==****$@@@@@@@$$$$$**=;;;==*$$$$$*$@@##########XXXXXXXXXXXXXXXXXXXXXoooooooooooooooooooooooooooooooooooooXXX#@@@#XXoooooXXXXX##@@@@$$@@@@##XXXXXXXX####@@@@***********$$@@@@###XXXXXXXoooooooooooooooXXXX##@@***$$@@@@###XXXXXXXXXXXXX###@@@@@$****",
"$$$$$$$$$$$*$$@@@@#XXXXoooo...ooooXXXX#####XXXXX##@@@@##XX..ooo.o......XX##@@@@@@#XXXXXXXX####+#XXXXXXXXXXXXXX@@@$*****@@@@@@$@@@@@#XXXXX.Xoooo..........X..X.XXXXXXXXXXXXXOO+XXXX+++++++++++%&&&&:::&&&&&@%%%@@@@@&&&*=======&&&&&&&&&&&:::;;::&&&&&&&:::::====*&$&&@@@@@@@@+++++#+++++XX++XXXX++XXXXXXXX++++####+++##XXXX#X+####++#####+###@@@$$@@@@@@@@@&&$$**$@#XXXXXXXX............OO+++OOOO.......OOOOOOOOOOOOOOOOOOOOO+%%++OOOOOOOO...OOO+%++OO...OOO.OOOOO+++OOOOOOOOOOOOOOOOOOOOOOOOOOOOOOOOOOO+++%%%%%%%%&:::&%+++++++OOOOOOOOOOOOOOO++++++%%%&::::::::::::&&%%%%&::::::::::::::::::::::::::::::::::::::::::::::::::::::::::::::::::::::::::::::::::::::::&:::::::::::::::&:::::::&:::&&:::::::::&&&::::&&&&&&&&&&&&::&&&&&&&&&&&&&&&&&&&&&&&&&&&&&&&&&&&&&&&&&&&&&&&&%%%%%%%%%%%%%%%%%%%%%%%%%%%%%%%%%%%%%%%%%%%%%%%%%%%%%%&:&%++OOOO+OOO++%&&%++OOOOOOOOOOOOOOOOOOOOOO....O.........OOOOOOO+%+OO.O.....OOO+OO..........................................OOOOOOOOOO+%%%%&&&&+OOOOO...OOO...O.OOOOOOOOOOO++++++++&:::&&&&::::&&&&&&&%&&&&&&++@@@&&&&&=:::=;;;==*****==****$@@@@@@@@$$$$**==;;==*$$$$$*$@@#@########XXXXXXXXXXXXXXXXXXXXXooooooooooooooooooooooooooooooooooooXXX##@@@#XXoooooXXXX#@@@@@@*@@@@###XXXXXXXXX##@@@@$**********$$@@@@###XXXXXXooooooooooooooooXXXXX##@@@$@@@@@@####XXXXXXXXXXXX###@@@@@******",
"$$$$$******$$$@@@@@@#XXX......o.o.XXXX#####XXXXX#@@@@@##XXo.o.oooo.....XXX#@@@@@@#XXX.XXXX#+#####XXXXXXXXXXXX#@@@*****$@@@@@@$$$@@##XXXXooooo.XX...XXXXXX..XXXXX......OOXOOOXXXX++XXX+++++++++&&&&&::&&&&&@@@@@@@@@$$**========&&&&&&&&&&&&::::::::&&&&&::::=====&&&@@@@@@@@@++++@+#+++++X++++##+XXXXX++++XXX+++#XXXXX++#XXX#######X+###++##++@@$$@@@@@@@@@&*$$**$@#XXXXXXX..XXXXXX......OO+++OOOOO......OOOOOOOOOOOOOOOOOOOOO%%%+OOOOOOOO.OOOOO+%++OOOO....OOOOOO%%++OOOOOO.OOOOO..OOOO.OOOOOOOOOOOOOOO+++++%%%%%%%::::%%++++++OOOOOOOOOOOOOOOO++++++%%%%&:::::::::::&%%%%%&&::::::::::::::::::::::::::::::::::::::::::::::::::::::::::::::::::::::::::::::::::::::::::::::::::::::::::::::::::::::::::::::::::::::::::::::::::::::::::::::::::::::::::::::::::::::::::::::::::::::::::::::::::::::::::&&&&&&&&&&&&&&&&%&&&%%%%%%&&&&::&%%++++OOOOO++%&&%++OOOOOOOOOOOOOOOOOOOOOO...OOOOOOOOOOOO..OOOO+%+OO......OOOOOO.........................................OOOOOOOOOOOO+%%%%&&&%++OOO.OOOOOOOOO...OOOOOOOOOO++++++++&:::&&&&::::&&&&&&&%%&&&&@+++@&&&&&&&=:&&;;;==*****==****$@@@@@@@@$$$$**==;;;=*$$$$$$$@@#######XXXX###XXXXXXXXXXXXXoXXoXXXXXXoooooooooooooooooooooooooooooXXXX#@@@#XXXXXoXXXX#@@@***@@@@@##XXXXXXXXX##@@@$**********$$$@@@@###XXXXXXooooooooooooooooooXooXXX##@@@@@@@@###XXXXXXXX#X####@@@@@@$********",
"@@$$$$$****$$$$@@@@@@#XX......o...XXXX#####XXXXX#@@@@@##XXoo....oo....XXX##@@@@@@#XXXXXXXX#+####XXXXXXXXXXXXX#@@@*****$@@@@@@$$$@@#XXXXXoXoooXX...XXXXXX.X..XXXX....X.XXOOOOXOXX+X+XX+++++++++&&&&::=&&&&&@@@@%@&&@$$$&*==========&&&&&&&&&&&::::::::&&&::::======&&&@@@@@@@@@++@++#++++++X++++#+X+X++++++##X#++++XXXX++++#########++###+####+@@$$@@@@@@@@@&*$@**$@#OXXXXX...XXXXXX........O++++OOOO.....OOOOOOOOOOOOOOOOOOOOO%%%+OOOOOOOOOOOOOO+%++OOOO....OOOOO+%%++OO..O..OO.OO...OOO.OOOOOOOOOOOOOOOO+++++%%%%%%&:::&%+++++++OOOOOOOOOOOOOOOO+++++%%%%%%%%%%%%%%%%%%%%%%%%&&::::::::::::::::::::::::::::::::::::::::::::::::::::::::::::::::::::::::::::::::::::::::::::::::::::::::::::::::::::::::::::::::::::::::::::::::::::::::::::::::::::::::::::::::::::::::::::::::::::::::::::::::::::::::::::::::::::::::::::::::::::::::&%%+++OOO+OO++%&&%++OOOOOOOOOOOOOOOOOOOOOO...OOOOOOOOOOOO..OOOO+%+OO......OOOOOO..........................................OOOOOOOOOOO+%%&%&&&%++OOO.OOOOOO.OO...OOOOOOOOOO++++++++&:::&&&&::::&&&&&&&%%&&&&@++@@&&&&&&==:&&;;;==*****==****$@@@@@@@@@$$$**==;;==**$$$$$$@@#######XXXXXXXXXXXXXXXXXXXXXXXoXXXXXXXooooooooooooooooooooooooooooXXXX@@@@XXXXXXXXX#@@@@***@@@@###XXXXXXXXX#@@@@@**********$$$@@@#####XXXXXooooooooooooooooooooooXXX##@@@@@@@@####XXXXXXXX###@@@@@@***********",
"@@@@@$$$*$$$$$@@$@@@@@#X.ooo..o.ooXXX######XXXXX#@@@@@##XXo.....o.o..oXXX##@@@@@@#XXXXXXXX######XXXX.XXXXXXXXX@@@*****$@@@@@@$$$@@#XXXXXXXoo..XXXXXXXX.....XXXXXXXXXXXXXXXXXXX++++XXX+++++++++&&&&&:=&&&&@@@%@&&&&@&$$**&===========&&&&&&&&&&::::::::&&&::&&:====*$&@@@@@@@@@@+@@++++++++++++++++++###+++###+++++++###+######++##++++##+++#@@@@$$@@@@@@@@@&$@@**$@#OX.XX....XXX............O++++OOOOO..OOOOOOOOOOOOOOOOOOOOOO%%%+OO.OOO.O.OOOOO+%++OOO.OOOOOOOOO+%%+OO.........OO...OOO..OOOOOOOOOOOOOOOO+++++%%%%%&::::%%++++++++OOOOOOOOOOOOOOO++++++%%%%%%%%%%%%%%%%%%%%%%%%%%%%%%%%%%%%%%%%%%%%%%%%&&&&&&&&%%&&&&&&&&&&&&&&&&&&&&&&&&&&&&&&&&&&&&&&&&&&&&&&&&&&&&&&&&&&&&&&&&&&&&&&&&&&&&&&&&&&&&&&&&&&&&&&&&&&&&&&&&&&&&&&&&&&&&&&&&&:&&&&::&&&&&&::::::&:&&&&::&&&&:&&&&&::&&&&&&&:&:::::::::::::::::::::::::::::::::::::&&&&&&&&&%%%++++O+OO++%&&%%+++++OOOOOOOOOOOOOOOOOOOOOOOOOOOOOOOOOO.OOO++%%OO......OOOOOO.........................................OOOOOOOOOOOO+%&&%&&&%++OOO...OO...OOOO.OOOOOOOOOO++++++++&:::&&&&::::&&&&&&&%%&&&&@+++@@&&&&&==:==;;;==*****==****$@@@@@@@@@$$$**==;;==*$$$$$$$@@@#####XXXXXXXXXXXXXXXXXXXXXXXXooXXXXooooooooooooooooooooooooooooooXXXX#@@#XXXXXXX#@@@@@@@@@@@##XXXXXXXXX##@@@@$*********$$@@@@@####XXXXXXXooooooooooooooooooooooXXXXX##@@@#####XXXXXXXX###@@@@@$**************",
"@@@@@@@$$@@$@@@@$@@@@@@#Xoooo.ooooXXX######XXXXX#@@@@@##XX......o....oXXX##@@@@@@@XXXXXXXX######XXXX.XXXXXXXXX@@@*****$@@@@@@**$@@#XXXXXXo....XXXXXX.........XXXXXXXXXXXXXXXOO++++XXX+++++++++&&&&&&=&&&&%@@+%%&&@@&$$&&&**=========&&&&&&&&&&&&::::::::&&&&&&=====*&@@@@@@@@@@+@@+++++++++++++++++####+++###+++++++##++#####+++##+++++##+++@@@@$$@@@@@@@@@&$$@**$@#XX.X.....................O++++OOOOOOOOOOOOOOOOOOOOOOOOOOOO%%%+OOOOOO..O.OOOO+%%+OOOOOOOOOOOOO+%%+OO...............OO..OOOOOOOOOOOOOOOOOO++++%%%%%&:::&%+++++++++OOOOOOOOOOOOO+++++++++%%%%%%%%%%%%%%%%%%%%%%%%%%%%%%%%%%%%%%%%%%%%%%%%%%%%%%%%%%%%%%%%%%%%%%%%%%%%%%%%%%%%%%%%%%%%%%%%%%%%%%%%%%%%%%%%%%%%%%%%%%%%%%%%%%%%%%%%%%%%%%%%%%%%%%%%%%%%%%%%%%%%%%%%%%%%%%%%%%%%%%%%%%%%%%%%%%%%%%%%%%%%%%%%%%%%%%%%%%%%%%%%%%%%%%%%%%%%%%%%%%%%%%%%%%%%%%%%%%%%%%%%%%%%%%&%%%++++O+++++%&&%%%%%%%++++++++++++++++++++++++++++++++OOOOOO+%%+OO......OOOOOO........................................OOO+++OOOOOOO+%&&%%&&%+OOOO...OO..OOOOOOOOOOOOOOOO++++++++&:::&&&&::::&&&&&&&%%&&&&@++++%&&&&&&::==;;;==*****==****$@@@@@@@@$$$$**==;;==*$$$$$$$@@@@#####XXXXXXXXXXXXXXXXXXXXXXXoXXXXooooooooooooooooooooooooooooooXXXXX###XXXXXX##@@@@@@@@@@@##XXXXXXX###@@@@@$*********$$$@@@######XXXXoooooooooooooooooooooooXXXXXXXX##########XXXXXXX##@@@@@*************$@@",
"@@@@@@@@@@@@@@@@@@@@@@##Xooooooo..XX#######XXXXX##@@@@##XXo..o.o.......XX#@@@@@@@#XXXXXXXX+####XXXXX.XXXXXXXXX@@@******@@@@@@$$$@@##XXXXX......X...XXX.........XXXXX..XXXXXOXX+++++X++++++++++%&&&&&&&&&&@@@%@@@@@@&&&&&&&****========&&&&&&&&&&&&:::::::&&&&&&:=:==&&&@&@@@@@@@@+++++++++++++++++####++##++#######+++##+#####++##+++####+###@@@$$@@@@@@@@@&$@@$**@#XXXX.X....................OO+++OOOOOOOOOOOOOOOOOOOOOOOOOO+%%%+OO.O.O..O.OOOO+%%+OO...OOOOOOOO+%%%+OOO...............OOOOOOOOOOOOOOOOOOOOO+++%%%%%%::::%%+++++++++OOOOOOOOOOOO+OO++++++++++++%++%%+%%++++%%%%%%%%%%%%%%%%%%%%%%%%%%%%%%%%%%%%%%%%%%%%%%%%%%%%%%%%%%%%%%%%%%%%%%%%%%%%%%%%%%%%%%%%%%%%%%%%%%%%%%%%%%%%%%%%%%%%%%%%%%%%%%%%%%%%%%%%%%%%%%%%%%%%%%%%%%%%%%%%%%%%%%%%%%%%%%%%%%%%%%%%%%%%%%%%%%%%%%%%%%%%%%%%%%%%%%%%%%%%%%%%%%%%%%%%%%%%%%%%%%%%%%%%%%%%&%%%+++O++++++%&&%%%%%%%%%%%%%%+++++++++++++++++++++++++OOOOOO+%%+OO..O....OO++OO.......................................OOO+++OOOOOOO+%&&%%&&%+OOOOO...O.OOOOOOOOOOOOOOO++++++++++&:::&&&&:::::&&&&&&%%&&&&&@+++@&&&&&&::&=;;;==*****==****$@@@@@@@@@$$$**==;;==*$$$$$*$@@@#######XXXXXXXXXXXXXXXXXXXXXXXoXXoXooXoooooooooooooooooooooooXXoXXXX##XXXXXXX#@@@@@@@@@###XXXXXXXXX##@@@@$**********$@@@@####XXXXXXXoooooooooooooooooooooXXX.XXXXXXXXX#########XXXX##@@@@@**************$$@@@",
"####@@@@@@@@@@@@@@@@@@##X.oooooo..XX#######XXXXX##@@@@##XXX....o.......XX#@@@@@@@#XXXXXXX++####XXXXX.XXXXXXXX#@@@$****$@@@@@@$$$@@##XXXXX.....oX..o.XX....XX...XXXXX.X.XXXOOXXXX++XXX+++++++++%&&&&&&&&&&&&%%&@@@@@@&&@&&&****========&&&&&&&&&&&&&&::::::&&&&&&&=====*$&&@@@@@@@@++++++++++++++++##+#++#+++#######++++#++####++##++++###+###@@@$$@@@@@@@@@&$@$$**@@XXXXX.....................OOOO+++OOOOOOOOOOOOOOOOOOOOOOOO+%%%+OOOOOO..OOOOOO+%%+OO....OOOOOOO+%%%+OOOO................OOOOOO.OOOOOOOOOOOOO+++%%%%%&:::&%%+%+++++++OOOOOOOOOOO+OOO++++++++++++++++++++++++++++++%%%%%%%%%%%%%%%%%%%%%%%%%%%%%%%%%%%%%%%%%%%%%%%%%%%%%%%%%%%%%%%%%%%%%%%%%%%%%%%%%%%%%%%%%%%%%%%%%%%%%%%%%%%%%%%%%%%%%%%%%%%%%%%%%%%%%%%%%%%%%%%%%%%%%%%%%%%%%%%%%%%%%%%%%%%%%%%%%%%%%%%%%%%%%%%%%%%%%%%%%%%%%%%%%%%%%%%%%%%%%%%%%%%%%%%%%%%%%+%%%%+%%&%%%++++++++++%&&%%%++++++++++++++++++OOOO++OOOOOOOOOOOOOOOOOO+%%%OO..O....OO++OO......................................OOOO+++OOOOOOO+%&&%&&&%++OOO...OOOOOOOOOOOOOOOOOO++++++++++&:::&&&&::::&&&&&&&%&&&&&&+++@@&&&&&&::&=;;;==*****==****$@@@@@@@@@$$$**==;;==*$$$$$*$@@@#######XXXXXXXXXXXXXXXXXXXXXXooXXXXooXooooooooooooooooooooooXXXXXXXX#XXXXXX#@@@@@@@@@@###XXXXXXXX##@@@@@*********$$$@@@@#####XXXXXXooooooooooooooXXXoooooXXXXXXXXXXXXX#############@@@@@*************$$@@@@@@",
"#####@@@@@@@@@@@@@@@@###....o.....XX#######XXXXX##@@@@##XXX...oo....o..XX#@@@@@@@@XXXXXXXX+####XXXX.XXXXXXXXXX@@@$*****@@@@@@$$$@@##XXXXXo.o........XXX...XXXX.XXXXXX.XXXXOOXXXXXXXXX+++++++++%&&&&&&&&&&&&&&&&&@@@@&&@&&&&****&==========&&&&&&&&&&&&::::::&&&&&&::===&&&&@@@@&@@++++++@@+++++++#+#++++##++++####++++##++++###+++++++##++####@@$$@@@@@@@@@&*$$$**@@XXXXXXX.....................OO+++OOOOOOOOOOOOOOOOOOOOOOOO++%%+OOOOOOOOOOOOOO+%%+OO.O....OOOOO+%%%+OOOO....................OO..OOOOOOOOOOOOO+++%%%%&::::%%%%+++++++OOOOOOOOOO++OOO++++++++++++++++++++++++++++++++++++%%%%%%%%%%%%%%%++%%%%%%%%%%%%%%%%%%%%%%%%%%%%%%%%%%%%%%%%%%%%%%%%%%%%%%%%%%%%%%%%%%%%%%%%%%%%%%%%%%%%%%%%%%%%%%%%%%%%%%%%%%%%%%%%%%%%%%%%%%%%%%%%%%%%%%%%%%%%%%%%%%%%%%%%%%%%%%%%%%%%%%%%%%%%%%%%%%%%%%%%%%%%%%%%%%%%%%%%++++++++++++++++++++%%&%%+++++++++++%&&%%+O+++OOOOOOOOOOOOOOOOOOOOOOOOOOOOOO..OOOOOO+%%+OO..O...OOO++OO......................................O.OO+++OOOOOOO+%&&&&&&%++OOO...OOOOOOOOOOOOOOOOOO++++++++++&:::&&&::::::&&&&&&%%&&&&&+@@@@&&&&&&::&&;;;==*****==****$@@@@@@@@@$$$**==;;==*$$$$$*$@@@########XXXXXXXXXXXXXXXXXXXXXoXoXXoooXooooooooooooooooooooXXXXXXXXXXXXXX##@@@@@@@@@@#XXXXXXXXXX##@@@@$$$****$*$$@@@@@####XXXXXXooooooooooXXooooooXXXXooXXXXXXXXXXXXXXXXXX######@@@@@@@**************$@@@@@@@@",
"#####@@@@@@@@@@@@@@@@#XX..........XX#######XXXXX##@@@@##XXX...oo..o.o..XX#@@@@@@@@XXXXXXX#####+#XXXXXXXXXXXXXX@@@$****$@@@@@@$$$@@##XXXXXo.o.o.o....X..o..XXXX.XXXX..XXXXXOOXXXXXXXXX+++++++++%&&&&&&&:&&&&&&&&&&&@@&&@@&&&&****&=========&&&&&&&&&&&&&&:::::&&&&&&&====&&&&@@@@@@@+@+@@@@@@++++++#+++++##+++++####+++##++++##++++++++#++#####@@$$@@@@@@@@@&*$$$**@#XXXXXXX.....................OOO+++OOOOOOOOOOOOOOOOOOOOOOOO+%%+OOOOOOOOOOOOOO%%%+OO......OOOOO+%%%+OOOOO....O..................OOOOOOOOOOOOO+++%%%%%&:::&%%%+++++++++OOOOOOOOOOOOOO+++++++++++++++++++++++++++++++++++++++%%%%%%%+%%%+%%%%%%%%%%+%%%%%%%%%%%%%%%%%%%%%%%%%%%%%%%%%%%%%%%%%%%%%%%%%%%%%%%%%%%%%%%%%%%%%%%%%%%%%%%%%%%%%%%%%%%%%%%%%%%%%%%%%%%%%%%%%%%%%%%%%%%%%%%%%%%%%%%%%%%%%%%%%%%%%%%%%%%%%%%%%%%%%%%%%%%%++%%%%%%%%+%+%++++++++++++++++++++++++%%&%%+++++++++++%&&%++O++OOOOOOOOOOOOOOOOOOOOOOOOOOOOOOOOOOOOOOO+%%%OO.O....OOO++OO........................................OO+++OOOO+OO+%&&&%&&%++OOO....OOOOOOOOOOOOOOOOO++++++++++&:::&&&&:::::&&&&&&%%&&&&%+@@@@&&&&&&=:&&;;;==*****==****$@@@@@@@@@$$$**=-;;==*$$$$$*$@@@########XXXX##XXXXXXXXXXXXXXXooXXXoooXoooooooooooooooooooXXXXXXXXXXXXXX##@@@@@@@@@##XXXXXXXXXX##@@@@@$$$****$$$@@@@#####XXXXXooooooooooooXXooXoooXXXXXXXXXXXX########XX####@@@@@@@@***************$@@@@@#####",
"XXXX##@@@@@@@@@#####XXXXX.o.....XXXXX##@###XXXXX##@@@@##XX....ooooo....XX##@@@@@@@XXXXXXXX##@@##XXXX..XXXXXXX#@@@$*****@@@@@@$$$@@##XXXX.X.o....ooooXXXX..XXoXXXXX....XXXXXXOOOOXXX+++++#+++++%&&&&&&&::::====&&&&&&&&@@&&&&$$**&&**========&&&&&&&&&&&&&&::::&&&&&&&&::===&&&&&&&&&@@@@@++++++++++++#+++#++######++++####++####+###+++++++#@@@@$*@@@@@@@@@$*$$***@#XXXXXXX........................OO+++OOOOOOOOOOOOOOOOOOOOOO+%%%OOOOOOOOOOOOOO+%%+OOOO.OOOOOOOO+%%%+OO.OO..................O.....OOOOOOOOOOOOO++%%%%%%::::%%%%++++++++++OOOOOO+OOOO++O++O++++++++++++++++++++++++++++++++++%++++++%%%%++%%%%%%%%%%%%++++++%%%%%%+++%%%%%%%++%%++++%%%%+%++++++%%%%++%%%++%%%++%%+++%%%%%%+++%%++++%%%%+++%%++%%%%%++%%%%++%%%%%%%%%%%%%%%%%%%%%%%%%%%%%%%%%%%%%%%%%%++%%%%%%%%+%%%%%%%%%%%%%++++%%%%%%%%%%%+++++++++++++++++++++++++%%&%%%++++O+OO++%&&%%+OOOOOOOOOOOOOOOOOOOOOOOOOOOOO........O.OOO%%%+OO......OOO+OO..O..O...................................OO+++OOOOOO++%&&&%&&%+OOOO...OOOO....OOOOOOOOOO++++++++++&:::&&&&::::&&&&&&&%%&&&&&++@@@&&&&&&::&&;;;==*****==****$@@@@@@@$$$$$**=-;;=**$$$$$$$@@######XXXXXXXXXXXXXXXXXXXXXXXXoooXXXXoXXoooooooooooooooooooooXXXXXXXXX#@@@@@@@@@#XXXXXXXXXXX###@@@$$**$***$$$@@@@####XXXXXXXXXooooooooXXXXooooXXXXXXXXXXXX++@@@@@@@@@@@+#@@@@@@@$***************@@@@@@#####X##",
"XXX###@@@@@@@@@###XXXXXXX.......XXXXX##@###XXXXX##@@@@##XX....ooooo...XXX##@@@@@@@XXXXXXXX##@@##XXXXX.XXXXXXXX@@@$****$@@@@@@$$$@@##XXXX...ooX.oooo..XXX..XXoX.XXX....XXOXXXXOOOXX++++X+++++++%&&&&&&&::::=;====&&&&&&@@&&&&@$**=*****======&&&&&&&&&&&&&&&&::::&&&&&&&&====&&&$&&&&$$$@@@++++@++++++@+++#+++#####++++###+++########+++++++##@@@$*@@@@@@@@@$*$@$*$@#XXXOXXX.........................OOO++OOOOOOOOOOOOOOOOOOOO++%%%OOOOOOOOOOOOOO+%%+OO.O.OOOOOOOO+%%%+OOOOO.O................O....OOOOOOOOOOOOOOO+++%%%%&:::&%%%++++++++++OOOO+++OOOOOOO++O++OO+++++++++++++++++++++++++++++++++++++%%%%++%%%%+%%%%%%%++%+++%%%%%%%%%%%%%%%%++%%%+++%%%%%%++++%%%%%%%%++%+++%%%%%%%%%%%%%%%%++%%%%++%%%%%%%%%%%%%%%%%%++%+++%%%%%%++%%%%%%%%%%%%%%%%%%%%%+++%%%%%%%%%%%%%+++%%%%++%+%%%%%%%%+%+++++%%%%%%%+%%+++++++++++++++++++++++++%&&%%%++++OOOO++%&&%%+OOOOOOOOOOOOOOOOOOOOOOOOOOOO...........OOO%%%+OO......OOO+OO.OO..OO..................................OO+++OOOOOOO+%&&&%%&%++OOOO..OOOOOO..OOOOOOOOOO+++++++++%&:::&&&&::::&&&&&&&%%&&&&%++@@@&&&&&==:&&:;;==*****==****$@@@@@@@$$$$$**=-;;=**$$$$$$$@@@#####XXXX#XXXXXXXXXXXXXXXXoXXoooXXXXoXoooooooooooooooooooooXXXXXXXX##@@@@@@@@##XXXXXXXXXXX##@@@@@$$****$$$@@@@#####XXXXXXXXXoooooooooXXXXXooooooo..XXXXX#@@@@@$$@@@@@@@@@@@@$****************$@@@@@#######XX#",
"XXX##@@@@@@@@@###XXXXXoXXooo..oooXXXX##@###XXXXX##@@@@##XX........o...XXXX#@@@@@@#XXXXXXXX##@@##XXXXXXXXXXXXXX@@$*****$@@@@@@$$$@@##XXXX..ooooXooo....XX..X.....XXXX.XXXXXXXXXOOXO++XXX+++++++%&&&&&&&:::::;::::::&&&&&&&&%%@@&&&&&=&&**========&&&&&&&&&&&&&&:::::&&&&&&:::::=&&&&&&&*&&@@@@+++@@++++++++++++######+++###++#+########+++++##@@@$*$@@@@@@@@&&$@$*$@#XXOO.XX.X........................OOO+++OOOOOOOOOOOOOOOOOO+%%&%OOOOOOOOOOOOOO+%%%OOOO..OOOOOOO+%%%+OO......................OO.OOOOOOOOOOOOOOOO+++%%%%%::::%%%++++++++++OOOO++OOOOOOOOOO+++++++++++++++++++++++++++++++++++%%%%%++%%%%++%%++++%%++++++%%++%%%%%+++%%%%%%%%+++%%%++%%%%%%%+%%%%%%%%%+++%%++%%%%%%++%%%%%%%%+++%%%++%%%%%%%+%+%%%%%%%+++%%++%%%%%+++++%%++++%+++%%++%%%++++++++++++++++++%++%+%%++++++%+%%+++++++++++++%%%++%+++++++++++++++++++++++++%&&%%%++++O+O+++%&&%%+OOOOOOOOOOOOOOOOOOOOOOOOOO........OO...OOO%%%+OO..OO.OOOO++OOOOOOOO...................................O+++OOOOOOO+%&&&%&&%+OOOOOOOOO..OO.OOOOOOOOOOO++++++++++&:::&&&&::::&&&&&&&%%&&&&&++++@&&&&&&=:==;;;==*****=*****$@@@@@@@@$$$$**=-;;=**$$$$$$$@@@@####XX####XXXXXXXXXXXXXXXoooXoXXXXooooooooooooooooooooooooXXXXXX###@@@@@@@##XXXXXXXXXXX##@@@$$$$$$$$$$@@@@####XXXXXXXXooooooooooooooXXXXXoooXXXXXXXX#@@@@$&&$**$$$@@@@@@@*****************$$@@@@##XXXXXX#X##",
"XXX##@@@@@@@@@##XXXXoooooo...ooooXXXX#####XXXXXX##@@@@@#XX......ooo...XXX#@@@@@@@#XXXXXXXX##@####XXXXXXXXXXXX#@@$*****$@@@@@@$$$@@##XXXX..oooooooo.....X........XXXX..XXXXXXXXXXOO++XXXX++++++%&&&&&&&&::::::::::======&&&&&@@&&&&&===****=======&&&&&&&&&&&&&&&&::::&&&&&&:::====&&&@@&&&@@@+++@@@+++++++++++######+++###++++########+++++#@@@@$*@@@@@@@@@&&$@**$@#+XOO.XXXX......X....................OO+OOOOOOOOOOOOOOOOOO+%%&%OOOOOOOOOOOOOO+%%%OOOO..OOOOOOO+%%%+OO.........................OOOOOOOOOOOOOOOOO++%%%%%&:::&%%%%++++++++++OO++++OOOOOOOOOOOOO++++++OOO+++++++++++++++++++++++++++++++++++%++++%+++++++%%+++%++%++++++%%%%+++++%%+++%++%%++%%%%++++++++%%+++%++%++++++%%%%+++++%%++%%++%++++++%++++++++%%+++++++++++++++++++++++%++++++++++++++++++++++++++++%%++++++++++++++++++++++%%%%++%+++++++++++++++++++++++++%&&%%%++++O+++++%&&%%+OOOOOOOOOOOOOOOOOOOOOOOOOO......OOOO....OO%%%+OO..OO.OOOO++O.OOOOOO..........................OOO.....OO+++OOOOOOO+%&&&&&&%++OOOOOOOO..OOOOOOOOOOOOOO++++++++++&:::&&&&::::&&&&&&&%%&&&&&++++@&&&&&&====;;;==*****=*****@@@@@@@@@$$$$**=;;;==*$$$$$$$@@@@####XX####XXXXXXXXXXXXXXXoooXoXXXXooooooooooooooooooooooooXXXXX#@@@@@@@#####XXXXXXXXXX#@@@@@$$$$*$$$$@@@@#####XXXXXXoooooooooooooooooXXXXoXXooXXXX##@@@@@&$&*****$$@@@@$******=*********$$@@@#####XXXXX#####",
"XXX##@@@@@@@@@##XXXXX.oooo....ooo.XX#######XXXXX##@@@@@#XXX.o.....o..oXXX#@@@@@@@#XXXXXXX###@#+##XXXXXXXXXXXX#@@$$****$@@@@@@$$$@@##XXoooooooooo........o......X...XXXXXXXXXXXXXXXXXXX++++++++%&&&&&&&&&==::::::===:::&&&&&&&&&&@&&*&&&&***=========&&&&&&&&&&&&&&::::&&&&:::==;;==&&&&@&&&@@@@@@@@+++++++++++++++++########+++#########@#@@++@@$$@@@@@@@@@&&$@***@@XXXX.XX...........X.................OOOOOOOOOOOOOOOOOOOOOO+%&%OOOOOOOOOOOOOO+%%%OOOO..OOOOOO++%%%+OOO.........................OOOOOOOOOOOOOOOO++%%%%%%::::%%%+%+++++++++OO+++++OOOOO++++OO++O+++++++++++++++++++++++++++++++++++++++++++++++++++++++%%%%+++++++%++++++++++%+%%%%++++++++%+++++++++++%%+++++++++%++++++++++++%%%%++++++%%++++++++++++%+++++++++++++++%%%%++%+++++++++++++++++++++++++++++++++++++++++++++++++++%%%%%%%%++++++++++++++++++++++++++%%%&&%%%++++++++++%&&%%+++OOOOOOOOOOOOOOOOOOOOOOO...OO....OOOO..OO%%%+OO..OO..OO++OOO.OOOO...........................OOO.....OO+++OOOOOOO+%&&&&&&%++OOOOO....OOOOOOOOOOOOOOO++++++++++&:::&&&&::::&&&&&&&%%&&&&&+++%@&&&&&&::&=;;;==*****==****$@@@@@@@@$$$***==;;==*$$$$$*$@@@@####X####XXXXXXXXXXXXXXXXoooXXXXooooXoooooooooooooooXXXXXXXXX##@@@@@###XXXXXXXXXXXXX#@@@@$$$**$$$$@@@####XXXXXXoooooooooooooooooXXXoooXXXXXXXX##@@@@$$$***********$$$$***************$$@@@@@#####XX#XX######",
"XXX##@@@@@@@@@@#XXXXX...oo....ooX.XXX#@####XXXXX##@@@@@#XXX.o..oo.o..o.XX#@@@@@@@#XXXXXXX+#@@#++XXXXXXXXXXXXX#@@$$****$@@@@@@$$$@@##XXoooooo.ooo........o.....XX...XXXXXXX.XXXXXXXXXXX++++++++@&&&&&&&&&&=::::::====:::====&&&&&@@$$&&&*=&***========&&&&&&&&&&&&&&:::::::::::==:;;==&&&@@@@@@@@@@++++++++++++++++++######++++++###+#####@#@++@@$$@@@@@@@@@&&$$***@@XXXX.X..XX........XX..................OOOOOOOOOOOOOOOOOOOO%%&%OOOOOOOOOOOOOO+%%%OOO...OOOOOO++%%%+OOO..........................OOOOOOOOOOOOOOOOO++%%%%&:::&%%%%%++++++++++++++++++++++++O+++++++++++++++++++++++++++++++++++++++++++++++++%%++++++++%%++++++++++++++++++++++%%++++++++++%++++%+++++%%%++%%+++++%+++++%++++++%%+++%+++++%+++++%+++++%%%++%%+++++%++%+%%%%+++%++++++++++++++%%++++++++++++++++++++++++++++++++++%%%%%%%%++++++++++++++++++++++++++%%%&&%%%++++++++++%&&%%%O+OOOOOOOOOOOOOOOOOOOOOOOOO.OO.O..OOOO.OOO%%%+OO..O..OOO+++O...OOO...................................OO+++OOOOOOO+%&&&&&&%++OOO.O.....OOOOOOOOOOOOO+++++++++++&:::&&&&::::&&&&&&&%%&&&&&++++@&&&&&:::&=;;;==*****==****$@@@@@@@@@$$***=-;;==*$$$$$*$@@@@#########XXXXXXXXXXXXXXXXoooXXXXooooXooooo..oooooooooXXXXXXX#@@@@@####XXXXXXXXXXXX##@@@$$$****$$$$@@#####XXXXXXoooXXoooooooooooXooXXooXXXXXXXX#@@@$$********************==**********$@@@@@############@@@@##",
"XXX##@@@@@@@@@@#XXXXX...oo...oooXXXX##@@###XXXXX##@@@@@#XXXXo..oo.o....XX##@@@@@@@XXXXXXX##@@+++XXXXXXXXXXXXX#@@$$****$@@@@@@$*$@@##XXoooo....oooo.....ooo....XX....XXXX....XXOOXOXXX+++++++++@@&&&&&&&&&=::::::::::::::::==&&&&&&&&&$&&&&&***&=======:&::&&&&&&&&&&&&::::::::::::;;===&&&%@@@@@++++@@@@++++##+++++###++++++++++##++++####++++@@$$@@@@@@@@@&$$$$**@@#XXXOO..XXXXXX..X.......................OOOOOOOOOOOOOOOOOO+%&%+OOOOOOOOOOOOO+%%%OOO.OOOOOOOOO+%%%+OOOOO...........................OOOOOOOOOOOOOO++%%%%%::::%%%%%%%%%++++++++++++++++++++++++++++++++++++++++++++++++++++++++++++++++%+%%%%%%%%%%%%+%++%%%%%%%%%%%%%%%%%%%%+%++%%%%%%+%%%%%%%%%%%%%%%++%%%%%%%%%%%%%%%%%%%%%%%%%%%%%%%%%%%%%%%%%%%%%%%+%+%%%%%+%%%%%%%%++++%%%+++%%++++%%%%%%%%%%%%%%%+++++++++++%%%%%%++++%%+%%%%%%%%%++++++++++++++++++++++++++%%%&&%%%++O+++++++%&&%%%++OOOOOOOOOOOOOOOOOOOOOOOOOOOOOO...OOOOOOO%%%+OO..O..OOO+++O....OOO..................................OO++++OOOOOO+%%&&&&&%++OOOOOOO.OOOOOOOOOOOOOOO++++++++++%&:::&&&&::::&&&&&&&%%&&&&&++@@@&&&&&&::&&;;;==*****=*****$@@@@@@@@@$$***==;;=**$$$$$$$@@##########XXXXXXXXXXXXXXXXXXooXXXXXoXoXXoooo..ooooooooXXXXXXXX@@@@###XXXXXoXXXXXXX#@@@@$$$**$$$$@@@@#####XXXooXXXooooooooooooooooXooXXXooXXXXX##@@$$********************************$@@@@@@#######@@@@@@@@@@@@",
"XXXX#@@@@@@@@@@#XXXXX...oo...oooXXXX##@@###XXXXX##@@@@@#XXX....o .o..oXXX##@@@@@@@XXXXXXX#+#@+++XXXXXXXXXXXXX#@@$$****$@@@@@@$*$@@##XXXooo....ooo....o.ooo....XX....XX......XXXOOOXXX+++X++++++@%&&&&&&&&&:::::::::::&:::=======&&&&@&&&&&&=**&&&=====:=:::&&&&&&&&&&&&&:&::::::::;;;;==&&&@@@++++++@@@@+++@@###+++###+++++++++###++++++##+++++@$$@@@@@@@@@$$$$$**@@#XXXXOX.XXXXOO...........................OOO+OOOOOOOOOOOOO+%&%+OOOOOOOOOOOOO+%%%OOO.OOOOOOOO++%%%%OOOOO.............................OOOOOOOOOOOO++%%%%%&:::&%%%%%%%%%%%+++%%%%%%%%%%%%++++++++++++++++++++++++++++%%%%%++%%%%%%%%%%%%%%%%%%%%%%%%%%%%%%%%%%%%%%%%%%%%%%%%%%%%%%%%%%%%%%%%%%%%%%%%%%%%%%%%%%%%%%%%%%%%%%%%%%%%%%%%%%%%%%%%%%%%%%%%%%%%%%%%%%%%%%%%%%%%%%+++%%%%%%%%%%%%%%%%%%%%%%++%+%%%+++%+++%%%%%%%%%%%%%%%%%%%%%%%%++++++++++++++++++++++++++%%%&&%%%++O+++++++%&&%%%++OOOOOOOOOOOOOOOOOOOOOOOOOOOOOO...OOOOOOO%%%+OO..O..OOO+++O...OOOOO.................................OO++++OOOOOOO%%&&&&&%++OOOOOOOOOOOOOOOOOOOOOOO++++++++++%&:::&&&&::::&&&&&&&%%&&&&@+@@@@&&&&&=::&&;;;==*****==****$@@@@@@@@@$$***==;;=**$$$$$$$@@######X##XXXXXXXXXXXXXXXXXXXoooXXXXXXXoXooooooooooooooXXXXXX#@@@###XXXXXooooXXXX#@@@@@$$****$$@@@@######XXXXXXXXXXooooooooooooooXXXXoXXXoXXXXX@@@$$******************=***********$@@@@@@#########@@@@@@@@@$@@@",
"XXXX#@@@@@@@@@@##XXX........oooo..XXX#@@###XXXX###@@@@@#XXXooooooo....XXX#@@@@@@@##XXXXXXX###+##+XXXXXXXXXXXXX@@@$****$@@@@@@$*$@@@#XXXXooooo..o.....ooooo....oo.XXXXX...XXXXXX...XXXXXX++++++++@&&&&&&&&&:::::::::&&&:::&:=======&&&&&&&&&*==*&&**&======:::&&&&&&&&&&&&&&&&&::=;;;;;;;==&&%%@@@@++@@@@@+++++++#+++++#########+++######+++++@@@$$@@@@@@@@@&*$$$**@@+XXXXXXXOOXX..............................OOOOOOOOOOOOOOO++%%%+OOOOOOOOOOOOO+%%%OOOOOOOOOOOOO+%%%+OOOOOOOO...................OO....OOOOOOOOOOOOOO+++%%%%&:::&&%%%%%%%%%%%%%%%&&&&&&&&&&&&&&&&&&&%%%%%%%+++++++%%&&&&&&&&&&&&&&&&&&&&&&&&::::&&&&&&&&&&&:::&&&&&&&&&&&&&&&&&&&&&&&&:&&&&&&&&&&&&&&&&&&&&&&&&&&&&&&&&&&&&&&&&&&&&:&&:&&&&&&:&&&&&&&&&&&&&&&&&&&&&&&&&&&&&&&&&%%%%%%%%%%%%&&&&&&&&&&&&&&&%&%%%%%%%%%%%%%%%%%%%%%%%%%%%%%%%%%%%%%%%%%%%%%%%%%%%%%%%%%%%&&%%++++++++++%%&&%%+++OO+OOOOOOOOOOOOOOOOOOOOOOOOOOOOOOOOOOOO+%%%+OO....OOOO+++OOO.......................................OO+++OOOOOOO+%%&&&%%%+OOOOO..OOOOOOOOOOOOOOOOOOOO+++++++%&:::&&&&::::&&&&&&&%%&&&&%+++@&&&&&&&=::=;;;==*****=*****@@@@@@@@$$$$$**==;;==*$$$$$$$@@#@######XX#XXXXXXXXXXXXXXXXXXXXXXoooooooXoooooooooooooXXXX######XXXoooXoXXXXX##@@@@$$$$$$$$@@@#####XXXooXXXXooXXXXooooooooooooooooXXooXXXXXX##@@$$******************==********$$@@@@@@########@@@@@********$@@",
".XXX@@@@@@@@@@@@#XXX........oooooXXX##@@###XXXX###@@@@@#XXXoooooo.....XXX#@@@@@@@##XXXXXXX###+##+XXXXXX.XXXXXX@@@$****$@@@@@@$*$@@##XXXXoo.o..oooo.............X..XXXX....XXXX....XXXXXX+++++++++@&&&&&&&&:::::::::::&:::&&========&&&&&&&&&*****&&&*&==&=:::::&&&&&&&&&&&&&&&&:==;;;;;;;==&&%@@@@@@++++++++@@+@##++++####+#####++#+####++++@@@@$$@@@@@@@@@&$$$$**@@+XXXXXXXXXXX................................OOO++OOOOOOOO++%%%+OOOOOOOOOOOOO+%%%OOOOOOOOOOOOO+%%%%OOOOOO....................OO.....OOOOOOOOOOOOOO+++%%%%%&:::::&&&&&&&&&%%%%&&&&&&&&&&&&&&&&&&&&&&&&&%%%%++++%%%&:::::::::::::::::::::::::::::::::::::::::::::::::::::::::::::::::::::::::::::::::::::::::::::::::::::::::::::::::::::::::::::::::::::::::::::::::::::::::::::::::::::::::::::::::::&:&&:::::&&:&&&&&&&&&&&&&&&&&&&&&&&&&&&&&&&&&&&&&&&&&&&&&&%%%%%&&%%+++++++++%%%&&%%+OOOOO+++OOOOOOOOOOOOOOOOOOOOOOOOOOOOOOOOO+%%++OO....OOOO+++OOO.......................................OO+++OOOOOOO+%%&&&&%%+OOOOOOOOOOOOOOOOOOOOOOOOOO++++++++%&:::&&&&::::&&&&&&&%%&&&&%+++%&&&&&&&=:==:;;==*****=*****$@@@@@@@$$$$$**==;;==*$$$$$$$@@@#######XX##XXXXXXXXXXXXXXXXXXXXXoXXooooXXooooooooooXXXXXXXXXXXXXXXoooXXXXXX#@@@@@@$$$$$$@@@#####XXXXXoooXXXXoXXXooooooooooooooooXXoooXXXXXX#@@$$***************==*********$$$@@@@@@#@#######@@@@$**********@@",
"XXXX@@@@@@@@@@@@#XXX....oo..oooo.XXX###@###XXXX###@@@@@#XX.oo.oooo....XXX#@@@@@@@##XXXXXXX+#++##XXXXXXXXXXXXX#@@@$****$@@@@@@$$$@@##XXXXoo....oo ...o....o....XX....X...XXXXXXXX.OOOOOO+O+++++++++++@&&&&&====&::::::::::&&&::::::::===&&&&&&&***=&&*&&*&=======:::&&&&&&&&&&&&&&=======;;;==&&@++@@@++++++++#######+++#++++####++++++###+##@@@@$$@@@@@@@@@&$@$$**@@+XOXOOXXXXX.................................OOO+++OOOOOOOO+%%%+OOOOOOOOOOOOO+%%%OOOOOOOOOOOOO+%%%%OOOO....OO.......................O...OOOOOOOOOOOO++%%%%%&&:::::::::::&%%%%%%%%%%%%%%%%%%%%&&%%%%%%&%++++++++++&&&&&&&&&&&&&&&:::&&&=======================;-------=--;;;;-;=====:&&&&&&&==;;;;=====;;;;;==----====-==============================&&&&&&&&&&&&&&&&&:&::::::::::::&:&&&&:&&&&&&&&&&&&&&&&&&&&&&&::::&&&&&&&&:&::&&&&&&&&::::::::::::::::::&:&&&%%%%&&%%%+++++++++%%&&%%%%%%%%%%%%%%%%%%%%%%%%+%+++++++++++++OOOOO+%%+OOO.O..OOOO+%+OO.......................................OOO++OOOOOOOO+%&&&&%&%+OOOOOOO...OOO.OOOOOOOOOOO+++++++++%&:::&&&&::::&&&&&&&%%&&&&%++@@&&&&&&&====;;;==*****=*****$@@@@@@@@$$$$**==;;=**$$$$$$$@@@######XXX#XXXXXXXXXXXXXXXXXXXXXXoXXXXoooXXoooooooooXXXXXXXXXXXXXXXoooXXXX#@@@@@@$$$$$@@@@#####XXXXXXXooXXXXoXXoXXooooooooooooooXXXXooXXXX##@@$$************************$@@@@@@@@@####@@@@@@@@@************@@@",
"XXXX#@@@@@@@@@@@#XXXooo.oo...oooXXXX###@###XXXXX##@@@@@#XXXo....oo....XXX#@@@@@@@##XXXXXXX++@+###XXXXXXXXXXXX#@@$$****$@@@@@@$$$@@##XXoXooo.o..o .. oo......oo.o........XXXXXXXXX..XOOOOOO++X+++++++++@@&&&&&=&&:::::::::&&&::::::::====&&&&&$$$*&&&***&&&&&====::::&&&&&&&&%%&&&&&=&&=====;==&&&%++@@++++++++++++##+++#++++###+++++++#####@@@@@$$@@@@@@@@&&$@@$**@@+XOOOOO.XXX.O.............OO................OOOO+++OOOOOOO+%%%OOOOOOOOOOOOOO+%%+OOOOOOOOOOOO++%%%%OOOO..O..............................OOOOOOOOOOOOO++%%%%%%&&&&&&&::&&%%%%%%%%%%%%%%%%%%%%+%%%%%%%%%%&&&&&&&&&&&=====::======;;;;;:;;;;;;;;;;;;;;;;;;;;;;;;-;;;;---;;;;;;;;;;;;;;:&%%%%%&;;;;;;;;;;;;;;;;;;;;;;;;;;;;;;;;;-;;;;;;;;;;;;;;;;;;;;;;;;;;;;;=======:&&&&&&&&&&&&&&&&&&&&&&&&&&&&&&&&&&&&&&&&&&&&&%%%%%%%%%%%%%&&&&&&&&%&%%%%%%%%&%%%%%%%%%%%%%%%%%%%%&&&%%%++++++++%%%&&&%%&&&&&&&&&&&&&&&&%%%%%%%%%%%%++%%%+++++OOO+%%+OOOOO.OOOOO+%+O.........................................OOOOOOOOOOO++%&&&&&&%++OOOO....OOOO.OOOOOOOOOOO+++++++++%&:::&&&&::::&&&&&&&%%&&&&%+++@&&&&&&&=====;;==****===****$@@@@@@@@$$$$**==;;=**$$$$$$$@@@######XXX##XXXXXXXXXXXXXXXXXXXXXoXXXXooXXXoooooooooXXXXXXXXXXXXXXXXXXXX##@@@@@@$$$$@@@@######XXXXooXXooXXXXooXXXXoXXXooXXXXooooXXXXooXXXX##@@$**********===**==******$$@@@@@@@@#####@##@@@@@@*************@@@",
".XXX@@@@@@$@@@@@#XXXooooo  o....oXXX##@@###XXXXX##@@@@@#XXX.....o......XX#@@@@@@@##XXXXXX#+@@####XXXXXXXXXXXX#@@$$****$@@@@@@@$$@@##XXoo....o.o.  ..............oo....oo..XXXXXX..XX.OOXOXX++++++++++++@@@@&*===&&::::::::&&&&::&:========&&&&&&&&&****&****======:::&&&&&&&&&&&&&&&&&&&===;;;==&&@@+++@++@@+++++++##++#++####+++++++++####@@@@@$$@@@@@@@@@&&&@$**@@+XXXOOXXXX..XXXX............OO......O.......OOOOOO++OOOOO++%%%+OOOOOOOOOOOOO+%%%OOOOOOOOOOOO++%%%%OOO....................................OOOOOOOOO++O++++++%%%%%%%%%%%%%%%%++++%%%%%%%++&=======------------------------------;;;;;;;;;;------------------------------------------;$%%%%+=---------------------------------------------------------------------------==**=======;;;;;;;;;;;;=----===========**$$$$@@++++++++++++++++++++++++++%%%%%%%+++++++%%+++%&&&%%+++O+++++++%&:&%%%%%%%%%%%%%%%%%%%%%%%%%%++++++++++++OOOO++%%+OOOOOOOOOOO+%+O.....................................OOO..OOOOOOOOOOO+%&&&&&&%++OOO.....OOOOOOOOOOOOOOOO+++++++++%&:::&&&&::::&&&&&&&%%&&&&@+++%@&&&&&&::&&=;;==****==*****$@@@@@@@@@$$$**==;;=**$$$$$$$@@@#######XXXXXXXXXXXXXXXXXXXXXXXXXXXXXXXXXXXoooooXoooooXXXXXXXXXXXXXXXX#@@@@@$$$$$$@@@@####XXXXXXoooooXooXXoXXXXXXoXooooXXXooooXXXXXoooXXXX##@@**********=====******$$@@@@@@@@#######@@@@@@***************@$@@@",
"XXXX@@@@@$$@@@@@#XXXooooo oo....XXXX##@@###XXXXX##@@@@@#XXX.....oo.....XX#@@@@@@@##XXXXXX##@#####XXXXXXXXXXXXX@@@$*****@@@@@@@$$@@##XXXooo.oo.o    ooo.  o......o....o.......X..X..X.XXXXXXOOO++#++++++++@@%&&&&&&&&&:::::::&&::&&=:==::====&&&&&&&&*********=&===:::&&&&&&&&&&&&&&&%&&&&&===;;;==*&%++@+++@++++++++#+##++##+#++++++++#+++#@+@@@$$@@@@@@@@@&&&@$**@@+XXXOOXXXX..XXX...OO......OOOOOOO..OOOOOOOOOOOOOOOOOOOOOO++%%%+OOOOOOOOOOOOO+%%%OOOOOOOOOOOOO+%%%%OOOO......................OOO.............OOOOOO++++++%&&&&&&&%%%%%%%%%++++++%%+%%%%+%=;;;;;;;;;;;-------------------------===========------------------------------------------;@%%%%&=--------------------------------------------------------------------------;-;-=@++++@@&$*======---;;;;---;;;;;;;;-;;;;;;;;;;;;====:::&&&&&&&&&%%%++++%%%%+++++++++%%%%%%&:&%%++++++++++%&&&&%%%%%%%%++++++++%%%%%%%%%++OOOOOOOOOOOOOOO++%%+OOOOOOOOOOO+%+O....................................OOOO..OOOOOOOOOOO+%&&&&&&%++OOOO....OOOOOOOOOOOOOOOO++++++++++&:::&&&&::::&&&&&&&%%&&&&@+++@&&&&&&&::&&=;;==*****=*****$@@@@@@@@@$$$**==;;=**$$$$$$$@@@#######XXXXXXXXXXXXXXXXXXXXXXXXXoooXXoXXXXooooXooooXXXXXXXX##########@@@@@$$$$$@@@@#####XXXXXoooooooXooXXooXoXXXoooXoooXXooooXXXXXXooXXXX##@@********======******$@@@@@@@@#######@@@@@@$***************@@@@@@",
"XXXX#@@@@$$@@@@@XXXXo.....oo....oXXX##@@###XXXX##@@@@@@#XXX...oo........X#@@@@@@@@#XXXXXX##@#+++#XXXXXXXXXXXXX@@$$*****@@@@@@@*$@@@#XXXXooooo       ...    ......ooo.........X....X.XXXXXXXXOO++X+++++++++++@@&&$&&&==&&&:::&&&&&&::::::====:&=&&&&&&*****&&&&&&====::&&&&:::::&&&&&&&&&&&&&====;;==&&@@++@@@@++++++###++###++++++++####+++++@@@$$@@@@@@@@@&$$@$**@@++XXOXXXXO..XXX..OOOOO...OOOOO++OOOOOOOOOOOO++++OOOOOOOOOO+%%%+OOOOOOOOOOOOO+%%%OOOOOOOOOOOOO+%&%%OOO.......OO..............oXXoXXX####@@$$$$$=========----;;;;&%%%%%%%%++++++++++++++++------------------------------------*@++++++++++&&&&&&&&&&========;;;;=-;;;;-;;;---;------=@++++@=--------------------------------------------------------------------------------=@+OOOOO+++++++%&&&=====;;---------------------------------------=+OOO+O+++++++++++++++%&&&&++++++++++@@&&&&%++++++++OOOOOOO+++++%%%+OOOOOOOOOOOOOOOOOO+%%++OO.O..OOOO+%++OO....................................OO.OOOOOOOOOOO++%%&&&&%%+OOOOO.O.OOOOOOOOOOOOOOOOOO++++++++%&:::&&&&::::&&&&&&&%%&&&&@+++@@&&&&&&::&&;;;=******=****$@@@@@@@@@@$$$**==;;=**$$$$$$$@@#########XXXXXXXXXXXXXXXXXXXXXXXXoooooooXXooooooooooXXXXXX##@@@@@@@@@@@@$$$$$$@@@@###XXXXXXXXXoooooooooXXXXoXXXXXXooooooXXooXXXXXXXXXXXXXX##@@$****=====*********@@@@@#########@@@@@@@***************$@@@@$@@@",
"X.XX@@@@@@@@@@@@#XXX...........oXXXX##@@@##XXXXX#@@@@@@#XXX.o..o.......XX#@@@@@@@@#XXXXXX##@#++##XXXXXXXXXXXXX@@$$*****$@@@@@$*$@@@#XXXX.o.oo        ...   o......oo..........X....XXXXXXXXXOOXXXX++++++++@+@+@&@@&&&&&&&::&&&&&&&::::::====::====&&&&&&&&&&&&&&&====:::::&:::::&&&&&&&&%%&&&&====;;=&&&@+@@@+++++++##+++###++++#++#####++++++@@$$@@@@@@@@@$$$$$**@@+XXXOOXXOO..XX.OOOOOOOO..OOOOOO++++OOOOOOO++O+++++OOOOOOOO++%%+OOOOOOOOOOOOO%%%%OOOOOOOOOOOO++%&&%OOOO......OO......OO.....+======--------------------;--;;;;;:&+++%%%+++++O+++++++++++&-;----------------------------------@+++++++++++++++++++++++++@@@@@@@@@$$$$$**======------$#++++$;----------------------------------------------------------------------------------=+OOOO++OOOOOO++++@@@@@@$$$==-----------------------------------%OO++++++++++++++++%&&::::&&====;==;;;;;::::====&&&&++++++++++%%%%+O+OOOOOOOOOOOOOOOO+%%++OO.O..OOOO+%++O.....................................OOOOOOOOOOOOOO++%%&&&%%%+OOOOOOOOOOOOOOOOOOOOOOOOO+++++++++%&:::&&&&::::&&&&&&&%%&&&&@+++%@&&&&&&::&&;;;=******=****$@@@@@@@@@$$$$**==;;=**$$$$$$$@@##########XXXX#XXXXXXXXXXXXXXXXXXXXooXooXoooooooooooXXXXXXX##@@@@@@@@@$$$$$$$@@@#####XXXXXXXXXooooooooooooXXXXXXXXXXooXXXXXXXXXXXXXXXXXXXX##@@$****===*******$$@@@@@########@@@@@@@@@$**************$@@@@@****",
"X.XX#@@@@@@@@@@@#XX........o...oXXXX##@@###XXXX##@@@@@##XXX...oo.......XX#@@@@@@@@#XXXXXXX#@@#+##XXXXXXXXXXXXX@@$$****$@@@@@$**$@@@#XXXXXoooo oo .oo      ooo...........o..............XXXXXXXXXOOX++++++++++@@@@@@&&&&&&==&&&&&&&&&&&::::::::=====&&&&&&&******&&&====::::&::::::&&&&&&&@@@&&&==;;;====&&@+++++++@@@@+++++##+++#######+++++++@@$$&@@@@@@@&&$$@$**@@+XXXXXXXOOXX.OOOOOOOOOXOOOOO.OOO++++++OOOOO+O+++++++OOOOOO+%&%+OOOOOOOOOOOOO%%%%OOOO.......OO++%@+XXXXX#####@@$@$$$==@O...#=--------------------------------;;&++++%++++++++OOOOO++O+O@=-----------------------------------=++++++++++++++++++++++++++++++++++++++++++++++++&&&&&&&+++++=------------------------------------------------------------------------------------=@O+O+++++++++++++++++++++++++%&&&&====;;;;;;;;----------------&O+++OXX#@@@@@$$*====-----------------------------------===$$$$$&@XXOOOO...OOOOOOOOOO+%%%OO......OO++%+OOO.....................................OOOOOOOOOOOOO++%%&&&%%%++OOOOOOOO.OOOOOOOOOOOOOO++++++++++%&:::&&&&::::&&&&&&&%%&&&&&+++@&&&&&&&::&&:;;=******=****$@@@@@@@@@@$$$**==;;=**$$$$$$$@@######XXXX#XXXXXXXXXXXXXXXXXXXXXXXXoooooooXXoooXXXooooXXXX####@@@@@@$$$$$$@@@####XXXXoXooooooooXooooXXXXXXXXXXXXXXXXXXXXXooooXXXXXXXXXXXXX##@@$***********$@@@@@@########@@@@@@@***************$$$@$$$$*******",
"XXXX#@@@@@@@@@@@#XXX.......o..ooXXXX##@@###XXXX##@@@@@##XX....oooo....XXX#@@@@@@@@#XXXXXX##@@@###XXXXXXXXXXXXX@@$$****$@@@@@@***@@@@XXXXXoooo oo ..    .  ..o..........................XXXXXXOXXOOXXX++++++++@+@+@%%@&&&&&&&&&&&&&&&&&&&::::::=======&&&&&&&**&&&&*&==&=:::&&&:::::::&&&&&@@@@&&&====;;==&&@@+++++@+++++++++#+++#######+++++++@@$$$@@@@@@@&&$$@$**@@++XXXXXXOOOXOOOOOOOOOOOOO.O.OOO+++++++++++++OO++++++OOOOOO+%&%++OOOOOOOOOOOO+%%%OOOOOOO+++++&&&=========--;;;;-------@....$---------------------------------;=&++++++++++OOOOOOOOO+O++$;-----------------------------------*++++++OO++++++++++++++++++++O+++++++++++OOO+++++++++++++++++=-------------------------------------------------------------------------------------=&+O++++++OO++++++OOOOOO++++++OO++++###@@@$*==----------------&+++++&==;;;;;;;;;;;-------------------------------------;;;;;;;;==&++OO...OOOOOOOOOO+&%++OOOO..OOOO++++.......................................OOOOOOOOOOOOO++%%&&%%%%++OOOOOOOOOOOOOOOOOOOOOOO++++++++++%&:::&&&&::::&&&&&&&%%&&&&%+++@&&&&&&&:::&=;;=******=****$@@@@@@@@@@$$$**==;;=**$$$$$$$@@@#####XXX##XXXXXXXXXXXXXXXXXXXXXXXXXXoooXXXXooooXooXooXXXX####@@@@$$$$$$@@@####XXXXXooooooooooooooooXXXXXXXXoXXXXXXXXXXXooooXXXXXXXXoXXXXX##@@***********$@@@@@@####@@#@@@@@@@*************$$$@@@@@$$$***=====",
"XXXX#@@@@$$$@@@@XXX.X..o..o.ooooXXXX##@@###XXXX##@@@@@##XXXo....oo...oXXX#@@@@@@@@#XXXXXXX#@@@@##+XXXXXXXXXXXX@@$$****$@@@@@@***@@@@#XXXXoooo          .  ... . .................XXX......XX.XOOOOXXXX++++++++++++@@@@@@@&&&&&&&&&&&&&&&&&&&::::==:=::==&&&&&&&&*&&&&&======&&&&&&::::&&&&&&%%%%&&&&========&@++++++++++++####++++#####+##++++@@$$$@@@@@@@&&$$@$**@@+XOOXXOXOOXXXXOOOOX.XXXXOOOOOOOOOOO++++OOOOOOOOOO++++OOO.O+++++OO.XXoXXX####@$$$$$$**===----------------------------=#...+----------------------------------;=+++++++++OOOOOOOOOOOOOO+=------------------------------------@O++++OOO+O++OO+++++++OOO++++OO+OO+++++O+++++++++++++++OOOO+&----------------------------------------------------------------------------------------$#OO+OOOOOOOOOOOOOOOOOOOOOOOOOOOOOOOOOOO++++%%&&&&====;;;;;;=+O+++=;--------------------------------------------------------------=$@###XXXXO.OO++&&++...OOOOOO++%%+OO.....................................OOOOOOOOOOOOO++%%&&%%%%++OOOOOOOOOOOOOOOOOOOOOO+++++++++++%&:::&&&:::::&&&&&&&%%&&&&%+++@&&&&&&&:::=;;;==*****=****$@@@@@@@@@@$$$**==;;=**$$$$$$$@@######XX####XXXXXXXXXXXXXXXXXXXXXXXXoXoooXooooooooooooXXXX##@@@@$$$$$$@@@####XXXXXooooooooooooooooooooooXXooooXooXXXXXXXXXoooXoXXXXXXXXXXX#@@@$*******@@@@@@#######@@@@@@@@**********$$$$$$$@@@@@@@$***=======",
"..XX#@@@@$$$@@@@XXX.X.oo.oo.ooooXXXX##@@###XXXX##@@@@@##XX.o...ooo...oXXX#@@@@@@@@#XXXXXXX#@@@@#++XXXXXXXXXXXX@@$$****$@@@@@@***@@@@#XXXXX.oo         ..   o   .................XX........XXXXOOOOXXXX+++++++++++++@@++%@@@$$&&&&&&&&&&&&&&&&&::==::::==&&&&&&&&&&&&&&&&&====&&&&&&&::::&&&&&&&%%@&&&&===;;===&&@++++@@+++####++++++#@#+##++++@@$$$@@@@@@@&&&$@$**@@++OOXXXOOO.XXOOOOOOXOX..OOOOOOOOOO+++OOOOOOOOO++++&&&&&@@&&&&&&&&@&&$$=======;;;------------------------------------@X...@----------------------------------=$+++++O++OOOOOOOOOOOOOOO&------------------------------------=#OO++++++O++++O++O+++OOOO++++OOO+OOO++++OO+++++++++++++OO+++&----------------------------------------------------------------------------------------=@+OOOOOOOOOOOOOOOOOOOOOOOOOOOOOOOOOOO++++++++++++++@@@$*===&+++++$--------------------------------------------------------------------===&&&&&%++&&++OOOOOOOOO+%%%+OOO....................................OOOOOOOOOOOOO++%%&&%%%%++OOOOOOOOOOOOOOOOOOOOOO++OO+++++++%&:::&&&:::::&&&&&&&%%&&&&&+++%@&&&&&&::==;;;==*****=****$@@@@@@@@@@$$$**==;;=**$$$$$$$@@######XX####XXXXXXXXXXXXXXXXXXXXXXXXoooooXoooooooooooXXXX#@@@@$$$$$@@@@#####XXXXXXoooooooooooooooooooooXoooooooooooooXXXXXooXXXXXXXXXXXX#X@@@@***$*$@@@@@@######@@@@@@@@@$**********$$$$$$@@@@@@$$**==========",
"XXXX#@@@@@$$@@@@#XXXX.oooooo.....XXX##@@@##XXXX##@@@@@@#XXXo...o.......XX#@@@@@@@@#XXXXXXX+@@@###+XXXXXXXXXXXX@@$$******@@@@@***$@@@##XXXXo.        ...        o.. .............XX........XXXX...OXXOO++XX+++++++++@@@++@@@@@@&&&===&&&&&&&&&&&&::::====::=&&&&&&===&&&&====;::&&&&&&&::::&&&&&%%%%%%&&=====;===&@@+@@++++#####+++####++##+++@@@$$&@@@@@@@@&&$$$**@@+XXXXOOOOXXXXXOOOOXXOO..OOOOOOOOXXXXoXX#@@$==-------------------------------;;;;-----------------------------------=+.O.X=----------------------------------=+OO+++OOOOOOOOOOOOOOOOOX*------------------------------------&+OOOOOOOOOO++OOO++++++++++++++++++++++++OOOO++++++++++O+O+O#=-----------------------------------------------------------------------------------------=+OOOOOOOOOOOOOOOOOOOOOOOOOOOOOOOOOOOOOO++%%+++++++OOO+OO++++++++@=----------------------------------------------------------------------======:=;====$$@@##XX#++++..........OO..........................OOOOOOOOOOOOOO++%%&&%%%%++OOOOOOOOOOOOOOOOOOOOOO++O++++++++%&:::&&&&::::&&&&&&&%&&&&&@+++@&&&&&&&=&&=;;;=******=****@@@@@@@@@@@$$$**==;;=**$$$$$$$@@@#####X####XXXXXXXXXXXXXXXXXXXXXXXXXoooooooXXXXXoooooXXX##@@@@@@@@@@@##XXXXXXXoooooooooooooooooooooooooooooooooooXoooXXooooXXXXXXXXXXXXX##@@@@@$@@@@@@@##########@@@@@************$$$$$$@@$$$$$****=======;;;;",
"XXX#@@@@@@$$@@@@#XXXXX....oo.....XXX##@@@##XXXXX#@@@@@@#XXXo...o.......XX#@@@@@@@@#XXXXXX++@@@#+++XXXXXXXXXXXX@@$$******@@@@@***$$@@@##XXX.o..      .              . ........ooX.X..XXXX..XXXX....XXOOOXXX+++++++++@++++@@@@@@@@&&&&&&&&&&&&&&&&&&::====:::==&&&&&&&&&&=====:::==&&&&&&&&:::&&&&%%%+++@&&&&==;;===&@@+++++####++++####++##++@@@@@$&@@@@@@@@&&$@$**@@+#XXOOOOXXXXXXOOOOXXOOOOXXXXOOO++@@$$===-;;;------------------------------===-------------=---------------========$@....@-----------------------------------@X+O++O+OOOOOOOOOOOOOOOO@=-----------------------------------=+OOOOOOOO+O+++OO++++++++OO++++OOOO+OOO++OOOOOO+++++++++++O++@=------------------------------------------------------------------------------------------&+OOOOOOOOOOOOOOOOOOOOOOOOOOOOOOOOOOOOO++%++++OOOO+O+OOOOOOOOO++@=------------------------------------------------------------------------=$##&&=;;-------=====&&&+++...................................OOOOOOOOOOOOOO++%%&&%%%%++OOOOOOOOOOOOOOOOOOOOOO++O++++++++%&:::&&&&::::&&&&&&&%&&&&&%+++@&&&&&&&=&&=;;;=******=****@@@@@@@@@@@$$$**==;;=**$$$$$$$@@@##########XXXXXXXXXXXXXXXXXXXXXXXXXooooooooXXXXooooXXXX#@@@@@@@@@####XXXXoXoXoooooooooooooooooooooooooXooooooooooooooooXXXXXXXXXXXXXXXX#@@@@@@@@@@@@@#######@@@@@@************$$$$@@@@@@$$$$***========;;;;;;",
"X.X#@@@@@@@@@@@@#XXX......oo....XXXX##@@@##XXXX#@@@@@@@#XXX...oooo.....XX#@@@@@@@@#XXXXXX++@@@#+++XXXXXXXXXXX+@@$$*****$@@@@@$***$@@@@##XXooo.o ..       .    ..   ...o.o...........XXXX...XXXX.XXXX.OOXXXXX+++++++++++++++++++@@@$**=======&&&&&&&&&=::::======&&&&&&&============*&&&&&&&&==&&&&%%%+++@&&&&======&@++++@@@#@++++##++++#+++@@@@@&@@@@@@@@&&$$@$**$@##XXXXOOOOXXXXOOOOXOOOOXXXXX#@$==-------------------------------------=@+#++&&&&+++++++++++++++%%+++++++++++O.OO.O..OO.+=----------------------------------=+OOO++O+OOOOOOOOOOOOOOO+$------------------------------------$++++O+++++++++++O+++++++++++++++++++++++++++OO++++OOOOO+++O+$-------------------------------------------------------------------------------------------$#OOOOOOOOOOOOOOOOOOOOOOOOOOOOOOOOOOOOO++%+++O++OOOOOOOOOO+OO+O+@=--------------------------------------------------------------------------=@#@&&&%@$===---;;;;-----==$$$###XXXoooooo..................OOOOOOOOOOOOOO++%%&&%%%%++OOOOOOOOOOOOOOOOOOOOOOO+O+++++++%%&:::&&&&:::&&&&&:&&%%&&&&%+++@&&&&&&&=&&&=;;=******=****@@@@@@@@@@@$$$$*==;;=**$$$$$$$@@@##########XXXXXXXXXXXXXXXXXXXXXXXXXXXXXoooXXXooooooXXX###@@######XXXXXXXoooooooooooooooooooooooooooooooXoooooooXXXXoooooXXXXXXXXXXXXXXX#@@@@@@@@@@@######@@@@@@@*************$$$$$@@@@$$$***=======;;=;;;;;;;",
"XXXX@@@@@@@@@@@@#XX............oXXXX##@@@##XXXXX@@@@@@@#XXX...oooo.....XX#@@@@@@@@#XXXXXXX#+@@@@#+XXXXXXXXXXX#@@@$****$@@@@@@$****@@@@##XXoooo. ...         . ..     ..oo.X........XXXX......X..XXXXXX.OOOXXXX++++++++++++++++@@@@@@&&&&*=&&&&&&&&&&&&&:::========&&&&&&=============&&&&&&&&&&&&&&&&%++++%%&&&&&==&@@+++@++###+++##++++#+++@@@@@&@@@@@@@@@@$$@$**$@##XXXXX+++++XXOOOOXOOXXX#@@===---------------------------------------=@#XXOO+&&%+OOO...OOOOOO++%%+++OOOO.O.OO........Oo@-----------------------------------$+OOO++O+OOOOOOOOOOOOOOO+=------------------------------------@++++++++++++++++++++%%%%%%%%%%&&&&&&&&&&&%++%%%%%%&&&%++++O+*;------------------------------------------------------------------------------------------=#OOOOOOOOOOOOOOOOOOOOOOOOOOOOOOOOOOOOO++%++++++OOOOOOOOOOOOOOO++&----------------------------------------------------------------------------==&&+X.XX##@@$==---------------====$@@#XXX................OOOOO.OOOOOOOO++%%&&%%%%++OOOOOOOOOOOOOOOOOOOOOOOO++++++++%%&:::&&&&:::&&&&&&&&%&&&&&%+++@&&&&&&&=:&&=;;=******=****$@@@@@@@@@@$$$$*==;;=**$$$$$$$@@@#####X#####XXXXXXXXXXXXXXXXXXXXXXXXXXXXooXXXXooooooXX###########XXXXXXXooooooooooooooooooooooooooooooooooooooooXXXXXooooXXXXXXXXXXXXX###@@@@@@@@@@######@@@@@$*************$$@@$$$@$$$$***======;=;;;=;;;;===",
"X.XX@@@@@@$$@@@@#XXX.....o..ooo.XXXX##@@###XXXX##@@@@@@#XX.....o.oo....XX#@@@@@@@@#XXXXXX++@@@@##XXXXXXXXXXXX#@@$$*****$@@@@@*****@@@@##XXXX... o.       .     .o... ..ooo.........X.......XX...XX...OOOOOOOO+X+X+++++++++++++@@@@@@@@$&**======&&&&&&&&::======;=====&&===============&$&@&&&&&&=:&&&&@++++@@@%@@&@@@@+@+@###++####++++++##+++@@$@@@@@@@@@&&$@@**$@##+X#XXXXXOX++++XXXX##@$=-------------------------------------------=@++O+O+%&&&++OOOOOOOOOO+++%&%++OOOOOOOOOO.OOOOOOO#=----------------------------------=@OOO++OOOOOOOOOOOOOOOOOX@-------------------------------------=$$$**===----------------------------------------------+O++++=-------------------------------------------------------------------------------------------=$@@@@@@##@########XXXXXXXXXOOO...OOOO++%%+++++OOOOOOOOOO+OOO+OO+&----------------------------------------------------------------------------;-=&+OOO.OOOOO+%&&&&===-------------------*$$$@###ooooo ..OOOOOOOOOOOOOO++%%&&&%%+++OOOOOOOOOOOO....OOOOOOOO++++++++%%&:::&&&&::::&&&&&&&%%&&&&%+++@&&&&&&&=:&&:;;=******=****$@@@@@@@@@@@$$**==;;=**$$@$$*$@@#@#######XXX#XXXXXXXXXXXXXXXXXXXXXXXXXXXXXooXXXoooXXXXX#####XXXXXXXoooooooooooooooooooooooooooooooooooooooooooooXoooooXXXXXXXXXXXXXXXX###@@@@@@@@@@@@@@@@@@$**************$$$@@@@@$$$***========;==;;;;;;-====",
".XXX@@@@@@$$@@@@#XXX......o..oo.XXXX##@@###XXXX##@@@@@@#XX.......o.....XX#@@@@@@@@#XXXXXX+#@@@@##XXX.XXXXXXXX#@@$$*****$@@@@@*****$@@@##XXXXXo. o.             .o.  ...oooo.......XXXXXX..XX.X.XXX....OOOOOOOOXXO+++X+++++++++@@@+@@+@@@$&*&======&&&&&&&&&============:================**&&&&&&&&&=:=&&&%++++++++@@@@+@####@#++++++++++++#++++@$$@@@@@@@@@@&&$$$*$@@#++##@@@@++++++X#@$==---------------------------------------------=@XOOO+O+%%&%++OOOOOOOOOOO++%&%+OOOOOOOOOOO..OOOOOO@=----------------------------------$#OOOOOOOOOOOOOOOOOOOOOO#=-------------------------------------------------------------------------------------------=+++++%----------------------------------------------------------------------------------------------;------============*$&&&&@@@++++++++++%%+++++++++++OOOOOOOOOOO++=-----------------------------------------------------------------------------=&+OOOOOOOOO++++++XX#@$$==----------------------===$$@+.OOOOOO.OOOOO++++%%&&&%%++OOOOOOOOOOOOOOO.OOOOOOOOO++O+++++%%&:::&&&&::::&&&&&&&%%&&&&@+++@&&&&&&&=:&&=;;=******=****$@@@@@@@@@@@$$**==;;==*$$@$$*$@@########XXXX#XXXXXXXXXXXXXXXXXXXXXXXXXXoooooXoooooXXXX#####XXXXXooooooooooooooooooooooooooooooooooooooXXooooooooooooooXXXXXXXXXXXXXX#X###@@@@@@@@@@@@@@@@**************$$@$$@@@@$$***=======;;=;;;;;;;;=======",
"..XX@@@@@@@@@@@@#XX.....oo.ooo...XXX##@@@##XXXX##@@@@@@#XX............XX##@@@@@@@@#XXXXXX##@@@+##XXXXXXXXXXXX#@@$$****$$@@@@@******@@@##XXXXXo..               .o.o.......oooo.....XXXXX..XXXX..XX..XXX.OOXXXXXXOOO+XXXXX+++++@@@@++++@@@$&&&&======&&&&&&&&&&&:==:;;:::==================*$@@&&&&&&====&&&+++++++++++++++++++++@@##+++++++++++@$$@@@@@@@@@@@@@@***$$$$$====$@++###@$=------------------------------------------------=@+OOOO+O+%%&&%+OOOOOOOOOO+++%&%+OOOOOOOOOOO..OOOOX#*----------------------------------=+OOOOOO++OOOOOOOOOOOOOOO@=------------------------------------=====--------------------------------------------------=+++++&---------------------------------------------------------------------------------------------====---------------------------------======**$$$$$$$$$$@@@@+OO+++=------------------------------------------------------------------------------=+OOOOOOO++%%%%++OOO.OOO+#@$===-----------------------$XXO+@@@@##XXXX+++&&&&%+++OOOOO..OOOOOOOOOOOOOOOOOO++++++++%%&::&&&&&::::&&&&&&&%%&&&&&+++&&&&&&&&==:=;;;=******=****$@@@@@@@@@@@$$**==;;==*$$@@$$$@@#######XXXXXXXXXXXXXXXXXXXXXXXXXXXXXXXXoooooXXooooXoXX###XXXXXXoooooooooooooooooooooooooooXXXoooooooooooooXXXXoooooXXXXXXXXXXXXXXXX######@@@@@@@@@@@@@**************$$@@@@$$$$$$****=======;;;;;;;;;;;======**",
"X.XX@@@@@@@@@@@@#XX......ooo.....XX###@@@##XXXX#@@@@@@@#XX............XX##@@@@@@@@#XXXXXX##@@@@++XXXXXXXXXXXX#@@$$****$$@@@@@*******@@@#XXXXXoooo               o..o. ......ooo.......XX..XXXXXXXXXXXXXXXXXXXXXXOXOOXXXXXXX++++#++++++@@@@%&&&*=====&=&&&&&&&&&&=::=::::====&==&===========*$@&&&&&&&&&=:=&&&@+++++++++++++++++++++++++++++@@@@@$$$@@@@@$$**====---------=*@XXXX@$=---------------------------------------------------$#OOOOOOOO%%&&%+OOOOOOOOOO+++&&&++OOOOOOOOOO..OOOOX@=----------------------------------$++OOOOOO+OOOOOOOOOOOOOOO*;-----------------------------------=####@@$$$$$$$$$====------------------------------------*+O+++&---------------------------------------------------------------------------------------------$#oX###@$$*==--------------------------------------------;;&+O+O+$-------------------------------------------------------------------------------=+OOOOOO++%%%%++OO...... ooooo#@$$=-------------------#X..@=---===&@@@&&&&&%+++OOOOOOOOOOOOOOOOOOOOOOOOOO+++++++%%&::&&&&&::::&&&&&&&%%&&&&&%+@&&&&&&&&=:==;;;=******=****$@@@@@@@@@@@$$**==;;==*$$@@$$$@@######XXXXXXXXXXXXXXXXXXXXXXXXXXXXXXXXXooooXXXooooooXXXXXXXXXXoooooooooooooooooooooooooooXXXXXooooXXXXXXXXXXXXXoXXXXXXXXXXXXXXXXXXX#######@@@@@@@@@@$*************$$@@@@@@$$*****=======;;;;;;;;;;==;======***",
"XXXX#@@@@@@@@@@@XXX.X......oo....XX###@@@##XXXX#@@@@@@@#XX....o...o..oXX#@@@@@@@@@#XXXXXX##@@@++++XXXXXXXXXXX#@@$$*****$@@@@********@@@#XXXXXXoo.o                 .    ..oo...o.......X...XXXXXXXXXXXX.XXXXXXOXXXXXXXXXOOOOX+++++++@@@@+@++@@@$*=======:&&&&&&&&&==:::::==&==&&&&&&$*======*&&@&&&&&&&&====&&&@&%%++++++++++++@##@@####@@@@#@@@@$$$$*==---------------=$@XXX#@*-----------------------------------------------------$++++OOOOO+%%&&+OOO+++++++++++&&&+OOOXXXXXXXXOOOOOO#=----------------------------------=@OOOOOOOO++++++OOOOOOOOO+=-----------------------------------;$+OOOOO++++++O++%%&&&&&&&&&&:&&::::::===;;;;;;;;;;;;;;;;&%%%%@=------------------------------------------;;;;-----------------------------------------------=OOOOOOOOOOO++++@$$====------------------------------------=#OO++$=-------------------------------------------------------------------------------$#XOOOO++%%%%++OOO................X@@$===------------@XO.X=-----------====*$@##XXoooXXX...OOOOOOOOOOOOOO++++++%%%&:::&&&&::::&&&&&&&%%&&&&&@+%&*&&&&&&&&&=;;;=***********$@@@@@@@@@@@$$**==;;=**$$$@$*$@@######XXXXXXXXXXXXXXXXXXXXXXXXXXXXXXXXXXooooooooooooXXXXXXXXXooooooooooooooooooooooooooooXXXXXXXXXXXXXXXXXXXXXXXXXXXXXXXXXXXXXXXXXXX#####@@@@@@@@@@*************$$$$$$@@$$****========;;;;;;;;;;;=========****",
"XXXX#@@@@@@@@@@@XXX.X............XX##@@@@##XXXX#@@@@@@@#XX....oo.....oXX#@@@@@@@@@#XXXXXX##@@@+++XXXXXXXXXXXX#@@$$*****$@@@@********@@@#XXXXXXoooo                 . .. ..oo..............XXXXXX#XXXXX.X..XX.XXXXXXXXXXXOOOOXXX++++++@@@++++@@@@$**===&&:::&&&&&&&&&&:=========&&&&&@@**=====*$@&@@@%%%&&&======&&&@++@@++++++##@+#@####@@@@$*===--------------------=$##XXX@==;----------------------------------------------------*#++++OOOO++%%&%++OOO++++++++++%&&+++++##@@@@@++OOOO@-----------------------------------=#OOOOOOO+++++++++OO++++O&------------------------------------=@+OOOOOOOOO++++++%&&&&&&&&&&&&&&&&&&&===================&%%%%$=-------------------------------------===============-----------------------------------------=OOOOOOOOOOO.....oXXX###@@$*==-----------------------------=@OO++@=------------------------------------------------------------------------------;-&#OOOO++%%%%%+OOO................ oooooo##$$=-------=#X.o$------------;;;;;;-===$@@@++..O.OOOOOOOOOOOOO+++++++%%&:::&&&&::::&&&&&&&%%&&&&&++@&*&&&&&&&&&=:;;=***********$@@@@@@@@@@@$$**=;;;=**$$@@$$$@@########XX#XXXXXXXXXXXXXXXXXXXXXXXXXXXXooXooooooooooXXXXoooooXXXXoooooooXooooooooooooooooXXXXXXXXXXXXXXXXXXXXXXXXXXXXXXXXXXXXXXXXXXX######@@@@@@@@************$@@$$$$$$*****=======;;;;;;;;;;=;;=========*****",
"XXXX#@@@@$@@@@@@#XXXXo..........XXX##@@@@##XXXX##@@@@@@#XXX...oo.o....XX#@@@@@@@@@#XXXXXX++@@@@++XXXXXXXXXXXX#@@$$*****$@@@@********@@@#XXXXXXoooo.                 ....o..o....o........XXXXXX###XXX.........XXXXXXOOOOOOXXXXO+X++++++++++++@@@@%&&*==========&&&&&&&&&&========$@@@@@&&*====*&@@@@@@%%@&&&&=====&@@@@########@@@@@$*===--------;;-------------;;==$@+XX#@*-------------------------------------------------------*@#++XXOXOO++++@%@@##@@@@$$$$*$=======--------=$#OOO+=-----------------------------------@.OOOOOOO+++++++++++++++@=------------------------------------=@++%%%%%%%%%%%%%&&&::::::::::::::::::::::::::::::::::::::::&:=;-------------------------------------$++++%+++%+++%%&&=--------------------------------------*+O.OOOOOOOOOOOOOOOOOOOOOOO++++++@&&=====------------------;$++++@=--------------------------------------------------------------------------------=$XX+O++%%%%++OOOOO.........................X#@@===-=@OOo@---------------------------==*$@###XXXXX.OOOOO++++++%%&:::&&&&::::&&&&&&&%%&&&&&++@&*$&&&&&&&&==;;=***********$@@@@@@@@@@@$$**=-;-=**$@@@$$$@@###########XXXXXXXXXXXXXXXXXXXXXXXXXXXooXXXXooXXoooooooooooooXoXoXXoXXooXooXXXXXXoooooooXXXXXXXXXXXXXXXXXXXXXXXXXXXXXXXXXXXXXXXXXX#########@@@@@@@**********$@@@@@$$*****========;;;;;;;;;;;=============*****",
"XXXX#@@@@$@@@@@@#XXXX.......o...XXX##@@@@##XXXX##@@@@@@#XXX...oo.....XXX#@@@@@@@@@#XXXXXX++@@@@++XXXXXXXXXXXX+@@$$*****$@@@@********@@@#XXXXXXXooo             . .  oo. ..oo....o........XXXXX#+##XXX.........XXXXXXOOOOXXXXXXO+XXX++++++++++++@+++@$*=============&&&&=&===;;===&@@@@@@&&**===*$$@@@@@+@+%%&&&====@@@@@@@$$$*=====-----=----=======*$$$$$$$**$$$*$@##++@$=;------------------------------------------------------=@#@+@@@@&&&&&=====;---;------;;;;;;;;---------=@XOOO&-----------------------------------=+.O.OOOOOO++++++++%%++++&;------------------------------------=@%%&%%%%%%%%%&&%%&&&&&&&&&&&&&&&&&&&&&:&&&&&&&&&&&&&&&&&::&&:=;-------------------------------------$%%%%%%%%%%%%&%&&*--------------------------------------$O..OOOOOOOOOOOOOOOOOOOOOOOOOOOOOO+++++@@#@$$$=------------;*++%%#=--------------------------------------------------------------------------------;=@XO+++%%%%%%OOOO............................ooX###@#OOo#----------------------------------===$@@++++OO++++++%%&:::&&&&::::&&&&&&&%%&&&&&++@&$$&&&&&&&&==;;=***********$@@@@#@@@@@@$$**==;==*$$@@@$$$@@#####X##X#XXXXXXXXXXXXXXXXXXXXXXXXXXXXooXXXooooooooooooooooooooooXXXoXXXXXXXXXXXXooooooXXXXXXXXXXXXXXXXXXXXXXXXXXXXXXXXXXXXXXXXXXX########@@@@@@@@********$$@@@@@@***=*=======;;;;;;;;;;;===============*=****",
"..X#@@@@$$@@@@@@#XXX.......o....XXXX#@@@@##XXXX#@@@@@@@@XXXoo.........XX#@@@@@@@@@#XXXXXX+++@@##+XXXXXXXXXXXX+@@$$*****$@@@@@*******@@@##XXXXXXXooo           .    oo  .....oo..oo...ooo...XXX####XX.X..X..X.XOX+XXXXXXX..OOXOOOXXOOO+++++++++++@@@+@@@$&=======&===&&====;;==;==$@@%@&&&&&&**==**$$@@++++++@@&&===*@@$========*$$$$@@@@@@@@@@@@@@@@@@@@@@@@&&@@$*&@@##@----------------------------------------------------------===-------------------------------------------;$OOOO#=-----------------------------------@OOOOOOOOOOOO+O++++++++O+=;------------------------------------&%%%%%%%%%%%%%%%%%%%%+%%%%%%%%%%%%%%%%%%%%%%%%%%%%%%%%%%%%%%+&=-------------------------------------;=&&&&&&&&&&&&&&&%&=-------------------------------------$OOOOOOOOOOOOOOOOOOOOOOOOOOOOOOOOO+%%++++O+++++++@@$===;;;;;=&%%%%&----------------------------------------------------------------------------------=$#X+++%++&+OOOO...............................OOOOOOO.+=----------------------------------------=*$@@###+++++&::&&&&&::::&&&&&&&%&&&&&&++@&*&&&&&&&:&&=;;=***********$@@@@@@@@@@@@$**=;;==**$$@@$$$@@@#####XXXX#XXXXXXXXXXXXXXXXXXXXXXXXXXXXXXoooooXXooooXXoooooooooooooXXXXXXXXXXXXXXXXXXXXXXXX##XXXXXXXXXXXXXXXXXXXXXXXXXXXX#XXXX############@@@@@@@@********$@@@******=======;;;;;;;;;;;===========***==*=======",
"..X+@@@@$$@@@@@@#XX........o....XXXX##@@@##XXXX#@@@@@@@@XX..oo.......XXX#@@@@@@@@@#XXXXXX+++@@###XXXXXXXXXXXX+@@$$*****$@@@@@*******@@@##XXXXXXXooo           .    oo  .....o...oo....oo..XXXX####XX.X.......XXX++XXXXXX..XOXOOOXXXOOOX++++#++++++++@@@@$*&=====&=&&&&====;;;====*&@@@@$&*&*********$@@%++++++@@&==$@@@@@@@@@@#######@#@@@@@@@@@@@@@@@@@@@@@&&@@&&&@@@=-------------------------------------------------------------;-------------------------------------------=@OOO+@;----------------------------------=#.OOOOOOOOOOOOOOO+++++++&=;-----------------------------------=&+++%+++%%%%++%%%%++++%%%%%%%%%%%%%%%%%%%%%%%%%%%%%%%%++%%%%+&--------------------------------------=@%%%%%%%%%%%%%%%%+&------------------------------------=@..OOOOOOOOOOOOOOOOOOOOOOOOOOOOOOO+++++OOOOOOOOOOXXXX####@@@@%%&&+%=-----------------------------------------------------------------------------------===&&&&%&++++OOO.....OO.....................O..OOOOO.O$-------------------------------------------;====&++++&::&&&&&::::&&&&&&&%&&&&&&++@&$$&&&&&&:&&:;;=******==***@@@@@@@@@@@@@$**=;;==**$$@@$$$@@@#####XXXX##XXXXXXXXXXXXXXXXXXXXXXXXXXXXXXooooXXooooXXooooooooooooXXXXXXXXXXXX###XXXXXXXXX####XXXXXXXXXXXXXXXXXXXXXXXXXX##XXXX###########@@@@@@@@@********$@$$***========;;;;;;;;;;;;=============**==========",
".XX+@@@@$$$@@@@@#XXX......oo....XXXX###@@##XXXX#@@@@@@@@XXXooo...o....XX##@@@@@@@@#XXXXXX#+@@@+##XXXXXXXXXXX##@@$$****$$@@@@@*******@@@###XXXXXXXoo..          .. ..o.....oooo............XXXX##@#XX.o.....X.XX+##+XXXXXX...XXXXXXXOXXXXOOO+++++++++++@@@@@&&=======&&====;;;;===&&@@@@&====****&*****$@@@@+@+@@@&$@@@@#++++++@++++++++++++++++++%@@@@+%+@@&&&@@$*@@$=----------------------------------------------------------;;;;;;----------;;;;;;----------;;;;;;;;;;-;;;;-@XO+O+=-----------------------------------$XOOOOOOOOOOOOOOOOOOOO+++&------------------------------------;$++++++++OO+++++++++++++++++++++++++++++++++++++++O++OO+O++++@=--------------------------------------=+++++%++++++++++++&------------------------------------=@O.OOOOOOOOOOOOOOOOOOOOOOOOOOOOOO++++++OOOOOOOOOOOOOOOOOOOOO+%&&&%%&=--;;;-;;;;;;----------------------------------------------------------------------=-;;;;======$$@@#####XXXooooooo...........OOOOOOOOOO.O@=--------------------------------------------------=====&&%&&::::&%&&&&&%%&&&&%++@&@@%%@&&&:&=;;;=******=*****@@@@@@@@@@@@@$*=;;==*$$$@@$$$@@#####X#XXX#XXXXXXXXXXXXXXXXXXXXXXXXXXXXoooXoXooXooooooooooooooooooXXXXXXXXXXX##@@@####XX###@##XXXXXXXXXXXXXXXXX####XXXX#####X#############@@@@@@@$*************========;;;;;;;;;;--===========================",
"XXX#@@@@$$$@@@@@#XX.......oo...XXXXX######XXXXX#@@@@@@@#XXX.oo........XX#@@@@@@@@@#XXXXXX#+@@@@+#XXXOXXXXXXX##@@$$****$$@@@@@*******@@@###XXXXXXooo.           .....o.....oooo...........XXXX###@#XX.o.....X.XX####XXXXXX...XXX.XXOOXXXXOOOOXX++++++++@@@@@@&&*=========&===;;;==&&@@@&&**====**&&$$$*$$@@@+@+@@++@@@@+@++++@@@@+++++++++++++++++@@@@@%%@@&&&&@@@**=------------------------------------------------------------=$$@@@@@@@@@@@@@$$*$$$$$$$$$$$@@@@@$==*$$$$$$$$#+.OOO&------------------------------------@XOOOOOOOOOOOOOOOOOOOO+++=------------------------------------=@+OO+++OOOOOOOOOOOO++++++++++++++++++++++++++++++++++O+O+++++@=--------------------------------------&++++++++++++++++++&------------------------------------=#OOOOOOOOOOOOOOOOOOOOOOOOOOOOOOOO+++++OOOOOOOOOOOOOOOOOOOOOO+%&&&&%+@@$$$$$*========------------------------------------------------------------------=$$==;;;;;;-;------=====*$@@@##XXOO......OOOOOOOOOOOOOO@=--------------------------------------------------;;;;;=&&&&:::&&%%&&&&%%&&&&%+++@@@%%@@&&=:=;;;=******=*****@@@@@###@@@@@$*=;;==*$$$@@$$$@@####XX#XXX#XXXXXXXXXXXXXXXXXXXXXXXXXooXXooXoooooooooooooooooooooooXXXXXXXXXX##@@@@@@######@@@##XXXXXXXXX####XX#####XXX##################@@@@@@@@@$*********========;;;;;;;;;;;;===============================",
"XXXX@@@@@@@@@@@@#XXX...........XXXX####@###XXXX#@@@@@@@#XX..o.........XX#@@@@@@@@@#XXXXX##@@@@@##XXXOXXXXXXX##@@$$******@@@@********$@@@###XXXXXXo.                o   ..ooo............XXXXXX#@@#XX......XXXXX####XXXX.XX..XXX.XXXXXXXOXOXOOOO++++++++++++@%%&&**==========;;;==&&@@@@&&========&$$@@@$$@@+++@@++@@+++++++++++++++++++++++++++++@@@@@&&@@&&@&&@@*=---------------------------------------------------------;-=@%+++++++OOOOO+++%&&&++OOOOOOO++++++&&&&++OOOOOO.OOOO#=-----------------------------------=+.OOOOOOOOOOOOOOOOOOOO++@-------------------------------------$X...OOOOOOO.OOOOOOOO+OOOOOOO++++++++++++++++++++++++++O+O+OOO@=--------------------------------------&O+++++++++++++++++&------------------------------------$XO.OOOOOOOOOOOOOOOOOOOOOOOOOOOOOO+++++++OOOOOOOOOOOOOOOOOO+++%&&&&%++++++++++%&::&%%++&&&&&&&==;;==;;;=;;;-------;------------------------------------$++++&&&===---------------------=$$$@######XXXXXXXX..+O#=--------------------------------------------------------====::&&&%%&&&&%%&&&&%%++&*&&&&&&=&&==;;=************@@@#####@@@@@**=====*$$@@@$$$@@#####X##XXXXXXXXXXXXXXXXXXXXXXXXXXXoooXXoXXXXXooooooooooooooooooooXXXXXXX#X##@@@@@@@@####@@@@@#XXXXX#X##XXXXX#####XXX##################@@@@@@@@@$*******==========;;;;;;;;;;;=================================",
"XXX#@@@@@@@@@@@@#XXXXo.... ...o.XXX##@@@@##XXXX#@@@@@@@#XXX.....o.....XX#@@@@@@@@@#XXXXX###@@@@##XXXOXXXXXXX##@@$$******@@@@********$@@@###XXXXXXo..              .. .....oo.o.....o..o.XXXXXX#@@#XX.......XXXX##@+XX.X.....XXXXXXXXXXOXXXXOOOOXX++++++++@@@++@@&&*======&=======&&@@@@@&&=========*&&@@@@@+++++++@+++++++++++++++++++++++++++++%%&&&&&&%&&&@@@$==-----------------------------------------------------------=@#+++++++++OOOOOOO%&&&++OOO++O+++++++%&&&+OOOOO...OOOO@------------------------------------@..OOOOOOOOOOOOOOOOOOO+++=;------------------------------------$@++++++++++++++++++++++++++++++++++++++&@@@@@@@@@@@&&&@+O++O+$--------------------------------------=%+++OO++++++++OOOO@=-----------------------------------=@XOOOOOOOOOOOOOOOOOOOOOOOOOOOOOOOOO+++++++OOOOOOOOOOOOOOOO+O++%&&&%%+++OO+O+++%&::&+++O++++++++&&&&@@@@@@@@@$$$=====-----------------------------------=+OO++&&&@@#@$==-------------------------===*$$$@@++.+OX$--------------------------------------------------------;;;;:::&&%&&&&&%&&&&&&%+%&===&&&&=&&==;;=************@@@###@@@@@@@****==**$$@@@$$$@@######X#XX#XXXXXXXXXXXXXXXXXXXXXXXXoooXXoooXooooooooooXXXXooooooooXXXXXXX###@@@@@@@@@####@@@@@##XXXXX###XX##X#######################@@#@@@@@@@@$****=======;;;;;;;;;;;;;;;====================================",
"XXX#@@@@@$@@@@@@#XXX....o. ......XX##@@@@##XXXX#@@@@@@@#XXX.XXXXo.....XX#@@@@@@@@@#XXXXXX+#@@@@#++XXXXXXXXXXX+@@$$******$@@@********$@@@###XXXXXXXo..               oo...ooooooo...ooooo.XXXXX#@@#XX.......XXXX#@@#XX.........X.XX......XX...OXXOXXX++++++++@+++@@&&&============&@@+@@@&&&=========&&&@@@@+++++++++++++++++++++@++@@@@@+@+@++@@@@@@@@@@@@@@@@$=------------------------------------------------------------=@+++++%%++++OOOOOOO%%&&++OOOOOOOOOO+++%&&&+++++OOOOOOO+*-----------------------------------=#OOOOOOOOOOOOOOOOOOOO++++=;------------------------------------=============-----------==-----------------------------=+O++++*--------------------------------------=+++OO+O++O++OOOOO+$=-----------------------------------=@+#@@+####XXXXXooXXXXXXXXXXXXXXX.OO+++++OOO+++OOOOOOOOOOO+OO++%&:&%+OOOOO++++%%&::&%++++++++++%&:::%+O++++++++++++++=;---------------------------------=@+++%&&&%+OO..O+@@$==-----------------------------$#+O+&------------------------------------------------------------;-;=&&&&&&&%&&&&&&%+&&===&&&&=&&==;;=************@@@###@@@@@@@$@$$****$$@@@$$$@@######XXXX#XXXXXXXXXXXXXXXXXXXXXXXXXXXXXoooooXoooooooooo..ooooooooXXXXXX####@@@$$@@@@####@@@@@@#XXX#################################@@@@@@@@@$$***=======;;;;;;;;;;;;;========================================",
"XXX#@@@@@$@@@@@@#XXX...oo. ......XX##@@@@##XXXX#@@@@@@@#XXX.XXXXX.....XX#@@@@@@@@@#XXXXXX++@@@@#++XXXXXXXXXXX+@@@$******$@@@$*******$@@@###XXXXXXXo...   .    ..    ooo..ooooooooo..oooo..XXXX#@@#XX.......XXXX#@@@XX...................XXX...XXXXXXXO++++++@+++++%&&&&&=========&@%+%@@&&&&&&======&&&&$@@+++++++++++++++++++@@@++@++@+++++++@@@@@@@@@@@@&&@$=;------------------------------------------------------------$#++++++%%++++O+OOO+%%&&%+OOOOOOOOOO+++%&&&%+OOOOOOOOO.@------------------------------------@oOOOOOOOOOOOOOOOOO++++++&-;------------------------------------------;------;;;;;;;;;-;;;--;;;;-----------------------=+OO+++=--------------------------------------*+OOOOOOOOOOOOOOO++=;-----------------------------------$+@@&&========================&&&&&&&&&&&%++++++++++++++++++O++%&:&%++O+++++++%%&:&&%++++++++++%&::&%++++OOOO+++OO+++$;---------------------------------=&+++%%&&%+O......oooX##@$$=-----------------------=#+O++=-------------------------------------------------------------;;=&&&&&&%%&&&&&++@&===*&&&&&===;;=******==****@@@@##@@@@@@@@@@@$***$$@@@$$$@@######XXXXXXXXXXXXXXXXXXXXXXXXXXXXXXXXXXoooooooooooooo.ooo.ooooooXXXXXXX###@@@@@$@@@@####@@@@@@###############X#################@##@@@@@@@@$****======;;;;;;;;;;;;;;=========*================================",
"XXX#@@@@@$$@@@@@#XXXXo........ooXXX##@@@##XXXXX#@@@@@@@@XXX...XXX.....XX#@@@@@@@@@#XXXXX++@@@@####XXXXXXXXXX##@@$$****$$@@@@********@@@######XXXXXo.           .......oooo......ooo..oo.XXXXX##@##XX.o.......XX#@@##XX..................XXXXXX..OOXXOOOO++++++++@@@@@@$&=========&@+@@@@@$&&&&=======&&=&&&@@+++++@@+++++++++++@@@@@@@@@@@@@@@@@$$$$*==$&&@@@*------------------------------------------------------------;=+++O++++++%%++++OOO+%%&&%+OOOOOO++++O++%&&&+++OOOOOOOO#=-----------------------------------=++OOOOOOOOOOOOOO++++O+++@=--------------------------------------====---------------------------------------------------=++O+++=-------------------------------------;$+++++++OOOO+OO+O+@=-----------------------------------=@OOOOO+++&&=====-----------------------------========*$$$$$$@@@@==&@@########++%&:&%%%+++++%%%%%%::&%++OOO+OOOO+++++%&;----------------------------------&+++%%&%%+OOOOO..O........XX#@$*==----------------=@OOO+=-----------------------------------------------------------------==&&&%&&&&&%%%@&===&&&&&::==;;=******=****@@@@@###@@@@@@@@@@@***$$@@@$$$@@#####XXXXX#XXXXXXXXXXXXXXXXXXXXXXXXXoooooooooooooooooooooooooooooXXXXXXXX##@@@$*$@@@@@###@@@@@@###########################@@#@@@@@@@@@@$$$****=====;;;;;;;;;;;;;;;-=======**==================================",
"XX##@@@@@@@@@@@@#XXXX.........ooXXX##@@###XXXXX#@@@@@@@@XXX...XXXo...XXX#@@@@@@@@@#XXXXX++@@@@#+++XXXXXXXXXXX#@@$$****$$@@@@********$@@@#####XXXXXo.           . . .o.........o......ooo.XXXX##@##XX.o.......XX#@@@#XX...................X.X.....OXXOOOOOOX+++++++@@@@@@&*=======&@+@@@@@&&**&***===&&&=&&&&@@++++++++++++++++++@@@@@@@@@$*=====------=$&%@$=--------------------------------------------------=----------=@+OOO++++++%%+++++OOO%%&&%+OOOOOO++OO++%%&&&+++OOOOOOOO@=-----------------------------------$OOOOOOOOOOOOOO+O++++O+OO@=-------------------------------------*#@@@@$$$*====------------------------------------------=++O++%--------------------------------------=$++++++++++O++OO+%=-----------------------------------=@XOOOOO..XXXX#####@@$$$===----------------------------------;;;;;;;;;;==========&&::%%++++++%%%%%&::&%++OOOOOOOO+O+++%&;----------------------------------&+++%%%%%+OOOO...............oooXX@$*=-------------$+OO+=-----------------------------------------------------------------;;=&&%&&&&&&%%@&==&&&&&&====;;=******=*****@@@@####@#@@#@@@@@$**$$@@@$$$@@#####XXXXX#XXXXXXXXXXXXXXXXXXXXXXXXoooooXooooo.ooooooooooooooooooXXXXXXX####@@@$$@@@@@###@@@@@@####X####XX#######@@######@@@@@@@@@@@@@$****=======;;;;;;;;;;;;=============*==============================;;;;",
"X+#@@@@@@@@@@@@@#XXXX.........ooXXX###@###XXXXX#@@@@@@@@XXX.....XXX.XXXX#@@@@@@@@@#XXXXX+##@@@####XXXXXXXXXXX#@@$$****$@@@@@*********@@@######XXXXoo    o.     o    oo......oooo....oooo.XXXX##@@#XXoo.......XX#@@@#XX............................XXXOXXOXXXX+++++++@+@@@@*======&@@@@@@@@******&&**&&&&&&==*$@@@@@@####@@@@@@@@$$*====---------------=@@@$=----------------------------------;;;====$$@@@@@+++++++@@@&$&&++O+OO++++++%%++++++O++%&&++OOXOXXX+OO++++&&@@@@+++OOO.O$-----------------------------------=@OOOOOOOO++++++++++++++++$;------------------------------------=@++++OO++++++++++@@@@@@$$*===========--;;--------------;*+++++&--------------------------------------=$##++XXXXXXXX##@$=-----------------------------------=$++O+++++OO++OOOOOO+++++%%%&&&&======--------------------------------------------==::&%+++++%%%%%%&::&%++OOOOOOOOOO++%%&;----------------------------------$+++%%%%%%OOOOOO..OO......OOO........O++@@==-------$+OO+$;--------------------------------------------------------------------=@&&&&&%%+@&==*&&&&&===;;;=******=*****@@@@@############@$**$$@@@$$$@@#####XX#XX#XXXXXXXXXXXXXXXXXXXXXXXXoooXXXoooooXooo...ooooooooooooXXXXXX#####@@@$$@@@@@####@@@@##XXXXX########@###@@@@@@@@@@@@@@@@@@@$$**=======;;;;;;;;;;;==============================================;;;;;;",
"#+@@@@@@@@@@@@@@#XXX..........ooXXX##@@@##XXXXX#@@@@@@@@XXX.....XX.XXXXX#@@@@@@@@@#XXXXX+#@@@@###+XXXXXXXXXXX#@@$$****$@@@@@*********@@@######XXXXoo    .oo    oo    ...ooo..oo   o..oo...XXX##@@#XXXo......XX##@@@#XX...........................XXXXXXOXXXXXX++++++++++@@&&*===&&+++++@@@******&&***&&&&&&=**$@@@@@@@@@@$*===-----------------------*@@@*=---------------------------------===*@@@@#XXXO+++++++OOO.XXX#++++++OO+++++++++++++OOO+%&&+++++++@@@@@@&&&=======&+OOO.+=-----------------------------------=#+++++++++++++++++++++++%=;------------------------------------=#+++OOOOO++++OO++++##++++###@@@@@@@@@@$$*=====---------=$+++++&---------------------------------------=*$&$&&&&&$$$*==;------------------------------------=@+OOO++++++++OO+++++++++++++++++@@@@@$$*=====------------------------------------;=:&&%+++%%%%&&&&:::&%++OOOOOOOOOO++%%&;----------------------------------$#O+%%&%%%OOO.....O......................OX#@$*==--$+OO+@---------------------------------------------------------------------;=&&&&&&%%@&==****&&===;;;=************@@@@@############@$*$$$@@@$$$@@######X#XX#XXXXXXXXXXXXXXXXXXXXXXXXoooXXXXXoooXooooooooooooooooooXXXXX######@@@@$$@@@@#########XXXXXX######@@@@@@@@@@@@@@@@@@@@@@@$***=======;;;;;;;;;;;;;=======*=================================-;;;;;;;;;;",
"@@@@@@@@@@@@@@@@#XXX............XXX##@@###XXXXX#@@@@@@@@XXX.XX.X....XXXX#@@@@$@@@@#XXXXXX#+@@@###XXXXXXXXXXXX#@@$$*****$@@@@*********@@@#######XXXooo   o.    oo   o.o..oooo........ .oo..XXX##@@#XX.o....XXXX##@@#XXXoo.............................XXXXXXOXXXX++++++++++@@$**=*@@@++@@@@&*****&&*$***=******$$$$$$$===--------------------------;-=@@@$=------------------------------;-=$@@&&+++++O++OOOO++OOOOOOOOOOO+OOOXXXXXXXX#####@@@@@@@$*=====------------------;=++OOX$----------------------------------;-&+%%%%%%&%&&&&&&&&%%&&&&&&-;------------------------------------&%%%%%%%%%%%%%%%%%%%%%%%%%%%%%%%%%%%%%%%%%&&&&&&&&&&===&&&%%%%&=------------------------------------------------------------------------------------------;=&%%%%%%%%%%%%%%%%%%%%%%%%%%%%%&&&&&&&&&&&&&&&&&&&&&&&&==;;------------------------;=:&&%+++%%%&&&&:::&%%++OOOOOOOOOO+++%&=----------------------------------$XO+%%&%%+OOOOOOOOOO.....O..OOOOOO..OOOOOOO++++O++@++O++@=----------------------------------------------------------------------==**&&%%@&==*&**&=&===;;=************@@@#############@@$*$$@@@@$$$@@###########XXXXXXXXXXXXXXXXXXXXXXXXoooXXooooXXoooooooXoooooooooXXXXXXX#######@@@@@@@@@#######XXXXXXXX#X####@@@@@@@@@@@@@@@@@@@$*****======;;;;;;;;;===-==========================================;;;;;;;;;;;;;",
"@@@@@@$$$$$@@@@@#XXO...........XXXX##@@###XXXXX#@@@@@@@#XXX.XX.X....XXXX@@@@@@@@@@#XXXXXX##@@@@##XXXXXXXXXXXX#@@$$*****$@@@@*********@@@#######XXXooo   ..    oo  ...oo.oooo.. .o....o.X..XXX#@@@##X.o...XXXXX##@@##XX.......... .....................XXXXXOXXXXXX+++++++++@@@&&$@@++++++@@&&&**&&&&***=*=======----------------------------------==$@@$=-------------------------------=*@@+++%%%+++OOOOOOOO+++OO+OOOOOX+++@@@@@@$*=====;;;;;;;;;;;;;--------------------;$++OO#=------------------------------------&&&&&&&&&&&&&&&&&&&&::::&:--------------------------------------&&:&&&::::&&:::::::::&&&&&&&&&&::::&&&&&&&&&&&&&&&&&&&&&&:::::=;------------------------------------------------------------------------------------------==&&&&&&:&::::::::&&:::::::::::&::::::::&&&&&&&&&&&&&&&@+@@@$$*====-----------------;=:&%%++++%%%&&&&&&%%%+++O+OOOOOOOO+++@=----------------------------------$#O+%%%%++OOOOOOOO..........OOOOOOO.OOOOOOOOOOOOOO..OOOO#=----------------------------------------------------------------------;;==&%%+@&==*=**&=&===;;=************@@@###########@@@$$**$$@@@@$@@@########XX#XXXXXXXXXXXXXXXXXXXXXXXXXXXXXooooXXo.oooooXooo...ooXXXXXXX######@@@@@@@@@@@######XXXXXXXXX#X###@@@@@@@@@@@@@@@@@$$****========;;;;;;;;;============================================-;;;;;;;;;;;;;;;",
"@@@@@@$$$$@@@@@@#XXXX......ooXXXXXX##@@###XXXXX#@@@@@@@#XXX.XX..XX...XXX#@@@@@@@@@XXXXXXX++@@@@+#XXXXXXXXXXXX#@@$$*****$@@@@*********@@@#######XXXXooo.      .o. .....ooo.ooo.........XX..XXX##@@@#X.o....XXXXX#@@@#XXoo........  ......................XXXXOOXXXXXXX+++++++##@@@@@+++++++@@&$**========;;;;-;;;;;-----===-======*$$$$$$$$@@@@@@$$&@@@@=------------------------------==&&%%%+++%%%+++++++++++++@@@@$$$$===-----------------------------------------------=@O+OO$-----------------------------------;=&%%%%%%%%%%%%%%%%%%%%%%&&=------------------------------------;=&&&&&:::::&&&&::::::::::::::::::::::::::::::::::::::&&::::::::=;-----------------------------------------------------------------------------------------=::::::::&&&&:&:&&&&&&&&&&&&&&&&&&&&&&&&&&&&&&&&&&&&&&:&&++OOOO+++++%&&::===;;-;;----;=:&%%++++%%+%%%%%%%+++O+OOOOOOO++++++@=----------------------------------=$@$&&&&@+XXXXXXoo.........O...OOO..OOOOOOOOOOOOOOOOOOOO+=--------------------------------------------------------------------------=@%+&&=**&&&&=&===;;=************@@@########@@@@@$$***$@@@@$$$@@######XXXX#XXXXXXXXXXXXXXXXXXXXXXXXXXXXXoooooXooooooooooo.ooooXXXXXX####@@@@@@@@@@@@@#######XXXXXXXXX######@@@@@@@@@@@@@$$***========;===;;;;;;;;==========================================;;;;;;;;;;;;;;;;;;;",
"@@@@$$$$$$@@@@@@+#XXXX.X...ooXXXXXX#@#@@@#XXXXX#@@@@@@@#XX.XXX..XX..XXXX#@@@@@@@@@#XXXXX#++@@@@##XXXXXXXXXXXX#@@$$****$$@@@@*********@@@#######XXXXooo.....  ... .oooo.o..ooo.....  .oXX..XXX##@@@#X....o.XXXX##@@@#XXoo................................XX...OOOXXXXXXO++++@+++++++++++++++@@$**==================*$$$$$@@@@@######@@@@@@@@@@@@@@@@@@$=------------------------------=*@++%%%%%++%&&&&%+++++&===;;;;;;;;-;-;----------------------------------------------*#++O+=-----------------------------------;=%+%+%%%%++%%%%%%%%%%%%+%&;------------------------------------=$%%%%%%%%%%%%%%%%%%%%%%%%%%%%%%%%%%%%%%%&&&%%%%%%%%%%%%%%%%%%%&*;----------------------------------------------------------------------------------------==&&&%%%%%%%%%%%%%%%%%%%%%%%%%%%%%%%%%%%%%%%%%%%%%%%%%&&&&++OO+OO+OO+++&&&@@@@@$$$=---;=&&%%++++++++%%%%%++++++++++OOO++++++@=------------------------------------;;;;;;;====&&@@@+++X...OOOO..OOO.OOOOOOOOOOOOOOOOOOOOOX$--------------------------------------------------------------------------=$%+&&==&&&&&=&===;;=************@@@########@@@*******$@@@@$$$@@#####XXXXX#XXXXXXXXXXXXXXXXXXXXXXXXXXXXXooooooXoooooooooooooooXXXXXX###@@@@@@@##############XXXXXXXX######@@@@@@@@@@@@@$***=======;;;;;==;;;=========*==**==============================-;;;;;;;;;;;;;;;;;;;;;",
"@@@@$$$$$$$@@@@@@#XXX...XXXX.XXXXX##@@@@###XXXX#@@@@@@@@+XXXX...XXXX.XXX#@@@@@@@@@#XXXXXX##@@@@#+#XXXXXXXXXXX#@@$$****$@@@@@*********@@@#######XXXXXoo   .oo     oooo....XXo. ..oo.oo.XXXXXXX#@@@@#X........XX##@@@#XX.....................................XXXXX...XXOOO++++++++++++++++++@@@@$$**====*********$@@@@+@+++++++@@@@@++@@@@@@@@++@+++@@@=----------------------------;-=&&%++++%&&&%%%&&&&&&&&&&=====;;;;;;------;;;;;;;;--;---;;;;;;;;;;;;;;;;;;--;;;;;;;;;=+OOO.@------------------------------------:&%+++++++++++++++++++++++=;------------------------------------&+++++++++++++++++++++++++++++++++++++++++%+++%%%%%%%++%+%%%+++%=;------------------------------------------------------------------------------------;-:=&%++++++++++++++++++%%%+++++++++++++++++++++++++%%%%%%%&&&%++++++O++++%&::%++++++++++&&&&&%%O+X###+++##@@@@@@$$$$$$$*=*=====-----------------------------------=====;;;;;;------------=*$$@@###Xooooo..XO+XXOOO....OOOOOX@---------------------------------------------------------------------------=$@&&==&&&&&&=&==;;=******=*****@@@#######@@$*===****$$@@@$$$@@#######XX##XXXXXXXXXXXXXXXXXXXXXXXXXXXXXXooooooooXooooXXooooooooXXXX##@@@@@@@#####XX#X####XXXXXXXX######@@@@@@@@@@$$$****=======;;;;;;;;;========*==***==============================;;;;;;;;;;;;;;;;;;;;;--==",
"@@@@$$$$$$@@@@@@@##XXXX.XXXXXXXXX##@@@@@@###XX##@@@@@@@@XXXXX...XXXXXXXX#@@@@@@@@@#XXXXX++@@@@@###XXXXXXXXXXXX@@$$****$$@@@@*********@@@#@#####XXXXooo     o     ooo....XXXX....oooo.o.XX.XXX#@@@@XX......o.XX##@@@#XX... .   .     ..    ..................XX.X...XXXOOXX++++++++++++++++##@@@@@$$************&@@#+++++@+++@@@@@@++++@@@@++@@@+++@@=-----------------------------;=&&&%+++O++%&&&%%%%%&&&&&++++###@@@@@######@@@@@@@@@@$$$$$$$$$*==*$$$$****$$$$**=====$@+OOOX$------------------------------------:&%+OOOO+++OOOOO+++O+++++&-;------------------------------------&+++++++++++++++++++++++++++++++++++++++++++++%%%%%%+++%+++%+++&=;-------------------------------------------------------------------------------------=&+++++++++++++++++++++++++++++++++++++++++++++++%%%+%%%%%&::%%++++++++++%&::%+++++++OO++%&&&%%+&============----------------------------------------------------=@###@@$====----------------;---====$$@@@++++++OOOOO.OOOOOX@--------------------------------------------------------------------------;-=$&&==&&&&&=====;;=******=****$@@@#######@@**==*****$$@@@$$$@@#######XX##XXXXXXXXXXXXXXXXXXXXXXXXXXoXXXXooooooooooooXoooooooooXXX###@@@@@@####XXXXXXX###XX#XXXXX#####@@@@@@@@$$*****=====;;;;;;;;;;;;========*******============================--;;;;;;;;;;;;;;;;;;;;======",
"@@@@@$@$@@@@@@@@@##XXX..XXXXXX###@@@@@@@@@#####@@@@@@@@@#XXXXXXX......XX#@@@@$@@@@#XXXXX#+@@@@@###XXXXXXXXXXX#@@$$*****$@@@@*********@@@#@@#@##XXXXXoo    oo.o  o.oo...XXXXXoo..oo.....XX.XXX#@@@@XX.o..o.XXXX#@@@@#XX..            ..............................XXXXXOOXXXXX++##+O+++####++#+++@@@&&&&**=**&&&%+++++++++++++++@@++++++++++++++@@@*------------------------------=$&&&%+++OOO++%%%%%++++++++OOOOOOOOOOO......OOOOOOOO..OOOOOO++++%%++O+OOOO++++++++&&&%+++O+O@=----------------------------------;=:&%%+OOOOOOOOOOOOOOOOOO++=--------------------------------------+O++++++++++++++++++OO+++++++++++O+++++++++++++++++++++++++++++&------------------------------------------------------------------------------------;=&++O+O++++++++++++++++++++++++++++++++O+++++++O+++++++++%%%%&&%%++OO++++++%&:&%%++O+OO++++%&&&%%@=----------------------------------------------------------------$#+OO+%%%%+++@@$==---------------------------==$$$$$@@@XOOO+=-----------------------------------------------------------------------------=$==&&&**====;;;=************@@@######@@$*********$$@@@@$$@@######XXXXXXXXXXXXXXXXXXXXXXXXXXXXXXXXXXXXooooXXooooXXXoooooooooXXX###@@@@@###XXXXXXXXXX##############@@@@@@@@******======;;;;;;;===========********============================;;;;;;;;;;;;;;;;;;;;--=====***",
"@@@@@@@@@@@@@@@@@##XXXXXXXXXX##@@@@@@@@@@@@##@@@@@@@@@@@#XXXOX.X..XXXXXX#@@@@@@@@@#XXXXX##@@@@@###XXXXXXXXXX##@@$$*****$@@@@*********@@@@@@@@@##XXXXoooo. ooo.  ..ooX.XXXXXXooo........XX.XXX#@@@@XX.o..o.XXXX#@@@@#XX...    .....................................XXXXXXXOXXXXOOXXXOOXXX+++#++++#@@@@@&&&&*&&&&&%++++++++++++++@++++++++++++++++++$=-----------------------------=&&&&&%++++OO++++%%%%+++++++++OOOOOOOOOO.....OOOOOOOOOOOOOOO++++%&&%+OO.OOOOOO+++++%&&%++OO++$-----------------------------------;=&&%+OOOOOOOOOOOOOOOO++++@=-------------------------------------=+O+O++OO+++++++++++++O+++++++++++++++++++++++++++++++++++++++++=----------------------------------------------------------------------------------==$@+++O+OOO++++++++++++++++++++++++++++++OO++++++++++++++++%%%%&&&%++++++++++%&:&%%++O+OO++++%&&&%%@=---------------------------------------------------------------=@XOOO+%&&%+O...XXX#@$*--------------------------------=$+O.+=-------------------------------$$*===----------------------------------------====&&&$&====;;;==**********$@@@######@@$*********$@@@@@$$@@######XXXXXXXXXXXXXXXXXXXXXXXXXXXXXXXXoXXXXoXoooooXoooXXXooooXXXXXXX####@@@###XXXXXXXXX###############@@@@@@@$**===========;;;=========***********==========================--;;;;;;;;;;;;;;;;;;;;======******",
"@@@@@@@@@@@@@@@@@##XXXXXXXXXX#@@@@@@@@@@@@@@@@@@@@$$@@@@@@###XXXXXXXXXXX#@@@@@@@@@XXXXXXX+@@@@@@##XXXXXXXXXX##@@$$****$$@@@$*********@@@##@@@@##XXXooo  ......oo.....XXXXXXXoooo......o.XXXX##@@@@#XXo....XXXX#@@@##XXoo..      ..    .....   ...........oXX.......X.XXX.XXXOOOOXXOOOOXXXX+++X+++++++++@@$&&*&&*%+++++++++++++++@@@+++++++++++++#@=-----------------------------;*&&&&&%++OOOO+++++%%%%%++++++++OOOOOOOOOOOOOOOOOOOOOOOOOOOOOO+++%&&%++OOOOOOOOO++++%&&%+OO+.+=-----------------------------------=&&&%++OOOOOOO+OOOOOOOOOO+$--------------------------------------$##@####@@@@@@@@@@@@@@@@@@@@@@@#@@@@@@@@@@@@@$$@$$$$$$$$$++++++@=-------------------------------------------------------------------------------==$&++OOOOO++++++++++++++X#++++XX+++++++++++++++++++++++++++++++++%&&&%++++++++++%&:&%%++++++++%%%&&&%%@=---------------------------------------------------------------*++O+++%%&%%+OOOOOO..OO++@$===--------------------------=+.O+$-------------------------------@O++++@+@$====;;;;------------------------------==**&&&&&&=;;;=***********$@@@######@@$*********$@@@@@$@@@####XX##XXXXXXXXXXXXXXXXXXXXXXXXXXXXXXooXoXXXXXoXXXXXXXXoooooXXXXXX#####@@@###XXXXXXXX##############@@@@@@$$***======;;===============**********==========================;;;;;;;;;;;;;;;;;;;;-======*********",
"@@@@@@@@@@@@@@@@##XXXXXXXXXXX#@@@@@@@@@@@@@@@@@@@$$$$$@@@@@@@++##XXXXXXX#@@@@@@@@@XXXXXXX+@@@@@###XXXXXXXXXX#+@@$$****$$@@@$*********@@@##@@@@##XXXXoo.  .o..ooo....XXXXXXXXXooooo......XXXX##@@@@#XXX....XXXX##@@@#XXoo..        ..... .. .  ....oo................XXXX........XXOOOOXXOX+XXXXXX+++++@@@@&&&**&%++++++++++++++++++++@+@@++%++++@=------------------------------=@&&&&&%+++OOOO+++++%%%%%+++++%+OO++OOOOOOOOOOOOOOOOOOOOOOOO+++++%&&%++OOOOOOOOOO+%%%&&%+OO+X&------------------------------------&&&&%+O+OOOOOOOOOOOOOO++O+=;-------------------------------------===================================================;---;=&+++O+@=-------------------------------------------------------------------------------$@#+OOOOO+++++%&&&&&&&&&&&$&$&&&&&&&@@@++++++++++++++++++++++++++%&&&&%++++++++%%%&:&%%++++++++%%%&&&%%@=--------------------------------------------------------------=@O+OO++%%%%%%OOOOOO.......XXX##@$*=----------------------+.OO$-------------------------------&+OO++++X##@@@$$=-------------------------------;=**&&&&&&==;;=***********$@@@######@@$*********$@@@@@$@@@#####X##XXXXXXXXXXXXXXXXXXXXXXXXXXXXXXooooXoXXXXXXXXXXXooooooXXXXXX#####@@@###XXXXXX####@@#@@@#@@@@@@@@@$$**=======;;;===========***************======================-;;;;;;;;;;;;;;;;;;;;-=====*************",
"@@@@@@@@@@@@@@@@##+XXXXXXOXX#@@@@@@@@@@@@##@@@@@$$$$$$$$$$@@@@@@@@@@####@@@@@@@@@@#XXXXX++@@@@@@##XXXXXXXXXX#+@@$$****$$@@@@*********@@@#@@@@@##XXXXoo    oo...ooo.XXXXXXXXXXXX.ooo.....XXXX##@@@@#XXX......XX#@@@@#XXo....      ....   .   ...  .....oooo...........XX......XXXXXXOOXXXOXXXX+XXXX++XXX##@@@&&$$@++@###@##@###@@@@@@@@@@@$$@@@@@*-------------------------------&@&&&&&%++++OOOO++++++%%%%%%++%%%++++OOOOOOOOOOOOOOOOOOOOOOOOOOO+%&&%+OOOOOOOOOOO+%%&&&%+OOO#=-----------------------------------=&&&&%+++OOOOOOOOOOO+++++X@-----------------------------------------------------------------------------------------------=@+++++@---------------------------------------------------------------------------------=$@#++OOOOO++++++++@&&&=========-------=======*$$$$$$$$$$$@@@@@@$$==&@@@@++#+++++&&&%+++O+O++++%%&&&%%@=------------------------------------------------------------;=+OO+O+O+%%%%++OOOOOOOOOOOOOOOOOOOOO++@$$===---------------+XO+@=------------------------------$XOO++++++++%++%&&=:==--------------------------;==$$$&&=&==;;=******=****$@@@######@@$*********$@@@@@$@@@########XXXXXXXXXXXXXXXXXXXXXXXXXXXXXXXXXXooooooXXXXXXXXXXooXXXXXXX#####@@@###X#X#XX####@@@@@@@@@@@@@@$****=======-;;;========***************=*=====================;;;;;;;;;;;;;;;;;;;-======************$$$$",
"@@@@@@@@@@@@@@@#+#XXXXXXXXX+#@@@@@@@@@@@@@#@@@@@$$**$****$$$$$@@@@@@@@@@@@@@$@@@@@#XXXXXX+@@@@@++#XXXXXXXXXX#+@@$$****$$@@@$*********@@@#@@@@@##XXXXXo o ......oooXXXXXXXXXXXX..oooo.o..XoXX##@@@@#XXX......XX##@@@#XX.....     ....    oo  .......o..oo..............XX...X.XXXX..XXXXXOOXXXXXXXXXXXXXX++@@@@$$@++@@#@@@@@@@$**====----;;=@+@@$-------------------------------=@+&&&&%%+++++OOOO+++++++%%%%%%%+%++++OOOOOOOOOOOOOOOOOOOOOOOOOO++%&&%+OOOOOOOOOO+++%&&&%+O++@=-----------------------------------=%&&&+++OOOOOOOOOOO+++++++$-----------------------------------------------------------------------------------------------=@+++++$;----------------------------------------------------------------------------------;==@+OOOO+OOOOO+++++++@@@$$====---------------------------==;=;;;;======&&&&&&&&::&&&&++++%+%%&&&&%%@=------------------------------------------------------------=@+.OOOOO+%%&%%+OOOOOOOOOOOOOOOOOO.....OXXXX##@$==----------@XOO#=------------------------------=+OO++++++%%%+%&&&=&===---------------------------=*$$&&====;;=***********$@@@@@####@@$*==******$@@@@@$@@@########XXXXXXXXXXXXXXXXXXXXXXXXXXXXXXXXXXooooXXXXXXX#XXXXXXXXXXXXX###############X###@@@@@@@@@@@@@@$***===================******************=*=================-;;;;;;;;;;;;;;;;;;;-======*************$$$$$$",
"#@@@@@@@@@@@@@+++#XXXXXXX#@@@@@@$$@@@@@@@#@@@@@@$$$$********$$$$$$$$@@@@@@@$$@@@@@#XXXXX#@@@@@@+##XXXXXXXXXXX#@@$$******@@@@*********@@@@@@@@@##XXXX... .......ooo...XXXXXXXXXX.oo.o...XXXXX##@@@@XXXXoX..o.XX##@@@#XX....   o...     ...    ..............o......XXX....XXX.XXXXX.....OXXXXOOOXXXXXXXXX######@@@@@$$$$$*==--------------=@+++$-------------------------------=$%%&&&&&%++++++OO+OOOO+++++%%++++++++++OOOOOOOOOOOOOOOOOOOOOOOOOO+%&&%+O+OOOOO+++++++&&&%++.+*-----------------------------------;$%&&&%++++O+OOOOOOOO%&&++@=-------------------------------------=$*&&&===========-----------------------------------------$++++++=---------------------------------------------------------------------------------------=@+XOOOOOOOOO+OOOOOOOO+++++@&&=======;;;;--------------------------------------------====-=$&&%%@=--------------------------------------------------------;;;=&+OOOOOOO+%%%%++OOOOOO..O.....OOOOOOOOOOO....OOOO++@@$==-;;;@XOOX=------------------------------=#OO++++%%%%%%%%&&::&&&:-;-------------------------=$$&&===;;;=***********$@@@######@@$*==******@@@@@@$$@@####XXXXXXXXXXXXXXXXXXXXXXXXXXXXXXXXXXXXXoooXXX###@@##XXXXXXXXXXXXXX##@@@@###########@@@@@@@@$@@$****===================***$$$$$$$**********====****=========;;;;;;;;;;;;;;;;;;;;--====************$$$$$$$$$$$",
"#@@@@@@@@@@@@#++#+XXXXXX##@@@@$$$$$@@@@@@##@@@@$$$$***************$$$$$@@@$$$$@@@@#XXXXX#@@@@@@+#XXXXXXXXXXXX#@@$$******@@@@*********@@@@@@@@@##XXXX...o....oooooo...XXXXXXXXXXXooo...XXXXXX##@@@@XXXX....o.XX#@@@@#XX...     ..      .....   ............o.......XXX...XXXX..XXXXX...XXXXXX..XXXXX#XXX####@@$*==------------------------$@++&=-------------------------------=@%%&&&&%%++++++++OO++++OO+++%++++%%++++OOOOOOOOO+OOOOOOOOOOOOOO+++%&&%+OOOOO+++++++++&&&%++O@=-----------------------------------=@%&&&%++OOOOOOOOOO++%&&++@=-------------------------------------$###X####X#####@@@$$$========-----------------------------$+++++%=-----------------------------------------------------------------------------------------=@+OO++OOOOOOOOOOOOOO+XXOO++XXX###@@@@$$$=----------------------------------------------=&&&&%@=--------------------------------------------------------===&%OOOOOOOO+%%%%%+OOOOOO..OO..O...OOOOOOOOOO.........XXXXX#@$$#.OOX&------------------------------=#++%%%%%%%%%%%%&&::&&&:=--------------------------==$&&&===;;=***********$@@@######@@$*====****@@@@@@$$@@#####XXXXXXXXXXXXXXXXXXXXXXXXXXXXXXXXXXXXXXXXXX#####XXXXXXXXXXXXXXXX###@#############@@@@@@@$*$***======;;;=========*****$$$$$$$$*********======****=====-;;;;;;;;;;;;;;;;;;;;-======***********$$$$$$$$$$$$@@",
"#@@@@@@@@@@@@####XXXXX++@@@@$$$$$$$@@@@@###@@@@$$$$*******************$$$$**$$$@@@#XXXXX+@@@@@@##XXXXXXXXXXXX#@@$$*****$@@@@*********@@@@@@@@@###XXXoo. .. o ooooo..oXXXXXXXXXXXo...ooXXXXXX##@@@@XXXX....oXXX#@@@@#XX..    ....        ..    ...... ...........................XX....XXXXXXXXXX#####@$$*==-----------------------------=@@@@=--------------------------------@+%%&&&&%%++++++++++++++OO++++++%%++++OOOOOOOOOO+++++XXXXXXX##XXXX@@$*$@@@@@$$$$$$*===:&&%++X$------------------------------------&+%&&&%++OOOOOOOOOO++%&&+%=;------------------------------------;$OOOOOO+++OOOOOOOOOO++++++++++@&@@$$========-====--------=@O++++&-------------------------------------------------------------------------------------------=$#OO+OO+OOOOOOOOOOOOOOOOOOO++O++++++++++++@@@$*===-----;;;----------------------------=*&&&%@=------------------------------------------------------==&&&&+OOO.OOOO+%%%%++OOOOOO.O...OOOOO.O....OOOOOOOOOOOOOOOOOOOOOOOOOOX@------------------------------;@%%&&&%%%%%%%%%&&::&&&:=;--------------------------=$&====;;;=***********$@@@#####+@@$**===****@@@@@@@$@@####XX#XXXXXXXXXXXXXXXXXXXXXXXXXXXXXXXXXXXXXXXXXXXXXXXXXXXXXXXXXXXXX###@############@@@@@@$$****=================*****$$$$$$$$$***********==*=****====;;;;;;;;;;;;;;;;;;;;;-=====***********$$$$$$$$$$$@@@@@@@",
"##@@@@@@@@@@@####X##X#+@@@@@$$$$$$$$@@@@###@@@@$$$$**************************$$@@@@###+##@@@@@###XXXXXXXXXXXX#@@$$*****@@@@@*********@@@@@@@@@###XXXoo.o. .    .oo..XXXXXXXXXXXXoo.ooooXXXXX##@@@@XXXX....o.XX#@@@@#XX..      ..      . ..    ..        ..................XX...........XXXXXXX#@@*==-----------------------------------=@@@@$=-------------------------------*@+%%&&&&&%+++++++++++++++++++++++++++++++++++++++++++@@@@@@$$========;======--------;;:&&%++@=------------------------------------&+%&&&%+OOOOOOOOOOO++%&&%&=;------------------------------------=@OO+++OO+O+OOOOOOOOOOOOO.OXOO+++X#X###@@@@@@@@@$$$*=======@+++++&--------------------------------------------------------------------------------------------=*++O++OOOOOOOOOOOOOOOOOOO++OOOO++++++++++XX####@@@$$$*===----------------------------=*&&&&&=------------------------------------------------------==&&&&%+++OOOO++%%&%++OOOOOOOOOOOOOOOOOOO.OOOOOOOOOOOOOOOOOOOOO....OO.O+------------------------------;$&&&%%%+%%%%%%%&&::&&&:==--------------------------;=&==&==;;=******=****$@@@#####+@@$**===****@@@@@@@@@@##X#XX#XXXXXXXXXXXXXXXXXXXXXXXXXXXXXXXXXXXXXXXXXXXXXXXoooXXXXXXXXXXX###############@@@@@@$***=================*******$$$$$$$$$****************=====-;;;;;;;;;;;;;;;;;;;;-======***********$$$$$$$$$$$$@@@@@@##",
"##@@@@@@@@@@@#####+###@@@@@@$$*$*$$$@@@@###@@@@$$$****************************$$@@@@@@#+#@@@@@@@##XXXXXXXXXXX#@@$$******@@@@*********@@@@@@@@@##XXXXoooooooo  oo...XXXXXXXXXXXXXooo.o.oXXXXX##@@@@XXXX....X.XX#@@@@#XXoo .                    .    ...    ......................XXooX##@@$*===----------;;------=======================$@@@$=-------------------------------=@++%%%%&&&&%+++++++++++++++OOX+X+++@@@@@@$$$$$***===-----------------------------------=&&%++$------------------------------------=%+%&&&%++OOOOOOOOOO++%&&@&--------------------------------------=@OOO++OOO+OO++++++++++++O+++++++++++++++++++++++++++++&%+%+++++@=----------------------------------------------------------------------------------------------=@++OOOO+O+O++++++O+++++++++++++++++++++++++++++++++%&&:&&&======;;;;;;;------------;*&&&&&=------------------------------------------------------===;;:==$$$$@@@@@@@@#XXXXoo.................OOOOOOOOOOOOOOOOOOOOOOOOOOO+=-----------------------------;=&%%++++%%%%%%%%&::&&&:&:;;------------------------;====&=;;;=***********$@@@####++@@$*====****$@@@@@@@@@########XXXXXXXXXXXXXXXXXXXXXXXXXXXXXXXXXXXXXXXXXXXXXooXXXXXXXXXXXXX############@@@@@$$***===================***$$$$$$$$$$$$******=======**======-;;;;;;;;;;;;;;;;;;--======************$$$$$$$$@@@@@@@#######",
"##@@@@@@@@@@####+####@@@@@@$***$**$$@@@@###@@@@$$$$*****$**********************$$@@@@@@@@@@@@@@@##XXXXXXXXXXX#@@$$******@@@@*********@@@@@@@@@##XXXXooooooo.  oo...XXXXXXXXXXXXXooo.ooXXXXXX#@@@@@#XXX....X.XX#@@@@#XXoo..     .              ..    ..     ..................XXXX#@@$====---====$$$$$@@@@@$@$@@@@@@@@@@@#####@##@#@@@@@@++@=--------------------------------=@++++%%%&&&&%++++++++++++++&&&&&&&======-----------------------------------------------&&&&+%=;-----------------------------------$+O%&&&%++OOOOOOOOOO++%&&+=--------------------------------------&+++++++++++++++%%++%+++++++++++++++++++++++++++++++++++++++%%%%$=----------------------------------------------------------------------------------------------;=%++++++++++++++++++++++++%++++++++++++++++O++++++++&&&&++##@@@@@@$====------------;=&&::&=------------------------------------------------------==&=:=====--=;==;=====@@@@@@+++XXO....OO..OOOO.OOOOOOOOOOOOOOOOOOOOOOOO+=-----------------------------;=%+++++++%%%%%%%&::&&&&&:=;------------------------;-===&=;;;=***********@@@@####++@@$*====****$@@@@@@@@@######XXXXXXXXXXXXXXXXXXXXXXXXXXXXXXXXXXXXXXXX#XXXXXooooXXoXXXXXXXXX#####@@@@@@@@@@$***======;===========*****$$$$$$$$$$$*********============-;;;;;;;;;;;;;;;;;;-=====**************$$$$$$$$$@@@@@@@@########",
"###@@@@@@@@+###+###+#@@@@@$$$*****$@@@@####@@@@@$$$$$$$$$$**********************$$@@@@@@@@@@@@@@##XXXXXXXXXXX#@@@$******@@@@*********@@@@@@@@@##XXXX..o..o.   .o...XXXXXXXXXXXXXooo...XXXXXX##@@@@#XXX....XXXX#@@@@#XX.o.o      ..                  ...     ......ooo......XX###@@@####@@@@@#XXXXXXXXXX+++@@@@@@@@@++@@+++++@@@@@#++++++#@$--------------------------------=@+++++%%%&&&&&&&&&&&&==========------;;;----------------------------------------------;=&&&&@&------------------------------------=@++%&&&%+++OO++++OOO++%&&$;--------------------------------------&&&&&&&&&&&&&&&&&&&&&&&&&&&&&&&&&&&&&&&&&&&&&&&&&&&&&&&%%%%&&&&&=;------------------------------------------------------------------------------------------------=@%%%%%%%%%%%%%%%%%%%%%%%%%%%%%%%%%%++++++++++++++%&::&%++++++++++%&&&&&&&*===-;;;;&&&::&=--------------------------------------------------------=*$@+@$$=====;;;;;;;--------===*$$$@#####XXoXXXXXX..OOOOOOOOO..OOOOOO+*-------------------------------&++++++++%++%%%&::&&&&&&=;--------------------------===&=;;;=***********@@@@@@####@@$*==*=****$@@@@@@@@@######XXXXXXXXXXXXXXXXXXXXXXXXXXXXXXXXXXXXXXXX##XXXXoooooooXXXXXXXXX####@@@@@@@@@$**==================*****$$$$$$$$$**************==========;;;;;;;;;;;;;;;;--=======***********$$$$$$$$$$@@@@@@@#############",
"+#@@@@@@###+#+++X+++#@@@@@$$*****$$@@@@####@@@@@$$$$$$$$$$$$********************$$$@@@@@@@@@@@@@##XXXXXXXXXXX#@@@$******@@@@*********@@@@@@@@@##XXXX...... .  .ooo.XXXXXXXXXXXXooo...XXXXXXX##@@@@#XXX....XXXX@@@@@#XXo..o       ..   ..       .    ... .   ......ooo.......XXXX..XXoXX#@@@@##XXXXXXXXOO++++@@&&@@@+++++++++@@@@##+++++##@=--------------------------------*++++++++%%&&&&&&&&=========------------------------------------------------------------*%&&%&=------------------------------------=#++%&&&%++OOO++++OO+++%&&=;-------------------------------------=&&::::::::::::::::::::::::::&:::::::::::::::::::::::::::::::::::=;------------------------------------------------------------------------------------------------;=&:::::::::::::::::::::::::::&&&&&%%+++++++++++++%&::&%++++++++++%&&&+++######@@$&+%&::&=--------------------------------------------------------;;=$++XX##@@@$===;-;------------------====$$@@@@@@+++++++OOOOOOOOOOOO+$-------------------------------&O+++++++%++++%&::&&&&&&=;--------------------------;====;;;=***********@@@@######@@$*====***$$@@@@@@@@@###X#X#XXXXXXXXXXXXXXXXXXXXXXXXXXXXXXXXXXXXXXX#XXXoXoooooooXXXXXXXXX##@@@@@@@@@$**==================***$$$$$$$$$$*****************======-;;;;;;;;;;;;;;;;;-=======************$$$$$$$$$$@@@@@@@###############",
"##@@@@@@###+XX+XXX##+#@@@@$$****$$$@@@@@##@@@@@@@@@@@$$$$$$$$$$$$$$$$**$$$$$$$$$$$$@@@$$$$$@@@@@@#XXXXXXXXXXXX@@@$****$$@@@@*********@@@@@@@@@@#XXXXoo. ........ooooXXXX####XXXXXXXX...XXXXX##@@@@#XXXo...XXXX#@@@@#XX..    ... ..   .          o...........  .. ............XXXX.X.XX#@@$@@@#XX........XXXXX+@@&&&@@+++++++++++++++++@X@=--------------------------------=@++++++++++%%&&&&&&&&&&&%+++@@@@&&&@@@@@&&&&&&&&$$&&&&&&&==============;=========--;=;=&&%&&&=-------------------------------------&X++%%&&%+O+O+OOOOOOO++%&&=-------------------------------------;=&&&&&:&&&&&&&&&&&&&&&&&&&&&&&&&&&&&&&&&&&&&&&&&&&&&&&&&&&&&&&&&&=---------------------------------------------------------------------------------------------------:=::::::::&&:&&&&:&&&&&&:&&&&&:::&&%%+++++OOOO++%&::%%++++++++++%&:&%++++++++++++%%%&:==------------------------------------------------------------&+OOOOOOO+%&&&&&$==---------------------------====*$$@@###XXXXOO++@=------------------------------&X++++%%%%%%%%%&::&&&&&&&:----------------------------=*=;;;=******=****@@@@#####+@@@*===***$*$@@@@@@@@@###XXXXXXXXXXXXXXXXXXXXXXXXXXXXXXXXXXXXXXXXXXX##XXXoooXXXooXXXXXXXX##@@@@@@$****=====;=========****$$$$$@@@$$$******************=====-;;;;;;;;;;;;;;;;--=====************$$$$$$$$$$@@@@@@@##################XX",
"##@@@@###+#XXXXXXXX#+#@@@@$$****$$$@@@@@##@@@@@@@@@@@@$$$@$$$$$$$$$$$$$$$@$@$@@@@@$@@$$$$$$$$@@@@#XXXXXXXXXXX#@@$$*****$@@@$*********@@@@@@@@@@##XXXooo.........ooooXXXX#####XXXXXX.X.oXXXXX##@@@@#XXXo...XXXX#@@@@#XX..o   ...  .          .   ..... ......o.........o......XXXX.X.XX#@$$@@@#XX..XX....XXXXXXX+@&&&&@@@+++++++++++++++@$---------------------------------*#+++++++++++%%%%%%%%%++++++++O+++++XXXXXX++++++++#++@++++##XXXX######+@&@@@###@@@@@@@@#++%&&&=-------------------------------------@XO+%&&&%+OOO+OOOOOO+++%&:--------------------------------------;=%%%%%%%%%%%%%%%%%%%%%%%%%%%%%%%%%%%%%%%%%%%%%%%%%%%%%%%%%%%%%%%&=---------------------------------------------------------------------------------------------------=&&%%%%%%%%%%%%%%%%%%%%%%%%%%%%%&::&%++++OOO++++%&:&%%++++++++++%&:&%+++++++++++++%%&&==------------------------------------------------------------=&+.OOOOO+%%&%+OXX##@$==--------------------------;-----====*@++++@=------------------------------&+++++%%%%%%%%%&::&&&&&&&:----------------------------;==;;;=******==***@@@@######@@$**=****$*$@@@@@@@@@###XXXXXXXXXXXXXXXXXXXXXXXXXXXXXXXXXXXXXXXXXXXX#XXXoooooXoXXXXXXXX###@@@@@***=================**$$$$$$@@@$$$*****=====*******=====--;;;;;;;;;;;;;;;;=======*************$$$$$$$$@@@@@@@@@@################XXXX",
"##@@@#####+XXXXXXXX+++@@@@$$*****$$@@@@@##@@@@@@@@@@@@@@@@@@@@@@@@@@@@@@@@@@@@@@@@@@@@$$$**$$$@@@@#XXXXXXXXXX#@@$$*****$@@@$*********@@@@@@@@@@##XXXoooo  ....oo..oXXXXX#####XXXXXXXX..XXXXX#@@@@@#XXX..XXXXX#@@@@@@XX..ooo .             ....  ..  ....o...o.ooo.............XXX.X.XX#@$$@@@#XXXXXX....XXXX....O++@&&@@@@@@++++++@+++#$---------------------------------=@+++++++++++++++%%%%%%%%%%%%%++++++++++OO++++++++++++%%%++O+OOOOOOOOOO+%&&%+OOOOOOOOOO+O++%&&&-------------------------------------$+OO+%&&&%+OOOOOOOOOO+++%&:--------------------------------------=@%%++++++++++++++++++++++++++++++++++++++++++++++%%+++++++++++++&----------------------------------------;;=;--------------;-----------------------------------------=@++++++%+++%%%%%%%%%%%%%%%%+%++%&::&%++++++++++%&:&%%++++O+++++%&:&%%++++++++++++%%&&==--------------------------------------------------------------$#+OOO++%%&%+OOOOOOOO++@@$===;-----------------------------=@+++@=------------------------------=@++++%%%%%+%%%&::&&&&&&&:----------------------------;==;;;=******==***$@@@#@####@@$*===***$*$@@@@@@@@@###XXXXXXXXXXXXXXXXXXXXXXXXXXXXXXXXXXXXXXXXXXXX##XXXoXXXXXXXXXXXX#@@@@@@***================***$$$$@@@@$$$$****=====********====-;;;;;;;;;;;;;;;;--====************$*$$$$$$$$@@@@@@@####################XXXXXoo",
"++@@@@#+#+XXXXXXXXX+++@@@@$$******$@@@@@####@#@#@@@@@@@@@@@@@@@@@@@@@@@@@@@@@@@@@@@@@@$******$$@@@#XXXXXXXXXX#@@$$*****$@@@$*********@@@@@@@@@@##XXXoooo   ..ooo..XXXXXX#####XXXXXXXXXXXXXXX#@@@@@#XXXo.XXXXX#@@@@@@XX..o...               ..... .      ........o.................X.XX#@$$@@@#XX..XXX...........OOO+@@@@&&@@@@++++++++@=---------------------------------$@+++++++++++++++++%%%%%%%&&%%%+++++++++++++O+++++++++%%%%++OOOOOOOOOOO+%&&%+OOOO.O..OOO+++%&&=-------------------------------------@+OO+%&&&%+OOOOOOOOO++++%&;--------------------------------------*#++++++++++++++++++++++++++++++++++++++++++++++++%++++%+++++++++&----------------------------------------==$$$$$$*$$$$$$$$*==----------------------------------------;$+O+++++++++++++%%%+%%%%%++++%%%%&:&%++++++++%+%&:&%%++++++++++%&:&%+++++++++++++%%%&=;--------------------------------------------------------------;=+OOO++%%&%++OOOOOO.O.XXXXX#@$$=--------------------------=++++@=------------------------------;*&+%+++%%+++%%&::&&&&&&&:----------------------------;;=;;;=******==***$@@@@@####@@$*==***$$$$@@@@@@@@@###XXXXXXXXXXXXXXXXXXXXXXXXXXXXXXXXXXXXXXXXXXX###XXXXXXXXXXXXXXXX#@@@$**===============*****$$@@$$@$$$$******=====*******===-;;;;;;;;;;;;;;;;;=====**************$$$$$$$$$$@@@@@@@################XXXXXXXXoooo",
"++@@@@@##XXXXXXXXX+++@@@@@$$******$$@@@@@@#@####@@@@@@@@@@@@@@@@@@@@@@@@@@@#####@@@@@$$******$$@@@#XXXXXXXXX##@@@$*****$@@@@*********@@@@@@@@@@##XXXo.o.  ...ooo..oXXXXX#@@##XXXXoooXXXXXXXX#@@@@@#XXXoX..XXX#@@@@@@XXoo.o..                        ...  .   .....................X.XXX@@@@@@#XX..XXXXX.X.XXXXXXXXXX#@@@@@@@@@@@@@++#+$---------------------------------=@+++++++++++%++++++++%%%%%%&&&%%%%++++++++++++%+++++++%%%%+OOOOOOOOOOOO+%&&%+OOOOOOOOOOO+++%&=;------------------------------------=#OOO+%&&&%++OOOOOOOOOO++&=;--------------------------------------*@@#####@#@#####@@@@@@@@@@@@@@@@@@@@@@@@@$@$@@$$$$$$$$$$=$++++++@=---------------------------------------=%++++++++++++++++++&==---------------------------------------=@@+++###+++#+###XX+++++++++++++%&:&&++++++OO++%&:&%+++++++++++%&:&%++++++++++++++%%&=;----------------------------------------------------------------=@OO++%%&%++OOOOOOOOOOOOOOOOO+++@@$===--------------------@O+++=-------------------------------=+++++++%%%%%%&::&&&&&&&&=;----------------------------;=;==******==***@@@@######@@**====****$@@@@@@$@@######XXXXXXXXXXXXXXXXXXXXXXXXXXXXXXXXXXXoXoXX###XXXXXXXXXXXXX##@@@**================***$$$$@@@@@$$$$$**********=**=======-;;;;;;;;;;;;;;---===**************$$$$$$$$$$@@@@@@#####################Xooooooooooo",
"++@@@@@+##XXXXXXXX+++@@@@@$$*******$@@@@@@@@@#@@@@@#@@@@@@@@@@@@@@@@@@@@@@#@#@##@@@@@@$*******$$@@@##XXXXXXX##@@@$****$$@@@@*********$@@@@@@@@@##XXXo...  ...ooo..oXXXXX#@@##XXXXoo.XXXXXXXX#@@@@@#XXXoo..XXX#@@@@@@XXooo...                   .       . .   .......o...............XX#@@@@@@#XX....XXXX...XXXXX.XXXX#@@@@=======@++@@=;--------------------------------$X++O+++++++%%%%++++++++++%%%%%%&%%%%+++++++%++++++++++%%%%+OOOOOOOOOOOO+%&&%+OOOOOOOOOO+O+%%&=;------------------------------------$XOOO+%%&&%++OOOOOOOO++++&=;---------------------------------------=======-====;;;======;;=;;;;;;;;;----;;;;----=--=;;;;--;=%+++++$=---------------------------------------*++O+++++++++OOOOOOO+@=----------------------------------------==============$$$@&&@@&@++@++%%&&:&&++++++++++%&::%+++++++++++%&:&%+++++++++++++%%%:=;----------------------------------------------------------------;$+O++%%&%%+OOOOOOOOOOOOOOOOOOO.XXXX##@$$*==--------------@O+++&-------------------------------=+O++++%%%++%%&::&&&&&&&&=;----------------------------;=;==******==***@@@@######@@**===***$$$@@@@@@$@@######XXXXXXXXXXXXXXXXXXXXXXXXXXXXXXXXXXXoooXXX##XXXXXXXXXXX##@@@**==============*=***$$$@@@@@@@$$$***************=====--;;;;;;;;;;;;;;;====***************$$$$$$$$$$@@@@@@###################XXXXoooooooooooo",
"++@@@@@####XXXXX##+++@@@@@$$*******$@@@@@@@@@@@@##########@@@@@@@@@@@@@@@@@@@@@@@@@@@@$$******$$@@@@##XXXXXXX#@@$$****$$@@@@*********@@@@@@@@@@##XXXo...  o...oo.XXXXXXX#@@##XXXXoo.XXXXXXXX#@@@@@#XXX....XXX#@@@@@@XXoooo.. ...    ..          ..     .    .ooo..ooo.........XX....XX#@@@@@@@XXooooooXXoooX#####@@$*==---------;$@@@$---------------------------------=@O++O+++++++%%%%%++++++++++%%%%%%%%%%%%%%%%%%%++++++++%%%%%+OOOOOOOOOOOO+%&&%+OOOOOOOOOO+O++%&=;-----------------------------------=@OOOO+%%&&%+++OOOOOOO++++&=;------------------------------------------------------------------------------------------------+++O++$----------------------------------------$++O++++++OO+OOOO++OO+&=---------------------------------------======-;;---------------==---========*==**$$$$$===$@@@@@@@@@+@&&&&@++#+#+++++++++%%&&;------------------------------------------------------------------$#++%%&%+OOOOOOOOOOOOOOOOOOOOOOOO+OOOOO+++@$*==---------@.O++&--------------------------------@X+++++%%++%&&::&&&&&&&&=;----------------------------;-;==*****===***@@@@#XX#XX@@**====***$$@@@@@@$@@#####XXXXXXXXXXXXXXXXXXXXXXXXXXXXXXXXXXXXooooXX#XXXXXXXXXX##@@$*==============*****$$$$@@@@@@@$$$**************=====;;;;;;;;;;;;;;;;--====************$$$$$$$$$$$$@@@@@@##################XXXXXXXXoooooooooooo",
"#@@@@@@@####XX#X###+++@@@@$$*******$$@@@@@@@@@@@@########@@@@@@@$$@@@@@@@@@@@@@@@@@@@@$*******$$@@@@@##XXXXXX#@@$$*****$@@@@*********@@@@@@@@@@@#XXXo... o....oo.XXXXXX##@@##XXXXXo.XXXXXXXX#@@@@@#XXXX...XXX#@@@@@@XXoooo.. ...  ....         .       ..  ..ooo.oooo...o..X...X....XX#@@@@@@@#XXXXXX###@$$*===-----------------=@@@@=---------------------------------$+++++++++++++%%%%%++++++++++%%%%%%%%%%%%%%%%%%%++++++++%%%%+OOOOOOOOOOOO++&&%+OOOOOOOOOO++++%&-;-----------------------------------=+OOOO+%%&&%+++OOOOOOO+O++&=;-----------------------------------------------------------------------------------------------=+O++++*---------------------------------------=$+OOO++++++++OOO+OOO++%=---------------------------------------=@###@@@$$====------------------;;;;--------;-;;;;;==;-========:::=&&&&$&&@@%++++%%&&:=-----------------------------------------------------------------=@++%%&%++OOOOOOOOOOOOOOOOOOOOOOOOOOOOOOOOXXX##@$$=-----&OO++&--------------------------------@X+++++++++%%&::&&&&:&&&=;----------------------------;;;;=*****===***@@@###XXXX#@***==****$@@@@@@@$@@####XXXXXXXXXXXXXXXXXXXXXXXXXXXXXXXXXXXXXoooooXXXXXXXXXXX#@@@*==============**$$$$$$$$@@@@@$$$$$************=====-;;;;;;;;;;;;;;;;======*************$$$$$$$$$@@@@@@@@##############XX##XXXoooooXXoooooooooooo",
"##@@@@@@@@@@@@@@#++++@@@@@$$*******$$@@@@@@@@@@@@#######++@@@@@@@$$$$$@@@@@@@@@@@@@@@$$******$$$@@@@@##XXXXX##@@@$****$$@@@@*********@@@@@@@@@@@#XXXoo..oo  .....XXXXXX#@@@@##XXXX.ooXXXXXXX#@@@@@@#XXo...XXX#@@@@@@#XXo....       .     ..     ....        ..  .. .............XooXX###@@@@@@$$$$$*=--------------------------=@#@@$---------------------------------=@+++++++++++++++++++%+++++++++++++%%%%%%%%%%%%%%%+OOO++++%%%+OOOOOOOOOOOO++&&++OOOOX.X..++O++@=------------------------------------=@OOOOO+%&&&%+OOOOOOOOOO++@&--------------------------------------=$&$$======-=----------------------------------------------$+O++++=---------------------------------------=@+++++++++++++O++O+++++$---------------------------------------=#OOOOO+++++++@@@&$=====------;-;;-------------------------------------------=$@%%%&:&&&&====;;----------------------------------------------------------=++%%&%++OOOOOOOOOOOOOOOOOOOOOOOOOOOOOOOOOOO+++++++@@@@+OO+O+=;------------------------------@X++++++++%%&&::&&&&&&&&&:------------------------------;==*****===***@@@##X#X##@@$**===***$@@@@@@@@@@##X#XXXXXXXXXXXXXXXXXXXXXXXXXXXXXXXXXXXXXXXXXXX##XXXXXX##@$*=============***$$@@$@@$$$$$$$$$*************====-;;;;;;;;;;;;;;;--====***********$$$$$$$$$$$@@@@@@@@#####################XXXXXXXooooooooooooooooo",
"##@@@@@@@@@@@@@@@@@+@@@@@@@$******$$$@@@@@@@@@@@@########+@@@@@@$$$$$$$@@@@@@@@@@@@@$$*******$$$@@@@@@#XXXXX##@@@$****$$@@@@*********@@@@@@@@@@@#XXXoo..oo o.....XXXXXX#@@@###XXXXXoXXXXXXXX#@@@@@@#XXo.X.XXX#@@@$@@#XXX.....  .   .      .     ..        ....  ...........XXooXXXXX##@$$*====---------------------------------$+X#@=---------------------------------*#++++++++++++++++++++++++++++++++++%%%%%%%%%%%%++++++OO++%%%+OOOOOOOOOOOO+%&&%+++++++++++O+++@=------------------------------------=#.OOOOO%&&&%+OOOOOOOOOO++@=--------------------------------------$#++#####@@@@@$$$$$*=====----------------------------------$+OO++@=---------------------------------------=@++++++++OO++O+++++++++$---------------------------------------=#OOOO++++OOOO++++####@@@$$$===-----------------------------------------------=@%%&&:&%+++@@@$$====-------------------------------------------------------&+%%%%+++OOOOOOOOOOOOOOOOOOOOOOOOOOOOOO++++++++++++XXOOOO+O+=;------------------------------$XOO++++++%%&&::&&&&&&&&&:-;----------------------------;==******==***@@###X#X###@$**==****$@@@@@@@@@@####XXXXXXXXXXXXXXXXXXXXXXXXXXXXXXXXXXXXXXXXXX###XXXXXX#@*============***$$@@@@@@@$$$$*****************====-;;;;;;;;;;;;;;;=====*************$$$$$$$$$@@@@@@@@@@################XXXXXXXXooooooooooooooooo oooo",
"X#@@@@@@@@@$$@@@@@@@@@@@@@@$$$***$$$@@@@@@@@@@@@@@##@####+#@@@@@$$$$$$$$$@@@@@@@@@@@$$******$$$@$@@@@@@#XXXXX#@@$$*****@@@@@*********@@@@@@@@@@@##XXoo.. o  ..oo.XXXXX##@@@##XXXXXXXXXXXXXXX#@@@@@@#XX.XX.XXX#@@@*@@#XXXoo....    ...                 ..........  ..oooXXoooX####@$$*==---------------------------------------=#XX#$---------------------------------=&++++++++++++++++O+++++%++++++++OO+++%%%%%%%%++++++++++++@@@@@######@@@@@@$$===*========*#O+O+$;------------------------------------$#OOOOOO%%&&%+OOOOOOOO+O++@=-------------------------------------=+OOO+OOOOO+++++++++++++++@@@@@@@$$*========---------------=@+++++@----------------------------------------=#O+++++++++++++++++O+++*---------------------------------------=@OOOOOOOOOOOOO++++++O+O+++++++&&&&&&====---;;;;;;----------------------------=@%%&&:&%+++++++++++%&&&&=;;;;;;--------------------------------------------=@+%%%++OOOOOOOOOOOOOOOOOOOOOOOOOOOOOOOOOO+++++++++++OOOOOO+=;------------------------------=#OO+++%++%%&&:&&&&&:&:&&:-;----------------------------;-=******==***@@@@##XX##@@$**==****$@@@@@@@@@@####XXXXXXXXXXXXXXXXXXXXXXXXXXXXXXXXXXXXXXXXXX###XXX##@@*==========****$@@@@@@@@$$******************===;;;;;;;;;;;;;;---====*************$$$$$$$$$@@@@@@@@######################XXXXXXoooooooooooooooooo      ",
"XX#@@@@@@$$$$$$@@@@@@@@@@@@@$$$$$$$@@@@@@@@@@@@@@@@#@+##++##@@@$$$$$$$$$$@@@@@@@@@@@$$$*$***$$$@@@@@@@@@XXXXX#@@$$****$$@@@@*********@@@@@@@@@@@##XXoo..oo o...o.XXXXXX##@@@#XXXXXXXXXXXXXXX#@@@@@##XXXXX.XXX#@@@*@@#XXX.o... o    .                 ..............oXXXX##@$$*====-----------------------------====*$$$$$$$$$@#o.X@=---------------------------------=++++++++++++++++++++++++++%%%%++++++++%%%%%%%%%&&&&&&&&&&============--------;;---------$XO+O+=;------------------------------------@XOOOOO+%%&&%+OOOOOO++OO++$;-------------------------------------$+OOOOOOOOOOOOOOOOOOOXXOOOX+XXX#######@@@@@@$$$$**==-------=@++++@&----------------------------------------$#++++++++++++++++++++++=---------------------------------------=@+OOO++++OOOOOOOOOO+++OO+++++++&&&&+@@@@@@$$====-----------------------------=@%%&&:&%%+++++++++++++++&&&=====-------------------------------------------;=&%&%++++OOOOOOOOOOOOOOOOOOOOOOOOOOOOOOOO++++++++++++OOOO++=;------------------------------=#O++++%++%%&&:&&&&&:&:&&:;;-----------------------------==******==***@@@@######@@$**==****$@@@@@@@@@@####XXXXXXXXXXXXXXXXXXXXXXXXXXXXXXXXXXXXXXXXXXX###XX##@*=======****$$$@@@@@@@@$$***=====********====-;;;;;;;;;;;;;;-====**************$$$$$$$$$$$@@@@@####################XXXXXXXooooooooooooooooooooo        ",
"XX#+@@$$$$*****$@@@@@@@@@@@@@$$$$$@@@@@@@@@@@@@@@@@###++#+++@@$$$$$***$$$$@@@@@@@@@@$$$$***$$$@@@@@@@@@@##XX##@@@$*****@@@@@*********@@@@@@@@@@@##XXXo..oo..oooo.XXXXXX##@@##XXXXXXXXXXXXXXX#@@@@@##XXXXX.XXX#@@@@@@#XXXoo....  oo...   .             .. . ......oXXX#@@@@$$$$$$$$$$$$$*****==*$@@@@@###@#####XX##XXXXXXXXXXXXX.XX$---------------------------------=@%%+++++++++++++OOOOOOOO+++@@@@@@@@@@@@@@@$$$**=====-------------------------------------@.O+++=------------------------------------=+OOOOOO+%%&&%++O+OO+++O+++=;------------------------------------=$+O++++++++++++++++++OO++++++++++%%%+++++%%%%%%%%+++&&&&&&&&%%%+%@=---------------------------------------=&++++++++++++++++++++%+%=---------------------------------------=@++++++++++++++++++++++++++++%%&:&%%%+++++++%%&:&&&&&*====;;;;;;;------------=&%%%&&&%++++O+++++++++++%&&&+++++&&&&=---------------------------------------===*$$@@@####XXXXXXXXXXXXXXXXX+++OOOO+O++++++++++++OOOO+++=;------------------------------=@OO+++%++%%&&:&&&&&&&&&&&=;------------------------------=**$***=****@@@@######@@**===****$@@@@@@$@@@####XXXXXXXXXXXXXXXXXXXXXXXXXXXXXXXXXXXXXXXXXXX######@**=====**$$@@@@@@@@@@@$*****===*=*******=====;;;;;;;;;;;;--====**************$$$$$$$$$@@@@@@@@#################XXXXXXoooooXoooooooooooooooooo           ",
"XX++@@$$********$$@@@@@#@@@@@@$@@@@@@@@@@@@@@@@@@@@###++#+++@@$$$$****$$$@@@@@@@@@@@$$$$*$$$$$@@@@@@@@@@##XX##@@@$*****@@@@@*********@@@@@@@@@@@##XXoo...o..oooo.XXXXXX##@@##XXXXXXXXXXXXXXX#@@@@@##XXXXXXXXX#@@@@@@#XXXoo....oooo ...  ..         .  ...  .......o..oXXXXXooooooooo####@@@@@@#XooooooooooooooooXoXXXXXXXXXXXXXXX@=---------------------------------&+%++++++++++++++++++++++++@$$============-----------------------------------------------=#XO++&-------------------------------------$+OOOOOO+%%&&%+OOO+++++O+++=;------------------------------------=@++++++++++++%+%%%%%+++++++%+%%%%%%%%%+%%%%%%%%%%++++++++++++%%+%@=---------------------------------------=&+O+++++++%%++++++%%+%+&=---------------------------------------=@%+++++++%%%%%%+++++OOOO+++++%%&&&%%%++++++++%&&&&+++###@@@@$==;-------------=&%%%%&&%%+++OOO+++++++++%&&&+OOOOO+++@=--------------------------------------;;;;;;;;-=========*$$$@@@@@###+++OOOOO++++++++++++++OOOO++$;-------------------------------$OO+++%++%%&&:&&&&&:&&&&&=;------------------------------=$*$***=****@@@@#####@@$*==******$@@@@@@@@@@####XXXXXXXXXXXXXXXXXXXXXXXXXXXXXXXXXXXXXXXXXXXX####@@*====**$@@@@@@@@@@@@$$****************=====;;;;;;;;;;;;====***************$$$$$$$$$@@@@@@@@@##################XXXXXXXooooooooooooooooooooo              ",
"XX#+@@$*********$$@@@@###@@@@@@@@@@@@@####@@@@@@++++##XX##++@@@$$$$**$$$$@@@@@@@@@@@$$$$****$$@@@@@@@@@@#XXX##@@@$****$$@@@@*********@@@@@@@@@@@##XXooooo ..oooo.XXXXXX#@@@##XXXXXXXXXXXXXXX#@@@@@##XX....XXX#@@@@@@#XXXooo...ooo ..    .    .   ...   ...  ...o......XX...XX.....o.XX#@@@@@@@+X.. .............................#$---------------------------------=&+%%+++++++++%&&&&&&==========;;;;;;-;;--------------------------------------------------$OOO+@=------------------------------------=@OOOOOOO+%%&%%+OOO++O+++++$------------------------------------;-&&%&&&&&&&&&&&&&&&&&&&&&&&::::::::::::&&&&&&&&&&:&&&&&&&&&&&&&&&&&=;---------------------------------------=&&&&&&&&&&&&&&&&&&&%&&&&----------------------------------------=&&&&&&&&&&&&&&%%%+++++++++O+++%&:&%%%+++++++%%&:&&%++++++OO++%&::&&&=====;;;;:&%%%&&&%%++OOO+++++++++%%&&&%O++++++%%&--------------------------------------;-;;;;----------------------==*$$$@@#######X##++X+OOOOOO++@;------------------------------;$++++++++%%&&:&&&&&:&&&&&=;------------------------------=$*$********@@@@##++#@@@$$********$@@@@@@@@@####XXXXXXXXXXXXXXXXXXXXXXXXXXXXXXXXXXXXXXXXXXXX####@$*===**@@@@@@@@@@@@$$$$$$************=======-;;;;;-======*************$$$$$$$$$@@@@@@@@##################XXXXXXXXXXoooooooooooooooooooo    oo            ",
"XX+@@@$**********$$@@@####@@@@@@@@@########@@+@@++++##XX##++@@@$$$$$$$$$$@@@@@@@@@@$$$$$*****$@@@@@@@@@@#XXX##@@@$****$@@@@@*********@@@@@@@@@@@##XXoooo.o..oo.o.XXXXXX#@@@@#XXXXXXXXXXXXXXX#@@@@@##XX..X.XXX#@@@@@@#XXXoX....ooo       ..   .  ....    ..o....o.......X..........o.XX#@@@@@@@+.................................#=---------------------------------=&+%%++++++++++&&&&&&================-----------------------------------------------------@OOO+@=------------------------------------=#O+OO++OO%%&%%+OOOOOOOO++@=--------------------------------------&&:&::&&::&&&&&&&&&:::::::::::::::::::::::::::::::::::::::::::::::=;---------------------------------------=::::::::::::::::::::::&:----------------------------------------;=:::::::::::::&&%+++OOOO+OO++%%&&&%%%+++++++%%&::%%++O++++O++%&&&&++@@$$*====&+%%%&&&%%++O+OOO++O++++%%&&&+OOO+++++%&-;------------------------------------==$$==-------------------------------=====*$$$$@@@+++OOO++@;------------------------------;*++++++++%%&&:&&&&&:&&&&&=;------------------------------=**$********@@@@##++#@@@@@@@@****$$@@@@@@@@@####XXXXXXXXXXXXXXXXXXXXXXXXXXXXXXXXXXXXXXXXXXXX###@@*=====*@@@@@@@@@@@@@@@$$$$$$******=================****************$$$$$$$$$$@@@@@@######################XXXXXXooXXXooooooooooooooooo                    ",
"X+++@@$***********$@@@######@@@@@@@#XXXXX##@@@##+###++++##++@@@$$$$$$$$@@@@@@@@@@@$$$$$******$$@@@@@@@@@##XXX#@@$$****$@@@@@**********@@@@@@@@@@##XX.o.. ooooo..XXXXXXX#@@@@#XXXXXXXXXXXXXXX#@@@@@##XXXXX.XXX#@@@*@@@#XX.ooo..ooo                     ..o .....oo.....XX.....XX...X.XX+@@@@@@@#.oooo .. .......................X$---------------------------------;$&&&&%%%+++++++++++++++++++++++++++++++++@+++++++@&&&&@@@&&&&==========--=======;;;-=---==@OOOO$-------------------------------------=+++++++++%%&&+++++OOOOO++$-------------------------------------;=:&&&%%%%%%%%%%%%%&&&&&&&&&&&&&&&&&&&&&&&&&&&&&&&&&&&&&&&&&&&&&&&&&=---------------------------------------;=:&&&&&&&&&&&&&&&&&&&&&=;----------------------------------------;=&&&&&&&&&&&&&&&:%%+O+++++O+++%&&&%%+++++++++%&::%%+++++++++%%&&&%%%&&&&&&&%%++%%%&&&%%++++++O+++++++%%&&%%O+OOOO++%&--------------------------------------;=&++++++@$===--;----------------------------------=$#+O++@=-------------------------------=@+%%%%+++%&&:&&&&&:&&&&&=;------------------------------=******=****@@@@##++##@@@@@@@****$$@@@@@@@@@###XXX##XXXXXXXXXXXXXXXXXXXXXXXXXXXXXXXXXXXXooXX#X#@$*=====**@@@@@@@@@@@@@@@@$$$******============******$$$$*******$$$$$$$$$@@@@@@@@@###################XXXXXoXXoooooooooooooooooooooo  ooo                   ",
"X+++@@***********$$@@@##XX##@@@@@@@#XXXXXX###+##+#XXXXXXXX++@@@@$$$$$$$@@@@@@@@@@@$$$$$******$$@@@@@@@@@##XX##@@$$****$@@@@@**********@@@@@@@@@@##XX.o.. ooooo...XXXXXX#@@@@#XXXXXXXXXXXXXXX#@@@@@##XXXXX.XXX#@@@*@@##XX..oooo.ooo.                  ...o.....oo......XX........X.XXXX#@@@@@@@#Xooo  ......................... #=---------------------------------=@&&&&&&%%%%%%+++++++++++++++++++OOOOO++O+++++OOOOO+XX+X##++++@@@@#########@@@@@@$@@@@@@@@#X.OO+*-------------------------------------&&&%++++++%%&&++++O+OOOO+@=-------------------------------------;=&%%%++%%+++%%%%%&%%%%%%%%%%%%%%%%%%%%%%%%%%%%%%%%%%%%%%%%%%%%%%%%&=---------------------------------------;=&%%%%%%%%%%%%%%%%%%%%&=;----------------------------------------:&%%%%%%%%%%%%%%&:&%+OOOO+OO+++%&:&%%%++++++++%&::%%+++++++++%%&&&&&&&&&%%%%%%++%%%%&%%+++++++++++++++%%&&%%OOOO++++%&--------------------------------------;=&+++OOXXXX###@$*=----------------------------------$+++++=--------------------------------&@&%%%+++%&&:&&&&&::&&&&&;------------------------------=******=****@@@@##++#@@@@@@@*****$$@@@@@@@@@####XX###XXXXXXXXXXXXXXXXXXXXXXXXXXXXXXXXXXXXXXX#X#@**=====**@@@@@###@#@@@@@@$$****===========******$$$$$$$$$$$*$$$$$$$$@@@@@@@@@#################XX###XXXXXoooooooooooooooooooooooooo    o                   ",
"XX++@@************@@@@XXXX##@@@@@@@#XXXXXX##+++X+XXXXXXXXX#+@@@@@$$$$$@@@@@@@@@@@@$$$$*******$@@@@@@@@@###XXX#@@$$****$@@@@@*********@@@@@@@@@@@##XXoo......o...XXXXXXX#@@@@#XXXXXXXXXXXXXXX#@@@@@#XXXXXoXXXX#@@@*@@@XXXXX....oooo. . .               ..o.....oo.......X..........XXXX@@@@@@@@#o................XXXXXXXXoo....o$---------------------------------=@+++%%&&&&&&%%%++++++++++++++++++OOOOOOOOO++++OOOOOOOOOOO+++%%%%++OOOOOOOOOOOOO+%&%++OOOOOOOOO++=-----------------------------------;=++%%%+++++%%&&%+++O+.OX#@=--------------------------------------;&%%%%++++++++++&&&%%%%%%%%%++++%%%%++++%+%%+++++++%%++++%%%%%%%+++&----------------------------------------;$%%%%%%%%%%%%%%%%%%+%&=------------------------------------------=++++++++%%%%%%%&:&%++++++++++%%&:&%%%++++++++%&:&%%++++++++++%&&&=*&&@+++++++++%%%&&%%%++++++++++++%+%%&&%%++OO++%++&--------------------------------------;=&%+++OOOOOOOOOOOO+@@$$==-;;;-----------------------*+++++=--------------------------------&&%%+++++%&&:&&&&&&&&&&&&:-------------------------------**********$@@@@####@@@@$$$$****$@$@@@@@@@@@######@@##XXXXXXXXXXXXXXXXXXXXXXXXXXXXXXXXXXXXXXXX@@*======**@@@########@@@@$$*****========******$$$$$$$$$$$$$$$$$$$@@@#@#########################XXXXXXXXoooooooooooooooooooooooooooo                        ",
"XX++@@$**********$@@@@XXXX##@@@@@@@#XXXXX####+XXXXXXXXXXXX#+@@@@$$$$$$@@@@@@@@@@@$$$$$*******$@@@@@@@@@###XXX#@@$$****$@@@@@*********@@@@@@@@@@@##XXXXoo....o...XXXXXXX#@@@@#XXXXXXXXXXXXXXX#@@@@@##XXXoooXXX#@@@*@@@#XXooXX..oo... .                 .......ooo...........XX.....XXXX@@@@@@@@XX................X...oooXXX....#=---------------------------------$+X++++%%%&&&&&&%%++++++++++++++++++OOOOOOOOOOOOOOOOOOOOOOOO++%%%++O+OOOOOOO++OO+%&%+OOO.O.OOOO+@-------------------------------------$++++++++++%%&&+++OO+++@@=---------------------------------------&&%+%%+++++++++%&:&%%%%%%%%%%%++%%%%%+++%%%%%%+%%%%%%%%%+++++++++++=----------------------------------------=@++%%%%%%%%%%%+%%%%&&=;------------------------------------------&+++++++++++%%%%&&&%++++++++++%%&&&%%%++++++%%%&&&%%+++++++++%%&:;;;;==&++++++++%%%%&%%%%+++++++++++++%%&&%%+++++++++&--------------------------------------;=&%++OOOOOOOOOOOOO.OXXX###@$$==---------------------=+X+++=--------------------------------&++++++++%&&:&&&&&&&&&&&&:-------------------------------**********@@@@####@@@@$$$*******@@@@@@@@@@@@##@@@@@@@##XXXXXXXXXXXXXXXXXXXXXXXXXXXXXXXXXXXXX#@@*====***@@##########@@@@$$***===**********$$$$$$$$$$$$$$$$$$$$@@@@###########################XXXXXXXoooooooooooooooooooooo o                              ",
"XX@@@@***********$@@@@#XXX##@@@@@@@#XXXXXX###+XXXXXXXXXXX+++@@@$$$$$$$$$@@@@@@@@@@$$*********$@@@@@@@@@@##XX##@@@$******@@@@*********@@@@@@@@@@@##XXooooo........XXXXX##@@@@##XXXXXXXXXXXXXX#@@@@@@#XXoooXXXX#@@@@@@#XXXoXXXXXooooo   ..       o   .  ..o................XXX.X..XXXXXX@@@@@@@@#XoooooooooooooX######@$$$=@XXoX@---------------------------------=@++++++++%%%&&&&&%%%%++++++++OO+++++++OOOOOOOOOOOOOOOOO+OOOO++%%%%+OOOO+++OO++O++&&%++OOOOOOO++#$------------------------------------=@+++++++++++&&&+++###@$=-----------------------------------------&+++++OOO++++++&&&&+++++++++++++++++++++++++++++++++++++@+++++++++@=----------------------------------------=@#@####+@@@+@@@@@$=----------------------------------------------*#OO++++++O+++%%&&&%+++++++++++%&&&%++++++++%%%&:&%+++++++++++&&---------=*$@@++++%&&%+OOOOO++++++++++%%&&%%+++++++++&-;------------------------------------;=&%++O++OOOOOOOOOOOOOOO+++++++@@$===----------------=@++++=--------------------------------=#++++++%%&&&&&&&&&&&&&&&:-------------------------------**$*******@@@@@####@@@$$$$$*****@@@@@@@@@@@###@@@@@@@@###XXXXXXXXXXXXXXXXXXXXXXXXXXXXXXXXXX#X@@$*===**@@@########@@@@$$$****************$$$$$$$$$$$$$@@@@@@##########################XXXoXXXXXoooooooooooooooooooooooo  o    o                           ",
"X#@@@$***********$@@@@#XXX##@@@@@@@#XXXXXX####XXXXXXXXXXX+++@@@$$$$$$$$$@@@@@@@@@@$$$********$@@@@@@@@@@##XX##@@@$******@@@@*********@@@@@@@@@@@##XXoX.ooo......XXXXXX##@@@@##XXXXXXXXXXXXXX#@@@@@##XX.oXXXXX#@@@@@@#XXXXXXXX.oooo.     ..     .  ..  ..........XX.......XXX.o.X..XXXX#@@@@@@@#XXXXXX###@@@$$===---------@..oX$---------------------------------*@@++++++++++%%%%&&&%%%%+++++OOO++++++++OOOOOOOOOOOOOOOOOOO++++%&%++OOO+OOOOOOOO+%&&%%+O+OOOOOO+#=------------------------------------=@++++++++%&&&&&&&&===-------------------------------------------=&+%+++++++++%&&&&:&&&&&&&&&&&&&&&&&&&&&&&&&&&&&&&&&&&&&&&=&&++++++@=------------------------------------------;;====;;==;====;;;;;--------------------------------------------=@++++++++++++%%&&&&++++++++++%%&&&%+++++++++%%&&&%++++++++++++&-;--------;;=====&&&&%++++++++++++++++%%&&%%++OO++++%&-;------------------------------------;=&&%+OOOOOOO+OOOOOOOOOOOOOOOOXXXXX##@@$*=------------+++++&--------------------------------=#++++++%%&&&&&&&&&&&&&&&:-------------------------------=*$$******@@@@@######@@$$$$*****@@@@@@@@@################XXXXXXXXXXXXXXXXXXXXXXXXXXXXXXXXXXXX@@$******@@@#######@@@$$$*****************$$$$$$$$$@$@@@@@######################XXXX#XXXXXooooXXooooooooooooooooooooooooo                                   ",
"#+@@@$***********$$@@@##X###@@@@@@#XXXXXX+###XXXXXXXXXXXXX++@@@$$$$$$$$$@@@@@@@@@@$$$********$$@@@@@@@@@##XX##@@@$******@@@@*********@@@@@@@@@@@##XX.X..oooo.o..XXXXXX##@@@@##XXXXXXXXXXXXXX#@@@@@##XX..XXXXX#@@@@@@#XXXXXXX...Xooo .  ....       ..  oo....oo..XXXX......XXXXXXXXXX##@@@@@$$$@@$$$*=-------------------=#..X@=--------------------------------=+++++++++++++++++%%&&&%&%%%+++++OO+OOO++++OOOOOOOOOOOOOOOOOOO+++&&++OO++O+++++++++&&%++OOOOOOOO+@=------------------------------------============------------------------------------------------------=============-------==------=-----------------------------;=++O+++$;------------------------------------------------------------------------------------------------------------=======*$*=========*$$$$$$$@@$==&&@@@@@@@@+++&&&@++++OOO++++@=------------------;;==@@##++++++++++++%%&&&%++++++++&&--------------------------------------;-&&%+OOOOOOOO++++OOOOOOOOOOO+OOOOOOOOOO++@@$*==---;;-+++++&--------------------------------=#++++++%%&&&&&&&&&&&&&&&&-------------------------------=$$$******$@@@@##++#+@@***$*$***$@@@@@@@@######XXXX#####XXXXXX##############XXXXXXXXXXXXXXXXX@@$**=**$@@@@##@@@@@@$$$******************$$$$$$@@@##############XX#####XXXXXXXXXXXXXXXXooooooooooooooooooooooooooo o                                       ",
"+#@@@$***********$$@@@##XX##@@@@@@#XXXXXXX++##XXXXXXXXXXXX++@@@$$$$$$$$$$@@@@@@@@@$$$********$$@@@@@@@@@##X###@@@$******@@@@*********@@@@@@@@@@@##XXXX..oooooooX.XXXXX##@@@@##XXXXXXXXXXXXXX#@@@@@##XX.XXXXX##@@@@@@@XXXXXXX...Xooo     ...        . oooo...o...XXXX......XXXXXXXXX#@@$*=*===---------------------------$o..X@---------------------------------$++++++++++++++++++%%%%%%&%%%%+++OO+OO+@+OOOOOOOOOOOOOOOOOOOOO++%&&++OOOOOOOOOOOO++%&%+OOOOOOOOO+@=----------------------------------------;----------------------------------------------------------------;--------;---;;----------------------------------------;=+++O++*;-----------------------------------------------------------------------------------------------------------------;;;;;;;;;;;;;;;----;;;===;;==============:==&=&&++O++++@=------------------;;;;====&&&&&%++++++%&&&&%++++++&&&=--------------------------------------;-&&%%+OOOOO++OOOOOO++OOOOOOOOOOOOOOOOOOOOXX###@#@@$*$+++%+&--------------------------------=#O+++++%%&&&&&%&&&&&&&&&&-------------------------------=$$$******$@@@@##++#+@$*********$@@@@@@@@##XXXXXXXX###########@@@@@@@@@@@@@@####XXXXXXXXXXXXX@@$*****@@@@@@@@@@@@$$$$****************$$$$$$@@@@##############XXXX#XXXoooXXXXXXooXXXoooooooooooooooooooooooooo                                            ",
"##@@$$***********$@@@@++XX##@@@@@@@#XXXXXX++##XXXXXXXXXX++#@@@@$$$$$$$@@@@@@@@@@@@@$$$*******$$@@@@@@@@@###X###@@$*****@@@@@*********@@@@@@@@@@@@#XXXX.o.oooooXX.XXXXX#@@@@@##XXXXXXXXXXXXXX#@@@@@@#XXX.XXXX##@@@@@@@#XXXXXXX...ooo oooo        .   ....oo...ooo..oooooooooo###@$$$$=-----------------------------------@XXX#=--------------------------------=#+OOOO+++++++++++++++%%%%%&&&%%++#@@$===+OOOOOOOOOOOOOOOOOOOOO+++&%++OOOOOOOOOO+O++%&&+++OOOOOOO+@-----------------------------------------------------------------------------------------------------;;;;;-;----------;;;-----------------------------------------$+++OO+=-----------------------------------------------------------------------------------------------------------;------------------------------------------------------=+O++++$=-------------------------------------------========-------------------------------------------&%%+OOOOOOOOOOOOOOOOOOOOOOOOOOOOO+++++++OO+++++++OO+OO+++&--------------------------------=#OO++++%%&&&&&%&&&&&&&%%&--------------------------------$@$*****$@@@@@###+++@@******$$$@@@@@@@@@#XXXXXXX##@@########@@@@@@@@@@@@@@@@@@@@###XXXXX#X##@@******@@@@@@$$$$********************$$$$$@@@@@########XX#X##XXXXXXXXXXoooooooooooooooooooooooooooooooooooo  oo            oo                              ",
"+#@@$$***********$@@@@++XX##@@@@@@@#XXXXXX+#+#XXXXXXXXXXX+#+@@@@$$$$$$@@@@@@@@@@@@$$$********$$@@@@@@@@@###XX##@@$****$@@@@@*********@@@@@@@@@@@@#XXXX..o.ooooXX.XXXXX#@@@@@##XXXXXXXXXXXXXX#@@@@@##XX..XXXXX#@@@@@@@#XXXXXXooo.X...oooo            ....oo...ooXXXXXXX##@@$$==-----------------------------------------=XoXX@---------------------------------*X++OOOO++++++++++++++%%%%%%%%%&&&===-;-=+OOOOOOOOOOOOOOOOOOOOOO++&&%+OOOOOOOOOOOO++&&&+++++OOOOO+$----------------------------------------------------------------------------------------------------*$$$$$$$*=========--------------------------------------------$++OO++=----------------------------------------------------------------------------------------------------------*$$**===------------------------------------------------$++++++=;----------------------------------------------------------------------------------------------&%%+OOOOOOOOOO+OOOOOOOOOOOOOOOOO++++++++OOOO++++++++O++++&;;------------------------------=@OO++++%%&&:&&%&&&&&&&%&&--------------------------------$@$*****$@@@@@####++@@******$$$@@@@@@@@@#XXXXXXX#@@@##XXXX##@@@@@@@@@@@@@@@@@@@@@@@#########@@*******@@@$$********************$$$$$$$$@@@@@########XXXXX#XXXXXXXXXXXoooooooooooooooooooooooooooooo oooo  ooo            oooo  o                         ",
"#@@@$$***********$@@@@##XX##@@@@@@@#XXXXXX+###XXXXXXXXXXX+#+@@@$$$$$$$@@$@@@@@@@@@@$$$********$@@@@@@@@@#XXXX#@@@$****$@@@@@*********$@@@@@@@@@@##XXXX..oooooo.XXXXXXX##@@@@##XXXXXXXXXXXXXX#@@@@@@#XX..XXXXX#@@@@@@@#XXXXXXXXX.Xo..o.o         .. .....ooXXXX##@@$$===-----------------------------------------------=$XXXX*---------------------------------&+++OOOOOOO++++++++++++++++@@@$==-------&XOOOOOOOOOOOO.......OOO++&@++XXXXXX######@@$=$@@@$@+XOO++$---------------------------------------------------------------------------------------------------=@%%%%++++%%&&&&&&&&::&&&=======-------------------------------$++O++&=---------------------------------------------------------------------------------------------------------=@++++++@@$$=====;;;-;-----------------------------------$++++++=;----------------------------------------------------------------------------------------------&+++OOOOOOOOOOOOO+O++OOOOOOOOOOO++++++++OOOO++++++O++++++&-;-------------------------------@+O++++%%&&:&&&&&&&&&%%&&=-------------------------------*@$*****$@@@@@+#+#++@$******$$@@@@@@@@@@#XXXXXXX#@@@@#XXXX##@@@@@@@@@@@@@@@@@@@@@@#########@@$**===************************$$$$$$$@@@@@@@###########XXXXXXXXXXoooooooooooooooooooooooooooooooo       o    oo            oooooooo                        ",
"@@@@$************$@@@@+#XX##@@@@@@@#XXXXXX+#+#XX++XXXXXXX+#+@@@@$$$$$$@@$@@@@@@@@@@$$$********$@@@@@@@@@#XXXX#@@@$****$@@@@@*********@@@@@@@@@@@@#XXXX...oooo...XXXXXX##@@@@##XXXXXXXXXXXXXX#@@@@@@#XX..XXXXX#@@@*@@@#XXXXXXXXXXXo....          ........ .XX##@@@$$$$$$$**$$$$$$$$$$$$**========$$$$$$$$$$$$@@@@#######o.XX#=--------------------------------=@@+++OOOOOOO+++++++++++++@@*==-;-------=@XOOOOOOOOOOOOOOXOOO+++++&&&&&@@$$$$========;;====-=+.OOO+*--------------------------------------------------------------------------------------------------=&+%%%++++%%%&&&&%%%&&&&++@@@@@@$$$**====----------------------=@+++++&----------------------------------------------------------------------------------------------------------=@++++++++++##@@@$======---------------------------------@+O+++&=;----------------------------------------------------------------------------------------------&+++OOOOOOOOOOOOOOOOOOOOOOOO.OOO++++++++OOOO+++O+++++++++&=;-------------------------------$+O++++%%&&:&&%&&&&&&%%&&=-------------------------------*@@******$@@@@+###++@$******$@@@@@@@@@@@#XXXXXXX@@@@@##XXX#######@@@@@@@@@@@@@@############@@**===********************$$$$$$$$$$@@@@@@@@#############XXXXXXXXXooooooooooooooooooooooooooooooo                           ooooooooo                       ",
"++@@$$***********$@@@@##XXX#@@@@@@#XXXXXXX##+##X++XXXXXXX+++@@@@$$$$$$$$$@@@@@@@@@$$$$********$@@@@@@@@##XXXX##@@$*****$@@@@**********@@@@@@@@@@##XXXX.o..oooo..XXXXXX##@@@@##XXXXXX.XXXXXX##@@@@@##XXXXXXXX##@@@*$@@#XXXXXXXXXXXX.o            .. ...oo.oXXXXXXXXXXXXXXXXXXXXXXXXX###@@@@@@@@@#XXXXXXXXXXXXXXXXXXXXo....XX$---------------------------------$###XXXXXXXXXXX##@@@$$*====-------------$##XX######@@@$$$$$$**===---------------------------=@XOOX@=-------------------------------------------------------------------------------------------------=$++%%%%%%%%%%%&&%%%%%&:&%%+++++++++++++++++@@@@&&&========---;;=@++++@=----------------------------------------------------------------------------------------------------------&++O++++OO++++++%%&:&&&&&&@&*=====;;;;-;----------------=@+O+++&=-----------------------------------------------------------------------------------------------==$$@@@######XXXXXXXXXXXXXXXXOO+++++++++OOOO+++++OO+OO+++&=;-------------------------------$+O++++%%&&:&&%&&&&&&%%&&=;------------------------------=@@******$@@@@#####@@@******$$@@@@@@@@@@#XXXXXX#@@@@@@##X###########@@##########XXX###XX##@@@*********************$$$$$$$$@@@@@@@@@######################XXXXXoooooooooooooooooooooooooooooo                            oooooooooo                      ",
"++@@$$***********$$@@@##XX##@@@@@@#XXXXXXX+#++#+++XXXXXXX+++@@@$$$$$$$$$$@@@@@@@@@$$$$********$@@@@@@@@##XXXX##@@$*****$@@@@**********@@@@@@@@@@##XXXX.o..oooo...XXXXX##@@@@##XXXXXXXXXXXXX##@@@@@##XXXXXXXX##@@$*$@@#XXXXXXXXXXXXo.    .  .     . ....oo.ooXooooooXooooooooooooooooXX#@@@@@@@#XoooooooooooXXoXXooXXo.. .X#=---------------------------------*@@@@@@@@@@@@@$$=====;-;;---------------=$$======-------------------------------------------=#XOO++=-------------------------------------------------------------------------------------------------=@++%%%%%%%%%%%%%%%%%%&:&%%%++++OO++++++OX+OO+##X#+#####@@@@@$$$@++++%@=---------------------------------------------------------------------------------------------------------=+++OO++OOOO+++++%%&&&%++++XX###@@&========--------------=#+++++&------------------------------------------------------------------------------------------------;;;;----======*$$$@@@@#####+++++++++++++XOOO++++++O+O++++%=;-------------------------------*+O++++%%&&:&%%&&&&&&%%%&=-------------------------------=@@******$@@@@@@###@@@******$$@@@@@@@#@##XXXXXX#@@$@@@@#XXXXXX##################XXXX######@@@*****************$$$$$$$$$@@@@@@@@@##########################XXXXXooooooooooooooo  oooo    o                               ooooooooooo                     ",
"++@@$$***********$@@@@+XXXX+@@@@@@##XXXXX+++++##++XXXXXXXX++@@@@$$$$$$@@$@@@@@@@@$$$$$********$@@@@@@@@@##XX###@@$*****$@@@@*********@@@@@@@@@@@##XXXXoo...ooo...XXXXX##@@@@##XXXXXooXXXXXX##@@@@@##XXXXXXXX##@@@*$@@#XXXXXXXXXXXXo.o ...... ooo   ...oo......................X....XXX#@@@@@@@+X.........................X#=-----------------------------------------------------------------------------------------------------------------------------$+X+OX@=------------------------------------------------------------------------------------------------=&++++%%%++++%+++++%%%%&:&%%+++++++++++OOOO+++++++++++++%++++++%%%+%%++@=--------------------------------------------------------------------------------------------------------=$++OO++OOOOOO+O++%%&&&%++++++O+++%&&:&&++++%&@@&==;;;;;;;=++O++@&------------------------------------------------------------------------------------------------;-------------------------====*$$$$@@@@######@##+++O++++%%=;-------------------------------=++++++%%&&&&%%&&&&&&%%+%$=------------------------------=@@*****$$@@@@@#+++#@@******$@@@@@@@@####XXXXXX#@@$@@@@##XX#X####X#####XXXXXXXXXXX####@@@@@@**************$$$$$$$$@@@@@@@@#############XXXXXXXXXXXXX#######XXXXooooooooooooo    ooo                                     oooooooooooo                    ",
"+@@@$$***********$@@@@XXXXX+@@@@@@@#XXXXX++++++#++XXXX+X#X++@@@$$$$$$$@@@@@@@@@@@$$$$$$******$$@@@@@@@@@##XX###@@$****$@@@@@*********$@@@@@@@@@@##XXXXoo....oo...XXXXX##@@@@##XXXXXooXXXXXX##@@@@@##XXXXXXXX##@@@$@@@#XXXXXXXXXXX.o.oo...... ooo. ....oo....................XX.....XXX@@@@@@@@+XXXo....o................XX@=-----------------------------------------------------------------------------------------------------------------------------$+X+OX@=------------------------------------------------------------------------------------------------$+++++%%%++++%+++++%%%%&&&%%+++++++++++++OO+++%++%%%%%%%%%%%%++%%%%%%%&$=--------------------------------------------------------------------------------------------------------=@++OO+++OO++++O++%%&&&%++++++OO+++%&&&%+O+O++#+++&===$*=*&+++++@=-------------------------------------------------------------------------------------------------------------------------------------=======**$@@+++++++%&=;-------------------------------=+X++++%%&&&&%%&&&&&&%%++$=------------------------------=@@*****$$@@@@@#+#++@@******$@@@@@@@@####XXXXXX#@@$@@@@@###X##X###XXXXXXXXXXXXXXXX##@@@@@@************$$$$$$$$$$@@@@@@@@#############XXXXXXXXXXXXXXXXX#####XXXXooooooooooooo   o                                        oooooXooooooo                   ",
"+@@@$$****=******$@@@@##XXX#@@@@@@@#XXXXX+#+++#X#+XXXXXX##++@@@@$$$$$$$@@@@@@@@@@@$$*********$$@@@@@@@@@#XXXX##@@$*****$@@@@*********@@@@@@@@@@@@#XXXXooo.oooooXXXXXXX##@@@@#XXXXXXXXXXXXXX##@@@@@##XX..XXXX##@@@$@@@#XXXXXXXXXXX..    ..o   .........................XX..X.....X.X.XX@@@@@@@@+XXX......o.............X.X#$-------------------------------------------------------------------------=*===================-----;;;;-----------------------$+.OO#@------------------------------------------------------------------------------------------------=+++++%%%%%%%%++++++++%%&:&%%%+++++++++++++%%%%%&&&&&&&&&&&&&&&&&&::::&:=--------------------------------------------------------------------------------------------------------=&+O+O+OOOOO+++++++%%&&&%++++++++++%%&:&%++++++++++%&:&%%++++++++$=----------------------------------------------------------------------------------------------;=&%+%&&&===----------------------------------------==&X++%&=;--------------------------------@#X#++++%&&&%%&&&&%%+++@*-------------------------------=@$*****$$@@@@+++++#@$*=****@@@@@@@@######XXXXX#@@$$@@@@#####XXXXXXX#XXXXXXX####@@@@@@$$**********$$$$$@@@@@@@@@@@##############XXXXXXXXXXXXXXXXXX##XXX#XXXXXXXXXooooooooooo                                            oooXXXXoooooooo                 ",
"+@@@$$***********$@@@@##XXX#@@@@@@##XXXXXX++#+#X#X++XXXX###+@@@@$$$$$$@@@@@@@@@@@@$$$********$$@@@@@@@@@#XXXX##@@$*****$@@@@*********@@@@@@@@@@@@#XX.Xooooo.o.oXXXXXXX#@@@@@##XXXXXooXXXXXX##@@@@@##XXX.XXXX##@@@$@@@#XXXXXXXXXXXX.  ....   ...................XXXX...XXXXXX.XXXX.XXXX@@@@@@$@@XXX.....oooXo...........XX#*------------------------------------------------------------------------=@@@@@@##XXXX##########@@@$$*===**========---=-------=@O.OOX@-----------------------------------------------------------------------------------------------=@+O++++%%%%%++++++++++%%&:&%%%+++++++++++%%&&&::::::::::::::::::::::::&:=--------------------------------------------------------------------------------------------------------=++++O+O+OO++++++++%%&&&%++++++++++%%&:&%++++++++++%&:&%%+++++O++$=----------------------------------------------------------------------------------------------;=&+++OXXX##@@$$=-------------------------------------=#++%&=;--------------------------------====&&&&&&&&&&&&&&&%++@&=-------------------------------=@$*****$$@@@@+++++#@$******$@@@@@@@#####XXXXXX#@@$$@@@#####XXXXXXX##X##XXXX##@@@@@$************$$$@@@@@@@@@@@@@@############XXXXXXXXXXXXXXXXXXXXX##XXXXXXXXXXXoooooooooooo                                             ooXXXXXXooooooo                 ",
"##@@@$***********$@@@@#X+###@@@@@@@#XXXXXX#####X#XXXXXX+###+@@@$$$$$$$@@@@@@@@@@@@$$$$$******$$@@@@@@@@@#XXXX##@$$****$@@@@@*********$@@@@@@@@@@@#XX.X.ooo..o.XXXXXXXX##@@@@##XXXXXXXXXXXXX##@@@@@##XXXXXXXX##@@@*@@@#XXXXXXXXXXXXo.....    ..................XXXX.....X........X.XXXX@@@@@@$@@Xo.........oXo..Xoooo....X@=-----------------------------------------------------------------------;=@@%+++++OOOO......OOO..OO++%&&++O+++++++@@@@&&&&&&&&@+O.OOX@=---------------------------------------------------------------------------------------------=@+O++++%%&%%%%++++++++++%&:&%%%++++++++%%%&&&&&&&&&&&&&&&&&&&&&&&&&&&%%+&=-------------------------------------------------------------------------------------------------------;&%%%%+++OO+++++++++%%&&&%+++O++++++%%&:&%++++++++++%&&&%%+++O++++=-----------------------------------------------------------------------------------------------;&&%++O++OOOOOOO+++@@$===;;;;;------------------------=@++%%=;--------------------------------------------======*$*$==--------------------------------=@$*****$$@@@@++#+##@@******$@@@@@@@##@@#XXXXXX#@$$$@@@@####XXXXXXXX###@#@@@@@@$***********$$$$@@@@@@@@##################XXXXXXXXXXXXXXXXXXXXXXXXXXXXXXXXXXXXXoooooooooooo                                              ooXXXXXXXXooooo                 ",
"X#@@@$***********$@@@@#X+###@@@@@@@#XXXXX+#####XXXXXXXX+#X#+@@@@$$$$$$@@@@@@@@@@@@$$$$$******$$@@@@@@@@@#XXXX##@$$****$@@@@@*********$@@@@@@@@@@@#XX.X.ooo....XXXXXXXX##@@@@##XXXXXX.XXXXXX##@@@@@##XXXXXXXX##@@$*$@@#XXXXXXXXXXXXo..ooo o ...  .   ...........X.......XXX....XX..XXXX@@@@@@$@@XXX...o...XooooooooXX.X..X@-------------------------------------------------------------------------*@++++++++OOO........OOOOO++&&&++.O..O+OXXXXX++@&@+++++OOOO+@=--------------------------------------------------------------------------------------------=$#+O++++%&&&&%++++OO++++%%&:&%%%+++++++%%%&&&%%%%%%%%%%%%+%%%%%%%%%%%%+%+&--------------------------------------------------------------------------------------------------------&&&&%%++++++++++++++%%&&&%+++O++++++%%&:&%++++++++++%&&&%%+++++++&=-----------------------------------------------------------------------------------------------=&&%++OOOOOOOOOOOO.XX#X##@$$==------------------------=@++%&&;-------------------------------------------;;;;;;;;;------------------------------------=@$*****$$@@@@######@@******$@@@@@@@#@@@#XXXXXX#@@$$$@@#####XXXX#XXX##@@@@@@@************$$$$@@@@@@@###############XXX##XXXXXXXXXXXXXXXXXXXXXXXXXXXXXXXXXXXXXXooooooooo                                                 ooXXXXXXXXXooooo                ",
"XX@@@@$**********$@@@@#X####@@@@@@@+XXXXXX+#####XXXXXXXX#+#+@@@@@$$$$$$@@@@@@@@@@@@$$$$*******$@@@@@@@@@##XXX##@$$****$@@@@@*********@@@@@@@@@@@##XXXXooo...o..X.XXXXX##@@@@##XXXXXXXXXXXXX##@@@@@##XXXXXXXX##@@$*$@@#XXXXXXXXXXXXXoo      ...      .........................XXXXXXXX#@@@@@@@@##Xooooooo#####@$$$*==#o..X@------------------------------------------------------------------------=$%%%%%+%++OOOOOOOOOOO..OOO+%&&&%+OOOOO++++++++%&&&%+++OOOOO++=-------------------------------------------------------------------------------------------=@+++++++%&:::&%++++++++++%%&&&%++++++++%%%&&&%%%%%%++++++++++++++++++++++@=------------------------------------------------------------------------------------------------------=&&%&&&&%%++++++++++++%%&:&%%%++++++%+%%&&&%+++++++++%%&&&%%++OO+++&-----------------------------------------------------------------------------------------------=&&&%%+OOOOO+++OOOOOOOO++++++++@@$*==------------------=@++%%&;----------------------------------------------------------------------------------------=@$******@@@@#######@@******$@@@@@@@##@@#XXXXX##@@$$$@@#X##XX########@@@@@$**********$$$@@@@@###########XX#########XXXXXXXXX##XX#XXXXXXXXXXXXXXXXXXXXXXXXXoXXooooooooo                                                  ooX##XXXXXXooooo            ..  ",
"XX+@@@$$**********@@@@+##+#@@@@@@@@#XXXXX++#####XXXXXXXX#+#@@@@@@$$$$$$@@@@@@@@@@@$$$$$*******$@@@@@@@@@##XXX##@@$****$@@@@@*********$@@@@@@@@@@##XXXXooo......X.XXXXX##@@@@##XXXXXXXXXXXXX#@@@@@@##XXXXXXXX##@@@*$@@#XXXXXXXXXXXXXo.      .....ooo...........................XXXXXXX#@@@@@@$@@@@@@@$$=====-------;-@X..X$------------------------------------------------------------------------=@+++++++++OOOOOOO.....OOOOO+%&&%+++OO++++++O+++&&&%++OOOOOOO+*------------------------------------------------------------------------------------------=@+OO++++%%&::&&%++++OO++++%%&&&%%%+++++%%%&&&%%%%%+%++++++++++++++++++++++@=-----------------------------------------------------------------------------------------------------=&+%%%%&&%+++++++++++++%%&&&%++++++++++%%&&&%+++++++++%%&&&%%++OOOO+=-----------------------------------------------------------------------------------------------=&%&%%++OOOO+OOOOOOOOOO+++OO+X+#XX##@@$$*=--------------@++%%&;----------------------------------------------------------------------------------------=@$*****@@@@@@###+##@@**=***$@@@@@@@##@@#XXXXXX@@@$$@@@###########@@@@@$*********$$$$@@@@@@@####################XXXXXXXXXXX#########XXXXXXXXXXXXXXXXXooooooooooooooo                                                   oooXX#XXXXXXooooo  oo      ......",
"XX##@@$$**********$@@@+#####@@@@@@@#XXXXX++####X++XXXXXX#+++@@@@@@$$$$$@$@@@@@@@@@$$$$********$@@@@@@@@@##XXX##@@$****$@@@@@*********$@@@@@@@@@@##XXXXoooo......XXXXXX##@@@@##XXXXXXXXXXXXX##@@@@@##XXXXXXXX##@@$*$@@#XXXXXXXXXXXXXoo     o.........o.oo....XX........XXXXXXXXXXoX###@$$***==-==--------------------#o..X$------------------------------------------------------------------------=@%%+%+++++OOOOOOOOOOO.OOO++%%&&++OOOOOOOOOOOO++&&&%++OOOOOOO+$-----------------------------------------------------------------------------------------=$++++++++++&&&&&++++++O+O+++%&&&%+++++++++%&&++++++++++++++++##+++++OOOO+++@=----------------------------------------------------------------------------------------------------=$++++%%&&++++OOOOOO+OO++%&&&%++++++++++%&&&&%++++++++++%&&&%%++OOOO@=----------------------------------------------------------------------------------------------=*&%&%%+OOOOOOO++++++OOO++++OOOO+OOOOO++O++@@@$==-------;@++%%&;----------------------------------------------------------------------------------------=@$*****@@@@++##++++@@***=**$@@@@@@@##@@#XXXXXX#@@$$@@@#######@@@@@@**********$$@@@@@@@#################XXXXXXXXXXXXXXXXXX#########XXXXXXXXXooooooooooooooooooooooo                                                    oooX###XXXXXXXooo oo    . .......",
"XX##@@$$**********$@@@######@@@@@@@#XXXXXX+###+++XOXXXXX#+#+@@@@@$$$$$$@@@@@@@@@@@$$$$********$@@@@@@@@@##XXX##@@$****$@@@@@*********$@@@@@@@@@@##XXXXoo.......XXXXXXX##@@@@##XXXXXXXXXXXXX##@@@@@##XXXXXXXX##@@**@@@##XXXXXXXXXXXX.... ..oo..  ...oooooooXXXXXXXXXXXXXXXXX###@@@@$*==-----------------------------*Xo..X$------------------------------------------------------------------------&@+%+%+++++++OOOOO......OOO++%&&%+OOOOOOOOO+++++&&&%+OOOOOOO.+$=----------------------------------------------------------------------------------------=@+++++++++&&::&&&%+++++++++&&&&&&&&&&&&&&&&&:&&&&&&&&&&&&&&&*$=&&&&&+OOO+++@=----------------------------------------------------------------------------------------------------=$&@&%&&&&&&++++++++++++%&&&&&++++++++++%&&&&%++++O+++++%&&&%%++OO+O@=----------------------------------------------------------------------------------------------=@%%&%%+OOOOOO++OOOOOOOO++++OOOO+OOOOOOOOOOXXXX#@@@$$====@++%&&=----------------------------------------------------------------------------------------=@$*****@@@@++++++++@$******$@@@@@@@##@##XXXXXX#@@@$@@######@@@@**********$$$@@@@@@@@###################XXXXXXXXXXXXXX#XXX########XXXXXXXXXXooooooooooooooo                                                            ooXX####XXXXXXooooooo  ..   .....",
"XX++@@$$*********$$@@@##++#@@@@@@@@+XXXXXX+++#XXXXXXXXXXX+@@@@@@$$$$$$@@@@@@@@@@@@$$$***$****$$@@@@@@@@@##XXX#@@@$****$@@@@@**********@@@@@@@@@@@#XXXX....ooo.XX.XXXXX##@@@@##XXXXXXXXXXXXXX#@@@@@@#XXXXXXXX##@@@*$@@#XXXXXXXXXXXX....o.... . o........oooooooooooX#####@$$$*=-------------------------------------$XXOX#*----------------------------------------------------------------------;=&+++++++++++OOOO+++OOOOOOOO+%%&&++OOOOOOO+++OO++&&&%++OO+OOOO+@=---------------------------------------------------------------------------------------==$$$$$$$$$==-----=======--------------------------------------------=@++++++$---------------------------------------------------------------------------------------------------------------------=======-==-=================$$$@@@@@@@@@@$&&%++OOOO+$----------------------------------------------------------------------------------------------=&%%&%%%++OOOOOOOOOO+++++O++O++++OOOOOOO+OOOOOO++++++++++++++%%&;----------------------------------------------------------------------------------------=@@@****@@@@@@###+++@$******$@@@@@@@#@###XXXXXXX@@@@@@####@@@$*******$@@@@@@@@@@@@@@@@@#######XXX#XXXXXXXXXXXXXXXXXX########XXXXXXXXXXXXXXXooooooooo                                                                   oXX######XXXXXooo.ooo        o...",
"X+++@@$**********$$@@@#X+#+@@@@@@@@+XXXXX+++#+XXXXXXXXXX++@@@@@@$$$$$$@@@@@@@@@@@$$$$$**$****$$@@@@@@@@@##XXX#@@@$****$@@@@@**********@@@@@@@@@@@##XXX..o.ooXX.X.XXXXX##@@@@##XXXXXXXXXXXXX##@@@@@@#XXXXXXXX##@@@*$@@#XXXXXXXXXXXX....o.. ....oo.......ooXXX##@@$$$===---------------------------------------------$XXO.#=-----------------------------------------------------------------------*@++++++++++OOO++++++OOOOOOO++%&&++OOOOOOOOO+++++&&&++++OOOOOOO#=---------------------------------------------------------------------------------------------------;;;;;----------------------------------------------------=@O++%++*;-----------------------------------------------------------------------------------------------------------------------------;--;;;;--------;;;;--------====;;;;&+++OOO+=----------------------------------------------------------------------------------------------=&%%%%%+O+OOOOOOOOOOO++++O+++O++++OOOOOO+++OOOOO+++++++++O+++%%&=----------------------------------------------------------------------------------------=@@$****@@@@@@##++++@$***=**$@@@@@@@@####XXXXXXX@@@@@@###@@@@****$$@@@@@@@@@@@@@@@@@@@@@################XXXXXXXXXXXXXXXXX#XXXXXXXXXXoooooooooooooooo                                                                   oXX######XXXXXooo.ooo    . ..o...",
"XX++@@$**********$$@@@#X+##@@@@@@@@+#XXXX+###XXX++XXXX++++@@@@@@$$$$$$$@$@@@@@@@@$$$$$$*$****$$@@@@@@@@@#XXXX#@@@$****$@@@@@*********@@@@@@@@@@@@#XXXXoo...o.....XXXXX##@@@@##XXXXXXXXXXXXX#@@@@@@##XXXXXXXX##@@$*$@@@XXXXXXXXXXXX..ooooo... ooo......XX#@@@$$=========-------------------------------------------=@.XOX#=----------------------------------------------------------------------=@+++%++++++++OO+++++++++++O++%&&%++++OOOOO+++++++&&&+++++++OOOO+&=---------------------------------------------------------------------------------;;;=========----;;;;-------------------------------------------------------$&&%%%&=-----------------------------------------------------------------------------------------------;==========-;;;;--------------------------------------------------&%++OOO+=---------------------------------------------------------------------------------------------=&&%&&&%%+++++OOOO+O+++++++++++++++++++++++++++++++++++OOO++++%&&:----------------------------------------------------------------------------------------*@@$****@@@@+##XX##@@$**==**$@@@@@@@@####XXXXXXX#@@@######@@@@@@@@@@@@@@@@@@@@@@@@@@@@@@@@##############XXXX#XXXXXXXXXXXXXXXXXXXXXXooooooooooooo                                                                      ooX##@@###XXXXXoooo.oooooo...o....",
"XX++@@$$*********$$@@@+XX+#@@@@@@@@##XXXX+###XXX++XXXX++++@@@@@$$$$$$$$$$@@@@@@@@$$$$$$******$$@@@@@@@@@#XXXX#@@@$****$@@@@@*********@@@@@@@@@@@##XXXX.o...o....XXXXXX##@@@@##XXXXXXXXXXXXX#@@@@@@##XXXXXXXX##@@$*$@@@XXXXXXXXXXXX..ooooo.. .  o......XXXXXX#########################@@$$$$*$$$$$$@@@$@@$$@@@@$$$@@#XX..#=----------------------------------------------------------------------=@+++%+++++++OOO++++++++++++++%%&&++++++++++++++++&&&+++@@++OOOOO+=---------------------------------------------------------------------------------===@@@#@@@@$@$$$$======----------------------------------------------------$&&::&&------------------------------------------------------------------------------------------------==@@@@##@@@$$===--------------------------------------------------=++OOO+@----------------------------------------------------------------------------------------------$@%%%&&%%++++++%%%%%%%%%&&&&&&&&&&&&&%%%+%++++++++++++++++++++%%&:----------------------------------------------------------------------------------------*@@@****@@@@+#+####@@@***=**$@@@@@@@@@@##XXXXXXXX##########@@@@@@@@@@@@@@@@@@@@@@@@@@@@@@#################XX#XXXXXXXXXXXXXXXXXXXXoooooooooo  o                                                                        oo##@@@@####XXXoooo.oooo....o.....",
"XX##@@$$*********$@@@@#XXX#@@@@@@@@@+XXXXX#####X+XXXXXX+++@@@@$$$$$***$$$$@@@@@@@@$$$$$*******$$@@@@@@@@##XXX##@@$*****@@@@@*********@@@@@@@@@@@##XX.X.oo.o..oXXXXXXXX#@@@@@##XXXXXXXXXXXXX#@@@@@@##XX..XXXX##@@$*$@@@#XXXXXXXXXXXXoo.....    ..o  ...ooXXooooooooXoooooooXXXXXXXXXX##@@@@@@@@@#XXXXXXXXXXXXXXXXXX..OX.XX$----------------------------------------------------------------------$@++++++@@++#XX+++++++@@####@@@$@@@@@@@@$$$$$$$**=======-=*@+XOOO+$=----------------------------------------------------------------------------;-;=&&&%++++++++++++%&&&&&+&@@@@$$*======;;==;;;------;;----------------------;=:&&:==-------------------------------------------------------------------------------------------;;;;=&&&%%%%+++%%%&&&&&&&&&======-;;;;;--------------------------------=+++OO@=---------------------------------------------------------------------------------------------=$@&&&&&&&%&&&&&&&&&&&&&&&&&&%%&&%%%%%+++%%%%%%+++++++++OOO+O%%%%&:----------------------------------------------------------------------------------------*@@$*=**@@@@+#+#++##@@*=****@@@@@###@@@#XXXXXXXXXX#XXXXXXXX#############@@#####@##@@@#######XXXXXXX#####XXXXXXXXXXXXXXXXXXoooooooooooo                                                                                oX##@@@@####XXXoooo...............",
"XX#@@@$$*********$@@@@#XXX#@@@@@@@@@+XXXXX##+#XX++XXXXXX++@+@@$$$$$$**$$$$@@@@@@@@$$$$$*******$$@@@@@@@@##XXX##@@$****$@@@@@*********@@@@@@@@@@@@#XX.X.oooo.ooXXXXXXXX#@@@@@##XXXXXXXXXXXXXX@@@@@@##XXXXXXXX##@@@*$@@@#XXXXXXXXXXXXoo.....    ........ooooo....ooooX....ooXXXXXXXXXXX#@@@@@@@@#XXXXXXXXXXXXXXXXXXXXX....X$---------------------------------------------------------------------=$@++++@+@@@@++++++@@@@@@$**=========--------------;;;;-----$+XOOOO+*-----------------------------------------------------------------------------=&&&&&%+OOOO++OOO+++%&&++O+X.XXXXX##@@@&==$@$$$$*====------------------------;=&&%%&&-------------------------------------------------------------------------------------------===&&&&&&&%%+++++%%&&&%+++##@@@@@$$$===--------------------------------&+++O+@=----------------------------------------------------------------------------------------------==::::&&&&&&&&&&&&%%%++++++++++++++++++++++++%++++++++++OOOO++%%&:---------------------------------------------------------------------------------------=@@@@*=**@@@@++###+#@@@*=*=**@@@@@###@@@#XXXXXXXXXXXXXXXXXXXXXX#########X################XXXXXXXXXXXXXXXXXXXXXXXXXXXXXoooooooooooooo                                                                                   oX##@@@@####XXXXooooo.............",
"XX##@@$**********$@@@@#XXX#@@@@@@@@@+XXXX#++++##++XXXXXX++++@@@@$$$$*$$$$@@@@@@@@@$$$*********$$$@@@@@@@##XXX##@@$*****$@@@@*********@@@@@@@@@@@@#XX.X.ooo ...XX.XXXXX##@@@@##XXXXXXXXXXXXXX@@@@@@##XXXXXXXX##@@@$$@@@#XXXXXXXXXXXX.........  ..oo....o.......................XXXXXXX#@@@@@@$@#XXX....XX.X..OOOO.O......X@---------------------------------------------------------------------==$@$$$*===========-----------------------------------------=@XOOOO++=;-------------------------------------------------------------------------=&+%%&&%%++OOO+++OO++%%&&%+++OOOOOOOO+++%&&&%++O+++++%&::&&&========---;;----;;:&%%++&=-;------------------------------------------------------------------------------------====&&&%%%%%&&&%%%++%%%%&&&%+++++OO+O+++%&&&&&&&&$=====;;;;;;---------------&+++O+$=----------------------------------------------------------------------------------------;;;;;;;;;;;;;;;;========$$$@@@@@++#XX+++++++X++++++++++++++++++O++++%%&:---------------------------------------------------------------------------------------*@@@$****$@@@####++++@@*===**@@@@@@##@@@#XXXXXXXXXXXXXXXXXXXXXXXXXXXXXXXXXXXXXXXXXXXXXXXXXXXXXXXXXXXXXXXXooooooooooooooooo   oo                                                                                        oX#@@@@@##XXXXXXXoooo...oooo......",
"XX+@@@$**********$@@@@XXXX#@@@@@@@@@#XXXX#++++##++XXXXXXX#++@@@@$$$$$$$@$@@@@@@@@$$$***********$$@@@@@@@##XXX##@@$*****@@@@@*********$@@@@@@@@@@@#XX.X.ooo...XXX.XXXXX##@@@@##XXXXXXoXXXXXXX@@@@@@##XXXXXXXX##@@@$$@@@#XXXXXXXXXXXX.....oo.  ...o.....o...................X..XXXXXXXX#@@@@@@$@XXXX..XXXXXX..XXXX........X@=---------------------------------------------------------------------;-==--------------------------------------------------------*#OOOO++@=----------------------------------------------------------------------==$#++%%&&%%++OOOOOOOO++%&:&%+++OOOOOOO++++%&&&%+++++++++&&&++OXXX##@@@$$$$*======&+++++&=----------------------------------------------------------------------------------====$@@+++++%%%%&&&&%++++%%%&&&%+++++O+++++++%&&&++++###@@@@$=====-------------=&+++O+*;----------------------------------------------------------------------------------------=====;;;;;;;;;;;;;;;;;;;;;;;;;;;======&&&&&&&&&%+++++++++++++++O+O++%%&&---------------------------------------------------------------------------------------$@@@$****$@@@###X++++@@**==**@@@@@@###@@##XXXXXXXXXXXXXXXoXXXXXXXXXXXXXXXXXXXXXXXXXXXXXXXXXXXXooXXooooooooooooooo oooooo                                                                                               oX#@@@@@@##XXXXXXXooooX.ooooo.....",
"XX##@@$*********$$@@++++X#+@@@@@@@@@#XXX++++++++XXX++XXXXX++@@@@@$$$$$@@@@@@@@@@@$$$$*************$@@@@@@#XXX#@@@$****$@@@@$*********@@@@@@@@@@@@#XXXXoooo..oooXXXXXXX##@@@@##XXXXXXXXXXXXXX@@@@@@##XXXXXXXXX#@@$*$@@@#XXXXXXXXXXX.........o..oo............XXXX............X.XXX.XXX#@@@@@@$@#XXX..XXXXX......O.O.XXX.XX#=---------------------------------------------------------------------;;-----------------------------------------------------------$XXOOO+%&&=;;------------------------------------------------------------;;;==&++++++%%&&%%+++++OOOOO++%&&&%+++O+OOOO+++++%&&&%%+++++++%&&&%+++OOOOO+++++++%&&&&%%+++++%&&&========================================&&&&&&======&&&&====================&&&&+++++++++++++%%%%&&&%%%%%+%%&&&%%+++++++++++%%&&&%++++++++++%&&:&&+&&&====;;;;;=&+OOO+&&=;;;;;-;----------------------------------------------------------------------------;;=&&%%%%%&&&===;;;;;;;--------------------------------=====**$$$@@@@#++%%&&---------------------------------------------------------------------------------------$@@@$****@@@@###+++#+@@**==**@@@@@@#######XXXXXXXXXXXXXXXXXXXXXXXXXXXXXXXXXXXXXXXXXXXXXXXoooooooooooooooooo oooo                                                                                                      ooX#@@@@@@###XXXXXX.ooo............",
"OX##@@$**********$@@++XXXX+@@@@@@@@+#XXXX+++++++X++++XXXXX+#@@@@@$@@$$@@@@@@@@@@@$$$*****======*****$$@@@@####@@@$****$@@@@@**********@@@@@@@@@@@#XXXXooo...oooX.XXXXX##@@@@##XXXXXXXXXXXXXX@@@@@@##XXXXXXXXX#@@@*$@@##XXXXXXXXXXXX.....o.o...oo..........X.XX.X.....X.X...X.XX.X.XXX#@@@@@@$@XXXX.XXXXXX...OOOX+X.XXX..XX*--------------------------------------------------------------------=*$$$$$*=====*=**=====----------------------------------------=@XOOO+%%&&==--------------------------------------------------------------=$@+++O+++%%&&%%++O++OOOO+++%%&&%+++O+OOOO+++++%&&&%%+++++++%&&&%+++O+OOOO++++++%&&&%%++OO++++++##++++++++++++++++++++++++++++++@@+++++++++++++@+++#++++++++++++####+++++++++++++++++++++++++%%%%&&&%%%%%+%%&&&%%%++++++++++%%&&&%++++++++++%%&&&%+++++#@@@$==&&%+OOOOO+@@@$==------------------------------------------------------------------------------=$&+++++++++++++@@$$*===--------------------------------------------=$%+%%&&--------------------------------------------------------------------------------------=@@@@$****@@@@##X##+#+@@**==**@@@@@########XXXXXXXXXXXXXXXXXXXXXXXXoXXXXooooXoXXoooooooooooooooooooooooooooo oooo                                                                                                      ooX#@@@@@@###XXXXXXoo.....X........",
"OX##@@$*********$$@@@#XXXX#@@@@@@@@++XXXXX+++++##X++++XXXX##@@@@@@$$$@@@@@@@@@@@@$$******=========****$@@@####@@@*****$@@@@@*********$@@@@@@@@@@@#XX.Xooo.....oX.XXXXX#@@@@@##XXXXXXXXXXXXXX@@@@@@##XXXXXXXXX#@@$*$@@@##XXXXXXXXXXX...o.......................X.....X.XXXXXXXXXX..XXX#@@@@@@@@#XXXOOO.XX.XX.XXXXXXXX.OOOXX@=------------------------------------------------------------------=@&%+++++++++++++++++##@@@@@@@@@&&==========---------;;;;;------=@+O++%%&&%%&&=-----------------------------------------------------;=&&:&&+O+++++++%%&&%%++++OOOOOO++%&&&%+++O+OOOO+O+++%&&&%%+++++++%%&&%%++OO++OO+O++++%&&&%%++++O+++++++++++++%%%%%+++%%++%%%%%+++%%+++++%++++%+++++++++++++++++++++++OOO+++++++++++++++++++++++++++%%%&&&%%%%%+%%&&&%%%++++++++++%%&&&%++++++++++%%&&&%++++O+O+++%&&&%%++OOOOOO++%&:&&==;-;------------------------------------------------------------------;==&%+++%+%%+++++OOO+++++++++@&$===--------------------------------------=@+%%&&--------------------------------------------------------------------------------------=@@@@$****$@@@##+####+@@**==*$@@@@@@#######XXXXXXXXXXXXXXXooXXXXXXXXXXXoXXXXXXXoXXoooooooooooooooooo  oooo    oo                     oooooo                                                                            ooX@@@@@@@###XXXXXXoo....X.....X...",
"OX+#@@$*********$$@@@#XXXX##@@@@@@@@#XXXXX+++++###++++XXXX##@@@@@@$$@@@@@@@@@@@@@@$******============**@@@@###@@@$****$$@@@@*********@@@@@@@@@@@@#XXXXoo......XX.XXXXX##@@@@##XXXXXXXXXXXXXX#@@@@@##XXXXXXXXX#@@$*$@@@##XXXXXXXXXXX..o.o.o.o.........................XXXX..X.XXXOOXXX#@@@@@@$@#XXOOOOXXX..XXXXXXXXXX.OOOX##*------------------------------------------------------------------=@%+++++++++++.O..XXXXXXXXXXXXX+++&@@@#@@@@@@@@@@$$$*===***=====$@+O++%%&%++++#@$==----------------------------------------------===$@+&&&%++++OO+++%%&&%%+O+OOOOOOO++%%&&%+++OOOOOO+O+++%&&&%%++++++%%%&&%%++O++++++O++++%&&%%%+++++++++%%%%%%%%%%%%%%%%%%%%%%%%%%%%%%%%%%%%%%%%%%%++++++++++++++++++++OO+++++++++++++++++++++++++++O+++%%&&&%%%%%+%%&&&%%+++++++++++%%&&&%++O+O+++++%%&&&%++++++++++%&&&%%++OOO+++++%&&&++@@$*===--------------------------------------------------------------=$@+++O+++++++++++O++++++OOOOOXX#X#@@$$==---------------------------------=@+%%&&-;-----------------------------------------------------------------------------------=$@@@@$****@@@@##+##+#@@@$****$@@@@@@@@#@###XXXXXXXXXXXXXXXXXXXXXXXXXXXXXXXXXXXoooooooooooooooooo                                    ooooooo                                                                            oXX@@@@@@@###X#XXXXo....o.....XXX..",
"XX++@@$$********$$@@@#XXXX##@@@@@@@@+XXXXX++++####XX+XXXXX++@@@@@@$$@@@@@@@@@@@@@@$$*******==****===***$@@@#@#@@@$*****$@@@@**********@@@@@@@@@@@#XXXXoo.  ....XXXXXXX##@@@@##XXXXXXXXXXXXXX@@@@@@##XXXXXXXX##@@$*$@@@#XXXXXXXXXXXX...ooo............................X...XXXXXXXXXXXX#@@@@@@$@##XXXXXXXXXX######@@@@@XXX.OX@=-----------------------------------------------------------------=&%%%%%%%%%%++OOOOOOOOOOOOOOOOO+%%%%%++OOOOOOOO+++++%&&%++++O+O++OOO++%%&%%%+OOOO++@&=====-------------------------;;;;;;;====&@@++++O+%&&%%++++++++%%&&%%+OOOOOOOOO++%%&&%+++O+O+OOOO+++%&&&%%++++++%%%&&%%++O+++O++++++%&&&%%%++++++%%%%&&&&&&&&&&&&&&&&&&&&&&&&&&&&&&&&&&&&&&&&&%%%%%%%%%%%%++++++O+O+O++++++++OOOOO+++++++++OO+++++++%%&&&%%++%%%%&&&%%+++++++++++%%&&&%++O+OO++++%%&&&%+++++++++%%&&&%%++OOO+O+++%&&&%+OOOO++@@&&===;;;;;------------------------------------------;;;;==&&%++++++O+O++++++++OOO+OOOO++OOOOOO++O+++++@@&===-;--------------------------@+%%&&-;----------------------------------------------------------------------------------=*@@@@$$****@@@@+#+##+#+@@@$$$@@@@@@@@@@@@##XXXXXXXXXXXXXXXXXXXXXXXXXXXXXXXXooooooo.oooooooo                                        ooooXXXoooo                                                                           XX@@@@@@@#####XXXXooXXX......X.X..",
"XX++@@$$********$$@@@#XXXX##@@@@@@@++XXXXX++++##+#+XOXXXXX++@@@@@@$$@@@@@@@@@##@@@@$$*****************$$@@@#@@@@@$******@@@$*********$@@@@@@@@@@@#XXXX.o. ....XXXXXXXX##@@@@##XXXXXXXXXXXXXX@@@@@@##XXXXXXXX##@@$*$@@@#XXXXXXXXXXXX...oo.oo................X............XXXXXXXXOOXXX#@@@@@@@@##XX##@@@$$$======----=@XX.XX#@=---------------------------------------------------------------=&&%%%%+++%%%++OOOOOOOOOOOOOOOOOO+%&%%++OOOOOOO+++++++%&%+OOO.O..OOO+++%%&%%+OOO+OOXXXXX###@@$$$$**=====================$$@@###XXXXOOOO+%&&%+++++++++%%&&%%OOOOOOOOOO++%%&&%+++O+O+OOOO+++%&&&%%++++++%%%&&%%++O++++++++++%&&&%%++++++%%%&&&&&&&&&&&&&&&&&&&&&&&&&&&&&&&&&&&&&&&&&&%%%%%%&&&&&%%+++++OOOOOO+++++++++++++++++++++++O+++++++%%&&&%%++%%%%&&&%%+++++++++++%%&&&%++O+O+++++%%&&&%+++++++++%%&&&%%++O++++++%%%&&%+OOOOOOXXXX++@&======--------------------------------------==*$@@@#++OO+++++O+O+++OOOOO+OOOOOOOOOOOOOOOOOOOOOOOXXXX##@@$$==----------------------@+%%&&------------------------------------------------------------------------------------=$@@@@$*****@@@@+#++##++@@@@@@@@@@@@########XXXXXXXXXXXXXXXXXXXXXXXXooXXXoooooooooooooooooo                                         oooXXXXXoooo                                                                          XX@@@@@@@@####XXXXXXXXX........XX.",
"XX++@@$$********$$@@##XXXX##@@@@@@@++XXXXXX++#+X+++OXXXXXX+++@@@@@@@@@@@@@@@@##@@@@$$**********$$$@@@@@@@@####@@@$*******$***********$@@@@@@@@@@@#XXXX.o...oXXXXXXXXXX##@@@@##XXXXXXXXXXXXXX@@@@@@##XXXXXXXXX#@@$*$@@@#XXXXXXXXX#XX..ooX..o....o..........XXXX...X.X.XXXXXXXXXXXXX####@$$$$******===-----------------$#X...X#$=-----------------------------------------------------------===&&&%%%++++%%%++OOOOOOOOOOOOOOOOO+%%&%++OOOOOOOOOO++++%%&%%+++OOOOOOOO++%%&%%+OOOOOOOOOOOOOOOOOOOOOO+++++++++++++++++++%&%+++OOOOOO+OOO+%%&&%++OOOO+++%%&&%%++OOOOOOO+++%%&&%+++OOO+OOOO+++%&&&%+++++++%%%&&%%++O+++++++++%%&&&%%+++++%%&&&%%%%+++%%%%%%++%%%%++%%%%%%++++%+++++%%++%++++%%%%%%+++++++OO++++OOO+++++OOOO++++OO++OOOOO+++++%%%&&&%%++%%%%&&&%%+++++++++++%%&&&%++O+O+++++%%&&&%+++++OO+++%&&&%%++OOOO++++%%&&%+++OOOOO+OO++++&&&%+++@@&&&&&==========----;;;;======&&&&&+++++++OOOOO+OOOOOOOOOOOOOOOOOOOOOOOOOOOOOOOOOOOOOOOOOOOOOOOO++++@@&&===---------------@+%%%&-----------------------------------------------------------------------------------==$@@@@$*****@@@@##X#++#+@#@@##########XX###XXXXXXXXXXXXXXXXXXXXXXooXoooooooo.oo ooo                                           o oooooXXX##XXXooo                                                                         oXX@@@@$@@@##XXXXXXX.oXX........X..",
"XX++@@$$********$$@@##XXXX#+@@@@@@@++XXXXXX#+++X++OOXXXXXX+++@@@@@@@@@@@@@@@@##@@@@$$*********$$@@@@@@@###X####@@$$******************$@@@@@@@@@@@#XXXX.o..ooXXXXXXXXXX##@@@@#XXXXXXXXXXXXXXX@@@@@@##XXXXXXXX##@@$*$@@@#XXXXXXXXX#XXX..o.ooo...oo...o......XXX...XXXXXXXXXXXX####@@$$=======--------------------------=@X...XX#$=-------------------------------------------------------==$@@&&&&%%%%+++%%%++OOOOOOOOOOOOOOOOOO+%%%+++OOOOOOO+++O++%%%%%+O+OOOO+++O++%%%%%+OO+OOOOOOOOOOOOO.................OOO..OO+%&&++O+OOOO+++O++%%&&%+++++OO++%%&&%%+++OOOOO++++%%&&%+++OOO+OOOO+++%&&&%+++++++%%%&&%%++O++O+O++++%%&&&%%++++%%%&&%%%%++++++%%%+++%%%%%+%%%%%%++%%%%%%+%+%%++++++++++++++++++++++++++OO+++++OOOO++++OOO+++++O+++++%%%&&&%%++%%%%&&&%%+++++++++++%%&&&%++O+O+++++%%&&&%+++++OO+++%&&&%%++OOO++++%%%&&%+++OO+OOOOO+++%&&%+OOOXOOXXXX#######@@@@@@@@@@@@@@@++++++OOOOOOOOOOOOOOOOOOOOOOOOOOOOOOOOOOOOOOOOOOOOOOOOOOOOOOOOOOOOOOOOOOOXX###@@$$$===--------@+%%%&=----------------------------------------------------------------------------------==*@@@@$*****@@@@+XXXXXX+#######XX##XXXXXXXXXXXXXXXXXXXXXXXXXooooooooooooo  o                                                 oooooooXXX###XXXXoo                                                                         oXX@@@$$@@@##XXXXXX..XXX........X..",
"XX##@@$$*******$$$@@@+XXXX##@@@@@@@##XXXXXXX+++O+XXXOXXXXX++@@@@@@@@@@@@@@@@###@@@@@$$*******$$$@@#XXXXXXXXX##@@@$*******************$@@@@@@@@@@@##XXX.Xoo...XXXXXXXXX##@@@@@#XXXXXXXXXXXXXX#@@@@@@#XXXXXXXXX#@@$**@@@##XXXXXXXXXXX.oooooo....oo.oo.o.....XXXXXXX####@@$$$$*===---------------------------------------$#...XXX#@==----------------------------------------------;;;==$@@++++%&&&%%+++++%%%%%+OOOOOO++OOOOOOOO++%%%%+OOOOOOOOOOOOO+%%&%%+OOOOOOOOOO++%%&%%+OOOOOOOOOOOOOOOOOOOOOOOOOOOOOOOOOOOOOOOO+%&&%+OOOOO+++++++%%&&%+++OOO+++%%&&%%+++OOOOOOO++%%&&%%+OOOOOOO+++++%%&&%%%++++%+%%&&%%+++O++O++++++%&&&%%%++%%%&%%+%++++++++++OO+++++++++++++++++++++++++++++++++++++++++++++++++++++++++++++++++++++++OO+OOOO++++%%%&&&%%%%%%%%&&&%%%++++++++++%%&&&%++OO++++++%%&&&%%++O+++++%%&&&%%%+++++++++%%&&%%++OOO+OOOOOO+%%&&%+OOOOOOOOOOOO+++++++++++++++++++++++++OOOOOOOOOOOOOOOOOOOOOOOOOOOOOOOOOOOOOOOOOOOOO..OOOOOOOOOOOOOOOOOOOOOOOOOO++++++@@&&=====++++%&=;------------------------------------------------------------------------------;====*$@@@$*****@@@#+##XXXXX++++######################X#XXXXXXXooooo.. . ooo                                                    ooooooXX###@@@##XXoo                                                                         oXX@@@@@@@@##X#XXXXXoX.....X.......",
"XXX#@@@$*******$$$@@@+XXXX##@@@@@@@##XXXXXXXXX+XXXXXXXXXXXX+@@@@@@@@@@@@@@@@@##@@@@@$$*******$$$@@#XXXXXXXXX##@@@$*******************@@@@@@@@@@@@#XXXX.ooo.o...XXXXXXX##@@@@@#XXXXXXXXXXXXXX@@@@@@@#XXXXXXXXX#@@$**@@@##XXXXXXXXXXX.oooooo....ooooo..XXXXX##@@@@@$$$*=====--------------------------------------------=$....XXXX#@$=--------------------------------------------==*@@###++++%&&&%++++++%%&&&%+++++OO++++OOOOO++%%%%+OOOOOOOOOOOO++%%&%%+OOOOOOOOO+++%%&%%+O+OOOOOOOOOOOOOOOOOOOOOOOOOOOOOOOOOOOOOO+%&%%+OOOOO+++O+++%%&&%+++OOO+++%%&&%%+++OOOOOOO++%%&&%%++OOOOOO+++++%%&&%%%++++%+%&&&%%+++O++O++++++%&&&%%%++%%&&%%+++++++++++++OOOO+++++++++++++++++++++++++++++++++++++++++++++++++++++++++++O++++++O+++OO+OO++++%%%&&&%%%%%%%%&&&%%%++++++++++%%&&&%++OO++O+++%%&&&%+++O+O++++%%&&%%+++++++++%%%&&%%++OOOOOOOOOO+%%&&%+OOOOOOOOOOOOOOOO+++++++++++OOOOOOOOOOOOOOOOOOOOOOOOOOOOOOOOOOOOOOOOOOOOOOOOOOOOOO....OOOOOOOOOOOOOOOOOOOOOOOOO+++++++@+###@@@+++%%&=;------------------------------------------------------------------------------=====*$@@@$*****@@@#X##X+++#+@@@@@@@@@@@@@@@@#@@@@########XXXXXooooo.... ooo                                    o              oooooooXX###@@@@#XXoo                                                                         oXX@@@@@@@@####XXXXXXX.....X.......",
"XX##@@$$********$$@@@@+#XX#@@@@@@@@##XXXOXXX+XXXXXXX.X.OXXX+@@@@@@@@@@@@@@@@####@@@@$$*******$$@@@#XXXXXXX#X#@@@$$*******************$@@@@@@@@@@@#XXXX...oooXXXoXXXXXX##@@@@@#XXXXXXXXXXXXXX@@@@@@##XXXXXXXX##@@@*$@@@X#XXXXXXX#XXX..o..o.....oo..o.oXXXXXX###########@@@@@@@@@@@@@@@$$****====*$$**============*=*=*=$@+X..XXXXXX#@$==-------------------------;-;;;;;-;;======&&&+++++++++%&&%%++++++%%%&&&%%+++++++++OOOOO++%%%%+++OOOOOOO++O++%%&%%+OOOOOOOOOO++%%&%%+OOOOOOOOOOOOOOOOOOOOOOOOOOOOOOOOOOOOOOOO+%&%%+OOOOOOOOO+++%%&&%++OOO+O++%%&&%%++OOOOOOOO++%%&&%%+OOOOOO++++++%%&&%%%++++++%%&&%%+++OOOO++++++%%&&%%%%%%%&%%%+++++O++++++++++++++++++++++++++++++++++++++++++++++++++++++++++++++++++++++++++++++++++++OOO++++%%&&&%%%%%+%%&&&%%%++++++++++%%&&&%%+O+O+OO++%%&&&%%+++++++%%%&&&%%%%++++++%%%%&&%%++OOOOOOOOOO+%%&%%+OOOOOOOOOOOOOOOOOOOOOOOOOOOOOOOOOOOOOOOOOOOOOOOOOOOOOOOOOOOOOOOOOOOOOOO........OOOO....OOOOOO..OOOOOOOOOOOOOOO++++++++++++OO++++%%&::=====;=---------------------------------------------------------------------========*$$$$*****$@@@+#XX#@@@@@$$**$$@@@@@@@@@@@@@@@@@@@@@##XXXXo..oo.oooooo oo                                  oo             ooooooXXX##@@@@@@#XXoo                                                                        oXX@@@@$@@@####XXXXXX..........X.XX",
"XX##@@$$********$$@@@@##X##@@@@@@@@##XXXXXXXXXXXXXXX...OXXX+@@@@@@@$$@@@@@@#####@@@@$$*******$$$@@#XXXXXX##@@@@@$********************$@@@@@@@@@@@#XXXX.o..ooXXXXXXXXXX##@@@@@#XXXXXXXXXXXXX#@@@@@@##XXXXXXXX##@@@*$@@@##XXXXXXX#XXXo.o........oo......XXXXXXXXXXXXXXXXXXooooXXXXooXXX#@@@@@$$@##ooooooXXoooooooo#XX#XoXXX....XXXXXXXX#@$==--------------------------====**$@@@&=&&&&++++++++%&&%%+++++%%%%%%%%%%++++++++OOOO+++%%%%+++OOOOOO+++O++%%&%%+OOOOOOOO++++%%&%%+O+OOOOOOOOOOOOOOOOOOOOOOOOOOOOOOOOOOOO+O+%&%%+OOOOOOOOO+++%%&&%+++OO+O++%%&&%%++OOOOOOOO++%%&&%%+OOOOOOO++O++%%&&%%%++++++%%&&%+++++++O+++++%%&&&%%%%%%&&%%%+++++++++++++++++++++++++++++++++++++++++++++++++++++++++++++++++++++%+++++++++++++++++++OOO+++++%%&&&%%%%%%%%&&&%%+++++++++++%%&&&%%+O+O+OO++%%&&&%%++++++++%%&&&%%%%++++%%%%%%&&%%++OOOOOOOOOO+%&&%%+OOOOOOOOOOOOOO+++OOOOOOOOOOOOOOOOOOOOOOOOOOOOOOOOOOOOOOOOOOOOOOOOO.OOOO...........O....................OOOOOOO++OOO++++++++O+++%%%%&&@&@@@@@@$$$**===----------------------------------------------------------===========$$$$*****$@@@##XX+@@$$$************@@@@@@@@@@@@@@@@#XXXXXXoooooXoXooooo                                  oo             oooXXXXXX##@@@@@@##Xoo                                                                       ooXX@@@$$@@@@###XXXXXX..........XXXX",
"XX##@@$$*********$$@@@@@##@@@@@@@@@@#XXXXXXXXXXXXOOXXXX.XXX+@@@@@@@$@@@@@@@#XXX#@@@@$$********$@@@#XXXXXX##@@@$**********************$@@@@@@@@@@@#XXXX.ooXooX.oXXXXXXX#@@@@@##XXXXXXXXXXXXXX@@@@@@##XXXXXXXX##@@$*$@@@##XXXXXXX##XXX.........ooo..ooo...ooXXXXXX...X..XXXXXXXXX.XXXX##@@@@@@$@#XXXX............XXX.XXXXXXXOOOOX+O+++XXX##@@$====--;;;;;;=:::::::==&&@@+@&&&&%%&&&:&&++++++++%&&%%++++%%&&%%%%++%+++++++++OOO+++%%%%+++OOO+O++++O++%%&%%+OOOOOOOOOO++%%&%%+OOOOOOOOOOOOOOOOOOOOOOOOOOOOOOOOOOOO++++%%%%%+OOOOOOOOOO++%%&&%%++OO++++%%&&%+++OOOOOOOO++%&&&%%+OOO+OOOOOO+++%&&%%+++++%%%&&&%++++++OOOOO++%%%&&%%%+%%&&%%%++++++++++%%%%%%%%%%%%%%%%%%%%%%%%%%%%%%%%%%%%%%%%%%%%%%%%%%%%%%%%%%%%%%%%%%%%%%%%++++++++OOO++++%%&&&%%%+%%%%&&&%%+++++++++++%%&&&%%+++OO++++%%&&&%%%%%%%%%%%%&&&%%%%%%%%%%%%%%&&%%++OOOOOOOO+++%&&%%OOOOOOOOOOOOOOOOOOOOOOOOOOOOOOOOOOOOOOOOOOOOOOOOOOOO..OOOO..OOOO.....OOOOOOO..........................OOOOOOOOOOOOOO+++++++OO++++%%%&%%%+++OO++++++###@@@@@@$$=======-----;;-;;------------------------;;;--===*$$**=======*$$$*****$@@@####@@$$$$*************$@@@@@@@@@@@@@@#XXXXXXXXXXXXXXXXooooo                                oo            ooooXXXXXX#@@@@@@@##XX.                                                                        oXX@@@$$$@@@###XXXX....XX..XX....OO",
"X##@@@$$*********$$@@@@@@@@@@@@@@@@@@#+++++#XXXXXOO.XXXXXXX+@@@@@@@@@@@@@@@##XX#@@@@$$$*******$@@@#XXXXXX#@@@$***********************$@@@@@@@@@@@#XXXXXXooX.o.XXXXXXXX#@@@@@##XXXXXXXXXXXXXX@@@@@@##XXXXXXXX##@@$*$@@@##XXXXXXX##XX.....................XXo...X............XXX..XXXX#@@@@@@@$@#XXXXX..XX......XX.......OXX..OO.OOOOOOXXXXXXX###@@@@@$$&&&&&&&&&&&&+++++@&&%%%%&&&:&&++++++++%&&%%++++%&&&&%%+++++++++++++OOO+++%%%%+++OOO++++++O++%%&%%+OOOOOOOOOO++%%&%%+OOOOOOOOOOOO+++++++++OOOOOOOOOOOOOO+++++%%%%%+OOO+OOOOOO++%%&&%%++OO++++%%&&%+++OOOOOOOO++%&&&%%+OOO+OOOOOOO+%%&&%%+++++%%%%&&%++++++OOOOO++%%%&&%%%%%%&&%%%++++++++%%%&&&&&&&&&&&&&&&&&&&&&&&&&&&&&&&&&&&&&&&&&&&&&&&&&&&&&&&&&&&&&&&&&&&&&%%%%++++O++O+++++%%&&&%%%+%%%%&&&%%+++++++++++%%&&&%%+++OO++++%%&&&&&&&&&&&&&&&&&&&&&&&&&&&&&&&%&&%%++OOOOOOOOO++%&&%%OOOOOOOOOOOOOOOOOOOOOOOOOOOOOOOO..O.OOOOOO..OOOOOOOO........OOOO........................................OO.OOOOOOOOO++++++++OO++++%%&%%%+++OOO++++OOXXXXXXXXoXXXXX####@@@$$$=====----------------------======**@@@$*=======*$$$*=***$@@#+X##@@$$$$$***********$$@@@@@@@@@@@@@@#XXXXXXXXXX##XXXXXXXooooooo...oooooooo               oo             oooXXXXXXX#@@@$$@@@#XX.o                                                                       oX#@@$$$$@@@###XXXX....XXX.XX....OO",
"++@@@$$***********$$@@@@@@@@@@@@@@@@@#####@+##+XXOO.XXXXXXX++@@@@@@@@@@@@@@##XX#@@@@$$$$******$@@@#XXXXXX#@@@$***********************$@@@@@@@@@@@#XXXXXXooX....XXXXXXX##@@@@##XXXXXXXXXXXXXX#@@@@@@#XXXXXXXX##@@$*$@@@##XXXXXXX##XXXoooooo......................XX.XXXXX.XXXXXXXXXXX#@@@@@@@$@#XXX.....................XXX..OOOO.OOOXXOOOOOOXXXX++++%&&&%%&&:::&&&%%+%%%&&&%%%&&&:&&++++++++%&&%%+++%%&&&&%%+++++++++++++O+O+++%%%%+++OOOOO+OOOO++%%&%%+OOOOOOOOOO++%%%%%+O+OOOOOOOOO+%%&&&&&%%%%%%%++++OOOO++++++%%%%+++OOOO+OOOO++%%&&%%O+OO++++%&&&%++OOOOOOOOO++%%&&%%++OOOOOOOOO++%%&&%%+++++%%%%&&%+++++OO+++O++%%%&&%%%%%%&&%+%+++++++%%&:::::&&&::::&&&&&&::::::::&&::::&&:&::::::&&&&::&&::::&:&&&&&&&&::&&&&&&&%%%++++++O++++%%&&&%%%+%%%%&&&%%+++++++++++%%&&&%++++OO++++%%&&&&&&&&&&&&&&&&&&&&&&&&&&&:&&&%&&%%O+OOOOOOOOO++%%&%%OOOOOOOOOOOOOOOOOOOOOO..OOOOOOO...O.............OOOO.....................................................OOOOOOOOOOOO+++OOOOOOOO+%%&&%%%+%+O+O++++OOO.......OOO..OOOOO..OO+++++++&&&&&===============$$$&====*&@@@&&*======*$$$*==**$@@@+X++@@$***************$@@@@@@@$$$$@@@@#XXXXXXXXX#####XXXXXXoooooooXXooooooooo              oo          o oooXXXXXXX##@@$$$$@@#XXoo  o                                                                    oX#@@$$$@@@@###XXXXX.XXXX..XXX..OOO",
"@@@@@$$***********$$$@@@@@@@@@@@@@@@@@@@@@@@@+++XXO.XXXXXXX++@@@@@@@@@@@@@@##XX#@@@@$$$*$****$$@@@#XXXXX##@@@************************$@@@@@@@@@@@#XXXXXoXX......XXXXXX#@@@@@@#XXXXXXXXXXXXXX#@@@@@##XXXXXXXX##@@$*$@@@##XXXXXXX#XXXXoooXoo.........ooo...........XX..XXX..XXXXXXXXXX#@@@@@@@$@#XXXXo....XX..XXXXXX...X.....OXOOO.OO.O+OOOOO++X++++++%&&&&%&&::&&&&%+++%%&&&%%%&&&&&&%+++++++%&&%%+++%&&&&&%%+++++OO++++++++OO++%%%%+++OOOOOOOOO+++%%&%%+OOOOOOOOOO++%%%%%+++OOOOOOOOO+%%&&&&&%%%%%%%%+++++++++++++%%%%+++OOOOOOOOO++%%&&%+OOOO++++%%&&%+OOOOOOOOOO++%%&&%%++OOOOOOOOO++%%&&%%+++++%%%%&&%%+++OO+++++++%%%&&%%%%%%&&%+%++++++%%%&:&&%%%%%%%%%%%%%%%%%%%%%%%%%%%%%%%%%%%%%%%%%%%%%%%%%%%%%%%%%%%%%%%%%%%&&&&&%++++++O++++%%&&&%%%%%%%%&&&%%%++++++++++%%&&&%++++OO++++%%&&&%%%%%%%%%%%%%%%%%%%%%%%%%%%%%&&%%O+OOOOOOOOO++%%&%%OOOOOOOOOOOOOOOOOOOO........OO....O.....................................................................OOOOOOOOOOOOO+++OOOOOO+O++%%&&%%+%++++++++OO....OO..........OOOOOO+++++++++++@&$$@@$@@@@@@@@@@@@&&==&&@@@@@@&&=====*$$**===*$@@@+#+#@@$***$$**$@*****$@@@@@@@@$$$$@@@@##XXXXXXXXX####XXXXXXooooooXXXoXXoooooo              oo         ooooooXXXXXX##@@@$$$$$@#XXoo.ooo                                                                  ooX#@@$$$@@@@###XXXXXXXXXX..XXX..OO.",
"@@@@@$$********$$$$$$$@@@@@$$$@@@@@@@@@@@@@@@@++XXXXX...XXX##@@@$$$@@@@@@@@####X@@@@$$*******$$@@@#XXXXX##@@$$***********************@@@@@@@@@@@@#XXXX.oXXoooXXXXXXXXX##@@@@@#XXXXXXXXXXXXXX#@@@@@##XXXXXXXX##@@@*$@@@##XXXXXXXXXXXX............oo........XXXXXX...XXXXXXXXXXXXXXXXX##@@@@@@$@+XXXXX....XX................XX..OOXXOOOOOOOOOOO+++++++%&&&%%&&::&&&&%+%%%&&&&&%&&&&&&&+++++++%&&&%++++%&&&&&&%+++OO+O+++++++OO++%%%%%+++OOOOOOOO+O++%%%%%+OOOO+OOOOOO+%%%%%+OOOOOOOOOOOOO+++%%%++++++++++++++%%%%%+%%%&%%+OOOOOOOOOO++%%&&%%OOOO++++%%&&%%+OOOOOOOOO++%%&&%%O+OOOOO+OOOO+%%&&%%+++++++%%&&%%+++++++++++++%%&&%%%%%%&&%%%++++++%%&&&%%%%%%%%%%%%%%%%%%%%%%%%%%%%%%%%%%%%%%%%%%%%%%%%%%%%%%%%%%%%%%%%%%%%%%%%&&&%%+++++++++%%&&&%%%%%%%%&&&%%%%+++++++%+%%&&&%+++++O++++%%&:&%%%%%%%%%%%%%%%%%%%%%%%%%%+%%&&%%+++OOOOOOOO++%&&%%OOOOOOOOOOOOOOOOOOOOOOOOOO..OOOO...O..OOO.........................................................OOOOO...OOOOOOOOOOO+++OOOOOOOO++%&&&%%%%+O++++++OO............OOOO++++++++++++++%&%&&&%%&&&%%%%%%%%%%%&&&&&&@@@@@@@@$****$@$**==**$@@@#+##@@$$****$*$$*****$@@@@@@@@$$$@@@@@###XXXXXXXXXXXXXXXXXXoooXXXXXXXXXXoXooooo           ooooo     oooooooXXXXXXXX#@@$$$$$$@#XXXoo oooo                                                                ooX#@@$$$@@@#####XXX.XXXX......X...O",
"@@@@$$$*********$$$$$$$$$$$$$$$$@@@@@@@@@@@@@@+++XOXXX..XXX#@@@@@@$@@@@@@@@##X##@@@@$$******$$@@@@#XXXXX##@@$$***********************@@@@@@@@@@@@#XXXX.oXooo.X.XXXXXXX##@@@@@#XXXXXXXXXXXXXX@@@@@@##XXXXXXXX##@@$*$@@@##XXXXXXXXXXXX............o.....oo..XXX....XXXXXXXXXXXXXXXXXXX##@@@@@@$@+XXXXX....XX.................XX.OOXXOOOOOOOXOO++++++++%&&&&%&&::&&&&%+%%%&&&&&%%&&&&&&+++++++%&&&%+++++%&&&&&%++++++++++++O+OO++%%%%%+++O+OOOO++++++%%%%%+OOOO+OOOOO++%%%%%+OOOOOOOOOOOOOO++++++++++++++++++%%%%%%%%%%&%%+OOOOOOOOOO++%%&%%++OOO++++%%&&%%OOOOOOOOOO++%%&&%%O+OOOOO+OOOO+%%&&%%+++++++%%&&%%+++++O+++++++%%&&%%%%%%&&%%%++++++%%&&&%%%++++++++++++++++++++++++++++%+%%++++++++++++%%%%++%%%%%%%%%%%%+++%%%%%&&%%+++++++++%%&&&%%%%%%%%&&&%%%%+++++++++%%&&&%+++++O++++%%&&&%%%+%++%+%+%%%%%%%%%%%%++++%%&&%%++OOOOOOOOO++%&&%%OOOOOOOOOOOOOO....OOO.OOOO..OOO....O..OOO.........................................................OOOO....OOO..OOOOOO+++OOOOOOOO+%%&&&%%+%+O++++++OO......OO..OOOOOO++++++++++++++%%&&&&%%%+%%%%%%%%%%%%&&&&&&@@@@@@@@@@@@@@@$**==**$@@@#+@@@@@$******$@****$@@@@@@@@@@$@@@@@@@##XXXXXXXXXXXXXXXXXXXooXXXXXXXXXXXXXooo.           .oooo     oooooooXXXXXXX##@@$$$$$$@@#XXoooooo                                                                  oX#@@$$$@@@####XXXX....X.....XXOOOO",
"@@$$$$*************$$$$$$$$$$$$$$$$$@@@@@@@@@@@##XXXXXXOXXX+@@@@@@@@@@@@@@@#####@@@@$$******$$@@@@#XXXXXX#@@@$***********************@@@@@@@@@@@@#XXXX.ooo.o....XXXXXX##@@@@@#XXXXXXXXXXXXX#@@@@@@##XXXXXXXX##@@@*$@@@##XXXXXXXXXXXX......oo.o.............X....X.XXXXXXXXXXXXXXXXXX##@@@@@@$@#XXXXX..XXX...X......X......XXXXOOXXOOXXXXXO++++++++++%&&&&%&&::&&&&%++%%&&&&%%%&:::&%+++++++%&&&%++++%%&&&&&%++OO++++++++O+OO++%%%%%+++OOOO++++++++%%%%%+OO+OOOOOOO++%%&%%+OOOOOOOOOOOOOOOOOO++O+OO++OOO+++++%%&&&&%&&%+O+OOOOOOOOO++%%&&%%+OOO++++%%&&%%OOOOOOOOOO++%%&&%%O+OOOOO+OOOO+%%&&%%+++++%%%%&&%++++++O++++++%%%&&%%%%%&&&%%%++++++%%%&&%++O+OOOOOOOOOO++++++++OOOOOOOOOOOOOOOOOOOOOOOOOO++OOOO+OOO+++++O++++++%%&&%%+++++++++%%&&&%%+++%%%&&&%%%%+++++++++%%&&&%+++++O++++%%&&%%++++++OOOOOOO+++++O+++++++%%&&%%O+OOOOOOOOO++%%&%%OOOOOOOOOO..OO....O............................................................................OOOOOOO.....OOOOOOOOOO+++OOOOOOOO+%%&&&%%+++O++++++OO....OOOOO+++++++++++++++OO++++%%&&&&&&&&&&&&&&&&%%%%&&&&&&&@&%@@++++@@@@$***===*$@@@@+@@@@$*******$$***$$@@@$@@@@@@@$@@@@@@@###XXXXXXXXXXXXXXXXXXXXXXXXXXXXXXXXXooo          oooooo     oooooooXXXX#####@@$$$$$$@@#XXooooo                                                                   oX#@@$$$$@@####XXXX....X...X.XXOO.O",
"$$$$$$**************$$$$$$$$$$$$$$$$$$@@@@@@@@@+++XXXX.OXXX#@@@@@@@@@@@@@@@#####@@@@$$*******$@@@@#XXXXXX#@@@$***********************@@@@@@@@@@@@@XXXX.o..oo....XXXXXX##@@@@@#XXXXXXXXXXXXX#@@@@@@##XXXXXXXX##@@$*$@@@###XXXXXXXXXXXX...oooo.ooo.....o.....X....X.XXXXXXXXXXXXXXXXXX#@@@@@@$$@#XXXX...XXXX..X.....XX......XXXXOOXOOOXXOX+++++++++++%%&&&&%&&::&&&%%+%%%&&&&&&&&:::&%++++++++&&&%%+++%&&&&&%+++++++++++++O+O+++%%&%%+++OOO+++++++++%%%%%+OO+OOOOOOO++%%&&%+OOOOOOOOOOOOOOOOOOOOO++++++++++++++%%&&&&&&%+++OOOOOOOOOO+%%&&%++OOO++++%%&&%++OOOOOOOOO++%%&&%%++OOOOO+OOOO+%%&&%%++++++%%%&&%++++O+OO++++++%%&&%%%%%&&&%%%++++%+%%&&&%++OOOOOOOOOOOOO+++OOOOOOOOOOOOOOOOOOOOOOOOOOOOOOO+OOOOOOOOOOOOOOOOO+++%%&&%%+++++++++%%&&&%%%+++%%&&&%%%%+++++++++%%&&&%+++++O++++%%&&%%++++OO+++O++++++++OOO++O++%%&&%%++OOOOOOOOO++%%&%%OOOOOOOOOO........................OO..........................................................OO++OOOO....O.OOOOOOOOO+++OOOOOOO++%%&&&%%+++OO+++++OOOOOOO++++++++++++++OOOOOOO++++%%%%&&&&&&&&&&&&&&&&&&&&&%%%++++++++##+@@@$**====*$@@@@+@@@$*************$$@@@$@@@@@@@$@@@@@@####XXXXXXXXXXXXXXXXXXXXXX###XXXXXXXXXooo         ooXoooo    ooooooXXXX######@@$$***$@@#XXooooo   o                                                               oX#@@$$$$@@####XXXX...XXX....X.OOXX",
"$$$$$$******$$$$*****$$$$$$$$$$$$$$$$$$$$$@@@@@@@##XXXXXX+++@@@@@@@@@@@@@@@###@#@@@@$$$*******$$@@#XXXXXX+@@@$***********************@@@@@@@@@@@@@XXXX.ooooooXXXXXXXXX##@@@@@#XXXXXXXXXXXXXX@@@@@@##XXXXXXXX##@@$*$@@@##XXXXXXXXXXXXXoooo......oo.............XX.XXXXXXXXXXXXXXXXXXX##@@@@@$@@#X........XXX.....XX.X..X....OXXXOOOXXXOOOOOO+++++++++%&&&%%&&&:&&&%%%%%%%&&&&&&::::&%+++++++%&&&%%%+%%&&&&&%+++++++++++++O+OOO+%%&%%+++O+++++++++++%%%%%+O+OOOOOOOO++%%&%%+OOOOOOOOOOOOOOOOOOOOO++++++++++++++%%%%%%%++OO+OOOOOOOOOO+%%&&%++OOO++++%%&&%++OOOOOOOOO++%%&&%%OOOOOOOOOO+++%%&&%%+++++%+%%&&%++++++OO+++++%%&&&%%%%%&&&%%%++++%+%%&&&%++OOOOOOOOOOOOOOOOOOOOOOOOOOOOOOOOOOOOOOOOOOOOOOOOOOOOOOOOOOOOOOOOO++%%%&&&%+++++++++%%&&&%%%++%%%&&&%%+++++++++++%%&&&%+++++O++++%%&&&%++O+OOOOOOOOOOOOOOOOOO+O+O+%&&&%O++OOOOOOOO++%&&%%OOOOOOOOOOOO........OOO..........OOOOO........................................................O++++OO......O...OOOOOO+++OOOOOOO+%%%&&%%%+%++++++++OOO++++++++++++++OOOOOOOOOOO+O++%%%%&&&&&&&&&&&&&&&&%%+++++++++++++++++++@$**====*$@@@@@@@****=*********$$$$$$$@@@@@@@$$@@@@@@##########XXXXXXXXXXXXXX##XXXXXXXXXXXXooo        ooXXoo o oooooooXXXX#######@@$$***$@@#XXoooo.  oo                                                              ooX#@@$$$$@@@###XXXXXXXX..XX..OOXXXX",
"@$$$$$$*****$$$$$$$$$*$*$$$$$$$$$$$$$$$$$$@@@@@@@@#++X+++++@@@@@$$@@@@@@@@@#@@@@@@@@$$********$$@@@###XXX+@@@$***********************@@@@@@@@@@@@@XXXX.oo..ooXXXXXXXXX##@@@@@#XXXXXXXXXXXXXX@@@@@@##XXXXXXXX##@@@*$@@@##XXXXXXXXXXXXXooo.....oooo............XXX.XXXXXXXXXXXXXXXXXXX##@@@@@$$@#X........XXX.....XX....XX..OOXXXOOOOXXOOOOOOO++++++++%&&&%%&&::&&&%%%%%%%&&&&&&::::&%+++++++%&&&%%%%%%%%&&%%+++OO++++++++++O+O+%%&%%+++OOOOO+OOO+++%%%%%+++OOOOOOOO++%%&%%+OOOOOOOOOOOOOOOOOOOOO+%%%+++++++++%%%%%+++++O+OOOOOOOOOO++%%&&%+OOOO++++%&&&%++OOOOOOOOO++%%&&%%OOOOOOOOOO+++%%&&%%+++++%+%%&&%+++O++OO++++++%&&&%%%%%%&&%%%++++%+%%&&%%+OOOOOOOOOOOOOOOOOOOOOOOOOOOOOOOOOOOOOOOOOOOOOOOOOOOOOOOOOOOOOOOOO++%%%%&&&%+++++++++%%&&&%%%%+%%%&&&%%+++++++++++%%&&&%+++++O++++%%&&&%++O+OOOOOOOOOO++++OO+++OOO+%&&&%+++OOOOOOOO++%&&%%OOOOOOOOOOOOOOO.OOOO.OOO..OO......OO..........................................................O+++OO.......O..OOOOOOO+++OOOOOOO+%%%&&%%%%%++O+++++OO++++++++++OOOOOOOOOOOOOOOO+O++%%%%%&&&&&&&%%%%%%%%%+++++++++++++XXX##++@&**===**$@@@@@@@**==**********$$$$$$$$@$@@@@@@@@@@@@@@@@@@@#####XXXXXXXXXX####XXXXXXXXXXXXoo         oXXXoo ooooooooXXXXX#######@@$$***$@@#XXXooooo ooo oo                                                          ooX#@@$$$$@@@####XXXXXXX...X.OOOXXXX",
"@@$$$$$$$$$$$$$$$$$$$$$$$$$$$$$$$$$$$$$$$$@@@@@@@@@@@@@@@@@@@@@@$$$@@@@@@@@@@@@@@@@@$$********$$@@@#######@@@$$*********************@@@@@@@@@@@@@#XXXX.o.Xo.XXXXXXXXXX##@@@@##XXXXXXXXXXXXX#@@@@@@##XXXXXXXX##@@@*$@@@##XXXXXXXXXXXX..oo......oo.o....XX....XXXX.XXXXXXXXXXXXXXXXXX+##@@@@@@$@#XXX......XX.......X....XXXXXOXXOOOOXXOOOOOOOO++++++++%&&&%%&&:&&&&%%%%%%&&:::&&::::&%%++++++%%&&%%%%%+++++%++++O++++++++++OOO++%%&%%+OOOOOOOOOO+O++%%%%%+O+OOOOOOOO++%%&%%+OOOOOOOOOOOOOOOOOOOO++%&%%%++++++++%%+++OOOOOOOOOOOOOOOO++%%&&%++OOO++++%%&&%%+OOOOOOOOO++%%&&%%OOOOOOOOOO+++%%&&%%+++++++%%&&%++++++OO++++++%&&&%%%%%&&&%%%++++%+%%&&%%+OOOOOOOOOOOOOOOOOOOOOOOOOOOOOOOOOOOOOOOOOOOOOOOOOOOOOOOOOOOOOOOOO+%%%%%&&&%+++++++++%%&&&%%%%%%%%&&&%%+++++++++++%%&&&%+++++O++++%%&&&%++O+OOOOOOO+++OOOOOOOO+O+++%&&&%O++OOOOOOOO++%&&%%OOOOOOOOOOOOOOOOOOOOOO....OO.O................................................................OO+OOO.........OOOOOOOO+++OOOOOOO+%%%&&%%%%%++O+++++OO++++++OOOOOOOOOOOOOOOOOOOOOO++++++%%%%%%%%+++++++++++++++OOOXX+XXX+++++%&&*===**$@@@@@@$*===**************$$*$$$$@@@@@@@@@@@@@@@@@@@@##################XXXXXXXXXXXooo        oXXXoo ooooooXXXXXXX#######@@$$***$@@#XXXooo....oo o                                                           ooX#@@$**$@@@###XXXXXX....XXXXOOOXOO",
"@@@@@@@$$$$$$$$$$$$$$$$$$$$$$$$$$$$$$$$$$$$$@@@@@@@@@@@@@@@@@@@@$$$@@@@@@@@@@@@@@@@@$$*********$$@@@@#####@@@$$*********************@@@@@@@@@@@@@#XXXX.oXX...XXXXXXXXX##@@@@##XXXXXXXXXXXXX#@@@@@@##XXXXXXXX##@@@*$@@@##XXXXXXXXXXX...........oo.o....XXX...XXXXXXXXXXXXXXXXXXXXXXX+##@@@@@@@@#XXX......XXX...X.......XXX.XOXXXXOOX+O+++OOOO++++++++%&&&%%&&:&&&&&%%%%%&::::&&:::&&%%++++++%%&&&&%%%%+++++++++OO++++++++++OO++%%%%%+OOOOOOOO+O+O++%%%%%+O+OOOOOOOO++%%&%%+OOOOOOOOOOOOOOOOOOOO+%%&%%++++O++++++++O+OOOOOOOOOOOOOOO++%%&&%%+OOO++++%%&&%%+OOOOOOOOOO+%%&&%%O+OOOOOOOO+++%%&&%%+++++++%%&&%++++++O+++++++%&&&%%%%%&&&%%%++++++%%&&%%+OOOOOOOOOOOOOOOOOOOOOOOOOOOOOOOOOOOOOOOOOOOOOOOOOOOOOOOOOOOOOOOOOO+%%%%&&&%+++++++++%%&&%%%%%+%%%&&&%%+++++++++++%%&&&%+++++O++++%%&&&%++OOOOOOOOOOOOO+OOOO++++++%%&&%%O++OOOOOOOO++%&&%%OOOOOOOOOOOOOOOOOOOOOO....OO.O.................................................................OOOOO............OOOOO+++OOOOOOO++%%&&%%%%%++O+++++OO++OOOOOOOOOOOOOOOOOOOOOOOOOO++++++++++++++++++++++++++O+++OOO++++++++++&&&*===**$@@@@@@$**********************$$$$$$$$@@@@@@@@@@@@@@@@#################XXXXXXXXXXXXoo       ooXXooo  oooooXXXXXXX#######@@$$****@@#XXXoo.o..ooo o                                                           ooX#@@$**$@@@@###XXXXX....XXX.XXOOOO",
"@@@@@@@@@@@@@$$$$$$$$$$$$$$$$$$$$$$$$$$$$$$$$@@@@@@@@@@@@@@@@$$$@@@@$@@@@@@@@@@@@@$$$**********$$@@@@@@@+@@@@$$*********************@@@@@@@@@@@@@@XXXX...ooooX..XXXXXX#@@@@@@#XXXXXXXXXXXXXX#@@@@@##XXXXXXXXX#@@$*$@@@##XXXXXX##XXX...XXoo...................XX...XXXXXXXXXXXXXXXXXX#@@@@@@$$@#X...................XXX..XXXOOOXXXXXXOOOOOO++++++++++%&&&&&&&::&&&%%%%%%&::::&&::::&%%+++++%%%&&&&%%%%%++++++++++++++++++OOOO++%%%%%+OOO+OOOO++++++%%%%%+OOOOOOOOOO++%%&%%+OOOOOOOOOOOOOOOOOO+O+%%&%%++OOOO++++++OOOOOOOOOOOOOOOOOO++%%&&%+++OO++++%%&&%++OOOOOOOOO+O%%&&%%+OOOOOOOOOO++%%&&%%+OO++%+%%&&%+++O++OOO+++++%&&&%%%%%%&&%%%++++++%%&&&%OOOOOOOOOOOOOOOOOOOOOOOOOOOOOOO...OOOOOOOOOOOOOOOOOOOOOOOOOOOOOOOO++%%%%%&&%++++OO++%%%&&%%%++%%%%&&&%%%++++++++++%%&&&%+++O++++++%%&&&%++OO+OOOOOOOOOOOO++OOOOO+++%&&%%+++OOOOOOOO++%&&%%OOOOOOOOOOOOOOOOOOOOOOOOOOO...................................................................OOOOOO.......O...OOOOOO++OOOOOOOOO+%%&&&%%%%++O++++++OOOO.OOOOOOOOOOOOOOOOOOOOOOO+++++++++OO+++++++++OO++OOOO+OO++X+++XXO+++@@***===**$@@@@@@$**=*************$@@@@@@@@@@@@@@@@@@@@@@@@@@@@@@##############XX#XXXXXXXXXXXoo       ooooooo oo  oXXXXXXX#######@@@$*****$@#XXXXXoooooo    ooo                                                       ooX#@@$*$$@@@####XXXXXX...XX.XOO.OOO",
"++@@@@@@@@@@@@@@@@@$@@@@$$$$$$$$$$$$$$$$$$$$$$$$@@@@@@@@@@@@$$$$$$$$$$@@@@@@@@@@@@$$************$$@@@@@@@@@@@$$*********************@@@@@@@@@@@@@@XXXX....ooXX..oXXXXX#@@@@@@#XXXXXXXXXXXXXX#@@@@@@#XXXXXXXXX#@@$*$@@@##XXXXXXX##XX.....oo......oo..........XXXX..XXXXXXXXXXXXXXXXXX##@@@@@$@@XX.......X......XX.X.XX...XXXOOOXXXXOOOOOOOO++++++++++%&&&%%&&::&&&%%%%%%&::::&&::::&%%+++++%%%&&&&%%%%%++++++++++OO+++++++OOOO+%%%%%%++O+OOOO++OO++%%%%%+OOOOOOOOOO++%%%%%+OOOOOOOOOOOOOOOOOO+O+%%&%%++OOOO++++++OOOOOOOOOOOOOOOOOO++%%&&%++OOO++++%%&&%%+OOOOOOOOO+++%&&%%+OOOOOOOOOO+++%&&%%+OO++%+%%&&%+++OO+OOO+++++%%&&%%%%%%&&%%+++++++%%&&%+OOOO.OOOO.OOOO..O.OOOOOOO.OOOO....OOOOOOOOOOOOOOOOOOOO...OOOOOOOOO++%%%%%&&%++++OO++%%%&&%%%++%%%%&&&%%%++++++++++%%&&&%+++O++++++%%&&&%++OOOOOOOOOOOOOOO+++OOOO++%%&&%%+++OOOOOOO+++%&&%%OOOOOOOOOOOOOOOOOOOOOOOOOOO...................................................................OOOOO.........OOOOOOOOO++OOOOOOOOO+%%&&&%%%%++O+++++++O...........OOOOOOOOOOOOOOOO++++++O+OOOOOOOOOOOOO+OOOOOOOOOOOXX+XXO+++@&**====**$@@@@@@$*******@@@@@@@@@@@@@@@@@@@@@@@@@@@@@@@@@@@@@@###############XXX#XXXXXXXXXXXo.      ooooXoooooooooXXXXXXX#######@@@$*****$@#XXXXXoooooo    ooo                                                       ooX#@@$**$@@@####XXXXXX...XXXOOOOOOO",
"+X+###@@@@@@@@@@@@@@@@@@@@@@@@@@@@@@$$$$@@$$$@$$$$$$$$$$$$$$$$$$$$$$$$$$$$$$@@@@@$$$$***********$$$@@@@@@@@@$$$*********************@@@@@@@@@@@@@@XXXXXX....o.X.XXXXXX##@@@@##XXXXXXXXXXXXXX@@@@@@@#XXXXXXXXX#@@$*$@@@##XXXXXXX##XXX..........oooo.o.o.....XXXXX..XXXXXXXXXXXXXXXXXX##@@@@@@@@XX..XX.XXXXX........X.....XXXXOOOXOOOOXOXXOX++O+++++++%&&&%%&&::&%&%%%%%&&::::&&::::&%%+++++%%%&&&&&%%%%++%%%%++++++++++++++++++%%&&%+++O+OO+OOOO+++%%%%%+OOOOOOOOOO+++%%%%+OOOOOOOOOOOOOOOOOOOO+%%&%%++OOOOO+O+++OOOOOOOOOOOOOOOOOO++%%&&%+OOOOO+++%%&%%++OO+O+++++++%%&&%%+OOOOOOOOOO+++%&&%%+OO++++%%&&%+++OOOOOO+++++%&&&%%%%%%&&%%%++++++%%&&%+OOOOOOOOOOOOOO..O.OO..OO....OO....OOOOOO..OOOOOO....OO....OOOOOOOOO+%%%%%&&%++++OO++%%%&&%%%++%%%%&&&%%%++++++++++%%&&&%+++OO+++++%%&&&%++OOOOOOOOOOOOOOO+OOOOOO++%%&&%%++++OOOOOO+++%&&%%OOOOOOOOOOOOOOOOOOOOOOOOOOOOOO......O.........................................................OO+OO.........OOOOOOOOO++OOOOOOOOO+%%&&%%%%%++O+++++OO...............O..OOOOOOOOOO++++++O+OOOOOO++++OOOOOOOOOOOOOOOOOOXO+X++@&&&====**$@@@+@@@@@@@@@@@@@@#@##########################XX####XXXX##XXXXXXX#XXXXXXXXXXXXXXXoo.      ooXXXooooooooXXXXXXXXX######@@@$*****$@#XXXXXXoooo...  .                                                         oXX#@@$**$@@@###XXXXXX.....X..OOXXXX",
"XXXXX#####@@@@@@@@@@@@@@@@@@@@@@@@@@$$@@@@@$$$$$@$$$$$$$$$$$$$$$$$$$$$$$$$$$$$$$$$$$***********$$$$$$$$$@$$$$***********************@@@@@@@@@@@@@@XXXX......ooXXXXXXXX##@@@@##XXXXXXXXXXXXXX@@@@@@@#XXXXXXXXX#@@$*$@@@##XXXXXXX##XXX...........o.o.o.X....XXXXXX..XXXXXXXXXXXXXXXXXX##@@@@@$@@XX.XX.XXXXXX.......XXX....XXXXOOOOOOOOXXXXO+++O+++++++%&&&%%&&::&%&%%%%%&&::::&&::::&%%+++++%%%&&&&&%%%%++++%%%%%%%+++++++++++++%%&&%+O+O+O++OOOO+++%%%%%+OOOOOOOOOO+++%%%%+OOOOOOOOOOOOOOOOOOOO+%%&%%++OOOOOOO++OOOOOOOOOOOOOOOOOOO++%%&&%+O+OOOO++%%&%%%+OOO++++%+++%%&&%%++OOOOOOOOO+++%&&%%+O+++++%%&&%+++OOOOOO+++++%&&&%%%%%%&&%%%++++++%%&&%+OOOOOOOOO...OO..OOOO..OO....OOOO..OO..OO...OOOOO....OOOO...OOOOOOOO+%%%%%&&%++++OO+++%%&&%%%+++%%%&&&%%%++++++++++%%&&&%+++O+O++++%%&&&%++OOOOOOOOOOOOOOOOOOOO+O++%%&&&%+++O+OOOOO+++%&&%%OOOOOOOOOOOOOOOOOOOOOOOOOOOOOO.....OOOOO......................................................OOOO...........OOOOOOOO++OOOOOOOOO+%%&&%%%%%++O++@++OOO..................OOOOOOOOO+++++OOOOOOOOOOOOOOOOOOOOOOOOXO+OOOOXXO+++%&&&====**$@@@++@@@@@@@@##################XXXXX###XXXXXXXXXXXXXXXXXXXXXXXXXXXXXXXXXXXXoXooooooo      ooXXXXooooooXXXXXXXXXX######@@$$******@@#XXXXXXooo.... o.                                                        oXX#@@$**$@@@###XXXXXX........OOXXOX",
"XXXXXXXXX++##@@@@@@@@@@@@@@@@@@@@@@@@@@@@@@@@@@@@@@@$$$$$$$$$$$$$$$$$$$$$$$$$$$$$$$***********$$$$$$$$$$$$$*************************$@@@@@@@@@@@@@XXXXooooo.....XXXXXX##@@@@##XXXXXXXXXXXXXX#@@@@@##XXXXXXXXX#@@$*$@@@####XXXXX+XXXXo.oo......oooo...XXoXXXX.XXXXXXXXXXXXXXXXXXXXXXX##@@@@@$@@XXoXX..XX.X..XXX.....X.OOOOOO.XXXXOOXXOO+XOOOOO+++++++%&&&%%&:::&%&&%%%%&&::::&&:::&&%++++++%%%&&&&&%%%+++++++++++%%%%++++++O+++%%&&%+OOO+OOOOOOO+++%%%%%+OOOOOOOOOO+++%&&++OOOOOOOOOOOOOOOOOOOO+%%&%%++OOOOOOO++OOOOOOOOOOOOOOOOOOO++%%&&%+OOOOOO++%&&&%++OOOO++++++++%&&%%+OOOOOOOOOO+++%&&%%+O+++++%%&&%++OOOOOOO++++%%&&&%%%%%%&&%%%++++++%%&&%+OOOOOOOOO.O..O....OOO........OOOOOOOO.O...OOO.O......O.......OOOOO++%%%%%&&%+++++++++%%&&%%%++++%%&&&%%+++++++++++%%&&&%+++OOO+O++%%&&&%++OOOOOOOOOOOOOOOOO+OOOO++%%&&%%++OOOOOOOO+++%&&%%OOOOOOOOOOOOOOOOOOOOOOO+++OOOO....OOOOOOOO.....................................................OOO.......OOO...OOOOOO++OOOOOOOO++%%&&&%%%%++O+++++OOO................OOOOOOOOOOOO+++++OOOOOOOOOO+++OOOOOOOOO.OOOOOOO++++++&&&&=====*$@@@++++##############XXXXXX#XXXXXXXXXXXXXXXXXXXXXXXXXXXXXXXXXooXXXXXXooXooooooo..oo       oXXXXXoooooXXXX##XXXX######@@@$$*****$@@#XXXXXXoooo..oo  ooooooo                                                 oXX#@@***$@@@###XXXXX.....XX.XOOOOXX",
"XXXXXXXXXX###@@@@@@@@@@@@@@@@@@@@@@@@@@@@@@@@@@@@@@@@@@@@@@$@@@@$@@$$$$$$$$$$$$$$$$***********$$$$$$$$**$***************************$@@@@@@@@@@@@@XXXX.oooooo...XXXXXX##@@@@@#XXXXXXXXXXXXXX#@@@@@##XXXXXXXXX#@@$*$@@@####XXXXX+#XXXo.o.......ooooo..XooX.XX.XXXXXXXXXXXXXXXXXXXXXXX##@@@@@@@@XX..XX.XX..X..XX.....X.XXOOOOOXXXOOOXXOO+OOOOOO+++++++%&&&%%&:::&%&&%%%%&&::::&&:::&&%++++++%%%&&&&&%%+++++++++++++++%+++++++O+++%&&%+OO++OOOOOO++++%%%%%+OOOOOOOOOO+++%&&++OOOOOOOOOOOOOOOOOOOO+%%&%%++OOOOOO+++OOOOOOOOOOOOOOOOOOO++%%&&%+O+OO++++%%&&%+++OO+OO++O++%%&&%%OOOOOOOOOOO+++%&&%%+O+++++%%&&%+++OOOOOO+++++%&&&%%%%%%&&%%%++++++%%&&%%++OOOOOOOOO..O....OOOO......OOOOOOOO..OO......OO....OOO......OOOOO++%%%%%&&%+++++++++%%&&%%%++++%%&&&%%+++++++++++%%&&&%+++OO++O++%%&&&%++OOOOOOOOOOOOOOOO++++OO++%%&&%%++OOOOOOOO+++%&&%%OOOOOOOOOOOOOOOOOOOOOOO+++OOOO....OOOO..OOO.....................................................O.........OO...OOOOOO+++OOOOOOOO+%%&&&%%%%++O+++++OOOO.............OOOOOOOOOOOOO+++++OOOOOOOOOOOOOOOOOOOOO++OOOOOOOO++++++&&&&=====*$@@@++++##############XX######XXXXXXXXXXXXXXXXXXXXXXXXXXooooXXooooooooooo                  oXXXXXooooooXXX########@@##@@@$$*****$@@#XXXXXXooo.ooooooooooooo                                                 oXX#@@***$@@@@##XXXXXX..XXXO.XOOOOXX",
".....X.OX+++@@@@+@+++++++#+#@@@@@@@@@@@@@@@@@@@@@@@@@@@@@@@@@@@@@@@@@@@@@@@@@$$$$$$$$*********$$*$$$$*******$***********************$@@@@@@@@@@@@@XXXX.ooooo..o.XXXXXX##@@@@@#XXXXXXXXXXXXXX@@@@@@@#XXXXXXXXX#@@$*$@@@###XXXXXXX#XXXo.ooooo...ooo.....o........XXXXXXXXXXXXXXXXXXXXX##@@@@@@@@XX......XX....XXXX..XXXXOXOOXXXXOOXXXXOO+OXOOO++++++++%&&&%%&:::&%&&%%%%&&::::&::::&&%++++++%%&&&&&&%%++++++++OOOOO+++++++++++++%%&%%+O+O+OOOO++O+++%%%%%+OOOOOOOOOOOO%%&%++OOOOOOOOOOOOOOOOOO+O+%%&%%++OOOOOOO+++OOOOOOOOOOOOOOOOOO++%%&&++OOOO+O++%%&%%+++OO++OOOO++%%&&%%OOOOOOOOOOO++%%&&%%+O+++++%%&&%+++OOOOOO++++%%&&&%%%%%%&&%%%++++++%%&&&%%++OOOOOOOO...OOOOOOOO.......O..OOOOOOO.....OO......OO.OOO..OOOOOO++%%%%%&&%++++O++++%%&&%%%++++%%&&&%%+++++++++++%%&&&%+++O+++O++%%&&&%++OOOOOOOOOOOO+OOOO+++OO++%%&&%%++OOOOOOOO+++%&&%%OOOOOOOOOOOOOOOOOOOOOOO+++OOOO...OOOOO....O...OOOO.............................................OOO.......OOOO..OOOOOO++OOOOOOOOO+%%&&&%%%%++O+++++OOOO............OOOOOOOOOOOOOOO+++++OOOOOOOOOOO+OO++++OO++OO+O++++++++++&&&=====**$@@@##++++++++##XXXXXXXXXXXXXXXXXXXXXXXXXXXXXXXXXXXooXXX....oooo...ooo                     ooXXXXXoooooXXX########@@###@@$$*****$@@#XXXXXXXooooo.ooooo..oo                                                  oXX@@@***$@@@####XXXXXXXXXOO.XXOOOOX",
"....XXXO++++@@@@@@@@@@+++##+###@########+++###@@@@++@@@@@@@@@@@@@@@@@@@@@@@@@@@@$$$$$$*********$**********$$$***********************$@@@@@@@@@@@@#XX.X.oooooo.ooXXXXXX##@@@@@#XXXXXXXXXXXXXX@@@@@@@#XXXXXXXXX#@@$*$@@@###XXXXXX+XXX...ooooo...oo..................XXXXXXXXXXXXXXXXXX##@@@@@@@@XX......XX.XXXXXXX..XXXXXXOOXXXXOOXXXXOO++++OO++++++++%&&&%%&:::&%&&%%%%&&::::&::::&&+++++++%%%&&&&&%%++++++++OO+++O++++++++++++%%&%%+O+OO+OOO++++++%%%%%+OOOOOOOOOOO++%%%++OOOOOOOOOOOOOOOOOO+O+%%&%%++OOOOOO++++OOOOOOOOOOOOOOOO+O+++%&%++OOOO++++%%&%%+++OOOOO++O+++%&&%%+OOOOOOOOOO++%%&&%%+OO++++%%&&%++O+OOOOO++++%%&&&%%%%%%&&%%%++++++%%%&%%%%+OOOOOOOOO..OOOOOOOO.......O.OOOOOOOO......O.......O.OOO..OOOOOO++%%%%%&&%++++OO+++%%&&%%%++++%%&&&%%+++++++++++%%&&%%+++O+++O++%%&&&%++OO++O+OOOOO+++OOOO+++O++%%&&%%++OOOOOOOOO++%&&%%+OOOOOOOOOOOOOOOOOOOOOO+%+OOOO....OOOO.......OOOOOO............................................OOO.......OOOO.OOOOOOO++OOOOOOOO++%%&&&%%%%++O+++++OOOO............OOOOOOOOOOOOOOO+++++OOOOOOOOOOO++++++OOOOOOO++++++++++++&&=======*$@@@##XX++++XXXXXXXXXXXXXXXXXXXXXXXXXXXXXXXXXXXXXXXXXXoooo..oooo..ooo .  o                 ooXXXXXooooXXX#########@@##@@@$$*****$@@#XXXXXXXooo.Xoooo.oo.ooo                                                 oXX@@@***$@@@###XXXXXXXX..OO.X.OOOOO",
"....oXXX+++@@@&@@&@@@@%%@@@@@@@@@+##X#XXXXXXXXXX##+#####@@@@@@@@@@@@#@@@@@@@@@@@@@@$$$$$$$$$***********$$$$$$$**$********************$@@@@@@@@@@@@XXXXoo.o..ooooXXXXXX#@@@@@@#XXXXXXXXXXXXXX#@@@@@@#XXXXXXXXX#@@@*$@@@###XX+XX+##XXo....oo....oo.........XXX...X..XXXXXXXXXXXXXXXXXX##@@@@@$@@XX.........X.............XXOOOOOOOOOOOXXXXXXOO++++++++%&&&%%&&::&%&&%%%%&&::::&::::&&%%+++++%%&&&&&&%%+++++++OOO+++OOOOOOOO++++++%&&%+OOOOOOOO+++O++%%%%%+OOOOOOOOOO+++%&%%+OOOOOOOOOOOOOOOOOOOO+%%&%%++OOOOOOOO+O+OOOOOOOOOOOOOO+O++++++%+++OOOO+++%%&%%+++OOOOO++++++%&&%%+OOOOOOOOOOO++%&&%%+++++++%%&&%+++OOO+OO+++++%%&&%%%%%%&&%%%+++++++%%&%%%%+OOOOOOOOOOOOO...OOOOOO...OO..OOOO..OOOO..OOOOOOOOO.OOOOOOOOOOOOO+%%%%%&&%++++OO+++%%&&%%%++++%%&&&%%+++++++++++%%&&&%++OO++++++%%&&&%++OOOOOO+O+O+O+++++++O++++%%&&%%++O+O+OOOOO++%&&&%+OOOOOOOOOOOOOOOOOOOOOO+%+OOOOOO..OO.........OOOO+OO...........................................OOOOO........OOOOOOOOOO+OOOOOOOOO+%%&&%%%+%++O+++++OOOO............OOOOOOOOOOOOOO+++++OOO..OOOOOOO+++++O+OOOOOOOO++++++++++&&&&====**$@@@X#XX+XXXXXXXXXXXXXXXXXXXXXXXXXo...oo....oooo..ooooooo..o.ooooooo                      ooXXXXXXooooXXX############@@@@$******$@##XXXXXXXXXooo.ooo.o  o                                                   oXX@@@***$@@@@##XXXXXX....XOOOOXXOOO",
"....XXXX++@@&&&&&&&$&&&&&&@@@@@@@@##+XXXXXXXXXXXXXX+#+##@@@@@@@@###+##+@@+@@@@@@@@@@@@@$$$$$$$*$****************$$*******************$$@@@@@@@@@@@XXXXoo....ooooXXXXXX#@@@@@@#XXXXXXXXXXXXX#@@@@@@@#XXXXXXXXX#@@@*$@@@###XXXXXX##XXo....ooo....o.......XoXXX.X.X...XXXXXXXXXXXXXXXXX##@@@@@$@@XXXX...........XXX.......X.XOOOOOOXOOOXXXXX+++++++++++%&&&%%&&::&%&&%%%%&&::::&::::&&%%+++++%%&&&&&&%%+++++++OOO+OOOOOOOOOOOO+++%%%%%+O+OOOOO+++OO++%%%%%+OOOOOOOOOO+++%&%%+OOOOOOOOOOOOOOOOOO+O+%%&&%++OOOOOOO++OOOOOOOOOOOOOOOO+OOOO+++++++OOO++++%%&%%++OOOOOOOOO+++%&&%%+OOOOOOOOOOO++%&&%%+++++++%%&&%+++OOOOOO+++++%&&&%%%%%%&&%%%++++++%%%&%%%%OOOOOOOOOOOOOOO..OOOOO.O..OO..OOOO..OOOO..O.OOOO..OOOOOO.OOOOOOOO+%%%%%&&%++++OO+++%%&&%%%++++%%&&&%%+++++++++++%%&&&%++OO+O+O++%%&&&%++OOOOOO+O++++++++++++++++%%&&%%O+O+OOOOOO+++%&&&%+OOOOOOOOOOOOOOOOOOOOO++%+OOOOO....O..........OO+++O..........................................O+++O.........OOOOOOOOO++OOOOOOOOO%%%&&%%%+%++O+++++OOOO............OOOOOOOOOOOOOO+++++OOO..OOOOOOOOOOOOOOOOOOOO+OOOOO++++++&&&&====**$@@@+X+XXXXXXXXXXXXX.X.X..X.XXXXooo...ooo...ooo  .  o o        o                          o.XXXXXXXoooXXX###########@@@@@$******$@@#XXXXXXXXXoooooo...      o                                               oXX@@@$**$@@@@##XXXXXXX....OOOOXXOOO",
"....XXX++@@&&&&&&&**&&&&&&&&&&&&@@+++OXXXXXXXXXXXXX####@#@@@@@@@@#####++XXXXX##X##@@@@@@@@@@@@$@@@@$$$$*******************************$$$$$$$@@@@@XXXXoooo..oooXXXXXXX#@@@@@@#XXXXXXXXXXXXX#@@@@@@@#XXXXXXXXX#@@@*$@@@###XXXXXX##XXX..........oooo.....X..XX.XXXXX.XXXXXXXXXXXXXXXX+##@@@@@$@@XXXX......X.....XXXXX.O.XXXXXOOOXXXXOOXX+X++++++++++++%&&&%%&&::&%&&%%%%&&::::&::::&&%%+++++%%%&&&&%%%+++OOOOOOOOOOOO+OOOOOOO++++%%%%+++OOOOO+++OO++%%%%%+OOOOOO+OOO+++%%%+OOOOOOOOOOOOOOOOOOO+O%%&&&%++OOOOOOO++OOOOOO+++++++++++++++++++++OOO++++%%&&%%+OOOOOOOOOO+O+%&&%%+OOOOOOOOOOO++%&&%%+O+++++%%&&%++OOOOOOO+++++%&&&%%%%%%&&%%%+++++++%%&&&&%OOOOOOOOOOOOOO..OOOOOOOOOOOOOOOOOOOOOOOOOOOOOOOOOOOOOOOOOOOOOOOOO+%+%%%&&%++++OO+++%%&&&%%++++%%&&&%%+++++++++++%%&&&%++OOOO+O++%%&&&%++OOOOOO++++%+%%%++%+%%++%%%&&%%++O+OOOOOOO++%&&&%+OOOOOOOOOOOOOOOOOOOOOO+++OOOOOOOOOOO...OOOOOOO++%+OOO........................................O++++O........OOOOOOOOO+++OOOOOOOO%%%&&%%%%%++O+++++OOOO............OOOOOOOOOOOOOO+++++OOOO.OOOOOO+++++OO+OO++++++++O+++++++&&&&=====**@@@+XXXOXXXOXXXXXXXX..X........oooo.  .. . oo                                            ooXXXXXXXXooXX##@@#####@@@@@@@$$******$@##XXXXXXXXXXoooooo... oo                                                  oXX@@@$**$@@@@##XXXXXX.....OOOXXXOOO",
"....XXX++@@&&&&&&&====&&&&&&&&&&@@@++O...XXXXXXXXXX#+@@@@@@@@@@@@@@@@#++++XXXXXXXX##@+@@@@@@@@@@@@@@$$$*********************************$$$$$$@@@@XXXX..ooooooXXXXXXXX#@@@@@@#XXXXXXXXXXXXX#@@@@@@@#XXXXXXXXX#@@$*$@@@###XXXXXX##XXX..........oooo.....X...XXXXXXXXXXXXXXXXXXXXXXXXX##@@@@@$@@XXXX............X.XXX...XXXXOOXXXXXXOOOO++++++++++++++%&&&%%&&::&&&&%%%%&&::::&::::&&%%+++++%%%&&&&&%%%+++++++O+OOOOO+++++++OO+++%%%%+++OOO+O+O+OO++%%%%%+OOOOOOOOOO+++%%%+OOOOOOOOOOOOOOOOOOO+O%%&&&%++OOOOOOO+++++OOO+++++++++++++++++++++++++++%%%&&%++OOOOOOOOOOOO+%&&%%+OOOOOOOOOO+++%&&%%+O+++++%%&&%++OOOOOOOO+O++%%&&%%%%%%&&%%%+++++++%%%&&&%++OOOOOOOOOOOOO.OOOOOOOOOOOOOOOOOOOOOOOOOOOOOOOOOOOOOOOOOOOOOOOOO+++%%%&&%++++O++++%%&&&%%++++%%&&&%%+++++++++++%%&&&%++OOOO+O++%%&&&%++OOOOOO+++%%%%%%%%%%%%%%%%%&&%%++O+OOOOOOO++%&&&%+OOOOOOOOOOOOOOOOOOOOOO+++OOOOO...OOO...OOOOOOO+%%%+O.........................................O++++........OOOOOOOOOO+++OOOOOOOO%%%&&%%%%%+OO+++++OOOO............OOOOOOOOOOOOOO+++++OOOO.OOOOOO+++O++++OO++++++++++++++++&&&&=====**@@+++XXXXXXOX...XXXXXXX........oooo..   o..                                              ooXXXXXXXoooXX###@#####@@@@@@@$$******$@@#XXXXXXXXXXoooooo... ooo o                                               oXX@@@***$@@@@##XXXXXX.....XOOXXXOO.",
"...XXXX++@&&&&*=&======&&&&&&&&&&@@++XX...XXXXXXXX##@@@@@@@@@@@@@@@@@@@@#XXXXXXXXXXXXX##++++###@@@@@@@@@$$$$*******************************$$$@@@@#XXX..ooooo..X.XXXXX#@@@@@@#XXXXXXXXXXXXXX@@@@@@@#XXXXXXXXX#@@$**@@@#####XXXXX#XX............ooo.....X..XXXXX.XX.XXXXXXXXXXXXXXXXX##@@@@@@@@XX................X...OOXXXXOOOOXXXXXXOOO+++++++++++++%&&&%%&&::&&&&%%%%&&::::&&:::&&%%+++++%%%&&&&&%%++++++++++++++++++++O+OO+++%%%%++++OOOOOOOO+++%%&%%+OOOOOO++OO+++%%%+OOOOOOOOOOOOOOOOOOO+O%%&&&%++OOOOO++++++%%%%%%%%%%%%%%%%%%%%%%%%%%%%%%%&&&&&%++++OOOOOOOOOO+%&&%%+OOOOOOOOOO+++%&&%%+++++++%%&&%++OOOOOOOOO+++%%&&%%%+%%&&%%%+++++++++%%%%%++OOOOOOOOOOOOOOOOOOOOOOOOOOOOOOOOOOOOOOOOOOOOOOOOOOOOOOOOOOOOOOO++++%%&&%+++++O+++%%&&&%%+++%%%&&&%%%+++O++++++%%&&&%++OO+O++++%%&&&%+++O+O++++%%&&&&&&&&&&&&&&&&&&%%++OOOOOOOO+++%&&%%++OOOOOOOOOOOOOOOOOOOOOO+OOOOOOOOOOOOOOOOOOOOOO+%%%+OOOOOOOOOOOOOOOO..........................O+++O........OOOOOOOOOO+++OOOOOOOO%%%&&%%%+%++O+++++OOOO.............OOOOOOOOOOOOO+++++OOOOOOOOOOO++++OOOOOOOOOOO+++++++++%%&&&&=====**@@++++X+OXXXXXX....XXXXX............ oo      .                                            .XXXXXXXXXoXX##@@#####@@@@@@@$$******$@@#XXXXXXXXXoooooooo.o oo                                                  oXX@@@$**$@@@@##XXXXXXX....OOOOXXOOX",
"...XXX+++@&&*===&&======&&&&&&=&&&@++OXX...XXXXXXX##@@@@@@@@@@@@@@@@@@@@##XXXXXXXXXXXXXXX+XXXX##++@@@@@@@@@@$$*********=********************$$$@@@#XXX..ooooo....XXXXX#@@@@@@#XXXXXXXXXXXXXX@@@@@@@#XXXXXXXXX#@@$*$@@@####XXXXXX#XX...........oooo.....X..XXXXXX.X.XXXXXXXXXXXXXXXX###@@@@@@@#XX.........X.X...XX...OOXXXXOOOOXXXXXOOOOO++++++++++++%&&&%%&:::&&&&%%%%&&::::&&:::&&%%+++++%%%&&&&&%%++++++++++++O+++++++OOOO+++%&&%+++OOOOOOOO++++%%&%%+OOOOOO++OO+++%%%+OOOOOOOOOOOOOOOOOOO+O+%%&&%+++OO++++++%%&&&&&&&&&&&&&&&&&&&&&&&&&&&&&&&&&&&%%++++OOOOOOOOOO+%&&%%+OOOOOOOOOO+++%&&%++++++++%%&&%++OOOOOOOOOO++%%&&%%%+%%&&%%%+%++++++++%%++++OOOOOOOOOOOOOOOOOOOOOOOOOOOOOOOOOOOOOOOOOOOOOOOOOOOOOOOOOOOOOOO++++%%&&%+++++++++%%&&&%%+++%%%&&&%%%+++O++++++%%&&&%+++OOO++++%%&&&%+++++O+O++%%&:::::&::::::::&::%%++OOOOOOOO+++%&&%%++OOOOOOOOOOOOOOOOOOOOOOOOOOOOOOOOOOOOOOOOOOOOO+%%%+OOOOOOOOOOOOOOOOOO........................OOOO.........OOOOO++OOO+++OOOOOOOO+%%&&%%%++++O++++++OOO.............OOOOOOOOOOOOO+++++OOOOOOOOOOO++++++++++++++++++++++++%%&&&&=====**@@++++++OXXXXXX....XXX...............oo    ..                                             .XX#XXXXXXXXX##@@#####@@@@@@@$$*******@@#XXXXXXXXXXoooo..o.oooo  .                                               oX#@@$***$@@@@##XXXXXXX..O..OOXXXOOO",
"...XXX+++@&&&**=========&&=====*&&@++XXX..XXXXXX#++@@@@@@@@@@@@@@@@@@@@@@@@#####XX++X+X#XXXXXXXXXX++###@@@@@@$$*************====************$$$@@@@#XX.Xooo.oo.XoXXXXX#@@@@@@#XXXXXXXXXXXXXX#@@@@@@#XXXXXXXXX#@@@$$@@@####XXXXXX#XXX....oo......o......X...X.....X.XXXXXXXXXXXXXXXX###@@@@@@@@XX..XXXX....X.........OXXXXX.OOOXXOOOOOOXX+++++++++++%%&&&%%&:::&%&&%%%%&&::::&::::&&%%+++++%%&&&&&&%%++++++++++++OO+++++OO+OO+++%&&%+++++OOOOOOO+++%%%%%+OOOOOOO+OO+++%%%+OOOOOOOOOOOOOOOOOOOOO+%%&%%++++OOO+++%%&&&&%%%%&&&&%%%&%%&&&&%%&%%%%%%%%%%%++O+++++OOOOOO+O+%&&%%++OOOOOOOOO++%%&&%++++++++%%&&%+++OOOOOOOOO++%%&&%%%++%&&&&%%%%%%%%%%%%%%%+%++%%%%+++++++++++++++OOO++O+++OOOOOOOOOO+O++++++OO++++++++++OO++++++%&&%++++O+++++%&&%%%++++%%&&&%%%+++O++++++%%&&&%+++OOO+O++%%&&&%+++O+O++++%%&&&&%%%%%%%%&&&&&&%%++OOOOOOOO++%%&&%%++OOOOOOOO+++++++++++++++++++++++++++++++++OOOO+%%%+OOOOOO++OOOOO+OOOOOOOO.O...................OO...........OOOO++OOO+++OOOOOOOO%%%&&%%%++++O++++++O..............OOOOOOOOOOOOOO+++++OOOOOOOOOO+++++++++++++++++++++++++%%&&=======*$@@++++++OXXX...XX..XXXX....oooo......oo..  .                                             o.XX#XXXXXXXXX##@@####@@@@@@@@$********@@#XXXXXXXXXXooooo.oooooo. . o                                             oX#@@$***$@@@@##XXXXXXXX.O..XXXXXXOO",
"...XXO+++%&&&**=&&=====&&&&====&&&@++OX.X.XXXXXX#++@@@@@@@@@@@@@@@@@@@@@@@@@#+#++##++######X##XX++++X#XX++@@@@@$$$$************************$$$$@@@##XX..ooo...oooXXXXX#@@@@@@#XXXXXXXXXXXXXX#@@@@@##XXXXXXXXX#@@@**$@@###XXXXXX##XXXXo..ooo.........o.XX..XX.X...X.XXXXXXXXXXXXXXX####@@@@@@@#XX..XXXX....XX...XX...OXXXXXX.OOXXOOOOOOXXX++++++++++%%&&&%&&:::&%&&%%%%&&::::&::::&&%%+++++%%&&&&&&%%++++++++++++OO+++++OOOOOO++%%&%+++O+OOOOOOO+++%%%%%+OOOOOOOOOO+O+%%%+OOOOOOOOOOOOOOOOOOOOO%%%&%%++OOOOO+++%%&&%%%%%%%%%%%%%%%%%%%%%%%%%%%%++++++++O++OO+OOOOOO+++%&&%%++OOOOOOOOO+++%&&%++OO++++%%&&%++OOOOO+OOOO++%%&&%%%++%%&&&&&&&&&&&&&&&%%%%%%%%%%%%%%%%%%%%%%%%%%%%%%%%%%%%%++%%%%%+%%%%%+++++++++++++++++++++++%&&%++++++++++%&&%%%++++%%&&&%%+++++++++++%%&&&%+++OOO+O++%%&&&%++OO+OO+++%%&&&%%%%%%%%%%%%%&&%+O+OOOOOOOO+++%&&%%++OOOOOOO+++%%%%%%%%%%%%%%%+%+++++++++++++++++++%%+++++++++++++OOOOOOOOOOO..................................OOO++OOOO+++OOOOOOOO%%%&&%%%++++O++++++OO............OOOOOOOOOOOOOOO++++OOOOO.OOOOO+++++++++++++++++++++++++%%&&&======*$@@@++++OOXXXX..XXX.X.................oo.....                                              .XX##XXXXXXXX#@@@@###@@@@@@@@$*******$@@#XXXXXXXXXXooooo..ooooo.                                                 oX#@@$***$@@@@##XXXXXXXXXO.XXXXX.OOO",
"...XXX+++@&&&&**&&&&&&&&**=&&=*&&&@++XXX.XXXXXXX+++@@@@@@@@@@@@@@@@@@@@@@@@@@+@#@@++@@@@@@@@@@++###XXXXX#+@@@@@@@@$$$$$***$$****************$$$@@@#XXX.o....oo.XXXXXXX##@@@@@#XXXXXXXXXXXXXX#@@@@@@#XXXXXXXXX#@@@**$@@##XXXXXXX##XXX...oooooooo.....oo..XXXX..X.X.XXXXXXXXXXXXXXXXX###@@@@@@@@XX....XX......XXXX....XXXXOOXXXOOOOOXXX+++++++++++++++%&&&%%&&::&&&&%%%%&&::::&::::&%+%+++++%%&&&&&&%%+++++OO++++OOO++++++OOO+O++%%%%%++++OOOOO+OO++%%%%%+OOOOOOOOOO+O+%%%+OOOOOOOOOOOOOOOOOOOOO%%&&%%++OOOOO+++%%&%%%+++O++++++++++++++++++++++++++OOOOOOO+++OOOOO++O+%&&%%++OOOOOOOO+O++%&&%+++O++++%%&&%++OOOOOOO+++++%%&&%%%+%%%%%%%%%%%%%%%%%%%%%%%%%%%%%%%%%%%%%%%%%%%%%%%%%%%%%%%%%%%%%%%%%%%%%%%%%%%%%+++++++OOOOO++%&&%+++++++++%%&&%%++++++%%&&%%%++++++++++%%&&&%++OOOO++++%%&&%%++O+++++++%%&&%%+%++++++++%%%%%++OOOOOOOOOO++%%&%%+OOOOOOO+++++++++++++++++++++++++++++++++++++++++OOOOOOOOOOOOOOOOOOO......................................OOOOOOOOOOOO++OOOOOOO+%%%&&%%%++++++++++OOO............OOOOOOOOOOOOOOO+++++OOOOOOOOOO+++++++++++++++++++++++++%%&&&&=====*$@@@+#XXOOOOXX.XXX...........o.....ooo  .oo                                                .XX##XXXXXXXX##@@@###@@@@@@@$$$******$@@##XXXXXXXXXXXXXoo.o.ooooo    oo                                          oX#@@$***$@@@@##XXXXXX.OOO.XOXXXXXOO",
"...XX++++@@&&&*&&&&&&&&&&&&*&*&&&@+++XX...XXXXXX+++@@@@@@@@@@@@@@@@@@@@@@@#+++@#@@@@@@@@@@@@@@@@@##+##XX#+@@@@@@@@@@$$$$$$$$$$$$**$$$$$$$$$$$$$@@@#XXX.o...oooo...XXXX##@@@@@#XXXXXXXXXXXXXX#@@@@@@#XXXXXXXXX#@@@**$@@##XXXXXXX#XXXX....oo.oooo.....ooX.XXXX.....XXXXXXXXXXXXXXXXXX###@@@@@@@@XX....XX....X.XXXX....XXXXOOXXXOOOOOXX++++++++++++++++%&&&%%&&::&&&&%%%%&&::::&::::&%+%+++++%%&&&&&&%%%++++++++++OOO++++O+OOOOO++%%%%+++O+OOOOO+O+++%%%%%+OOOOOOOOOO+O+%%%+OOOOOOOOOOOOOOOOOOOOO%%&&%%++OOOOOO++%%&%%+++++++++++++++++++++++++O+++OOOOOOOOOOOOOOOOOOOO+%&&%%++OOOOOOOO+O++%&&%+++O++++%%&&%++OOOOOOOO++++%%&&%%%++++%%%%%%%%%%%%%%%%%%%%++++%%%%%%%%%%%%%%+%+++%+%%%%%%%%%++++%%%%+%%+%%+++++++++++++OOOOO++%&&%+++++++++%%&&&%+++++%%%&&%%%++++++++++%%&&&%++OOOO++++%%&&%%++O+++++++%%&&%%+%+++++++++%%%++OOOOOOOOOOO++%&&%%+OOOOOOO+++++++++++++++++++++++++++OOOOOOOOOOOOOOOOOOOOOOOOOOOOOOOOO.......................................OOOOOOOOOO+++OOOOOOOO%%%&&%%%++++++++++OOO............OOOOOOOOOOOOOOO+++++OOOOOOOOOOO++++++++++++++++++++++++%%&&&&=====*$@@@+#XX++OOX..XXX..........oo.o...o    ..o                                                .XX##XXXXXXXX#@@@@###@@@@@@@$$$******$@@##XXXXXXXXXXXXXoo...ooooooo  oo                                          oX#@@$***$@@@@##XXXXXX.OOOXXOOXXXXOO",
"..XX+++++@@&@&&&&&&&&&&&&&&&&&&&@@++X......XOXX+#++@@@@@@@@@@@@@@@@@@@@@@##+++##@@@@@@@@@@@@@@@@@@@#+#XX#+@@@@@@@@@@@@@@@@@@@@$$$$$$$@@@@$$$$$$@@@#XXXoX..oooo...XXXXX##@@@@@#XXXXXXXXXXXXXX#@@@@@##XXXXXXXXX#@@$**$@@##XXXX#XX##XXX.......ooo......oo..XXXX......XXXXXXXXXXXXXXXXX###@@@@@@@#XX....X.X....X........XX.XOOXXXXOOOXXXOO++++++++++++++&&&&%%&&::&&&&%%%%&&::::&::::&&%%+++++%%%&&&&&%%%+++++++++++OO++++++OOOO+++%%%%++OOOOOOOO+++++%%%%%+OOOOOOOOOO+++%%%+OOOOOOOOOOOOOOOOOOOOO%%&&%%++O+OOOO++%%&%%++O++OO++OO++OOO++++++OOOOO+O++++OOOO++++OOOOOOO++%&&%%++OOOOOOOO+O++%&&%++++++++%%&%%++OOOOOOOOO+++%%&&%+%+++++++++++++++++++++++++++++++++++++++++++++++++++++++++++OOO++O+++++++++OOOOOOOO++++OOOO+%%&&%+++O+++++%%&&&%+++++%%%&&%%%++++++++++%%&&&%+++OOO++++%%&&&%++O+++++++%%&&%%++++OOOOOO++++++OOOOOOOOOO+++%&&%%+++++++++++++++++++++++++++++++++++++OOOOOOOOOOOOOOOOOOOOOOOOOOOOOOOOOOOOO..................................OOOOOOOOO+++OOOOOOOO+%%&&%%%++++++++++OOOO...........OOOOOOOOOOOOOOO+++++OOOOOOOOOOOO+OOO+++++++++++++++++++%%&&&&=====*$@@@+#++XXOOX.XXXX..XXXX....oooo.. .......                                                 .XX##XXXXXXX##@@@@@##@@@@@@@$$*******$@@#XXXXXXXXXXXXXXooo.oooooo.oo   o                                         oX#@@$***$@@@@##XXXXXX.OXXXXOOOOXOOO",
"OOXX++++++@@@@&&@&@&@@&&&&&&&&&&@++X.......XXX++#++@@@@@@@@@@@@@@@@@@@@@###++###+@@@@@@@@@@@@@@@@@@##XXX#+@@@@@@$@$@$@@@@@@@@@@@@@@@@@@@@@@@@@@@@@#XXX.Xo.ooooo.XXXXXX##@@@@@#XXXXXXXXXXXXXX#@@@@@##XXXXXXXXX#@@@*$@@@###XXX#XX#XXX.........ooo.o...Xo...oX...XX..XXXXXXXXXXXXXXXXX###@@@@@@@#XX....XXX...XX....X....XOOOOXXXXO+OXXXO+++++++++++++++&&&&%%&:::&&&&%%%%&&::::&::::&&%%%++++%%%&&&&&%%%%++++++++++OO+++++O+O++OO+%%%%%+OOOOOOO++++++%%%%%+OOOOOOOOOO+++%%%+OOOOOOOOOOOOOOOOOOOOO%%&&%%++O+O+OO++%%&%+++O++OO+++++++++++++++++OOOO+++++OOOO++++++OO++++%%&&%%++OOOOOOOO+O++%&&%++++++++%%&%%++OOOOOOOOO+++%%&&%+++++++++++++++++++++++++++++++++++++++++%+++++++++++++++++++++++++++++++++OOOOOO+++++OOOOOO+%%&&%+++++++++%%&&&%+++++%%%&&&%%+++O++++++%%&&&%++OOOO++++%%&&&%++++++O+++%%&&%%++OOOOOOOOO+++++OOOOOOOOOO++%%%&%%%++++++++++++++++++++++++OOO++++OOOO+O++++OOOOOOOOOOOOOOOOOOOOOOOOOOOOOOOO..................................OOOOOOOOO+++OOOOOOO++%%&%%%%++++++++++OOOO...........OOOOOOOOOOOOOOO+++++OOOOOOOOO++++OOO++++++++++++++++++%%&&&&&=====*$@@@+#++XXOOXXOXXX...XXX....oooo..........                                                 .XX##XXXXXXXX#@@@@@##@@@@@@@$$$******$@@#XXXXXXXXXXXXXXooo.oooooo. o    o                                        oX#@@$***$@@@@##XXXXXX..XXXXOOOOXOOO",
"OO+++++++@@@%%%@@@%%++@@@@&&@@@@++XXX......XXXX+#+#@@@@@@@@@@@@@@@@@@@@@#++X+++++@@@@@@@@@@@@@@@@@#+XXXX##@@@@$$$$$$$$@@@@@@@@@@@@@@@@@@@@@@@@@@@##XXXXXoooo..o.XXXXXX#@@@@@@#XXXXXXXXXXXXXX#@@@@@##XXXXXXXXX#@@$**$@@######XXXX#XXXo..o...o....o...........XXXX.X.XXXXXXXXXXXXXXXX###@@@@@@@#XXXXXX...XXX.X.X...OOOOOOOOOOOXX++XXXXOXX+++++++++++%%&&&&%%&&::&%&&%%%%&&::::&::::&&%++++++%%%&&&&&%%++++++++++++OO++++++OO++OO+%%%%%+OOOOOOO++O+++%%%%%+OOOOOOOOOO+++%%%+OOOOOOOOOOOOOOOOOOOOO%%&&%%++++O+OO++%%&%%%++++++++++++++++++++++++++++++%%%%%%++%%%%++++++%%&&%%++OOOOOOOOO+++%&&%++++++++%%&%%+++OOO+OOOOO++%&&&%%%++++OOOO++++++++++++++++++++++++++++++%+++++++++++++++++++++++++++++%+%%+++++++++++++++++++%%&&%+++++++++%%&&&%+++++%%%&&%%++++++O++++%%&&&%++OOO+OO++%%&&&%+++++++++%%%&&%%++OOOOOOOOOOO+++++OOOOOOOOO++%&&&%%%%%%%%%%%%%%%%%%%%%%%%%%%%%%%%%%%%%%%%%%%%%%%%%%%%%%%%%%%%%++++++++++++OOOOOOOOOOO...........................OOOOOOO+++OOOOOO+++%%&%%+%++++++++++OOOO............OOOOOOOOOOOOOO++++OOOOOOOOO+++++++++++++++%%%%%%%%++%%%&&:&&=====*$@@++#++XXXXXOOOXXXXX................oo.o                                                 o.XX##XXXXXXXX#@@@@@##@@@@@@@$$$*******@@#XXXXXXXXXXXXXooooooo....oooo                                            oX#@@$****@@@@##XXXXXXXXX.OOXX.OOOOX",
"+++++++++@+@%%%+@@++++@@@@@%@@@@++XXXX....XXXXX+###@@@@@@@@@@@@@@@@@@@@+##XX#+++@+@@@@@@@@@@@@@@+#XXXXXX##@@@@$$$$$*$$$@@@@@@@@$@@@@@@@@@@@@@@@@@@XXXXoXoooooo..X.XXXX##@@@@@#XXXXXXXXXXXXXX#@@@@@##XXXXXXXXX#@@@$$@@@######XXXX#XXXo..o..oooo.......o......X.XX..XXXXXXXXXXXXXXXXX###@@@@@@@#XXXXXX..XX..XXXX....OOOOOOOOXOXXOOXOOOXX+++++++++++++%&&&&%%&&::&%&&%%%%&&::::&::::&&%++++++%%%&&&&&&%++++++++++++OO+++++++O++OO+%%%%%++OOOOOO++O+++%%%%%+OOOOOOOOOO+++%%%+OOOOOOOOOOOOOOOOOOOOO%%&&%%++++O+O+++%%&%+%++%%%%%%%%%%%%%%%%%%%%%%%%%%%%%%%%%%%%%%%%%%%%%%%%&&%%++OOOOOOOOOO++%&&%+++O++++%%&%%+++OOO+OOOOO++%&&&%%%+++++++++++++++++++++++++++++++++++++%%%+%+%+%++%%++++%+++%%%%%%%+++++++++++++++++++++++++%%%&&%%++++++++%%&&&%+++++%%%&&%%++OO++O+O++%%&&&%++OOO+OO++%%&&&%+++++++++%%%&&%%++OOOOOOOOOOO+O++OOOOOO++OO++%%&&&&&&&&&&&&&&&&&&&&&&&&&&&&&&&&&&&&&&&&&&&&&&&&&&&&&&&&&&%%%%%%%%%%%%%%%%++++++++OOO.............................OOOOOO+++OOOOOOO++%%&%%+%++++++++++OOOO............OOOOOOOOOOOOOO+++++OOOOOO+O++++++O++++++++%%&&%%%%%%%%&&&:&&=====*$@@@++++XXXXXXXXXXXXXX................oooo                                                 .XX###XXXXXX##@@@@@##@@@@@@@$$$*******@@##XXXXXXXXXXXXXoooooo.oo.oooooo o                                        oX#@@$****@@@@##XXXXXXXXX.OOXX.OOOOO",
"++++++++@@@@%%@@@@@@+++@@@++++#++XXXX.....XXXXXX###@@@@@@@@@@@@@@@@@@@@+######+@+@@@@@@@@@@@@@@##XXXXXXX@@@@$$$$$$*$$$$$@@$$$$$$@@@@@@@@@@@@@@@@@#XXXX....oooooXXXXXXX#@@@@@@#XXXXXXXXXXXXXX@@@@@@##XXXXX.XXX#@@@*$@@@###X##XXXX#XXXo.oo.o.o........oooXX...X.X.XXXXXXXXXXXXXXXXXXX###@@@@@@@#XXXX....XX.....XX...OX.OXXXXXXXXXXXXO+++X+X++++++++++%%&&%%%&&::&%&&%%%%%&::::&::::&%%++++++%%&&&&&&%%+++%%++++++++O+++++++O+++O+%%%%%+++OOOOO++OO++%%&%%+OOOOOOOOOO+++%%%+OOOOOOOOOOOOOOOOOOOOO%%&&%%++++O+++++%%&%%%%%%%&&&&&&&&&&&&&&&&&&&&&&&&&&&&&&&&&&&&&&&&&&&&&%&&%%++OOOOOOOOO+++%&&%+++O++++%%&%%+++OOOOOOOOO++%%&&%%%++O+++++++++%%%%%%%%%%%%%%%%%%%%%%%%%%%%%%%%%%%%%%%%%%%%%%%%%%%%%%%%%%%%%%%%%%%%%%%%%%%%%%%%&&&%%++++++++%%&&&%+++++%%%&&%%++O+++++O++%%&&&%++OOO+++++%%&&%%+++++++O+%%%&&%%OOOOOOOOOOOOOOOOOOOOOOOOOOOO++%%&&&&&&&&&&&&&&&&&&&&&&&&&&&&&&&&&&&&&&&&&&&&&&&&&&&&%&%%%%%%%%%%%%%%%%%%%%%+++++++OOO.............................OOOOO+++OOOOOO++%%%&&%%%++++++++++OOOO............OOOOOOOOOOOOOO+++++OOOOOOOO+++++++++++++++&&&&%%%%%%%%&&:::&=====*&@@+++++++XXXXXX..XXXX..XXXX.X......oooo......                                            oXX####XXXXXX#@@@@@@#@@@@@@@$$*********$@##XXXXXXXXXXXXoooooooooo.oo  oo.o   .                                    oX#@@$***$@@@@##XXXXXXXX..OOXXXXOOOO",
"++@++%%+@@@@&&@@@@@@++@@@@+++++XXOX.......XXXXXX++#@@@@@@@@@@@@@@@@@@@@+##X###+@@@@@@@@@@@@@@@##XXXXXXX#@@@@$$$$$$$$$$$$$$$$$$$$$$@@@@@@@@@$@@@@@#XXXX....oooooXXXXXXX#@@@@@@#XXXXXXXXXXXXX#@@@@@@##XXXXXXXXX#@@@**@@@##+X##XXXX#XXX..oo...o........oooXX...XXX.XXXXXXXXXXXXXXXXXXX###@@@@@@@#XXXX....XX....XXXXX.XX..XXXXXXXXXXXXO+++++X++++++++++%%&&%%%&&::&&&&%%%%%&::::&::::&%%++++++%%&&&&&&%%+%&&&%%++++++++++++++O+++++%%%%+++O+OOO+O+OO++%%&%%+OOOOOOOOOO+++%%%+OOOOOOOOOOOOOOOOOOOOO%%&&%%++OOO+++++%%&%%%%%%%%%&&&&&&&&&&&&&&&&&&&&&&&&&&&&&&&&&&&&&&&&&&%%&&%%+++OOOOOOOO+++%&&%+++O++++%%&%%+++OOOOOOOOO++%%&&%%%++++++++++%%%&&&&&&&&&&&&&&&&&&&&&&&&&::&&&&:::&::::::::&:&&&&::&&&&::::&&&&::::&&&&&&&&&&&&&&&%%++++++++%%&&&%+++++%%%&&%%++O+++++O++%%&&&%+++OO+++++%%&&&%++++++OO++%%&&%%OOOOOOOOOOOOOOOOOOOOOOOOOOOOO++%%%%%%%%%%%%%%%%%%%%%%%%%%%%%%%%%%%%%%%%%%%%%%%%%%%%%%%%%%%%%%%%%%%%%++++++++OOOOOOOO..............................OOOOO+++OOOOOOO+%%%&&%%%++++++++++OOOO............OOOOOOOOOOOOO++++++OOOOOOOO++O+++++++++++%&&&&%%%&%&&&&&:::&=====*&@@+++++++++XXXXX.XXXX..XXXXXo..oX.XoXooo..oo..                                           oXX####XXXXXX#@@@@@@@@@@@@@@$$*==******$@##XXXXXXXXXXXXXooooooooo.o   oo.   o.                                    oX#@@@***$@@@@##XXXX..XX..OOXXXOOOXX",
"@@+@@@@@&&&&&&@@&@@%@@@@@@++++++O..........XXXXX++#@@@@@@@@$$$@@@@@@@@@@++++@@@@@@@@@@@@@@@@###XXXXXXX##@@@$$$$$$$$$$$$$$$$$$$$$$$@@@@@@@@@@@@@@@#XXXX..ooooooooooXXXX##@@@@@#XXXXXXXXXXXXXX@@@@@@@#XXX.XXXXX#@@@*$@@@##XXXX#XX#XXXX........oo...oo.....XXXXoX..XXXXXXXXXXXXXXXXXXX###@@@@@@@@XXX...........XXXXXX...OOOXXXXXXXXXX++++++++++++++++++%&&&%%&&::&&&&%%%%&&:::&&::::&%%%+++++%%&&&&&&%%%%%&&%++%++++O+++++OOO++O++%%%%%+OO+++OOOOOO++%%%%%+OOOOOOOOOO+++%%%+OOOOOOOOOOOOOOOOOOOOO%%&&%%++OOO+OO++%%%%%%%%%%%%%%%%%%%%%%%%%%%%%%%%%%%%%%%%%%%%%%++++++++%%%&%%++OOOOOOOOOO++%&&%+++O+O++%%&%%+OOOOOOOOOO+++%%&&%%+++++++++%%%&&&&&&&&&&&&&&&&&&&&&&&&&&&&&&&&&&&&&&&&&&&&&&&&&&&&&&&&&&&&&&&&&&&&&&&&&&&&&&&&&&&&&%++++++++%%&&&%++++++%%&&&%++++++OOO++%%&&&%++OOOOOO++%%&&&%+++++OOO++%%&&%%O+OOOOOOOOOOOOOOOOOOOOOOOOOOOOOOOOOOO+++++OOOOOO++++++++++++++++++++++++++++++OOOOOOOOOOOOOOOOOOOOOOOOOOOOOOOOO..................................OOOOOOO++OOOOOOOO+%&&&%%%++++O+++++OOOOO............OOOOOOOOOOOOO++++++O++++++++OOO+++++++++%&&&&&&&&:::::::::&======&@@@++++####XXXXX++XXXXXXXXXXXX.XXXX......oo.oooooo.                                     .oXX#@@##XXXXX#@@@@@@@@@@@$$$*=====****$$@##XXXXXXXXXXXXXXooooooo.o.   oo..o   oo                                  oX#@@$***$@@@@##XXXX.O....OOOOOOOOOX",
"@@+@@@@@&&&&&&@@@%%%@@@@@+++++XXO..........XXXXX###@@@@@@@$$$$@@$$$@@@@@@@@@@@@@@@@@@@@@@@@@##XXXXXXXX##@@@$$*$$$$@@$$$$$$$***$$*$$@@@@@@@@@@@@@@#XXXX.ooooo.ooo.ooXXX##@@@@@#XXXXXXXXXXXXXX@@@@@@@#XXXXXXXXX#@@@*$@@@##XXXX#XX#XXX.........oo..oooo....XXXXXXX...XXXXXXXXXXXXXXXXX###@@@@@@@#XXXX.....X....XXXXXX...OOOXXXXOOOOXX++++++++X++++++++%%&&&%%&&::&&&&%%%%&&::::&::::&%%%+++++%%&&&&&&%%%%+%%++++++++++++++OOOO++++%%%%%+OOO++OOOOOO+O%%%%%++OOOOOOOOO+++%%%+OOOOOOOOOOOOOOOOOOOOO%%&&%%++OOO+++++%&%%%%++%+%%%%%%%%%%%%%%%%%%%%%%%%++++%+++++++++++++++++%%%%++OOOOOO+OOO++%&&%+++O+O++%%&%%+OOOOOOOOOO+++%%&&%+%++++++%%%&&&&&&%%%%%%%%%%%%%%%%%%%%%%%%%%%%%%%%%%%%%%%%%%%%%%%%%%%%%%%%%%%%%%%%%%%%%%%%%%%%%%&&%%++++++++%%&&&%++++++%%&&&%++++++OOO++%%&&&%++OOOOOO++%%&&&%+++++OOO++%%&&%%++OOOOOOOOOOOOOOOOOOOOOOOOOOOOOOOOOOOOOOOOOOOOOOOOOOOOOOOOOOOOOOOOOOOOOOOOOOOOOOOOOOOOOOOOOOOOOOOOOOOOOOOOOO.....................................OOOOOO+++OOOOOOOO+%&&%%+++++OO+++++OOOO............OOOOOOOOOOOOO++++++++++++++++++++++++++++%%&&&&&&:::::::;::&======*@@@++++######+X+XXXXXXXXXXXXXXXXXXX......Xo..oooo.o                                     .oX##@@##XXXXX#@@@@@@@@@@@$$$*=--==****$@@###XXXXXXXXXXXXXooooooooo..   ...o                                       oX#@@$****@@@@##XXXX..OOXXOOOOOOOOXO",
"++@++@@@@@@@&@@@@@&%@@@@+++++XXX..........XXXXXXX###@@@@@@@@$$$$$$$$$@@@@@@@@@@@@@@@@@@@@@@@@##XXXXXXX##@@@$$*$$$@@@@@$$$*****$$$$$@@@@@@@@@@@@@@#XXXX.ooo....oooooXXX##@@@@@#XXXXXXXXXXXXXX#@@@@@@#XXXXXXXXX#@@@*$@@@##XXXXXXX##XX........o.oo.o.oooo..XX..X..X...XXXXXXXXXXXXXXXX##X@@@@@@@#XXX.XX...XXX..XXX.X...XXOOXXOOOOOOOO++X+XX++X+++++++++%&&&%%&&::&%&&%%%%&&::::&::::&&%%+++++%%&&&&&&&&&&%%+++++++++OO++++O+++++++%%%%%+OOOOOOOOOOO++%%%%%+OOOOOOOOOO+++%%%+OOOOOOOOOOOOOOOOOOOOO%%&&%%++OOO+OO++%&%%++++++OOOOOOOOO+OOOO+++O++OOOOOOOO++OOOOOOOOOOOOOO++%&%%+++OOOOOOOOO++%&&%+++O+O++%%&%%+OOOOOOOOOO+++%%&&%++++++++%%&&&&%%%%%%++++%%%%%%%%++%++%%%%%%%%%%%%%%%%%%%%%%%%%%%%%%%%%%%%%%%%%%%%%++++++++++++%%&%%++++O+++%%&&&%++++++%%&&&%++++++O+O++%%&&&%+++OOOOO++%%&&&%+++++O++++%%&&%%++OOOOOOOOOOOOOOOOOOOOOOOOOOOOOOOOOOOOOOOOOOOOOOOOOOOOOOOOOOOOOOOOOOOOOOOOOOOOOOOOOOOOOOOOO...OOOOOOO............................................OOOOOO+++OOOOOOOO+%&&%%+++++OO+++++OOOO............OOOOOOOOOOOOO+++++++%%%%%%%%%%++++%+++++%%%&&&&%&::::::::::&======$$@@@+++++++#++XXXXXXXXXXXXXXXXXXXXXXXXXXXXX...oooo.oo                                    XX#@@@@##XX###@@@@@@@@@@$$$*==;;-==***$@@###XXXXXXXXXXXXXoXooooooo...   ..o         oo                            oX#@@$***$@@@@##XXXXXX.OXXXXXXOOOOOO",
"+++++%@@@@@@@@@@@@&%%@++++++XXXXXXX.......XXXXXXX#+#@@@@@@@@$$$$$$$$$@@@@@@@@@@@@@$@$@@@@@@@@##XXXXXX##@@@@$$$$$@@@@@@@$$*****$$$$@@@@@@@@@@@@@@@#XXXXo.oo.....X.ooXXX##@@@@@#XXXXXXXXXXXXXX#@@@@@@#XXXXXXXXX#@@@*$@@@##XXXXXXX##XX........oo.o.oooooo......X......XXXXXXXXXXXXXXXX##X@@@@@@@#XX..XX....XX....X.XX..XXXXXOOOOOOOOOO+XXXX++++++++++++%&&&%%&&:&&%&&%%%%&&::::&::::&&%%+++++%%&&&&&&&::&%%%++++++++OO++++O+++++++%%%%%+OOOOO+OO+++++%%%%%+OOOOOOOOOO+++%%%+OOOOOOOOOOOOOOOOOOOOO%%&&%%++OOO+O+++%%%%++OOOO++O+++OO+++OOO++++++OOOOOOOOOOOOOOOOOOOOOOOO++%&&%+++OOOOOOOOO++%&&%+++O+O++%%&%%+OOOOOOOOOOO++%%&&%++++++++%&&&%%%%++++++++++++++++++++%%+++%%%%%%%%%%+++++++%%++++++++++++++++++++++++++++++++++%%&%%++++O+++%%&&&%++++++%%&&&%++++++O+O++%%&&%%+++OOOOO++%%&&&%+++++O++++%%&&%%++OOOOOOOOOOOOOOOOOOOOOOOOOOOOOOOOOOOOOOOOOOOOOOOOOOOOOOOOOOOOOOOOOOOOOOOOOOOOOOOOOOOOOOOO.......................................................OOOOOO+++OOOOOOOO+%&&%%+++++OO+++++OOOO............OOOOOOOOOOOOO++++++++++%+%%%%%++++%%++++%%&&&&&&&::::::::::&======*@@@@+++++++++++XXXXXXXXXXXXXXXXXXXXXXXXXXXX.oo.X.oooo                                   .XX@@@@@##X####@@$@@@@@@$$$$*=-;;;==***$@@###XXXXXXXXXXXXXXXo..oooo...   ooo          o                            oX#@@$***$@@@@##XXXXXXX.XXXX.XXXOOOO",
"+++++%%%@@@@@@@@@@@@@%+++++++XXOXXXX.....XXXXXXXXX#+@@@@@@@@@@@@@@$$$@@@@@@@@@@@@@$$$$@@@@@@@##X#XXX###@@@@$$$$$@@@@@@@@$$$$$*$$$$@@@@@@@@@@@@@@@#XXXX.o....oo...oXXXX##@@@@@#XXXXXXXXXXXXXX#@@@@@@#XXXX.XXXX#@@@*$@@@##+X#XXXXX#XXXo.. .ooooooo..oooooo.XX.X.XX..XXXXXXXXXXXXXXXX####@@@@@@@#XX...XXX..XXXX.X..XXXXXXXXOOOOOOOOOX++++XX++X++O++++++%&&&%%&:::&%&&%%%%&&::::&::::&%%%%++++%%&&&&&&&::&%%+++++++++O+++++++++O+++%%%%%++OOOOOOOO++++%%%%%+OOOOOOOOOO+++%&%+OOOOOOOOOOOOOOOOOOOOO+%%&%%+++OO+O+++%%&%+OOOOOOOOOOOOOOOOOOOOOOOOOOOOOOOOOOOOOOOOOOOOOOOOO++%&&%+++OOOOOOOOO++%&&%++OO+O++%%&%%+O+OOOOOOOO+++%%&&%++++++++%&&%%+++OOOOOOOOOOOOOO+++OOO+++++++O+++++++OOOOOOOOOO+++OOOOOOOOOOOOOOOOOOOOOOOOOOOO++%%&%%++++O+++%%&&%%+++++%%%&&&%++++++O+O++%%&&&%+++OOOOO++%%&&&%++++++++++%%&&%%++OOOOOOOOOOOOOOOOOOOOOOOO....OO.OOOOOOOOO.OOOOOOOOOOOOOOOOOOOOOOO....OOOOOOOOOOOOOOOOOO..........................................................OOOOO+++OOOOOO+++%%&&%%%+++OO+++++OOOO...........OOOOOOOOOOOOOO+++++%++%%%%%%%%%%%%%%%%%%%%%&&&&&&&::::::::::&======$@@@@@@@++++++++##+++XXXXXXXXXXXXXXXXXXXXXX.X.ooooooo..o                                ..XX@@@@@@######@@$$@@@@@$$$$*=;;;-==*=*$$@##XXXXXXXXXXXXXXXXXoooooo.o.   o                                         oX#@@$***$@@@@##XXXXXX...OXX..OOOOOO",
"+++@+%&&@&$$@@@&@@&@@@%+@+++++OOXXXXOOO.XXXXXXXXXX#++@@@@@@@@@@@@@@@@@@@@@@@@@@@@@@&@@@@@@@@#####XXX##@@@@$$$$$@@@@@@@@@$$$$$$$$$$@@@@@@@@@@@@@@##XXXX......oo..oooXXX##@@@@@#XXXXXXXXXXXXXX#@@@@@@#XXXX..XXX#@@@*$@@@###X#XXXXX#XXXo.. oooooo.o.oooooXoXX..X.XX..XXXXXXXXXXXXXXXX####@@@@@@@#XX..XXX...XXXX....XXXXXXXXOXOOOOOOXXXX++X+++XX++++++++&&&&%%&&::&%&&%%%%&&:::&&::::&%%%%++++%%&&&&&&&::&%%%++++++++++++++OOO+O+++%%%%%++OO++OOOO++++%%%%%+OOOOOOOOOO+++%%%+OOOOOOOOOOOOOOOOOOOOO%%%&%%+++OO+O+++%%%%+OOOOOOOOOOOOOOOOOOOOOOOOOOOOOOOOOOOOOOOOOOOOOOOOO++%&&%+++OOOOOOOOO++%&&%++OO+O++%%&%%+O+OOOOOOOO+++%%&&%++++++++%&&%%+++OOOOOOOOOOOOOOOOOOOOOO++OOOOOOOO++OO+++++++O++++++OO++++++++OOOOOOOOOOOOOOOO++%%&&%++++O+++%%&&%%++++++%%&&&%++++++O+O++%%&&&%+++OOOOO++%%&&&%++++++++++%%&&%%O+OOOOOOOOOOOOOOOOOOOOOOOO.......OOOO.OOOO.OOOOOOOOOOOOOOOOOOOOOOOOOOOOOOOOOOO...................................................................OOOOOO++++OOOOO+++%%&&%+%+++OO+++++OOOO..........OOOOOOOOOOO+OOO++++%%+%%%%%&&&&%%%%%&%%%%%%%&&&&&&&::::::::::&======*@@@@@@@+#++#+++XX++XXXXXXXXXXXXXXXXXXXXXXXXXXXXXXoo.o...                               ..XX@@@@@@######@$$$@@@@$$$$$*=;;;;==***$$@###XXXXXXXXXXXXXXXXoooooo.. o    o   oo                                  oX#@@@***$@@@@##XXXXXX..OOOOXXOOOOOX",
"+++@@@&&&&&&&&&&&&&&&&@@@@++++++++++++OOXXXX.XXXXXX+#+@@@@@@@@@@@@@@@@@@@@@@@@@@@@@@@@@@@@@@######XX##@@@@$$$$$@@@@@@@@@$$$$$$$$$$@@@@@@@@@@@@@@@#XXXo.ooooooo..o.XXXX##@@@@##XXXXXXXXXXXXXX#@@@@@@#XXXX.XXXX#@@@*$@@@###X#X#XXX#XXXoo. ..oooo...o.o....XXXX..XX..XXXXXXXXXXXXXXXXX###@@@@@@@#XX....XX....X.....XX...OOOXXXXXXOOXXXX+++++++X+++++++%&&&&%%&&::&%&&%%%%&&::::&::::&%%%%++++%%&&&&&&&::&&%%++++%+++++++++++O++++%%%%%+++OO+++OOO+++O%%%%%+OOOOOOOOOO+++%%%+OOOOOOOOOOOOOOOOOOOOO%%%&%%+OOOOOO+++%%%%+OOOOOOOOOOOOOOOOOOOOOOOOOOOOOOOOOOOOOOOOOOOOOOOOO++%&%%++OOOOOOOOOO++%&%%++OO+O++%%&%%+++OOOOOOOO+++%%&&%%++++++%%&&%++OOOOOOOOOOOOOOOOOOOOOOOOOOOO++OOOOOOOOOOO+++OOOOOOOOOOOOOOOOOOOOOOOOOOOOOOOOOO++%%&%%++++O+++%%&&%%+++++%%%&&&%+++++++++++%%&&&%++OOOOOO++%%&&%%++++++++++%%&&%%O+OOOOOOOOOOOOOOOOOOOOOOOOOO......OOOO..OO.OOOOOOOOOOOOOOOOOOOOOOOO...OOOOOOOOOOOOOOOOOOO.OOOO..................................................OOOOOOOO++OOOOOO+++%%&&%%%+++OO+++++OOOOO.........OOOOOOOO++++OOO++++%%+%%%&&&&&&&%%%&&&%%%%%%&:&&&&&::::::::::&======*$@@++@@######++#+####XXXXXXXXXXXXXXXXXXXXXXXXX.XXXoo.o.....                            ooX#@@*$@@######@$$$$@@@$$$$$*=;;;;==***$$@###XXXXXXXXXXXXXXXooooooo..ooooo.oo  ..o        .                        oX#@@$***$@@@@##XXXXXXX..OOOXOOOOXXX",
"++@@@@&&&&&&&&&&&&&&&&@@@@@+++++++++++++OXXX.XXXXXXXX#+#@@@@@@@@@@@@@@@@@@@@@@@@@@@@@@@@@@@@#XXX######@@@@$$$$$@@@@#@@@@$$$$$$$$$@@@@@@@@@@@@@@@@#XXXo..oooooo.X..XXXX##@@@@@#XXXXXXXXXXXXXX#@@@@@@#XXXXXXXXX#@@@*$@@@###X#XXX###XXX.o. .ooo...o........XXXX.XXXX.XXXXXXXXXXXXXXXXX###@@@@@@@XXX.....................OOOXXXXXXOOXXXX++++++XX+++++++%%&&&%%&&::&%&&%%%%&&::::&::::&%%%%++++%%&&&&&&&::&&%++++%%++++++++++++++++%%%%%+++OO++++OO+++O%%%%%+OOOOOOOOOOOO+%%%+OOOOOOOOOOOOOOOOOOOOO%%%&%%+O+OOOOO++%%%%+OOOOOOOOOOOOOOOOOOOOOOOOOOOOOOOOOOOOOOOOOOOOOOOOO++%&%%++OOOOOOOOOO++%&%%++OO+O++%%&%%+++OOOOOOOOO++%%&&%%%+++++%%&&%+++OOOOOOOOOOOOOOOOOOOOOOOOOOOOOOOOOOOOOOOOOOOOOOOO+++++OOOOOOOOOOOOOOOOOOOOOOOO++%%&%%++++O+++%%&&%%+++++%%%&&&%+++++++++++%%&&%%++OOOOOO++%%&&%%+++++O++++%%&&%%O+OOOOOOOOOOOOOOOOOOOOOOOOO........OOO......OOOOOOOOOOOOOOOOOOOOOOOOOOOOOOOOOOOOOOOOOOO.......................................................OOOOOOOOOO++OOOOOOO++%%&&%%%+++OOO++++OOOO....O.....OOOOOOOO++++OO++++%%%%%%%&&&&::&&%%&&&%%%%%%&:&&&&&::::::::::&======*$@@++@@@@@###+++++#XXXXXXXXXXXXXXXXXXXXXXXoXoXX..oXo....o...                           ooX#@@*$@@######@$$$$$@@$$$$$*=;;;;==*=**$@###XXXXXXXXXXXXXXXXXooooo..ooooo..ooo.o o  oo   ..                       oX#@@$***$@@@@##XXXXXX...OOOXOOOXXXX",
"+++@%&&&&*&&&&&&&&&&&&&&&&%%@@@@@@@@@+++OOXXooXXXXXXXXX+##++##+#++####++++#+##@@#@@@@@@@@@###XXXXXX##@@@@@@$$$$$@@++@@@@$$*$$$$$$$@@@@@@@@@@@@@@@#XX.X...oo.o....XXXXXX#@@@@@#XXXXXXXXXXXXXX@@@@@@@#XXXXXXXXX#@@@*$@@@@#XXXXXXX##XXXXooo...ooo.oo.oooo........oX.XXXXXXXXXXXXXXXXXX#X#@@@@@@@XX..........X......XXX...XXXXXXXXXOOOXX+++++X+++++++++%%&&&%%&&::&&&&%%%%%&::::&::::&%%%%++++%%&&&&&&&::&%%%++++%++++++++++++++++%%%%%%++OOOOOOOOOO++%%%%%+OOOOOOOOOOOO+%%%+OOOOOOOOOOOOOOOOOOOOO+%&&%%+OOOOO++++%%&%+OOOOOOOOOOOOOOOOOOOOOOOOOOOOOOOOOOOOOOOOOOOOOOOOOO+%&%%++OOOOOOOOOO++%&&%++OOOO++%%&%%++OOOOOOOOOO++%%&&%%+++++++%&&%++OOOOOOOOOOOOOOOOOOOOOOOOOOOOOO+OOOOO++OOOOOOOOOOOOOOOO+++OOOOOOOOOOOOOOOOOOOOO++%%&%%%++++O+++%%&&%+++++%%%&&&%%++O+OO+O++%%&&%%+++O++++++%%&&%%++++OO++++%%&&%%O+OOOOOOOOOO++++OOOOOOOOOOO...OO....OOOOOOOOOOOOOOOOOOOOOOOOOOOOOOOOOOOOOOOOOOOOOOOOOOOOOOOOOOOOO.............................................OOOOOOOOOO++OOOOOOO++%&&&%%%+++OOO++++OOOOOOO........OOOOOO+++++O+++++%%%+%%%&&&&:::&%%&&&%%%%%%&&:&&&&:::::::::::======&&@@@@@@++++##+#+#+####X###XXXXXXXXXXXXXXXXXXo.X.....oooo.      ..                      oXX#@@*$@@#####@@$$$$$@@$$$***=;;;;==****@@@##XXXXXXXXXXXXXXXooo.ooooo....oooo   oo.                              o oX#@@$***$@@@@##XXXXXXXX..OOXOOOXXXX",
"+++@%&&&**&*&&&&&&&&&&*&&&&%@%@@@@&@@@++OOXXo..XXX.XXXXX##++@#++#++######++XX#####+#@@######XXXXXXX###@@@@@$$$$$@@++@@@@$$**$$$$$$@@@@@@@@@@@@@@@@XX.X...oo...oo..XXXX##@@@@@#XXXXXXXXXXXXXX@@@@@@##XXXXXXXXX#@@@*$@@@##XXXXXX###XXXoooo....oooo..oooo..XXXX..XX.XXXXXXXXXXXXXXXXXX###@@@@@@@#XX........XX....X.XXXXOOO.XXXXXXXOOOXX+++++++++++++++%%&&&%%&&::&&&&%%%%&&::::&::::&%%%%++++%%&&&&&&&::&%%%+++%%++++++++++++++++%%%%%%++OO+++OO+O+++%%%%%+OOOOOOOOOOOO+%%%+OOOOOOOOOOOOOOOOOOOOO+%&&%%+O+OOO+O++%%&%+OOOOOOOOOOOOOOOOOOOOOOOOOOOOOOOOOOOOOOOOOOOOOOOOOO+%&%%+OOOOOOOOOOO++%&&%++OOOO++%%&%%++OOOOOOOOOO++%%&&%%+++++++%&&%++OOOOOOOOOOOOOOOO++OOOOO++++++O++OOOO++OOOOOOO+OOOOOOOO+O++OOOOOO++OOO+OOOOOOOO++%&&%%+++++O+++%&&&%+++++%%%&&&%%++O+OO++++%%&&%%+++OO+++++%%&&%%+++++O++++%%&&%%++OOOOOOOOO+%%%%++OOOOOOO.O...OO....OOOOOOOOOOOOOOOOOOOOOOOOOOOOOOOOOOOOOOOOOOOOOOOOOOOOOOOOOOOOO.OOOO..OO.O..................................OOOOOOOOOO++OOOOOOO++%&&&%%%+++OOO++++OOOOOO.........OOOOOOOO+++++++++%%%%%%%&&&&:::&%%&&&%%%%%%&&:&&&&:::::::::::======&&@@@@+@+++###+######XXXXXXXXXXXXXXXXXXXXXXXXXX.XXX.....ooo     ..                      oXX#@@**@@@####@@$$$$$$$$$$***=;;;;==****@@@###XXXXXXXXXXXXXXooo.Xoooo....  oo  oooo                              o XX#@@$***$@@@@##XXXX.XXX...OXOOOXXXO",
"+++@&&&*****====&&&&==**$&&@&&@@&&&&@@+++O.X.....XXXXXXX####@@@@++@###++XXXXXXXX##++++#####XXXXXXXXXX#@@@@@$$$$$@@++@@@@$$$*$$$$$$@@@@@@@@@@@@@@@##XXX.o   oooo...XXXXX#@@@@@#XXXXXXXXXXXXXX@@@@@@@#XXXXXXXXX#@@@$$@@@##XXXXXXXXXXXXoo.o......oo....ooo.XXXo....XXXXXXXXXXXXXXXXXX####@@@@@@@#XX.......XXXXXXXX.XXXOO.OOOOXXXXXOOOXX++X+++X++++++++%%&&%%%&&:&&&&%%%%%&&:::&&::::&%%%%%%++%%%&&&&&&::&&%++++%%%%++++++++++++++%%%%%%++OO++OOOO++++%%%%%+OOOOOOOOOOOO+%%%+OOOO.OOOOOOOOOOOOOOOO+%%&%%+OOOOO+O++%%&%OOOOOOOOOOOOOOOOOOOOOOOOOOOOOOOOOOOOOOOOOOOOOOOOOOO+%&%%++OOOOOOOOOO++%&&%++OOOO++%%&%%++OOOOOOOOOO++%%&&%%++++++%%%&%++OOOOOOOOOO++OO++++++++++++++++++++++++++++++++++++++++++++++++++++++OOO+OOOOOO++%&&&%+++++O+++%%&&%+++++%%%&&%%%++O+O+++++%%&&%%+++OOOOO++%%&&&%+++++O++++%%&&%%++OOOOOOOO++%&&&&+OOOOOOOOOOOOOOOO..OOOOOOOOOOOOOOOOOOOO++OOO+++++++++OOOOOOOOOO++OOOOOOOOOOOOOOOOOOOOOOOOOOOOOOOOO.............................OO..O.OO++OOOOOOOO+%&&&%%+++OOOO++++OOOOOO..........OOO+OOO+++++++++%%%%%%%&&&&:::&%%&:&%%%%%&&&:&&&&::::::::::&======&&@@@+++++@@@#####+++#######XXXXXXXXXXXXXXXXXX..XXX....ooo. o   ..                      oXX#@@**@@@###@@@$$$$$@$$$****=;;;;===***@@@##XXXXXXXXXXXXXXXXooooooooo.oo  oo    .o                               .XX#@@$****@@@@##XXXX..XX..OOXXOOXOOO",
"+++@&&&****============**$&@&&&&&&&&@@@++O........XXXXXX#@@@@@@@@@@@##++XXXXXXXXXXX+###XXXXXXXXXXXXXX##@@@@$$$$$@@+#@@@@$$$*$$$@@@@@@@@@@@@@@@@@@##XXX.o   ooooo..XXXXX@@@@@@#XXXXXXXXXXXXX#@@@@@@@#XXXXXXXXX#@@@$$@@@###XXXXXXXXXXXoo.........o....oo..oooo..X.XXXXXXXXXXXXXXXXXX####@@@@@@@XXX.......XXXXXXXXXXXXOO.OOOOOOXXXXOOOX++XX++XX+++++++%%&&%%%&&:&&%&&%%%%&&:::&&::::&%%%%%%++%%%&&&&&&::&&%+++++%%%%%%%%+++++++++%%%%%%++O+++OOOO+++++%%%%+OOOOOOOOOOOO+%%%+OOOO.OOOOOOOOOOOOOOOO+%&&%%+OOOOO+O++%%&%OOOOOOOOOOOOOOOOOOOOOOOOOOO+OOOOOOOOOOOOOOOOOOOOOOO+%%%%++OOOOOOOOOO++%&&%++OOOO++%%&%+++OOOOOOOOO+++%%&&%%++++++%%%&%++OOOO++OOO+++O+++++++%+%%%%%%%%%%%%%%%%%%%%+%%%%%%%%%%%%%%%%%++%++++++++OOOOOOOO+%%&&%++++OO+++%&&&%+++++%%%&&%%%++++O+++++%%&&%%++OOOOOO++%%&&&%++++++++++%%&&%%++OOOOOOOO++%&&&%+OOOOOOOOOOOOOOOOO.OOOOOOOOOO++++++++%%%%%%%%%%%%%%%%%%%%%%%%%%%%%%%%%%+%++++++++++++++++++++++OOOO...............................OOOOO++OOOOOOOO+%%&&%%++OOOOO++++OO.OOOO.........OOOO++++++++++++%%%%%%&&&&&:::&%%&:&%%%%%&&&::&&:::::::::::&======&&@@@++++++@######+++#XXXXXXXXXXXXXXXXXXXXXXXXXXXXX...oooo...   ..                      oXX#@@**@@@###@@@$$$$$@$$$****=;;;;====**@@@##XXXXXXXXXXXXXXXXoooooooooooooo       o                               .XX#@@$***$@@@@##XXXX..XXXXOOXXXXXOOO",
"+++@&&**&&&===========&&*$&&&&@&&&$@@@@+XXX.......XXXX++@@@@@@@@@@@@@@+#XXXXXXXXXXXX+##XXXXXXXXXXXXXXX##@@@$$$$@@@@#@@@@$$$$$$@@@@@@@@@@@@@@@@@@@##XXXooo oooooo...XXXX#@@@@@#XXXXXXXXXXXXX#@@@@@@@#XXXXXXXX##@@@$$@@@####XXXXXXXXXXX.....oo....ooo.........oXXXXXXXXXXXXXXXXXXXXX####@@@@@@@#XX......XX.XXXXXX...XOXXXXOOXXXXOOOOXXXXXXOXXX+++++++%%&&&%%&&&&&%&&%%%%&&:::&&::::&%%+++%%%%%%&&&&&&::&%%+++++%%%++++++++++++++%%%%%+O+OOOOOOO+++O++%%%++OOOOOOOOOO+O+%%%+OOOO.OOOOOOOOOOOOOOOO+%&&%%+OOOOO++++%%%%OOOOOOOOOOOOOO++++++++++++++++++++OOOOOOOOOOOOOOOO++%%%%++OOOOOOOOOO++%%%%++OOOO++%%&%%++OOOOOOOOO+++%%&&%+++++++%%&&%%+OOOOO+OOOOOO++%%%&&&&&&&&&&&&&&&&&&&&&&&&&&&&&&&&&&&&&&&&&&&&&&&&&&&&%%+O+OOOO++%%&&%+++++++++%&&&%++++++%%&&&%%++++O+OO++%%%&%%+++OOOOO++%%&&&%+++OOO++++%%&&%%++OOOOOOOO++%%%%++OOOOOOOOOOOOOOOOOOOOOOOOOOOO++++++%%&&&&&&&&&&&&&&&&&&&&&&&&&&&&&&&&&&&&&&&&&&&&&&&&&&&&%%%%++++OO..............................OOOOOOO+OOOOOOOO+%%&&%++OOOOOO++++OOOOO.....O.....OOOOOO+%%+++++++%%%%%%&&&&::::&&&&:&%%%%%&&&:&:&:::::::::::&======&@@@@++@@@@@######++++XX###+XXXXXXXXXXXXXXXXXXXXXX..ooo.ooo...                        oo..X#@@*@@@@####@@$$$$$@$$$$***=;;;;====**$@@###XXXXXXXXXXXXXXXXXXXoooooooo   o.oooooo                              .XX#@@$***$@@@@##XXXX....XX...XXXOOOO",
"+++@&&**&==============&**&&&&@@&&&@@@@++XX........XX+++@@@@@@@@@@@@@@++XXXXXXXXXXXX####+XXXXXXXXXXXXX##@@@$$$$@@@@#@@@@$$$$$$@@@@@@@@@@@@@@@@@@@##XXXo.o. ooooo..XXXXX#@@@@@#XXXXXXXXXXXXX#@@@@@@@#XXXXXXXXX#@@@$$@@@###XXXXXX#XXXXX......o....oooo....XX..o.XX.XXXXXXXXXXXXXXXXXX###@@@@@@@#XXXX.X..XX.XXXXX....XOXXXXOOXXXOOOOOXXX+XXO+XX+++++++%%&&&%%&&&&&%&&%%%%&&:::&&::::&%%++++%%%%&&&&&&&::&%%%+++++++++OOOO++++++++%%%%%+O+OOOOOOOOO++++%%%%+OOOOOOOOOOOO+%%%+OOOO.OOOOOOOOOOOOOOOO+%%&%%+OOOOO+O++%%&%OOOOOOOOOOO++%%%%%%%%%&&&&&%%%%%++OOOOOOOOOOOOOOOOO+%&%%++OOOOOOOOOO++%%%%++OOOO++%%&%%+OOOOOOOOOO+++%%&&%+++OOO++%&&%%+OOOOO+OO++O+%%&&&&&&&&&&&&&&&&&:&:&&&&::&&&&::::::::::::&&&&&&&&::::&&&%++OO+O++%%&%%+++++++++%&&&%+++++%%%&&%%%++++O+OO++%%&&%%+++OOOOO++%%&&&%+++OOO++++%%&&%%++OOOOOOOO+%%&&%++OOOOOOOOOOOOOOOOOOOOOOOOOOOOOOO++++%%%%%%%%%%%%%%%%%%%%%%%%%%%%%%%%%%%%%%%%%%%%%%%%%%%%%%++++++OOOO...........................OOOOOOOOOOOOOOOOOO+%%&&%%++OOOOOO+++OOOOOOOOOOO....OOOOOO++%%%+++++%%%%%%%&&&&::::&&&&:&%%%%%&&::::&:::::::::::&======&@@@@+@@@@@@####+++#++##++XXXXXXXXXXXXXXXXXXXXXXXX..oooooooo....                       oooX#@$*@@@@@##@@@$$$$$@$$$****=;;;;====**@@@###XXXXXXXXXXXXXXXXX..oooooooooooo. oooo                               oXX#@@$***$@@@###XXXX....XXXXXXXOOOOO",
"+++@&&===================&&&&@@@&$&$&&+++XX........XO++@@@@@&&&&&&$$@@@+XXXXXXX+##+++++##XXXXXXXXXXXX###@@@@$$$@@@###@@@$$$$@@@@@@@@@@@@@@@@@@@@@@#XXo..... ..ooXXXXXXX#@@@@@#XXXXXXXXXXXXX##@@@@@@#XXXXXXXX##@@@$$@@@###XXXX###XXXXXo....oooo..oooo..ooX...oXXXXXXXXXXXXXXXXXXXXXX###@@@@@@@#XXXXXX...XXX.X........XXXXOXXXOOOOXXXX++++++X+++++++++%&&&%%&&&&&%%&%%%%&&::::&::::&%%++++%+%%&&&&&&&::&&%%++++%++++OOOO++OOO+++%%%%%+++OOOOOOOOOO+O+%%%++OOOOOOOOOOOO+%%%+OOOO.OOOOOOOOOOOOOOOO+%%&%%+OOOOO+O++%%%%+OOOOOOOO++%&&&&&&&&&&&&&&&&&&&&&%%+OOOOOOOOOOOOOOO+%&%%++OOOOOOOOOO++%%&%++OOOO++%%&%%++OOOOOOOOO+++%%&&%++++++++%&&%++OOOO++OO++++%&&&%%%%%%%%%%%%%%%%%%%%%%%%%%%%%%%%%%%%%%%%%%%%%%%%%%%%&::&%++++O++%%&&%+++++++++%%&%%+++++++%&&&%%++O+OOOO++%%&&%%+++OOOOO++%%&&&%++++OO+O++%%&&%%O+OOOOOOOO++%&&%++OOOOOOOOOOOO++++OOOOOOOOOOOOOOOOOO++O+++++OO++O+++++++++++++O++++++++++++++++++OO+OOOOOOOOOOOOO...............................OOOOOOOO+OOOOOOOOO+%%%&%+++OOOOOO+++OOOOOOOOOO..OO.OOOOO+++%%%++++++%%%%%%&&&&::::&&&&:&&%%%%&&::::&:::::::::::&======&&@@@+@@@@++#+####++++XXX#XXXXXXXXXXXXXXXXXXXXXXooo..oooooooo ..oo..                   .oXX#@***@@@@##@@@$$$$$$$$$****=;;;;====**$@@#####XXXXXXXXXXXXXXXX...oooo....ooooooo                               ooXX#@$$***$@@@@##XXXXXX.XXX..OOOOXOXX",
"++@@&&===================*&&@@@@&$$$&&+++XX........XX++@@@@@&&&&&&&$@@@@XXXXXX##+++++#+###XXXXXXXXXXX###@@@@$$$@@@###@@@$$$@@@@@@@@@@@@@@@@@@@@@@@#XXo...... oooXXXXXXX#@@@@@#XXXXXXXXXXXXX#@@@@@@@#XXXXXXXX###@@$$@@@###XXXX###XXXXX... .ooooo.ooo...oo....oXXXXXXXXXXXXXXXXXXXXXX###@@@@@@@#XXXXXX..XX.X...........XOOXXXXOOOOXXXX++++++XX++++++++%&&&%%&&&&&%%%%%%&&&::::&::::&%%++++%+%%%&&&&&&::&&%%+++++++++OO+OO+++OO++%%%%%++++++OOOOOOO+O+%%%++OOOOOOOOOOOO+%%%+OOOO.OOOOOOOOOOOOOOOO+%%&%%OOOOOO+O++%%%%+OOOOOOO+++%%%%%%%%%%%%%%%%%%%%&&&%+OOOOOOOOOOOOOOO+%&%%++OOOOOOOOOO++%%&%++OOOO++%%&%%++OOOOOOOOO+++%%&&%++O+++++%&&%++OOOO++OOO+++%%&%%+%%++++++++++++++++++%%++%%%%%%%%++++%%%%%+++++%%%%%&&&%+++O+++%%&&%++++OO+++%%&%%+++++++%&&&%%++O+O++O++%%&&%%++OOOOOO++%%&&&%++++OO+O++%%&&%%++OOOOOOOO++%&&%++OOOOOOOOOOO+++++++OOOOOOOOOOOOOOOOOOOOOOOOOOOOOOO+OOOOOOOOOOOOOOOOOOOOOOOOOOOOOOOOOOOOOOOOOOOOO...............................OOOOOOO++++OOOOOOO+%%&&%++OOOOOOOO++OOOOOOOOO..OOOOOOOOO+++%%%+++++%%%%%%%&&&&::::&&&&:&&%%%%&&&::&&:::::::::::&======&&@@@@@@++++++#+##++#++XX#XXXXXXXXXXXXXXXXXXXXX.XXX..oooo.oo  ..oo..                    XXX#@***@@@###@@@$$$$$$$$$****=;;;;====**@@@####XXXXXXXXXXXXXooXX...oooo.oo.ooo   o     o                         ooXX#@$$***$@@@@##XXXXXXXXX..OOOOOXOXX",
"+@@&&&====================*$&&&&@$&&&&+++OX........OX+@@@@$&&*****&&&&@++XXXXX++##@@@#+###XXXXXXXXXXXX##@@@$$$$@@@###@@@@@@@@@##XXXX##@@@@@@@@@@@#XXXX.oo......ooXoXXX##@@@@@#XXXXXXXXXXXX#X#@@@@@@#XXXXXXXXX##@@$$@@@####XXXX##XXXXXo....ooo...o.....Xooo....XXXXXXXXXXXXXXXXXXXXX+##@@@@@@@#X...XXX.....XXXXXXXXX.X.OOXXXXOOOOXOOOXXXX+XXX++++++++%&&&%%%&&&&%&%%%%%&&::::&::::&%%%++%%%%%%&&&&&&::&&%++++++++++OOOOOO+O+++++%%%%+++++OOOOOO+O+O+%%%++OOOOOOOOOOOO+%%%+OOOOOOOOOOOO.OOOOOOOO+%&&%+OOOOOOOO++%&%%OOOOOOOOO+OOOO++OOOOOOOOOOOO++%%&&&%+OOOOOOOOOOOOOOO%&&%+OOOOOOOOOOO++%%%%++OOOO++%%&%%+OOOOOOOOOOO++%%&&%++++++++%%&%+++OOOO+OO+++++%%%++O+++++++++++OOOOOOOOOO++++++OOOO++OO++OOOOO+++++++%%&&%++O++++%%&&%+++OO+++%%%&%%+O+++%%%%&&%+++O+OO+O++%%&&%%++OOOOOO++%%&&&%+++++++O++%%&&%%++OOOOOOOO++%&&%++OOOOOOOOOOO++%++OOOOOOOOOO++++OOO+OOOOOOOOOOOOOOOOOOOOOOOOOOOOOOOOOOOOOOOOOOOOOOOO....OO......................................OOOOOOO+++OOOOOOOO+%%&&%%++OOO.OOOO++O.OO.......O.OOOOOO+++%%%%++++%%&%%%%&&&:::::&&&&:&%%%%%&&:::&&:::::::::::&&:====&@@@@@@+@+++++++##++++XXXX##XXXXXXXXXXXXXXXXXXXXXXXXX.....o  .oo.                      oXXX#@$**@@@###@@@$$$$@@$$$****=;;;;====**$@@##X##XXXXXXXXXXXXXXXXooooooo..oooo... oo                              ooXX#@$$***$@@@###XXXXXX.....OXXXOOOXO",
"@@@&&&====================*$&&&&$&&&&@@++X.........O++@@@@$&&*******&&@++#XXX#++@@@@@@@#++#XXXXXXXXXXX##@@@$$$$@@@###@@@@@@@@@XXXXXXX#@@@@@@@@@@@#XXXX............oXXXX#@@@@@#XXXXXXXXXXXXX##@@@@@@#XXXXXXXXX##@@$$@@@#####XXXX#XXXXX.....oooo..oo....XXooX..XXX..XXXXXXXXXXXXXXXXX+##@@@@@@@#X....XX.......XX.XXXXX..OOXXXXOOOXOOO+XXXX++X+++++++++%&&&%%%&&&%%&%%%%%&&::::&::::&%%+++%%%%%&&&&&&&::&&%++++++++++OOOOOO+O+++++%%%%+++++OOOOOO+O+++%%%%+OOOOOOOOOOOO+%%%+OOOOOOOO.O..OOOOOOOOO+%%&%+OOOOOOOO++%&%%OOOOOOOOOOOOOO+OOOOOOOOOOOOOO+%%&&&%+OOOOOOOOOOOOOO+%&&%++OOOOOOOOOO++%&&%++OOOO++%%&%%++OOOOOOOOOO++%%&&%++++++++%%&%+++OOOOOOO+++++%%%++O++O++++OOOOOOOOOOOOOOOOOOOOOOOOOOOOOOOOOOOOOOOO++%%&%++OO++++%%&&%++++O+++%%%&%%+O+++%%%%&&%+++++++++++%%&&%%++OOOOOO++%%&&&%+++++++O++%%&&%%O+OOOOOOOO++%&&%++OOOOOOOOOOO++%+OOOOOOOOOO++%++OOOOOOOOOOOOOOOOOOOOOOOOOOOOOOOOOOOOOOOOOOOOOOOOOO..............................................OOOOOOOOOOOOOOOOOO+%%&&%%++OOO.OOOO+OOOOO..OOO....OOOOOO+++%%%+++++%%&%%%%&&::::::&&&&:&%%%%%&&:::&&&:::::::::::&:====&@@@@@@@++++++++##++++XXX#XXXXXXXXXXXXXXXXXXXXXXXXXXX...o.o...oo..                     oXXX#@$**@@@###@@@$$$$$@$$$****=;;;;====**$@@#####XXXXXXXXXXXXXXXoooooooo..oooo.   o                                oXX#@@$***$@@@@##XXXXXX....X.XX.OOOXO",
"@@&&&&====================*$&&&&$$&&&@+++O........XX+@@@@$&&&&******$@@@##XXX+#@@@@@@@@@+++XXXXXXXXXXX##@@@$$$@@@@##@@@@@@@@@#XXXXXXX##@@@@@@@@@##XXXX..oo.....o...XXXX#@@@@@#XXXXXXXXXXXXXX#@@@@@@#XXXXXXXXX##@@$$@@@@###XXXXX#XXXXXX...ooo....oooo.oXoXX....XX..XXXXXXXXXXXXXXXX####@@@@@@@#....XXXX.....X.....X....OOXXXXOOXXOOO+++XX++++++++++++%&&%%%%&&&%%&%%%%%&&:::&&::::&%%++%%%+%%&&&&&&&::&&%+++++O++OOO+O++++O+++++%%%%++O+++++++++++++%%%%+OOOOOOOOOOOO++%%+OOOO.OOOOOOOOOOOOOOOO+%%%%+OOOOOOOO++%%%%OOOOOOOOOOOOOOOOOOOOOOOOOOOOOO+%%&&%++OOOOOOOOOOOOO+%%&%++OOOOOOOOOO++%%%%++OOOO++%%&%%+OOOOOOOOOOOO+%%&&%++++++++%%&%+++OOOO+OO+++++%%%%+OOOOOOOOOOOOOOOOOOOOOOOOOOOOOOOOOOOOOOOOOOOOOOOO+++%&%+++O+O++%%&&%+++OO++++%%&%%+O++++%%%&&%++++++O++++%%&&%%++OO+OOO++%%&&&%+++O+O+O++%%&&%%++OOOOOO+O++%&&%++OOOOOOOOOOO+%%+OOOOOOOOOO+%%++OOOOOOOO..OOOOOOOOOOOOOOOOOOOO....OOOO..........................................................OOOOOOOOOOOOOOOOOO+%%&&%%++OOOO.OOOOOOOO....OOOOOOOOOOO+O+%%%%%++++%%%%%%%&&&&&:::&&&&:&&%%%%&&::::&&::::::::::&&:====*@@@@@+++@++++#####+####+#++XXXXXXXXXXXXXXXXXXXXXXXXX...o......o .                     oXXX#@***@@@###@@@$$$$$$$$$****=;;;;====**@@@#####XXXXXXXXXXXXXoooooooooooooooo                                    ooXX#@@$***$@@@@##XXXXXX..XXXXXXXXOOOO",
"@@&&&&===================&*$$@&&$$&&&@+++O.......XXX+@@@@$&&&&******$@@@++XX#+@@@@@@@@@@+++XXXXXXXXXX###@@@$$$$@@@##@@@@@@@@@#XXXXXXXX#@@@@@@@@@@#XXXX...oo....o...oXXX#@@@@@#XXXXXXXXXXXXX##@@@@@##XXXXXXXXX#@@@$$@@@###XXXXXXXXXXXXX...ooo....oooo.oXoXX....XX.XXXXXXXXXXXXXXXXX####@@@@@@@#....XXXX....XX....X.....OOOOOOXOXXO+O++++X++++++++++++%&&&%%%&&&%%&%%%%%&&:::&&::::&%%++%%%+%%%&&&&&&::&&%+++++OO+OOO++O++OO+++++%%%%++O+++O+++++++++%%%%+OOOOOOOOOOOO++%%+OOOO.O.OOOOOOOOOOOOOO+%%%%+OOOOOOOO++%%%%OOOOOOOOOOOOOOOOOOOOOOOOOOOOOO++%&&%++OOOOOOOOOOOOOO%%&%++OOOOOOOOOO++%%%%++OOOO++%%&%%+OOOOOOOOOOOO+%%&&%++++++++%%&%+++OO+O+OO+++++%%%%+OOOOOOOOOOOOOOOOOOOOOOOOOOOOOOOOOOOOOOOOOOOOOOOOOO+%&%+++OOO++%%&&%+++OO++++%%&%%+O++++%%%&&%+++O+OO++++%%&&%%++OO+OOO++%%&&&%+++O+OOO++%%&&%%++OOOOOO+O++%&&%++OOOOOOOOOOO+%%++OOOOOOOOO+%%++OO.OO........OOOOOOOOOOO...OO...................................................................OOOOOOOOOOOOOOOOOO+%%&&%%++OOOOOOOOOOOOO..OOOOOOOOOOOOOO++%%%%%++++%%%%%%%&&&&&:::&&&&:&&%%%%&&::::&&::::::::::&&:====*@@@@@++@+@++@####++####+XX+XXXXXXXXXXXXXXXXXXX.XXoX..oo... . o  .o                    oXXX#@$**$@@##@@@$$$$$$$$$$****=;;;;====**@@@#####XXXXXXXXXXXXooo.ooooo.ooooooo              oo                     oXX#@@$***$@@@@##XXXXXX..XXXXXXXOOOOO",
"@@&&&&===================&&&$@@&$&&&@@++++X......XXX#@@@@$$&&&******$$@@#XXX+++@@@@@@@@@@+#XXXXXXXX#####@@@@$$$@@@##@@@@@@@@@#XXXXXXX#@@@@@@@@@@@@XXXX.ooo....oo.X.XXX##@@@@@#XXXXXXXXXXXXXX#@@@@@@#XXXXXXXXX#@@@$$@@@###XXXXXXXXXXXX........ooo...oooooXXXX..XXXXXXXXXXXXXXXXXXXX###@@@@@@@@#X...XXX......X..X.XX....XXOOOOXXXXO+++++++XX++++++++++%%%%%%%&&&%%&%%%%%&&:::&&::::&%+++%%%%%%%&&&&&&::&&%++++++++OOO++O++OO+++++%%%%++OOOOOO+OOOO++%%%%%+OOOOOOOOOOOO++%%+OOOO.O.OOOOOOOOOOOOOO+%%%%++OOOOOOO++%%%%OOOOOOOOOOOOOOOO.OOOOOOOOOOOOO++%&&%++OOOOOOOOOOOOOO%%%%++OOOOOOOOOO++%&%%++OOOO++%%&%++OOOOOOOOOO+++%%&&%++OOO+++%%&%+++O++OOOOOO+++%&&%+OOOOOO......O..............................OOOOOOO+%&%+++O++++%%&&%%++++++++%&&%%+O++O++%&&&%%++++++OO++%%&&%%++OO+OOO++%%&&&%++OOOOOO++%%&&%%O+OOOOOOOO++%&&%++OOOOOOOOOOO+%%++OOOOOOOOO+%%++OO....O........OOOOOO...........................................................................OOOOOOOOOOOOOOOOOO+%%&%%%++OOOOOOOOOOOOOOOOOOO+++OO+++++++%%%%%++++%%&%%%%&&&&&:::&&&&::&%%%%&&::::&:::::::::::&======*&@@@@+++@++++########+++##+#+XXXXXXXXXXXXXXXXXX....X.oo..o.o       .                   oXX#@@*@@@@###@@$$$$$$$$$$****=;;;;====**@@@####XXXXXXXXXXXXXXXo..oooo..ooo..       o                              oXX#@$$***$@@@@##XXXXXXXXXXO.OOOOXXXO",
"+@&&&&=================*&&&&@@@$$$&&@@++++X.......XX#@@@@$&&&&*****&$@@@#XXX+++@@@@@@@@@@##XXXXXXXX#####@@@@$$@@@####@@@@@@@@#XXXXXXX##@@@@@@@@@@@#XXX..oo....oo...XXX##@@@@@#XXXXXXXXXXXXXX#@@@@@@#XXXXXXXXX#@@@@$@@@####XXXXXXXXXXXX......oooo..XooXXXXX.X..XXX.XXXXXXXXXXXXXXXX###@@@@@@@@X....XXXX........XXXXX..X.XOOOOXXXXO+++++X+XX++++++++++%&%%%%%&&&%%&%%%%%&&:::&&::::&%+++%%%%%%%&&&&&&::&&%++++++++OOOOOO++OO+++++%%%%+OOOOOOO++OOO++%%%%++OOOOOOOOOOOO++%%+OOOO.O.OOOOOOOOOOOOOO+%%%%++OOOOOOO++%%%%OOOOOOOOOOOOO.OOOOOOOOOOOOOOOO++%&&%++OOOOOOOOOOOOOO%%%%++OOOOOOOOOO++%&%%+++OOO++%%&%%+OOOOOOOOOO+++%%&&%++OO++++%%&%+++OO+OOOOOO+++%&&%+OOOOOOO.OO.OOO....OO..OO........OO.OOOOOOOOOOOOOOO+%&%++OO++++%%&&%%++++++++%&&%%+O++O++%%&&%%++OOOOOO++%%&&%%++OOOOOO++%%%&&%++OOOOOO++%%&&%%++OOOOOOOO++%&&%++OOOOOOOOOOO+%%+OOOOOOOOOO+%%++OO.............OO++OO.......................................................... ................OOOOOOOOOOOOOOOOOO+%%&%%%++OOOOOOOOOOOOOOOOOO+++++++%%%%%%%%%%%++++%&&%%%%&&&&&:::&&&&::&%%%%&&::::::::::::::::&======&&@@@@++@@++++#######XXXXXXXXXXXXXXXXXXXXXXX....X...XXo...o.....    . .                ooXX@@$*@@@@@##@@$$$$$$$$$$****=;;;;====**@@@####XXXXXXXXXXXXXXXoXXoooo..oooooo      oo                             oXX#@$$***$@@@@##XXXXXXXXXXOOOOOOXXXO",
"++&&&&================***&&&@@&&&&&&@@@++XX........O++@@&&&&&&&&**&&&&@@#XXX+#++@@@@@@@@@##XXXXXXXXXX###@@@@@$$@@#XX#@@@@@@@#XXXXXXXXX#@@@@@@@@@@@#XXX..o...ooooXX.XXX##@@@@@#XXXXXXXXXXXXXX@@@@@@@#XXXXXXXXX##@@$$@@@####XXXX##X#XXXXoo.o...ooo...ooo.........XXXXXXXXXXXXXXXXXXX###@@@@@@@@#XXXXXXXXXX....XXXXXXX...XXXXOOOOOOOOX+XXXXXXX+++++++++%&%%%%%&&&%%&%%%%%&&:::&&::::&%+++++%+%%&&&&&&&::&&%+++++++++++++OO++O+++++%%%%++OOOOOOO++OO+++%%%++OOOOOOOOOOOO++%%+OOOO.O......OOOOOOOOO+%&&%%OOOOOOOO++%%%+OOOOOOOOOOOOO.OOOOOOOOOOOOOOOO++%&&%+OOOOOOOOOOOOOOO%%%%++OOOOOOOOOO++%&%%++OOOO++%%&%%++OOOOOOOOOO++%%&&%++++O+++%%&%%++OO+OOOOO++++%&&%+OO.O........................................O.OOOO+%&&+++O+O++%%&&%%++++++++%%&&%%O+++++%%&&%++++OO+OO++%%&&%%++OOOOOO++%%&&&%++O+OOOO++%%&&%%++OOOOOOOO++%&&%+OOOOOOOOOOOO+%%++OOOOOOOOO+%%%+OOOOO.OOO.....OOO++OOO..........................................................................OOOOOOOOOOOOOOOOOO+%%&%%%++OOOOOOOOO++++++++++%%%%%%%&%%%%%%%%%++++%&&%%%%&&&:::::&&&&:&&%%%%&&::::&:::::::::::&======&&@@@+++@@+++#@#####++++####+XXXXXXXXXXXXXXXXXXXXX..XX...ooooo..o ooo ..       o      ..XX#@@***@@@@##@@$$$$$$$$$$****=;;;;====**@@@####XXXXXXXXXXXXXXXXXX..oooo..oooooooo    oo   o                       oXX#@@$***$@@@@##XXXXX.XX..OOOOXOXXOO",
"++&&&&===============&**$&@@@@@&&&&&@@@++XX.......XO++@@@&&&&&&***&&&&@@#XXXX#++@@@@@@@@@@#XXXXXXXXXX###@@@@$$$@@#XX@@@@@@@@#XXX.XXXX#@@@@@@@@@@@@#XXX..o...ooooXX.XXX##@@@@@#XXXXXXXXXXXXXX@@@@@@@#XXXXXXXXX##@@$$@@@###+XXXX####XXXXoooo...ooo...ooo.........X.XXXXXXXXXXXXXXXXX####@@@@@@@#XXXXXXXXXX...XXXXXXX....XXXXXXOOOO+OXXXXXXXXX+++++++++%&%%%%%&&%%%&%%%%%&&:::&&::::&%+++++%+%%&&&&&&&::&&%%+++++++++++++O+++++O++%%%%++++OOOOOOOOOO++%%%++OOOOOOOOOOOO++%%+OOOO.O......OOOOOOOOO+%&&%+OOOOOOOO++%%%+OOOOO.OOOOOOO.OOOOOOOOOOOOOOOO++%&&%+OOOOOOOOOOOOO+O%%%%++OOOOOOOOOO++%&&%++OOOO++%%&%%+OOOOOOOOOOO++%%&&%++++O+++%%&%%+++O+OOOO+++++%&&%+OO..O.......................................O.OOOO+%&%+++O+O++%%&&%%++++++++%%&&%%O+++++%%&&%++++OOOOO++%%&&%%++OOOOOO++%%&&&%++O+OOOO++%%&&%%++OOOOOOOO++%&&%+OOOOOOOOOOOO+%%++OOOOOOOOO+%%%+OOOOO.OOO...OOOOO++OOO..........................................................................OOOOOOOOOOOOOOOOOO+%%&%%%++OOOOO+++++%%%++++++++++++++++%%%%%%+++++%&&%%%%&&&:&:::&&&&&&&%%%%&&::::&:::::::::::&======&&@@@+++@@++++##+###++++##XXXXXXXXXXXXXXXXXXXXXXXXX.Xoooo.o.oooo...o  ..      oo   o  ..XX#@@***@@@@##@@$$$$$$$$$$****=;;;;====**@@@####XXXXXXXXXXXXXXXXXX..oooo..oooooooo    oo  .o                       oXX#@@$***$@@@###XXXX..X.....OOOXXXOO",
"+@&&&================*&&&@@@@@&&@@&&&&+++XX......XXX++@@&&&&&&****&&$@@@#XXXX#++#@@@@@@@###XXXXXXXXXXX##@@@@$@@@@####@@@@@@@@#XXXXXXXX#@@@@@@@@@@##XXX......oo..oooXXX##@@@@#XXXXXXXXXXXXXXX#@@@@@@#XXXXXXXXXX@@@@@@@@@@##XXX+###XXX..........ooo..ooXXo......XX..XXXXXXXXXXXXXXX#####@@@@@@@#XX..XXXXXXXXXX..XXXXXXX..X..OXXXOOOXXXXXXXX+++XX++++++%&%%%%%&&%%%%%%%%%%&:::&&::::&%%++++++%%&&&&&&&:::&%+++++++%++++++++++OO++%%%%%+++++OOOOOOO+O++%%%++OOOOOOOOOOOO++%%+OOOOOO.OOOOOOOOOOOOOO+%%&%++OOOOOOO++%%%%OOOOOOOOOOOOOOOOOOOOOOOOOOOOOO++%&&%++OOOOOOOOOOOOOO%%%%++OOOOOOOOOOO+%&%%+OOOOO++%%&%++OOOOOOOO+OOO+%%&&%++++++++%%&%%+OOOOO+OOOO+++%&&%+OO..........................................OOOOOO+%&%++OOOO++%%&&%%++++++++%%&%%+O+++++%%&&%%++OOOOOO++%%&&%%O+OOOOOO++%%%&&%+++OOOOO++%%&&%%++OOOOOOOO++%&&%+OOOOOOOOOOO++%%++OOOOOOOOO+%%%+OOOOOOOOOOOO..OOO++O.............................................................................OOOO++OOOOOOOOOOO+%%%%%%%+O+++++%%++++++++++++OOOOOOO++++%%%%%++++%%&%%%%&&&:::::&&%&:&&%%%%&&::::&::::::::::::======&&@@@@++@@@#++##+++++XXX##XXXXXXXXXXXXXXXXXXXXXXXX.....oo..ooo.   o..           . oo.oooXX#@@$**@@@@@@@@$$$$$$$$$*****=;;;;====*$$@@####XXXXXXXXXXXXXXXXooXXXoooooo oo    o.                              ooXX#@$$***$@@@###XXXXXXX...XXXXOOOOOO",
"@@&&&==============&&&&&@@@@@@&&@@&@&@@++XX......XXX++@@&&&&******&&&@@@#XXXX#+##@@@@@@@#+XXXXXXXX#XXX##@@@@$@@@@####@@@@@@@@#XXXXXXXX#@@@@@@@@@###XXX......ooo.ooXXXX##@@@@#XXXXXXXXXXXXXXX#@@@@@@#XXXXXXXXX#@@@@@@@@#@##XXXX####XX........o.oo....ooXX....XXXX.XXXXXXXXXXXXXXXX#####@@@@@@@#XX....XXXXXXXX..XXXX....XX.OOOXXOXXXXXXXXX++++X+++++++%&%%%%%&%%%%&%%%%%&&:::&&::::&%+%+++++%%&&&&&&&:::&%+++++++++++++++++++O+++%%%%+++++OOOO+O++O++%%%++OOOOOOOOOOOO++%%+OOOOOO.O.OOOOOOOOOOOO+%%%%++OOOOOOO++%%%%OOOOOOOOOOOOOOOOOOOOOOOOOOOOOO++%&&%++OOOOOOOOOOOOOO%%%%++OOOOOOOOOOO+%&%%+OOOOO++%%&%++OOOOOOOO+OOO+%%&&%++++++++%%&%%++OOOOOOOOO+++%&&%+OO.........................................OOOOOOO+%&%++OOOO++%%&&%%++O+++++%%&%%+OO++++%%&&%%++OOOOO+++%%&&%%++OOOOOOO+%%%&&%+++++OOO++%%&&%%++OOOOOOOO++%&&%++OOOOOOOOOO++%%%+OOOOOOOOO+%%%+OOOOOO...OOO..OO+++OO................................................................ ............OOO+OOOOOOOOOOO++%%%%%%%++++++++++++++OOOOOOOOOOOOOO++++%%%%%++++%%&%%%%&&&::::::&&&:&&%%%%&:::::&::::::::::::======&&@@@@++@@@++++#++++++XXXXXXXXXXXXXXXXXXXXXXXXXXXX.....o..oooo.   ..o     o       o..oooXX#@@$**@@@#@@@@$$$$$$$$$*****=;;;;====*$@@@####XXXXXXXXXXXXXXXoXXX..oooooooo.    oo.                             ooXX#@$$***$@@@###XXXXXXX...XXOOOOOOOO",
"@@@&&===========&==&*&&&&@@@@&&&@@$@@@@+++OO.....XXX+++@@&$$*****&&&&&@@#XXXX++#@@@@@@@@+#XXXXXXXXXXXX##@@@@$$$@@####@@@@@@@@XXXXXXXXX#@@@@@@@@@###XXX.X....oo.o.oooXXX#@@@@##XXXXXXXXXXXXXX#@@@@@@#XXXXXXXXXX@@@@@@@@@@##XXXXX###XXXX..oooo.oooo.....XXXXoXXXXXXXXXXXXXXXXXXXXXX#####@@@@@@@#XX......X.XXX...XXX..X..XX..OOXXXXXXXXXX++++++++++++++%&%%%%%%%%%%&&%%%%&&:::&&::::&%+%+%%%%%%%&&&&&&::&&%++++++++++++++++O++O+++%%%++++OOOOOO+OO+O++%%%++OOOOOOOOOOOO+%%%+OOOOOOO...O.OOOOOOOOO+%%%%+OOOOOOOO++%%%%OOOOOOOOOOOOOOOOOOOOOOOOOOOOOO++%&&%++OOOOOOOOOOOOO+%%%%++OOOOOOOOOOO+%%%%+++OO+++%%&%++OOOOOOOO+OOO+%%&&%++O+++++%%&%+++OOOOOOOOOO++%&&%+OO........................................OOOOOOOO+%&%++OOO+++%%&%%%+++O++++%%&%%+O+O+++%%&&%%++O+OOOO++%%&&%%++OOOOOO++%%%&&%++++OOOO++%%&&%%++OOOOOOOO++%&&%++OOOOOOOOOO++%%++OOOOOOOOO+%%%+OOOOO.....OOO.OO+++OOO...........................................................................OOOO+OOOOOOOOOOO++%%%%%%%+OO++++++++++++++OOOOOOOOOOOOO++%%%%%++++%%%%%%%&&&::::::&&&::&%%%%&:::::&:::::::::::&=====&&&@@@@++@@++++####++++#X###XXXXXXXXXXXXXXXXXXXXXXXX.XXXX....oo.    o     o        .. .ooXX#@@***@@@###@@$$$$$$$$$*****=;;;;===***$@@#####XXXXXXXXXXXXXXoXXXX..oooooooo     o                              ooXX#@$$***$@@@###XXXXXX.....XX.OOOOXX",
"@@@&&*========&&===&**&&&@@@@&&&$$$@@@@@++OOX....XX++++@@$$$*****&&&&&@@#XXOX+##@@@@@@@@@##XXXXXXXXXX###@@@@$$@@@#XX#@@@@@@@#XXXXXXXXX#@@@@@@@@@##XXXX.X...ooo...ooXXXX#@@@@##XXXXXXXXXXXXXX#@@@@@@#XXXXXXXXXX@@@@@@@@#####XXXX###XXXX..oooooooo.....ooX.ooXXXXXXXXXXXXXXXXXXXXXX#####@@@@@@@#XX........XXX...XXXX...XXX..OXXXXXXXXX++++++++++++++++%%%%%%%%%%%%&&%%%%&&:::&&::::&%+%+%%++%%%&&&&&&::&&%%+++++++++++++++O+O+++++%%%++OOOOOOOO+O+O++%%%++OOOOOOOOOOOO+%%%+OOOOOOO...O.OOOOOOOOO+%%%%+OOOOOOOO++%%%+OOOOO.OOOO...OO++++OOOOOOOOOOO++%&&%++OOOOOOOOOOOOO+%%&%++OOOOOOOOOOO+%%%%++OOO+++%%&%++OOOOOOOOOOOO+%%&&%++O+++++%%&%+++OOOOOOOOOO++%&&%+OO........................................OO..OOOO+%&%++OOO+++%%&%%+++OO++++%%&%%+O+O+++%%&&%%++O+OOOO++%%&&%%++OOOOOO++%%%&&%+++++OOO++%%&&%%++OOOOOOOO++%&&%++OOOOOOOOOO++%%++OOOOOOOOO+%%%%OOOOO.....OOOOOO+++OOO...........................................................................OOOO++OOOOOOOOOO++%%%%%%%+OOOOOOO+++++++++OOOOOOOOOOOOOO+%%%%%++++%%%%%%%&&&::::::&&&::&%%%%&:::::::::::::::::&=====&&&@@@@++++++++##X#+X+XXXXXXXXXXXXXXXXXXXXXXXXXXXXXX.XXXX....oo..   o              .  .ooXX#@@**@@@@@##@@$$*$$$$$$*****=;;;;====**@@@#####XXXXXXXXXXXXXXoXXXX..ooooooooooooo                               ooXX#@$$***$@@@##XXXXXX.....O.XOOOXXXX",
"++@&&&&&****====******$$&@@@@@&&@$&&@@@@++++++XXO++++++@@$$$******&&&&@@+XXXXX##+#@@@@@@@##XXXXXXXXXXX##@@@@$$$@@#XX#@@@@@@@#XXXXXXXXX#@@@@@@@@@###XXXXXoooo......XXXXX#@@@@@#XXXXXXXXXXXXXX#@@@@@@#XXXXXXXXXX@@@@@@@@######XXX##XXXXXXo.ooooooo........oooXXXXXXXXXXXXXXXXXXXXXX#####@@@@@@@XXX................XXXXXOO.XXXXOOXX+OXXXX++X++X++++++++%%%%%%%%%%%%&%%%%%&::::&&::::&%++++%%+%%%&&&&&&::&&%%+++++%+++++++++++++++++%%++++OOOOOOOOOO+++%%%%+OOOOOOOOOOOO+%%%+OOO.OOOOOOOOOOOOOOOOO+%%%%+OOOOOOOO++%%%+OOOOO.OOOOOOOOOO++++OOOOOOOOOO++%&&%++OOOOOOOOOOOOO+%%%%++OOOOOOOOOOO+%%%%+OOOO+++%%%%++OOOOOOOOOOOO+%%&&%++O+OO++%%&%+++OOOOOOO+OO++%&&%+OO............................................OOOO+%&%++OOOO++%%&%%+++OO++++%&&&%%O+++++%%&&%%++O+OOOO++%%&&%%++OOOOOO++%%&&&%++++OOOO++%%&&%%++OOOOOOOO++%&&%++OOOOOOOOOO++%%%+OOOOOOOOO+%%%+OOOO...O....OOOO+++OOO..........OO..............................................................OOOOO++OOOOOOOOOO++%%%%%%++OOOOOOOOOO.OOOOOOOOOOOOOOOOOOO+%%%%%+++%%%&%%%%&&&::::::&&&::&%%%%&&::::&:::::::::::&=====&&&@@@+++@+++@#####++++###++XXXXXXXXXXXXXXXXXXXXXXXXXXX..XXoo....oo  o    .. oo.o    ....XX#@@***@@@@##@@$$*$$$$$$*****=;;;;====**@@@#####XXXXXXXXXXXXXXXXXoo..ooo.oo   o  o                               o XX#@$$***$@@@##XXXX.......OOXXOOOOOO",
"++@@&&&&****&&&****&*$$$&@@&@&&&$$$&@@@@@++++++#+++++@@@@$$$&*****&&&&@@+XXXXX##++@@@@@@@@#XXXXX##XXXXX#@@@@$$@@@#XX#@@@@@@@#XXXXXXXXX##@@@@@@@@###XXXXXXXoo....XXXXXXX#@@@@@#XXXXXXXXXXXXXX@@@@@@@#XXXXXXXXX#@@@@@@@@######XXX###XXXXooo.oooooo........o.XX.XXXXXXXXXXXXXXXXXXXX#####@@@@@@@XXX......X.....XXXXXXXXOOXOXXXXOOOXOOX+XX++XXXX++++++++%%%%%%%%%%%%%%%%%%&&:::&&::::&%+++++++%%%&&&&&&::&&%%++++++%+++++++%%%++++++%%%+++OOOOOOOOOO+++%%%%+OOOOOOOOOOOO+%%%+OOO.OOOOOOOOOOOOOOOOO+%%%%+OOOOOOOO++%%%+OOOOO.....OOO.OO++++OOOOOOOOOO++%&&%++OOOOOOOOOOOOOO%%%%++OOOOOOOOOOO+%%%%++OOO+++%%&%++OOOOOOOOOOOO+%%&&%++O+OO++%%&%%+OOOOOOOO+OO++%&&%+OO..........................................O.OOOO+%&%++OOOO++%%&%%+++OOOO++%%&&%%O+++++%%&&%%++O+OOOO+++%%&%%++OOOOOO++%%&&&%+++OOOOO++%%&&%%++OOOOOOOO++%&&%++OOOOOOOOOO++%%%+OOOOOOOOO+%%%+OOOOO.OOOO..OOOO++++OOO.........OOO..............................................................OOOOO+OOOOOOOOOOO+%%%%%%++OOOOOOOOOOOOOOOOOOOOOOOOOOO+O++%%%%%++++%&&%%%%&&&::::::&&&::&%%%%&&::::::::::::::::&=====&&&@@@@++++++++####++++XXXXXXXXXXXXXXXXXXXXXXXXXXXXXXXX..XXoo....o   . ..  .. oo..  o .o.XX#@@***@@@@##@@$$*$$$$$$$****=;;;;====**@@@####XXXXXXXXXXXXXXXXXXoo..oooooo o o   o o  o                         o XX#@$$**$$@@@##XXXXX......O.XXOOOOXX",
"++@@@@&$$$&&&&$$$$&&&&@@@@@@$$&&$$&&&&&@@@@@@+@@+@@@@@@@&&&&&&******&@@@##XXXX++++@@@@@@@@##XXX+###XXX##@@@@@$@@@##X#@@@@@@@#XXXXXXXXX##@@@@@@@@@###XXXXXXXXXXXXXXXXXX##@@@@##XXXXXXXXXXXXXX@@@@@@@#XXXXXXXXX#@@@@@@@@@@###XXX####XXX.oo....oooo..oooXXX......XXXXXXXXXXXXXXXXXXX#####@@@@@@#XXX..X.XXXXX.XXX.XX..XXXXOOXXXXOOXXO+++XXX+++XXX+++++++%%&&&&&&%%%%%%%%%%%&:::&&::::&%+++++++%%%&&&&&&::&&%%+++++%%+++++++%&&%%+++%%%%++OOOOOOOOOOO+++%%%++OOOOOOOOOOOO+%%%+OOO.OOO.O..OO..OOOOOO+%%%%+OOOOOOOO++%%%+OOOOO....OOO..OOO++OOOOOOOOOOO++%%&%++OOOOOOOOOOOOOO%%%%++OOOOOOOOOO++%&%%++OOOO++%%%%++OOOOOOOOOOOO+%%&&%++++OO++%%&%%+OOOOOOOO++O++%&&%+OO.......................................O..OOOOOO+%&%++OOOO++%%&%%%++OOO+++%%&&%%O+++++%%&&%%++O+OOOO+O+%&&%%O+OOOOOO++%%&&&%++OOOOOO++%%&&%%++OOOOOOOO++%&&%++OOOOOOOOOO+%%%%+OOOOOOOOO+%%%%OOOOOOOO.O..OOOO++++OOOO.......OOOOOO............................................................OOOOO+OOOOOOOOOO++%%%%%%++OOOO.OOOO..OOOOOOOOOOOOOO++++++%%%%%+++%%&&%%%%&&&&&::::&%&::&%%%%&&::::::::::::::::&&====&$@@@@@@@@@++++++###++#####++X+XXXXXXXXXXXXXXXXXXXXXXX..oXXoX..o...o   ..          oo.oo.XX#@@$*@$@@@#@@@$$*$$$$$$*****=;;;-==*=**@@@####XXXXXXXXXXXXXXXXXoooo.ooo.oo  oooooooooooo                        ooXX#@$$**$$@@@##XXXX.X.XX.XO.XXXOOOOX",
"++@@@@@@@@&&&&$@@@&&&&&@@@@@@@&&$@&&&&&@@@@@@@@@@@@@@@@&&&&&&&******$@@@##+++###++@@@@@@@@###X+####X####@@@@@@@@@#XX#@@@@@@@#XXXXXXXXX#@@@@@@@@@####XXXXXXXXXXXXXXXXXX#@@@@@##XXXXXXXXXXXXXX@@@@@@@#XXXXXXXXXX@@@@@@@@@####XXX####XXo..o......o...oooXXXX.....XXXXXXXXXXXXXXXXXX######@@@@@@#XXX..X.XXXXXXXXXXXX..XXXXXXXXXOOOXXOO++XX++++XXX+++++++%%&&&&&&&%%&&&%%%%%&:::&&::::&%+++++++%%%&&&&&&::&&%%+++++%%++++++++%%%%%++%%%%++OOO++OOOO+++++%%%++OOOOOOOOOOOO+%%%+OOO..OOOO..O...OOOOOO+%%%%+OOOOOOOO++%%%+OOOOO....OOO..OOO++OOOOOOOOOOO++%%&%++OOOOOOOOOOOOOO%%%%++OOOOOOOOOO++%&%%+OOOOO++%%%%++OOOOOOOOOOOO+%%&&%++O+OO++%%&%%+OOOOOOOO++O++%&&%+OO.......................................O..OOOOOO+%&%++OOOO++%%&%%%++OOOO++%%&&%%O+++++%%&&%%++O+OOOO+O+%&&%%O+OOOOOOO+%%&&&%++OOOOOOO+%%&&%%++OOOOOOOO++%&&%++OOOOOOOOOO+%%%%+OOOOOOOOO+%%%%OOOOOOOOOOO.OOOO++++OOOO.......OOOOOO............................................................OOOOOOOOOOOOOOOO++%%&%%%++OOOOOOOOOOOOOOOOOOOOOOOOOO+++++%%%%%+++%%&&%%%%&&&&&::::%%&::&%%%%&&::::&:::::::::::&&====&$@@@@@++++++++++###++X###XXXXXXXXXXXXXXXXXXXXXXXXXXXX...XXo...oo..ooo...          .oooo.XX#@@***$@@@#@@@$$*$$$$$$*****=;;;-==****@@@####XXXXXXXXXXXXXXXoXoooooXoo.oo  ooooo  oooo                         ooXX#@$$**$$@@@##XXXXXXXXXXXO.XXXOOOOX",
"+++++@@@@@@@@@@@@@@%@@@@@@@@@@&&@@@@&&@@@@@@@@@@@@@$&&&$$$$$&&&****$&&@@@@++@@@@@@@@@@@@@@@#++++###XXX#+@@@@@@@@@#XX#@@@@@@@#XXXXXXXXX##@@@@@@#####XXX####@@##########@@@@###XXXXXXXXXXXXXXX@@@@@@@#XXXXXXXXX##@@@@@@@######XX####XXXXoooooo...oXoooooXooo....XX.XXXXXXXXXXXXXXXX+@###@@@@@@#XXXXXXX.....XXXXX.X.X.....XOOOOXXXXXXXX++++++++++++++++%&&%%%%%%%&&&&%%%%&&:::&&::::&%%%+++++%%&&&&&&&::&&%%+++++%%+++++++%+++%%++%%%+++OOOO+OOOOOOOO+%%%++OOOOOOOOOO++++%%++OO.O.OO.......OOOOOO+%%%%+OOOOOOOO++%%%+OOOO..OO......OO++++OOOOOOOOOO++%&&%++OOOOOOOOOOOOOO%%%%+OOOOOOOOOOOO+%%%%+OOOOO++%%%%++OOOOOOOOOOOO+%%&&%++OOOO++%%&%+++OOOOOOOOO+++%&&%+OOO.....................................OO..OOOOOO+%&%++OOOO+O%%&%%+++OOOO++%%&%%%OOOO++%%&&%%++OOOOOO+++%%&%%O+OOOOOO++%&:::&++O+OOOOOO%%&&%%++OOOOOOOO++%&&%++OOOOOOOOOO+%%%++OOOOOOOOO+%%%%OOOOOOOOOOOOOOOO++++OO.O........OOOO.O.........................................................OOOOOOOOOOOOOOOOOOO+%&&%%%%+OOOOOOO..OOOOOOOOOO++OOO+++++++%%%%%++++%&&%%%%&&&&&:::&&%&::&%%%%&&:::::::::::::::::&:===&&@@@+@@+++@+@@++####++++#X++XXXXXXXXXXXXXXXXXXXXXXXXXXX...X.oooo.....o            .oooooXX#@@$**@@@@#@@@$$$$$$$$$****==;;;;===**$@@@####XXXXXXXXXXXXXXXXXXXooooooooooo         oo o                       o.XX#@$$***$@@@##XXXXX......XXOOOOXXOO",
"O+++++++@+@@@@@@@+++@@@@@@%@@@@&@@&@&&$@$$@@&&$@&&$$&&&*$$**&&**&***&&@@@@@@@@@@@@@@@@@@@@@###++########@@@@@@@@@#XX##@@@@@@#XXXoXX.XXXX##@@@@####XXXX###@@@@@@#XXX###@@@@@@@#####XXXXXXXXX#@@@@@@@#XXXXXXXXX#@@@@$@@@####XXXXX###XXX.oo.oo.XX..ooooXXoooo....XX.XXXXXXXXXXXXXXXX+@###@@@@@@#XXXXXX.......XXX.XX.X......OOXOXXXXXXXX+++X++XX++++++++%%&%%%%%%%%%%%%%%%&&:::&&::::&%%%+++++%%&&&&&&&:::&%%++++++%+++++++++++++++%%%++++OO++OOOO++O++%%%++OOOOOOOOOOOO++%%+OOO.O.OOOO....OOOOOOO+%%%%+OOOOOOOO++%%%+OOOO..OO...O..OO++++OOOOOOOOOO++%&&%++OOOOOOOOOOOOOO%%%%+OOOOOOOOOOOO+%%%%+OOOOO++%%%%++OOOOOOOOOOOO+%%&&%++OOOO++%%&%+++OOOOOOOOOO++%&&%+OOO...................................OOOO.OOOOOOO+%&%++OOOO++%%&%%+++OOOO++%%&&%%OOOO++%%&&%%++OOOOOO+++%%&%%O+OOOOOO++%&::&%++O+OOOOO+%%&&%%++OOOOOOOO++%&&%++OOOOOOOOOO+%%%%+OOOOOOOOO+%%%%OOOOOOOOOOOOOOOO++++OOOO......O.O++OOO.......................O..................................OOOOO+OOOOOOOOOOOO+%%&%%%++OOOOOOO.OOOOOOOOOOOOO++++++++++%%&%%++++%&&&%%&&&&&&::::&%&::&%%%%&&:::::::::::::::::&====&&@@@+@++++++##++##XX+++XXXXXXXXXXXXXXXXXXXXXXXXXXX..X....X.Xoooo..... oo   o      .oooooXX#@@$*@@@@@#@@@$$$$$$$$$****==;;;;===**$@@@####XXXXXXXXXXXXXXXXXXXooooooooooo  oo    oo  oo                      o.XX#@$$***$@@@##XXXXXXX....XXXOOOXXOO",
"XXX++++++++++++++++++@@@@@@@@@@@@@&&&&&&$&$$&&&&&$$$&&**&&**&&&&&*****&&@@@@@@@@@@@@@@@@@@@@@@@@@@@@@@@@@@@@@$@@@##X#@@@@@@@#XXXoooo.XXX##@@@@####XXXX##@@@@@@@@#+####@@@@@@@@@@@@@@@@###X##@@@@@@@#XXXXXXXXX#@@@**@@@@@####XX####XXX..X..o.oXXo..XXXX........XXXXXXXXXXXXXXXXXXX#@###@@@@@@@XXX..XX..XXXXXXX...XX.XXXXXXXXXOXOOXXXX++XX++++++++++++%%%%%+%%%%%%%%%%%%&&:::&&::::&%%%%++++%%%&&&&&&::&&%%+++++++++++++++++++++%%%%++++O++++OO+++OO+%%%+++OOOOOOOOOOO++%%+OOO.O.O..OO..OOOOOOOO+%%%%+OOOOOOOO++%%%+OO.O......O.OOOO++++OOOOOOOOOO++%%&%%+OOOOOOOOOOOOOO%%%%+OOOOOOOOOOOO+%%%%+OOOOO++%%%%++OOOOOOOOOOOO+%%&&%++OOOO++%%&%%+++OOOOOOOOO++%&&%+OOO......................................OOOOOOOOO%%%%++OOOO++%%&%%+++OOO+++%%&&%+OOOO++%%&&%%++OOOOOO+++%&&%%OOOOOOOO++%%&%%%++OOOOOO++%%&&%%++OOOOOOOO++%&&%++OOOOOOOOO++%%%%+OOOOOOOOO+%%%%OOOOOOOOOOOOOOOO++++OOO.......O.O++OOOOO....................OOOOOOOOOO........................OOO+OOOOOOOOOOOOOOOO+%%&%%%%+OOOOOOOOOOOOOOOOOOO++++++++++%%%&&%%++++%%&&%%&&&&&&::::%%&::&%%%%&:::::::::::::::::&&====&&&%@++++++++@+#+#XX#++XXXXXXXXXXXXXXXXXXXXXXXXXXXXXXXXXXXXX.oo..  o..  .o.    ooo.oo.o..XX#@@$*@@@@@#@@@$$**$$$$$****==;;;;==***$@@@####XXXXXXXXXXXXXXXXXXXoooooooooo   ooo                               ooXX@@$$***$@@@##XXXXXXXXXXXXXXXXOXOOO",
"XXXXXXXX+++++++++++++++++++++@@@@@@@@&@&$&$$&&&&$$$$&&&&*******&&&***$&&$$@@@@$$$$$@&&&&$$@@@@@@@@@@@@@@@@@@$$@@@####@@@@@@@#X...ooo..XX####@#####XXXX##@@@@@@@@@@@@@#@@#@######@@@@@@@@###@@@@@@@@@XXXXXXXX##@@@$$@@@@@##XXXXX###XXXX.X.......X..XXX...X......XXXXXXXXXXXXXXXXXX+@###@@@@@@@XXX.XX..XXXXXXXX...XXXXXXXXXXXXOOOOXX++++XXXXX+++++++++%%%+%++++%%%%%%%%%&&:::&&::::&%%%%++++%%%&&&&&&::&&%%++++++%++++++++++++++%%%%++++O++++OO++++++%%%+++OOOOOOOOOOO++%%+OOO.O.O.OOO.OOOOOOOOO+%%%%+OOOOOOOO++%%++OO.O......OOO.OO++++OOOOOOOOOO++%%&%%+OOOOOOOOOOOOOO%%%%+OOOOOOOOOOOO+%%%%+OOOOO++%%%%++OOOOOOOOOOOO++%&&%++OOOO++%%&%++++OOOOOOOOO++%&&%+OOOO....................................OOOOOOOOOO%%%%++OOOO++%%&%%%++OOO+++%%&&%+OOOO++%%&&%%++OOOOOO+++%%&%%+OOOOOOO++%%&%%+O+OOOOOO++%%&&%%++OOOOOOOO++%&&%++OOOOOOOOO++%%%%+OOOOOOOO++%%%%OOOOOOOOOOOOOOOO++++OOO.......O.O++OOOOOO.O.........O....OOOOOOOOOOOOOO.......................O++++OOOOOOO.OOOOOOO+%%&&%%++OOOOOOOOOOOOOOOOO++++++++++&&&&&&&%%%+++%&&&%%&&&&&&::::&&&::&%%%%&:::::::::::::::::&&&====&&%@+++++++#####+#++++#X#++XXXXXXXXXXXXXXXXXXXXX....X..oXXX.....o o..  .o.   ooo..oo.o..XX#@@$*$@@@@#@@@$$**$$$$$****==;;;;==***$@@@####XXXXXXXXXXXXXXXXXXXXoooo.ooooo  oo                                ooXX@@$$***$@@@@#XXXXXXXXXXXXX.XXXXOOO",
"...XXXXX..XXXXOO++XXX++++++@@@@@@@@@@@@@$$&&$$$$$$$$$$$$$$******$$***$$$$$$$@@$$$@$$$$&&$$$$$@$$@@@@@@@@@@@@$$@@@@###@@@@@@@XX.o...o..XX##########XXXXX#@@@@@$$@@@@@@@@@####XXXXX##@@@@@@@@@@@@@@@@@##XXXXX###@@@$$@@@@@###X####@#XXX.oX..ooo.XX..XXXo..XX....XXXXXXXXXXXXXXXXXXX#@###@@@@@@@#XX..X...XXXXXXXX..XX..OOXXXXXXOXOX++++XXXXXXXXX+++++++%%%%+++++%%%%%%%%%&::::&&::::&%+%+++++%%%&&&&&&::&&%%++++++%%+++++++++++++++%%+++OOOOOOOOO+++++%%%+++OOOOOOOOOOO++%%+OOOOO.O.OOOOOOOOOOOOO+%%%%+OOOOOOOO++%%++OOOO......OO..OO++++OOOOOOOOOO++%%&%%+OOOOOOOOOOOOOO%%%%++OOOOOOOOOO++%%%%OOOOOO++%%%%+OOOOOOOOOOOOO+%%&&%++OOOO++%%&%+++OOOOOOOOOO++%&&++OOOO.......................................OOOOOOO+%&%++OOOO++%%%%%%++OOOO++%%&%%+OOOO++%%&&%%+++OOOOO+++%&&%%O+OOOOOO++%%%%%+++O+OOOOOO%%&&%%++OOOOOOOO++%&&%++O++++OOO+++%%%%+OOOOOOOOO+%%%%++O++OOOOOOOOOOO++++OOOO..OO..OOOO++OOOOOOOO..O...OOOO..OOOOOO+OOOOOOOOOO.....................OOOOOOO+OOOOOOOOOOOO+%%%&%%+++OOOOOOOOOOOOOOO+++++++%&&&&&&&&&&%%%++%%&&%%%%&&&::::::&&&::&%%%%&:::::&:::::::::::&&=====&&%+++++@@+@++##++++##XX+++XXXXXXXXXXXXXXXXXXXXXXXXXX.XXXX..oo..oo... o.o.    o...oooo..XX#@@**$$@@@#@@@$$**$$$$$****==;;;;====**@@@####XXXXXXXXXXXXXXXXXXXXXXooXoo.ooo.         oo                       ooXX#@$$***$@@@##XXXX....XXXXXXXXXOOOO",
".........OXX..OOOOXXXX++++++#@@@@@@@@@@@$$$$$$$$$$$$&&**$$****$$$$*$*$$$$$$@@@@@@&$$$$$&$$$$$$&&$@@$$$$$@$$$$$@@@@###@@@@@@@#X.....o..XXX######X#XXXXXX#@@@@$$$$@@@@@@@@@#XXXXXXXX##@@@@@@@@@@@@@@@@#######@@@@@@@@@@@@@########@#XXX.XXXXoo..Xo..XXoo..oX....XXXXXXXXXXXXXXXXXXX#@###@@@@@@@#XXX.XX..XX....XXXXXX..OOXXXXOOXXXX++++X+XXXXXXX+++++++%%%%++++++%%%%%%%%&::::&&::::&%+%+++++%%%&&&&&&::&&%++++++%%%+++++++++++++++%%++++OOOOOOOOOO+++%%%++OOOOOOOOOOOO++%%OOOOOO.OOOOOOOOOOOOOOO+%%%++OOOOOOOO++%%++OO.O.....O....OO++++OOOOOOOOOO++%%&%%+OOOOOOOOOOOOO+%%%%++OOOOOOOOOO++%%%%OOOO+O++%%%%+OOOOOOOOOOOOO+%%&&%++OOOO++%%&%++OOOOOOOOOOO++%&&++OOOO.O.....................................OOOOOOO+%&%++OOOO++%%&%%%++OOO+++%%&%%%O+OO++%%&&%%++OOOOOO+++%&&%%OOOOOOOO++%%&%%+OOOOOOOOO+%%&&%%++OOOOOOOO++%&&%%+++++++++++%%%%%+OOOOOOOOO+%%%%+++++OOOOOOOOOOO+++OOOOOOOOOO...OOOOOOOOOOOOOOOOOOOOOOO.OOOOOOOOOOOOOO...........................OOOO+OOOOOOOOOOOO+%%%%%%+++OOOOOOOOOOOOO+++++++%&&&====&&&&&%%%++%%&&%%%%&&&:::::&&&&::&%%%%&:::::&&::::::::::&&=====&&&@@+@@@@++++##++++#XXXXXXXXXXXXXXXXXXXXXXXXXXXXXXX.......oooo.oo.o..o.oo    o...oooo..XX#@@**$@@@@@@@@$$**$$$$$****==;;;;==*=**@@@####XXXXXXXXXXXXXXXXXXXXX..oooo.oooo      o ooo                       ooXX#@$$***$@@@##XXXXX...XXXXXXXXXOOOO",
".................XXXXXXX+X+++##@@@@@@@@@@@@$$$$$$$$$****$$$$**$$******$$$$$@@@@@@@@@@@@@@@@@$$$$$$$$$$$$$$$$$$@@@@#X#@@@@@@@XX.......XXX###@@####XXXX###@@@@$$$$@@@@@@@@@#XXXXXXXXXX#@@@@@@@@@$$@@@@@@@@@@@@@@@@$$$$@@@@@@@@@@@@@@#XXXXXXXXXXX...o.oX...ooo.XXXXXXXXXXXXXXXXXXXXX#####@@@@@@@XXXX.XX...X....XXXXXXX.XOXXXOOOXXXXXX++++++X+XX++++++++%%%%%%%%%+++%%%%%%&:::&&&:::&&%+++++++%%%&&&&&&::&&%++++++++%+++++++++++++++%%++++O+++OOOOO+++%%%%++OOOOOOOOOOOO++%%OOOO.O.O..OOOOOOOOOOOO+%%%++OOOOOOOOO+%%++OO.O..........OO++++OOOOOOOOOO++%%&&++OOOOOOOOOOOOOO%%%%++OOOOOOOOOO++%%%%+OOOOO+++%%%+OOOOOOOOOOOOO+%%&%%++OOOO++%%&%++OOOOOOOOOOO++%&&+OOOOO..OOO.........................OOOO...O.OOOOOOO+%&%++OOOO++%%&%%%++OOOO++%%&%%%O+OO++%%&&%%++O+OOOO+O+%&&%%OOOOOOOO++%%%%%+O+O+O+OOOO%%&&%%++OOOOOOOO++%&&%%+++%%%%++++%%%%++OOOOOOOOO+%%%%+++++OOOOOOOOOOO++++OO..OOOOO.O.OOOOOOOOOOOOOOOOOOOOOO...OOOOO.O................................OOOOOOOOOOO.OOOOOO+%%%%%%++OOOOOOOOOOOOOOO+++++&&&====&&&&&&&%++++%%&&&%%%&&&:::::&&&&::&%%%%&:::::&&::::::::::&&====&&&@@@@@@@++++++###++##++++XX##XXXXXXXXXXXXXXXXXXXXXXXXXX.X.oooo.oooXo.ooooo   ...o.ooooXXX#@@**$@@@@@@@@$$$$$$$$$$****=;;;-==****@@@######XXXXXXXXXXXXXXXXXXXXoooooooooo  oooooo oo                       ooXX#@$****$@@@##XXXXX....XX..OOOOXXXX",
"................X.....XOXXXX+###@@@@@@@@@@@@$$$$$$$$$**$$$$$*$$$*****$$$$$$@@@@@@@@@@@@@@@@@@@@@@@@@@@$$$$$$$$@@@@#X#@@@@@@@XX.......XXX#####@####XXX###@@@@@$$$$@@@@@@@@#XXXXX.XXXXXX#@@@@@@$$$$@@@@@@@@@@@@@@@$$$$$@@@@@@@@@@@@@#XXXXXXXXXXX....ooXX..ooo.XXXXXXXXXXXXXXXXXXXXX+####@@@@@@@XXXXXXX...X....XXXXXX..OOXXXOOOXXXXXX++++++X+X++O++++++%%&%&%%%++++++%%%%&:::&&&:::&&%+++++++%%%&&&&&&::&&%++++++++++++++++++++++++%++++OOO++OOOO+O+++%%%++OOOOOOOOOOOO+%%%OOOO.O.O.OOOOOOOOOOOOO+%%%++OOOOOOOOO+%%++OO.O..........OO++++OOOOOOOOOO++%%&%++OOOOOOOOOOOOOO+%&%++OOOOOOOOOO++%%%%++OOOO+++%%%+OOOOOOOOOOOOO+%%&%%++OOOO++%%&%++OOOOOOOOOOOO+%&&+OOOOO..OOO...........OO.....O.....OOOOO.OOOO.OOOOOO+%%%++OOOO++%%&%%%++OOOO++%%&%%%O+OO++%%&&%%++OOOOOO+O+%&&%%OOOOOOOOO+%%&%%+OOO+OOOO+O%%&&%%++OOOOOOOO++%%&%%+++++++++++%%%%++OOOOOOOOO+%%%%++OOOOOOOOOOOOOO++++OO..OOOO....OOOOOOOOOOOOOOOO..OOOO.....OOOOOO............................OOOOOOOOOOOOOOOOOOOOO+%%%%%%++OOOOOOOOOOOOOOO++++&&&=====:=&&&&&%%+++%%&&&%%%&&&::::::&&&::&%%%%&&::::&&::::::::::&&====&&@@@+@@+++++++#####+##+++XXXXXXXXXXXXXXXXXXXXXXXXXXX....X.XXoo..XXXXXXoo.oo   .o o.ooo.XXX#@@**@@@@@#@@@$$$$$$$$$$****=;;;-==****@@@######XXXXXXXXXXXXXXXXXXXXoooooooooooooooooo  o                       ooXX#@$****$@@@##XXXXX....XX..OOOOXXXX",
"......................XX.XXXXXXX##+#@@@@@@@@@@@@$$$$$$$$$$$$$$*$$$$$**$$$$@@@@@#########@@@@@@@@@@@@@@@@@@@@@@@@@#####@@@@##XX..o...oXXXX#######XXXXX###@@@@$$$$$$$$$@@@++XXXXXX.XXXXXX#@@@@@$$$$$@@@@@@@@@@@@@@@$$$@@@@@@@@@@@@@@@@####XXXX.X.X........oo..XXX.XXXXXXXXXXXXXXXXX#####@@@@@@#XXXXXXXX.X...XXXX..XXXXXXOOXXXXOXXXXXXXXXXXXX++++XX++++%%%%%%%++++++%%%%%&:::&&&:::&&%%%+++++%%%&&&&&&::&%%+++++++++++++++++++++++%%%+++++OOOOOOOOOOO+%%%++OOOOOOOOOOOO+%%%OOOOOOO.OOOOOOOOOOOOOO+%%%+OOOOOOOOOO+%%++OO.O........OOOO++++OOOOOOOOOO++%&&%%+OOOOOOOOOOOOOO+%%%++OOOOOOOOOOO+%%%%++++OO+++%%%++OOOOOOOOOOOO+%%&%%++OOOO++%%&%++OOOOOOOO+OOO+%&&%+OO....O....O.......................OOO......OOOOOO+%%%++OOOO++%%&%%+++OO+O++%%&%%+OOOO++%%&&%%++OOOOOOOO+%%&%%OOOOOOOOO+%%%%%+O+OOOOOOOO+%&&%%++OOOOOOOO++%%&%%+OOOOOOOOO++%%%++OOOOOOOOO+%%%%OOOOOOOOOOOOOOOO++++OOOOOOOOOOOOOOOOOOOOOOOOOOOOOOOOOOOOOOOOOOOOOOOOOOOO.OOO..............OOOOOOOOOOOOOOOO..OOOOOO+%%%%%++++OOOOOOOOOOOOO++++&&&&==&::==&&&&&%+++++%&&%%%&&&&&::::&%%&::&%%%%&::::::::::::::::::&=====&&@@@@@@+++++#++++++XXXXXXXXXXXXXXXXXXXXXXXXXXXXXXXXXXXXXXXX......X#@#XXooooo... o.o oooXX#@@***@@@@@@@@$$*$$$$$$*****=;;;;=****$$@@######XXXXXXXXXXXXXXXXXXXooXXooooooo    o.o                            oXX@@$$*$$$@@###XXXXX..XXXXXXXXOOOOXX",
".......................X.XXXXXXXXXXX##@@@@@@@@@@@@@$$$$$$$$$$$$*$$$$**$$$$@@@@@#XXXXXXXX##########@@@@@@@@@@@@@@##XX#######XX...oo...XXXX#######XXXXX###@@@@@$$$$$$$$$@@++XXXXXX.XXXXXXX##@@@$$$$$$@@@####@@@@@@@$$$$$$$$$$$@@@@@@@@@@@@#XXX.X.X........o....XX.XXXXXXXXXXXXXXXXX#@###@@@@@@#XXXXXX.X.XX...XX...X..XXXXOXXXXOXXXXXXXX+XXXX++++++++++%%%%%%%%+++++%%%%%&:::&&&:::&&%%%%++++%%%&&&&&&::&%%+++++++++++++++++++++++%%%+++OOOOOOO+OO+OO+%%%++OOOOOOOOOOOO+%%%+OOOOOOOOOOOOOOOOOOOOO+%%%+OOOOOOOOOO+%%+OOO.O........OOOO++++OOOOOOOOOO++%&&%%+OOOOOOOOOOOOOO+%%%++OOO+OOOOO+++%%%%++OOOO+++%%%++OOOOOOOOOOOO+%%&%%++OOOO++%%&%++OOOOOOOOOOOO+%&&%+OO.O.OOO.....O......OOO.......O...OOOO....OOOOOOOO+%%%++OOOO++%%&%%++OOOOO++%%&%%+OOOO++%%&&%%++OOOOOOOO+%%&%%OOOOOOOOOO%%%%%+O+OOOOOOO+%%&&%%++OOOOOOOO++%&&%%+++OOOOOO+++%%%++OOOOOOOOO+%%%%OOOOOOOOOOOOOOOO++++OOOOOOOOOOOOOOOOOOOOOOOOOOOOOOOOOOOOOOOOOOOOOOOOOOOOOOOOOOOOOOOO.......OOO..O.O.OOOOOO.OOOOOOO++%%%%+++OOOOOOOOOOOOO++++&&&&===&&&=:&&&&&%+++++%&&&%%&&&&&:::::%%&:::%%%%&::::::::::::::::::&====&&&@@@@++++++##+#+++XXXXXXX+XXXXXXXXXXXXXXXXXXXXXXXXXXXXX.XXX.....XX@@@XXoooooooo..ooooooXX#@@***@@@@@@@@$$*$$$$$$*****=;;;-=****$$@@######XXXXXXXXXXXXXXXXXXXoooooooooooo     o                            oXX@@$$*$$$@@###XXXXX....XXXXXXOOOOXX",
"............................XXXXXXXXXX##X##@@@@@@@@@@@@@@$@$$$$$$$@$$$@@@@@@@#XXXXXX..XX..XXXXXXXXXXXXXX####@###XXXXXXXX##XXX...oooooXXX#######XXXXXX###@@@@@$$$$$$$$@@@++XX..XX.XXXXXXX#@@@@$$$$$$$@@####@@@@@@@$****************$$$$$@@@XXXX..X.oo....XX.o.XXXXXXXXXXXXXXXXXXXX#@###@@@@@@#XXXXX....XX..XXXX..X.XXXXXOXXXXOOXXXXXX++++++++++++++++%%%%%&&%%++++%%%%%&:::&&::::&&%+%%++++%%%&&&&&&::&%%+++++++++++++++++++++++%++++OOOO+OO++OOOO++%%%++OOOOOOOOOOOO++%%+OOO..OOOOOOOOOOOOOOOO+%%%+OOOOOOOOOO+%%+OOOO.O........OOO++++OOOOOOOOOO++%%&%%+OOOOOOOOOOOOOO++%%%%+++%%%%%%%%%%&%%%%%%%%%%%%%%++OOOOOOOOOOOO+%%&%%++OOOO++%%&%++OOOOOOOOOOOO+%%&%+OOOOOOOO....O.O.........O...OO.O....OOOOOOOOOOOOOO+%&%++OOOO++%%&%%++OOOOOO+%%&%%+OOOO++%%%&%%++OOOOOOOO+%%&%%OOOOOOOOOO%%%%%+O+OOOOOOOO+%&&%%++OOOOOOOO++%&&%++OOOOOOOOOO++%%++OOOOOOOOO+%%%%OOOOOOOOOOOOOOOO++++OOOO++++OOOOOOOOOOOOOOOOOOOOOOOOOOOOOOOOOOOOOOOOOOOOOOOOOOOOOOO...OO.............OOOOO.OOOOOOO++%%%%+++OOOOOOOOOOOOO++++&&======&&::&&&&&%%++++%&&&%%&&&&&&::::%%&:::&%%%&:::::::::::::::::&&====&&&%@++++@+@@@@@@##++++++X#+XXXXXXXXXXXXXXXXXXXXXXX.XXXXXXXXXXXXXXX@@@@XXXXooo...ooooooXXXX#@@**@@@@@@@@@$$**$$$$$*****=;;;;==***$@@@######XXXXXXXXXXXXXXXXXXXoooooooooooo   oo      oo                    ooXX@@$$**$$@@@##XXX........X.XXXXOOOX",
"OXX..........................XXXXXXXXXXXXX######@@@@@@@@@@@@@@@@@@@@@@@@@@@@@#XXXXoooo......XXXXXXXXXXXXXXXXXXXXXXXXXXXXXXXXX.....oo.XXX####@#XXXXXXX###@@@@@$$$$$$$$@@@++XX...X.XXXXXXX##@@@@$$$$$$@@####@@@@@@$$$*$$@@$$$$$******==**$@@#XXX.XXXooooXXXX...XXXXXXXXXXXXXXXXXXXX#@###@@@@@@#XXXXXXX...X..XX.XXXX.XXXXXXOXOXXOXXXXXXX+++++++++++++++%%%%%%&%%++%+%%%%&&:::&&::::&&%+%%++++%%%&&&&&&::&&%++++++++++++++++%+++++++++++OOOO+OOOOOOOO+%%%%++OOOOOOOOOOOO++%%+OOOOOOOOOOOOOOOOOOOOO+%%%+OOOOOOOOOO+%%+OOO............OO++++OOOOOOOOOO++%%&%%+OOOOOOOOOOOOOOO+%%&&%%%%&&&&&&&&&&&&&&&&&&&&&&&%+OOOOOOOOOOOOO+%%&%%++OOOO++%%&%++OOOOOOOOOOO++%%%%+OOOOOOOO....OOOOOOOO....OOOOOOOO....OOOOOOOOOOOOOO%%&%++OOOO++%%&%%+++OOOOO+%%&%%+OOOO++%%%&%%++OOOOOOOO+%%&%%OOOOOOOOO+%%%%%+O+OOOOOOOO+%&&%%++OOOO+OOO++%&&%++OOOOOOOOO++%%%%+OOOOOOOO++%%%%OOOOOOOOOOOOOOOO++++OOOOOOOOOOOOOOOOOOOOOOOOOOOOOOOOOOOOOOOOOOOOOOOOOO.O.OO...........OO..............OOO...OOO+++%%%%&%++OOOOOOOOOOOOOO+++&&======:::::&&&&&%%++++%&&&%%%&&&&&::::%%&:::%%%%&&::::::::::::::::&&====&&&%@+++++++@#+#####X++++##+XXXXXXXXXXXXXXXXXXXXXXXXXXXXXXXXXXXXXX##@@#XXXXXXXXXXXXoooooXXX#@@**@@@@@@@@@$$*$$$$$$*****=;;;;==***$@@@######XXXXXXXXXXXXXXXXXXXoooooooooooooo.oo.    oo                     ooXX@@$**$$$@@@##XXX.........XXXXXOOOO",
"++XXXXXX.......X.......XX...XXXXXXXXXXXXXXXXXXXXX#######@@@@@@@@@@@@@@@@@###XXX..  .....            ......XXXXo....................o.XXX#######XXXXXXX##@@@@@$$$$$$$$@@@#XXX...XXXXXXXX###@@@@$$$*$$@@##X###@@@*******************====**$@@XXX...XXXooo.oXoo..XXXXXXXXXXXXXXXXXXX+@###@@@@@@#XXXXX.....X.XXXX..X.......XOOOOXXXXXX+XXX++XXX+++++++++%%%%%%%%++++++%%%&&:::&&::::&&%%++++++%%%&&&&&&::&&++++++++++++++++++++++++++++++OOOOOOO+OOO++%%%%++OOOOOOOOOOO++%%%+OOOOOOOOOOOOOOOOOOOOO+%%%++OOOOOOOOO+%%+OOO...........OOO++++OOOOOOOOOO++%%&%%+OOOOOOOOOOOOOOOO+%%%%%%%&&&&&&&&&&&&&&&&&&&&&%%%+OOOOOOOOOOOOO+%%&%%++OOOO++%%&%%+OOOOOOOOOOOO+%%%%+OOOOOOO...OO....OOOO....OOOOOO....OO...OOOOOOOOOOO%%&%++OOOOOO+%&&%%++++OOO+%%&%%+O+OO++%%%&%%++OOOOOOOO+%%&%%OOOOOOOOO+%%&%%+OOOOOOOO+++%&&&%++O++OOOOO++%&&%%+++O+OOOOO++%%%%+OOOOOOOO++%%%%OOOOOO+OOOOOOOOOO++OOOOOOOOOOOOOOOOO++OOOOOOOOOOOOOOOOOOOOOOOOOOOOOO...................O..............OO..OOOO++%%%+%%&%++OOOOOOOOOOOO+++++&&===&&======&&&&&%%%+++%&&%%%&&&&&&::::&%&:::&%%%&&:::::&::::::::::&&====&&&%%+@@@@@@@@@####++XXX+X+++XXXXXXXXXXXXXXXXXXXXX.XXXXXXX#######XX##XXXXXXXXXXXXXXXXXXXXXX#@@$*@@@@@#@@@$$**$$$$$****==;;;-=****$@@@####XXXXXXXXXXXXXXXXXXXXooXooooooooooooo..                            ooXX@@$$**$$@@@##XXXXX......OO.OOXXXXX",
"++++XXXXX.XXOXXXXXXXX.XXXXXXOXXXXXXXXXXXXXXXXXXXXXXX################@@####XXXXX.          ........oo......ooooo...o.    ...     .....XXX#######XXXXXXX##@@@@@$$$$$$$$@@@#XXXX.XoXXXXXXX####@@@@$$$$$@@#XXX##@@@*************************$@@XXX..XXXXXXXXooXX.XXXXXXXXXXXXXXXXXXXX#@###@@@@@@#XXXXX..X..X..XXXX....XX....XOXOOOXXXX++XXX+XXX+X+XX++++%%%%%++++++++%%%%&&:::&:::::&%%+++++++%%%&&&&&&:&&&+++++++++++++++++++++++++++++++OOOOOOO++O++%%%%++OOOOOOOOOO+++%%%+OOOOOOOOOOOOOOOOOOOOO+%%%++OOOOOOOOO+%%+OOO...........OOO++++OOOOOOOOOO++%&&%%+OOOOOOOOOOOOOOOOO++++++++%++%%%%%%%%%%%%%%++++++OOOOOOOOOOOOOO+%%&%%+++OOO++%%&%%+OOOOOOOOOOO++%%%%+OOOOOOOOOOOOOOO.OOOO....OOOOOO..OOOO.OOOOOOOOOOOO+%%%%++OOOOOO%%&&%%++O+OOO+%%&%++O+OO++%%%&%%++OOOOOOOO+%%&%%OOOOOOOOO+%%&%%+OOOOOOOOOO+%&&&%++O+OOOOO+++%&&%%+OOOOOOOOO++%%%%++OOOOOO+++%%%%+OOOOOOOOOOOOOOOO++OOOOOOOOOOOOOOOOO++OOOOOOOOOOOOOOOOOOOOOOOOOOOOOO....................................OOOOOO+++++++%%%++OOOOOOOOOOOO++++&&&&=&=:======&&&&&%%%++%%&&%%%&&&&&&::::&%&:::&%%%&&:::::&::::::::::&&&====&%%+++@@++@@####+#++#X+XX+++++XXXXXXXXXXXXXXXXXXXXXXXXXXXX##########XXXXXXXXXXXXXXXXXXXXXX#@@**@@@@@##@@$$*$$$$$$****==;;;;==***$@@@####XXXXXXXXXXXXXXXXXXXXooXooooooooooooo.o                            ooX#@@$$**$$@@@##XXX.X......OOOOOXXXXX",
"@@+++X+X+++++++++++OOOXXXXXX+++++++#XXXX....X.XXXXXXXXXXXXXXXXXXXXXXXXXXXXXX....                                 .             ......XXX#+####XXXXXXXX##@@@@@@$$$$$$$@@@#XXXXXXoXXXXXXX###X#@@$$$$$$@@#XXX###@@@@@**********************$@@#XX.X..XXXX......XXXXXXXXXXXXXXXXXXXXX#@###@@@@@@#XXXX.X....XXXXXXX..XXX.X.XXXXXXOOOOO+++XXXXX+XXX+++++++%%%%+++++++%%%%%%&:::&&::::&&%%+++++++%%%&&&&&&:&&&+++++++++++++++++++++++++++++++++++++++++++%%%%%++++OOOOOO++++%%%+OOOOOOOOOOOOOOOOOOOOO+%%%++OOOOOOOOO+%%+OOO..........OOOO++++OOOOOOOOOO++%&&%%+OOOOOOOOOOOOOOOOOOOOOOOOOOOOOOOO+OO+OOOOOOOOOOOOOOOOOOOOOOOOOO+%%%%%++OOOO++%%&%%+OOOOOOOOOOOO+%%&%+OOOOOOOOOOOOOOOOOOOOOOOOOOOOOOOOOOOOO.OOOOOOOOOOOO%%%%++OOOOOO+%&&%%++OOOOO+%%&%%+OOOO+++%%&%%++OOOOOO+O+%%&%%OOOOOOOOO+%%&%%+OOOOOOOO++%%&&&%%%++++++++%%%&&%%%++++++++++%%%%%%++O++O++%%%%%%++++++++++++++++++++OOOOOO+++++++++++++OOOOOOOOOOOOOOOOOOOOOOOOOOOOO.............................O....O.OOOOOO+++O+O+%%%++OOOOOOOOOOO++++%&&&&==&::&====&&&&&%%+++%%&&%%%&&&&&:::::&%&:::&%%%&&:::::&::::::::::&&&====&&@%@@@@++++++####++XXXXXXX+XXXXXXXXXXXXXXXXXXXXXXXXXXXX############XXXXXXXXXXXXXXXXXXXXXX#@@***@@@@##@@$$**$$$$$****==;;;-===**$@@@####XXXXXXXXXXXXXXXXXXXXXooooooooooooooo    oo                        ooX#@@$***$$@@###XXXXX..X.XXXXOOOOXXOO",
"@@@+++++++++++++++++++++X#+#++++++@+#XXX....XXXXXXXXXXXXXXXXXXXXOOXXXX..Xooo....                                .               .....XXX+#####XXXXXXXX##@@@@@@$$$$$$$@@@#XXXXoXXX..XXXX##XX#@@@$$$$$@@XXXXXX##@@@@@$$*******************$@@X.X.X...XXX..X...XXXXXXXXXXXXXXXXXXXXX#@###@@@@@@#XXXX.XX...XXXXXXX..XXX.XXXXXXXXOOOXOO++XXXX++X+++++++++%%%%+++++++%%%%%%&:::&:::::&&%%%++++++%%%&&&&&&::&&++++++++++++++++++++%%%++%%%+++++++++++++%%%%%%%+++++OO++O++++%%%+OOOOOOOOOOOOOOOOOOOOO%%%%++OOOOOOOOOO+%+OOO..........OOOO++++OOOOOOOOOO++%&&%%+OOOOOOOOOOOOOOOOOOOOOOOOOOOOOOOOOOOOOOOOOOOOOOOOOOOOOOOOOOOOOO+%%&%%++OOOO++%%%%%+OOOOOOOOOOOO+%%%%+OOOOOOOOOOOOOOOOOOOOOOOOOOOOOOOOOOOOOOOOOOOOOOOOO+%%%%++OOOOOO+%&&%%+OOOOOO+%%&%++OOOOOO+%%&%%++OOOOOO+++%%&%%OOOOOOOOO+%%%%%+OOOOOO+++%&&&:&&&&&&%%&&&&&&&&&&&&&&%%%%%%&&&&&&&&%%%%&%%%&&&&&&&&%&&%%+++%%%%%%%%%%+OO++%&&&&%%%++%%&%+O+++++++++%%++++OOO++++++++OO..........................OOOOOOOO.OOOOO+++++++%%%%++OOOOOOOOOOO++++&&&&===&&:&&===&&&&%%%+++%%&&&%%%&&&&:::::&&&:::&&%%&&:::::&::::::::::&&&====&@@@@@@+++++++##++++XXXXXXXXXXXXXXXXXXXXXXXXXXXXX..XXXX#@@@@@@###XXXXXXXXXXoXXXX.oooXXXXXX#@@***@@@@##@@$$**$$$$$****==;;;-====*$@@@####XXXXXXXXXXXXXXXXXXXXXooooooooooooooo  o oooo                     oooXX@@$$**$$@@###XXXXX..XXXXXXOOOOOXOO",
"@@++++++++++++++++++#++##+++++@@@@@@@@##XXXXXXXXXXXXXXX.XXXXXXXXXXXX..oo...                                      .              . o.oXXXX#####XXXXXXXXXX@@@@@$$$$$$$$@@@#XX.......oXXX####X#@@@$$$$$@@XXXXXXXX####@@@@@@@@$$************$@#XX.XX..XXXXXXXXXXX.XXXXXXXXXXXXXXXXXXX#@###@@@@@@#XXXXX...XXXXXX.X.XXXXXXXXXXX..OOOXXXXXX++++++XXX+++++++%%%+%+++++++%%%%%&&&&&::::&&&%%+++%%++%%&&&&&&&::&&+++++++++++++++++%%%%%%%%%%%%&&&&&&%%%%%%%%%&&%%%%%%%%%%%%%%%%%%%%+++++++OOOOOOOOOOO+++%%%%+OOOOOOOOOOO+++OOO..........OOOO++++OOOOOOOOOO++%&&%%+OOOOOOOOOOOOOOOOOOOOOOOOOOOOOOOOOOOOOOOOOOOOOOOOOOOOOOOOOOOOOO+%%%%%+OOOOOO+%%&%%+OOOOOOOOOOOO+%%%%+OOOOOOOOOOOOOOOOOOOOOOOOOOOOOOOOOOOOOOOOOOOOOOOO++%%%%+OOOOOOO+%&&%%++OOOO++%%&%%+OOOO++%%%&%%+OOOOOOOOO+%%&%%OOOOOOOOO+%%%%++OOOOOO++%&&&&&&&&&&&&&&&&&&&&&&&&&&&&&&&&&&&&&&&&&&&&&&&&&&&&&&&&&&&&%%++%%&&&&&&&&%%+O++%%&&&&%%%%%&&%+++%%&&&&&&%%%%+OOOO++++++++OOOO...............OOOOOOOOOOOOOOOOOOOOOOO++++++%%%&&++OOOOOOOOOOO+++&&&=&&==&&&===:&&&&&%%%++++%&&%%%&&&&&&::::&&&:::&&%%&&&::::&::::::::::&&&==&&&@@@@@@+++++++++###+++XXXXXXXXXXXXXXXXXXXXXXXXXXXXXXX#@@@@@@@@@#XXXXXXXXooooooooXooo.XXXXX#@@@*$@@@@#@@@$**$$$$$$****==;;;====**$@@@####X#XXXXXXXXXXXXXXXXXXXXXX..ooooooooo oooooo                        oXXX@@$***$$@@###XXX...XXXXXXXX..OOOOO",
"@@++++++++++++@@++++++++##++@@@@@@@@@@@+XXXXXXXXXXXXXXXXXXXXXXXXXXX...oo..                                      oo.             ..oooXXXX#####XXXXXXXXXX##@@@$$$$$$$$@@@#XXX......XXXX####XX#@@$$$$$@@XXXXXXXXXXXX#####@@@@@@$$*********$@@#X.XX..XoXX.XXXXX..XXXXXXXXXXXXXXXXXXX#@###@@@@@@#XXXXXXX.XXXXX..XXXXXXXXXXXXXXOOXOXXXXXX++++++XXX+++++++%%%%%%%++++%%%%%&&&&::::::&&&%%+%%%++%%&&&&&&&&::&&%+++++++++++++++%%%%%%%%%%%%%&&&&&&&&&&&&&&&&&&&&&&&&&&&&&&&&&&&&&&&&%%%%%%%%%++++++++%%%%%++OOOOOOOOOO++OOOO..........OOOO++++OOOOOOOOOO++%&&%%+OOOOOOOOOOOOOOOOOOOOOOOOOOOOOOOOOOOOOOOOOOOOOOOOOOOOOOOOOOOOOO+%%%%%+OOOOOO+%%&%%+OOOOOOOOOOOO+%&&%+OOOOOOOOOOOOOOOOOOOOOOOOOOOOOOOOOOOOOOOOOOOOOOOO++%%%%+OOOOOOO+%&&%%++OOOO++%%%%%+OOOO++%%%&%%+OOOOOOOOO+%%&%%OOOOOOOOO+%%%%++OOOOOO++++++++%%%%++++++%%+%++%%%%%%%%%%%%%%%%%%%%%%%%%%%%%%%%%%%%%%%+++++%%%%%%%%%%++O++++%%%%%++++%%++O++%%%%%%%%+++OOOOOOOOOOOOOOOO................OOOOOOOOOOOOOOOOOOO++++OO++++%%%&&++OOOOOOOOOO++++&&&&&&&=&&&&&&&&&%%&%%%++++%&&&%%&&&&&:::::&&&:::&&%%&&&::::&::::::::::&&&==&&&@@@@@+@++++++++###+##XXXXXXXXXXXXXXXXXXXXXXXXXXXXXXXX#@##@@###XXXXXXXXXXooooooXooooXoXXX##@@@*$@@@@#@@@$$*$$$$$$****==;;;====**$@@@####XXXXXXXXXXXXXXXXXXXXXXXX.oooooooooooooo oo                        oXXX@@$***$$@@###XXXX..XXXXXXX..OOOOOO",
"@@++#++++++++++@+++#+##+##@@@@@@@@@@@@@#XXXXXXXXXXXXXXXXXXXXXXXXXX....oo...                                   ......            ....oXXXX#####XXXXX.XXXX##@@@$$$$$$$$$@@#XXXXX....XXXX##@####@@@$$$$@@XXXXXXXXXXXXXXXXX#####@@@@*********@@#XXXX.X.X....XXX....XXXXXXXXXXXXXXXXXX###X#@@@@@@#XXXXXX.XXXXX.XXXX.XOOO..OXXXXXXXXXXOXXXXXX+X++X++++++++%%%%%%%%+++%%%%&&&&&::::::&&&%%%%++++%&&&&&&&&&:&&&++++++++++++++++++++%%%%%%%%%%%%%%%%%%%%%%%%%%%&&&&&&&&&&&&&&&&&&&&&&::::::::::::&&&&&&&&%%+OOOOOOOOOOO++OOOO..........OOOO++++OOOOOOOOOO++%%&%%+OOOOOOOOOOOOOOOOOOOOOOOOO.OOOOOOOOOOOOOOOOOOOOOOOOOOOOOOOOOOOO++%%%%+OOOOO++%%&%%+OOOOOOOOOOOO+%&&%%+++%++++%%%%++++++++%%%%++++++++++++++++%+++++++%%%%&%+OOOOOOO+%%%%+OOOOOO++%%%%%+OOOO+O%%%%%%+OOOOOOOOO+%%&%%OOOOOOOOO+%%%%++OOOOOOOOOOOOOOOO++OOOOOOOOOOOOOOOOOO+OOOOOOO+++++O++OOOOO+++++++++OOOOOOO+++++++++++++++OOOOOOOOOO++++OOOO++++++OOOOOOOOOOOOOOOOOOOOO.................OOOOOOOO++++++++++++++++O++++%%%&%++++OOOOOOO++++%&&&&&&=&&&&&%++++%%%%%%++++%&&&%%&&&&&&::::&&&::&&%%&&&&::::&::::::::::&&&==&&&@@@@@++++++++++##++++XXXXXXXXXXXXXXXX++#####XXXXXXXXXXXXXXXXXXXXXXXXoooXX.oooo.ooooooXXX##@$$$$@@@@##@@$$*$$$$$$****==;;;====**$@@@#####XXXXXXXXXXXXXXXXXXXXXooooooooooooo oo                            ooXX@@$$*$$@@@##XXXX....XX.X..X.OOOOXX",
"@@++#+++++++++##++#XX#X####@@@@@@@@@@@@+XXXXXXXXXXXXXXXXXXXXXXXXXX....oo..                                   ...XX...            ...oXXXX#####XXX.X.oXXXXX@@@@$$$$$$$@@@#XX.XXXX.XXXXX#@@@#X##@@$$@@@@XXXXXXXXXXXXXXXXXX####@@@@********$@@#XXXX..XX....XXX....XXXXXXXXXXXXXXXXXX#####@@@@@@#XXXXXX...XXXXXXXX..OOOO.OOOXXXXXXXXXOXXXXXX++++++++++++%%&%%%%%++%%%%&&&&&:::::&&&&%%%%%%++%%&&&&&&&&&:&&&+++++++++++++++++++++++++%%%%%%%%%%%%%%%%%%%%%%%%%%%%%%%%%%%%%%%%%%%%%%%%%%&&&&&&&&&&%%%%++OOOOOOOOOOOO++OOO...........OOOO++++OOOOOOOOOO++%&&%%+OOOOOOOOOOOOOO.OOOOOOOOOOOOOOOOOOOOOOOOOOOOOOOOOOOOOOOOOOOOOOO++%%%%OOOOOO++%%&%%+OOOOOOOOOOOO+%%&%%%&&&&&&&&&&&&&&&&&&&&&&&&&&&&&&&&&&&&&&&&&&&&&&&&&&&&%+OOOOOOO+%%%%+OOOOOO++%%%%%+OOOO+O%%%&%%++OOOOOOOO+%%&%%OOOOOOOOO+%%%%++OOOOOOOOOOOOOOOOOOOOOOOOOOOOOOOOOOOOOOOOOOOOOO++OOOOOOOOO+++++++++OOOOOOOOOOOO+++OOOOOOOOOOOOOOOOOO++OOOOOOOOOOOOOOOOOOOOOOOOOOOOOOOOO................OOO+++++++++++++++++++OOO+++%%%%&%++++OOOOOOO++++&&&==&=:&&&%++++++%&&%%++++++&&%%%&&&&&&:::&&%&%&%%%%%&&&&:::&&:::::::::&&&===&&@@@@@++@+++++++##++++XXXXXXXXXXXXXXX+#++###XXXXXXXXXXXXXXXXXXXXXXXXooooX..ooooooooooXXXX##@$@$@@@@@##@@$$$$$$$$$****==;;;====**$@@@######XXXXXXXXXXXXXXXXXXXXooooooooooooooooo o                         ooXX@@$$*$$$@@##XXXX....XX.XX.XOOOOXXX",
"@+++#XXXXX+++XXX++++XXX++++@@@@@@$@@@@@@#XXXXXXXXXXXXXXXXXXXXXXXXXX..o.o.                                    ..XXX...          .  .....XX+####XX...ooXXXXX#@@@$$@$$$$@@@#XXXXoXoXXXXXX#@@@@###@@@@@@@#XXXXXXXXXXXXXXXXXX###@@@@@@@@@****@@@#XXXX.....XXX........XXXXXXXXXXXXXXXXX#####@@@@@@#XXXXXXX....XXXXXXXX.....XXXOXXXXXOOXXXXXXXXXXXX+XX+++++%%%%%%%%%%%&&&&&&&::::::&&&&%%%%++++%%&&&&&&&&&:&&&++++++++++++++++++++++++++++++++++++++++++++%%%%%%%%%%%%%++++++++%%%%%%%%++%%%%%%++++++++OOOOOOOOOOOOOOOOOOOO..........OOOO++++OOOOOOOOOO++%%&%%+OOOOOOOOOOOO..OOOOOOOOOOOOOOOOOOOOOOOOOOOOOOOOOOOOOOOOOOOOOOOO++%&%%+OOOOO++%%&%%+OOOOOOOOOOOO+%%&%%%&&&&&&&&&&&&&&&&&&&&&&&&&&&&&&&&&&&&&&&&&&&&&&&&&&&%%+OOOOOOO+%%%%+O+OOOO++%%%%%+OOOO+O%%%&%%++OOOOOOOO+%%&%%OOOOOOOOO+%%%%++OOOOOOOOOOOOOOOOOOOOOOOOOOOOOOOOOOOOOOOOOOOOOOOOOOOOOOOOOO+++OOOOOOOOOOOOOOOOOOOOOOOOOOOOOOOOOOOOOOOOOOOOOOOOOOOOOOO..OOOO..........................OOOOOOOOOOOOOOOOO+++OOOOOOO++%+%%%%%+++OOOOOOO++++@&&&&&&&&&++++++++++%&%%+++++%&&%%%&&&&&&&::&&%%%%%%%%%&&&&&::&&:::::::::&&&===&&&@@@@++@@++++##++++#++XXXXXXXXXXXXXX+##XXXXXXXXXXXXX..XXXXXXXooooooooooo.oo.ooo.oooXoXXX#@@$$$$@@@##@@@$$$$$$$$$****==;;;====**$@@@######XXXXXXXXXXXXXXXXXXXXXooooooooooooo  o oo                        ooXX@@$$*$$$@@###XXXXX..XXXX..XXOOOOXX",
"@+++XXXXXXXXXXXXXOOXXXXX+++@@@@@$$@@@@@@##XXXXXXXXXXXXXXXXXXXXXXXXX.X.o...                                    .XXXX..            ......XX#####XX.....o.XXX#@@@@@@@@$$@@@#XXXXoXoXXXXXX#@@@@###@@@@@@##XXXXXXXXXXXXXXXXX####@@@@@@@$$****@@@#XXXX....oXXXoo..X...XXXXXXXXXXXXXXXXX###X#@@@@@@#XXXXXXX......XXXXXXXXXXXXXXXXXOXOOOXXXXXXXXXXXXXXX+++++%+%%%%%%%%%&%&&&&:::::&&&&&&&%%%++%%%&&&::&&&&&:&&&+++++++++++++++++++++++++++++++++++++++++++++++++++++++++++++++%%++++++%%++++++++++++++OO+OOOOOOOOOOOOOOOOOO...........OOOO++++OOOOOOOOOO++%&&%%+OOOOOOOOOOOOOOOOOOOOOOOOOOOOOOOOOOOOOOOOOOOOOOOOOOOOOOOOOOOOOO++%&%%+OOOOO++%%&%%+OOOOOOOOOOOO+%%%%%+%%%%%%%%%%%%%%%%%%%%%%%%%%%%%%%%%%%%%%%%%%%%%%%%%%%++OOOOOOOO+%%%%+O+OOOO++%%%%%+OOOO+O%%%&%%+OOOOOOOOO+%%&%%OOOOOOOOO+%%%%++OOOOOOOOOOOOOOOOOOOOOOOOOOOOOOOOOOOOOOOOOOOOOOOOOOOOOOOOOO++OOOOOOOOO.OOOOOOOOOOOOOOOOOOOOOOOOOOOOOOOOOOOOOOOOOOOO....OOOO....OOOO..............OO.OOOOOOOOOOOOOOOOOOO++OOOOOOO++%++%%&%++OOOOOOOO++++&&&&&==&&+++++++++++%&%%%++++%%&%%%%&&&&&&&::&&%%%%%%%%%%%%&:::::::::::::&&&===&&&@@@@++@@++++##++++++XXXXXXXXXXXXXXXXXXXXXXXXXo.XXXX.XXX.ooooo.Xooo.ooooooooooo.ooooXXXX#@@@@$@@@####@@$$$$$$$$$****=-;;;=====*$@@@######XXXXXXXXXXXXXXXXXXXXooooooooooooo o   oo                        ooX#@@$**$$$@@###XXXX...XXXX..XXOOOOXX",
"@#++OOXX..........XXXXXX+++@@@@$$$$@@@@@@###X+##XXXXXXXXXXXXXXXXXXX......                                     ..XX..              .....XX#####XX........XXX+@@@@@@@$$@@@#XXXooXoXXXXXX#@@@@@@@@@@@@@#XXXXXXXXXXXXXXXX####@@@@@@@$****$**@@@#XXXXXX..oXXXXoXXXX..XXXXXXXXXXXXXXXXX##XX#@@@@@@#XXXXXXX.........XXXXXXXXXXXXXXXXXXXXXXXXX++X+XXX+++++++%%&&&&&&&&&&&&&&:::::&&&&&&%&&%%+%&&&&&:::&&&&::&&%+++++++++++++++++++++++OO+O+O++++++++++++++++++++++++++O+++OOOOOO++OOOO++OOOOOOOOOOOOOOOOOOOOOOOOOOOO.OOOOOO...........OOOO++++OOOOOOOOOO++%&&%%+OOOOOOOOOOOOOOOOOOOOOOOOOOOOOOOOOOOOOOOOOOOOOOOOOOOOOOOOOOOOOO++%&%%OOOOOO++%%&%++OOOOOOOOOOOO++%%%%O+O+OOOO++++++++++++++++++++++++++++++++++++++++++++OOOOOOOOOO+%%&%%O+OOOO+O%%%%%+OOOO+O%%%&%%+OOOOOOOOO+%%&%%OOOOOOOOO+%%&%++OOOOOOOOOO.OOOOOOOOOOOOOOOOOOOOOOOOOOOOOOOOOOOOOOOOOOOOOO++OOOOOOOOOOOOOOO....OOOO.O..OOOO..OO....OOOO....OO...O..OOOOOOO...........................OO.O............O+++OOOOOOO++++%%%%%++OOOOOOO+++++&&&&&=&&@+++++++++++%&%%%+++%%%&&%%&&&&&&&&:::&&%%%%%%%&&&%&&:::::::::::&&&&===&&&@@++++++++####++++++++XXXOOXXXXXXXXXXXXXXXXXXo..XXXXXX..XooooXoo..o.ooooo.oooo..oooXXXX#@@@@$@@@###@@@$$$$$$$$$****=-;;;=====*$@@@######XXXXXXXXXXXXXXXXXoXXXXooooooooooo     o                         ooX#@@$***$$@@###XXXXX...X..X.XXXXOOXX",
"@@+++XXX...........XXXXX+++@@@@$$$$$@@@@@####+############XXXXXXXXX......                                     .X.X..            . ....XX######XX.........OX+@@@@@@@$$@@@#XXX.o..XXXXXX#@@@@@@@@@@@@@#XXXXXXXXXXXXXX##@@@@@@@@@@@@*@$$**$@@@#XXXXXX...XXoXXXXXX.XXXXXXXXXXXXXXXXXX###X#@@@@@@#XXXXXXXX.........XXXXXXXXXXXXXXXXXX+XXXXX++++XXX+++++++%&&&&&&&&&&&&&::::::&&&&&&&%%%%%%&&&&=::::&&&&:::&%++++++++++++O++OO++++OOOOOOOOOOOOOO++OOOOOOOOOOO+++OOOOOOOOOOOOOOOOOOOOOOOOOOOOOOOOOOOOOOOOOOOOOOOO......OOO...........OOOO++++OOOOOOOOOO++%%&%%+OOOOOOOOOOOOOOOOOOOOOOOOOOOOOOOOOOOOOOOOOOOOOOOOOOOOOOOOOOOOOO++%%%%+OOOOO++%%&%++OOOOOOOOOOOO+%%%%+OOOOOOOOOOOOOOOO++OOOOOO++++++++OOO+O++++OO+OOOO+++OOOOOOOOOOO+%%&%+OOOOOO+O%%&%%+O+OO+++%%&%%+OOOOOOOOO+%%&%%OOOOOOOOO+%%&%++OOOOOOOOOOOOOOOOOOOOOOOOOOOOOOOOOOOOOOOOOOOOOOOOOOOOOOOOOOOOOOOOOOOOOOOOOO....OOOOOOOOOOOOOOOOOOOOOOOOOOOOOOOO.O..OOOO.O............................................OO+OO..OOOO++++%%%%%++OOOOOOO+++++&&&&==&&++++++++++++%%&%%+++%%%%%%%&&&&&&&&&&&&%%%%%%%%&%&%%&&:&::::::::&&&&===&&%+++++++++++##+#++++++XXXXOOOXXXXX..XXXXXXXXXXX..XXXXX..XXXXoooo.o.o.o.ooo.oooo..oooXXXX#@@@@$@@@###@@@$$$$$$$$$****=-;;;=====*$@@@######XXXXXXXXXXXXXXXXXoXXXXooooooooooo                               ooX#@@$***$$@@##XXXXX......X..XXXXOOXX",
"@@##XXX.............XXX#+@@@@@@$$$$$$@@@@@#+#X##+##########XXXXXXXXX....                                      ....o.                ..XXX####XXXXo........X+@@@@$$$$@@@@XXXX..X.XXXXXX#@@@@@###@@@@@@#XXXXXX##@@@@@@@@$$***************$@@@#XXXXooXXXX.X.XXXXXXXXXXXXXXXXXXXXXXX##+###@@@@@@##XXX.....XXXXXXXXXXXXXXXXXXXXX.XXXXOOXXXXXXXXX+++++++++%&&&::====::=:::====&&&&&&&&&&&&&&&&::=:::&&&&&:&&&+++++++++++++OO++++++OOOOOOOOOOOOOOOOOOOOOOOOOOOOOOOOOOOOOOOOOOOOOOOOOOOOOOOOOOOOOOOOOOO.........OO......................OO++++OOOOOOOOOOO+%&&&%+OOOOOOOOOOOOOOOOOOOOOOOOOOOOOOOOOO+++OOO+OOOOOOOOOOOOOOOOOOOOO+%%&%%OOOOOOO+%%&%++OOOOOOOOOOOO++%%++OOOOOOOOOOOOOOOOOOOOOOOOOOOOOOOOOOOOOOOOOOOOOOOOOOOOOOOOOOOOOO+%%%%++OOOOOO+%%%%%+O+OOO++%%%%%++OOOOOOOO+%%&%%OOOOOOOOOO%%&%+OOOOOOOOOOOOOOOOOOOOOOOOOOOOOOOOOOOOOOOOOOOOOOOOOOOOOOOOOOOOOOOOOOOOOOOO..............OOOOOOOOOOOOOOOOOOOOOOO...OOO...OOO....OOO.....................................OO+OO...OOO++%%%%%%%+++OOOOO+++++&&&&&&&&++++++++O++++%%%%%%++%@%&&%%&&&&&&&&&&&%%%%%%%%%%&&&&&&&:&&::::::&&&&===*&&@@@+++++++++##XX+++XXX++XXXXXXOXXXXXX#XXXXXX.X..XX....XX.X..XX.ooooooo..oooooXoXoXXXXXX#@@@@$@@@####@@$$$$$$$$$****=;;;;====**$@@@######XXXXXXXXXXXXXXXXoooooooooooo..   ooo                          ooooX#@@$$**$@@@##XXXX..XX..XXXX..XXXXOO",
"@@+@XX..............XXX#@@@@@&$$$$$$$$@@@@###X#############+XXXXXXX.....                                        ...                 ..XXX####XXXXoo.......X#@@@@@@$$$@@@XXXX..X.XXXXXX##@@###X#@@@@@@#XXXX##@@@@@@@@$$$****************$@@@#XXXXooXXXX....XXXXXXXXXXXXXXXXXXXXXX+#####@@@@@@##XXX.....XXXX.XXXXXXXXXXXXXXXX.XXXXOOXXXX++XXXX++++++++%&&&::====::=::::===::::==========::=:==::&&&&:&&&&++++++++++++OOOOO+++++O++++OOOOOOOOOOOOOOOOOOOOOOOOOOOOOOOOOOOOOOOOOOOOOOOOOOOOOOOOO.OOO.........OO......................OO++++OOOOOOOOOOO+%%&%%+OOOOOOOOOOOOOOOOOOO+++++++++++++++++++++%%++++++OOOOOOOOOOOOOO+%%&%%OOOOOO++%%&%++OOOOOOOOOOOO++%%%+OOOOOOOOOOOOOOOOOOOOOOOOOOOOOOOOOOOOOOOOOOOOOOOOOOOOOOOOOOOOOO+%%%%++OOOOOO+%%%%%+O+OOO++%%%%%++OOOOOOOO+%%&%%OOOOOOOOOO%%&%+OOOOOOOOOOOOOOOOOOOOOOOOOOOOOOOOOOOOOOOOOOOOOOOOOOOOOOOOOOOOOOOOOOOOOOOOOOO.....OOO..OOOOOOOOOOOOOOOO.OOOOO.O...OOO..OOOOO..O........................................OO+OO...OOO+++%%%&%+++++OOOO+++++&&=&&&&%+++++++++++++%%%%%%%%&&&&&&&&::::&&&&&&&&&&&&&&&&&&&&&:::&&:::::&&&&&===*&%+@@+++++++++#X##+++XXXX+XXXXXXOXX..XXXXXXXX...o.Xo...XXXXXXo.XX.oooooo...o.oXXXXooXXXXX#@@@@@@@@@###@@$$$$$$$$$****=;;;;====**$@@@######XXXXXXXXXXXXXXXXoooooooooooo..   oooo                           ooX#@@$$**$@@@##XXXX.XXX..XXXX..XXXOOO",
"@@@++XX.............XX#@@@@@&&$$****$$@@@@@@#################XXXXXX.X...                                         o                ....XXX####XXXXoo.....XXX#@@@@@$$$$@@@#XXX..XXo.XXXX#@@@#XXX#@@@@@@##XXXX##@@@@@@@@@$$$***************@@@#XXX.XX..X.XXXX.XXXX.XXXXXXXXXXXXXXXX#+####@@@@@@##XXXX....XXXXXXXXX.XXXXXXXXXXX..XXXOOOXX+++++++++++++++%&&&::::::::==::::::::::;;:;::==::===:::::&&&&::&&&+++++++++++++O+++++OOOOOOOOOOOOOOOOOOOOOOOOOOOOOOOOOOOOOOOOOOOOOOOOOOOOOOOOOOOOOO.O..OOOO........O.......................OO++++OOOOOOOOOOO+%%&%%+OOOOOOOOOOOOOOOOO+%%%&%&&&&&&&&&&&&&&&&&&&&&%%%%+OOOOOOOOOOOOO+%%%%%OOOOOO++%%%%++OOOOOOOOOOOO++%%%+OOOOOOOOOO.OOOOOOOOOOOOOOOOOOOOOOOOOOOOOOOOOOOOOOOOOOOOOOOOOOO+%%%%++OOOOOO++%%%%+OOOO+++%%%%%++OOOOOOOO+%%&%%OOOOOOOOOO%%&%+OOOOOOOOOOOOOOOOOOOOOOO.OOOOOOOOOOOOOOOOOOOOOOOOOOOOOOOOOOOOOOOOOOOOOOOOOOOOOOOOOOOOOOOOOO.O...OO....O..O......OOOO....OOO...........................................O++OO...OOO+++%%%&%+++++OOOO++++&&====&&+++++++++++++++%%%&&&&&===;;;;;;;:::::::::::::::::::::::::::::::&&&&&&&&&&&%+++++++++++++##+X+XXXXXXXXXXXXOOXXXXXXXXXXXXXXXXXXXXXXXXXXXXXXXXXXXXXXXooooooooooXXXXXX#@@@@@@@@@###@@$$$$$$$$*****=;;;;====**$@@@######XXXXXXXXXXXXXXXXXooooooooooo.. .oooo o  oo                      ooXX@@$$**$@@@##XXXX.XXX.....X..XXXXOO",
"@@+@+XX.....  .....XXX#@@@@$&$$*****$$@@@@@@#################XXXXXXXX...                                                          ....XX#####XXX..oo....XXX#@@@@@$$$$@@@#XXX.XXXo.XXXX##@##XXXX#@@@@@#XXXXXX##@@@@@@@@$$$$**************@@@#XXXX......XX.XXXXXX.XXXXXXXXXXXXXXXX######@@@@@@#XXXXXX.XXXXXXXXXXX.XXXXXXXXXXX...XXOOXXXX++++++++++++++%&&&:::::::::=::::::=::::::::::::::=:::==:&&&&&:&&&+++++O++++++O++++++++OOOOOOOOOOOOOOOOOOOOOOOOOOOOOOOOOOOOOOOOOOOOOOOOOOOOOOOOOOOO................................O.......OO++++OOOOOOOOOOO+%%&%%+OOOOOOOOOOOOOOOO+%&&%%%%%%%%%%%%%%%%%%%%%%%%%%%%++OOOOOOOOOOOO+%%%%%OOOOOO++%%%%++OOOOOOOOOOOO++%%%+OOOOOOOO....OOOO....OOOOOOOOOOOOOOOOOOOOOOOOOOOOOOOOOOOOOOOOOO+%%%%++OOOOOO++%%%%+OOOO+++%%&%%+OOOOOOOOO+%%&%%OOOOOOOOOO%%%%+OOOOOOOOOOOOOOOOOOOOOOO.OOOOOOOOOOOOOOOOOOOOOOOOOOOOOOOOOOOOOOOOOOOOOOOOOOOOOOOOOOOOOOOOOOOO...........................OO....O.................................O....OO++OO...OOO++%+%%%&%++++OOOO++++&&====&@++++++OOOO+++++%%%&&&===;;;;;;::::::::::::::::::::&&&&&&&&&&&&&&&&&&&&&&&&&%++++++++++++#XXXXXXXXXOOXXXXXXOOOXXXXXXXXXXXXXXXXXXXXXXXXXXXXXXXXXXXXXXXoooooooooXXXXXX#@@@@@@@@@###@@$$$$$$$$$****=;;;;====**$@@@######XXXXXXXXXXXXXXXXoooooooooooooo ooooo  . oooo                    ooXX@@$$$$$@@@##XXXX.XXX.....X..XXXXOO",
"@@@@++X.....  ...oXX++@@@@$$********$$@@@@@@################XXXXXXXXX...                                                           ...XX#####XXX.........XXX@@@@@$$$$@@@#XXXX.XX..XXXX##@#XXXXX#@@@@@##XXXX####@@@@@@@@$$$***************@@#XXXXoo.o...XXooXXX..XXXXXXXXXXXXXXXX######@@@@@@##+XXX.XXXX.XXXXXXXXXXXXXXXXXXXX.XXXXXXXXXXX+X++X+++++++%&&&===:::::::::::::::::::::::==::::::::=&&&&&::&&&+++++++++++OO+++++++++++OOOOOOOOOOOOOOOOOOOOOOOOOOOOOOOOOOOOOOOOOOOOOOOOOOOOOOOOO..OO............................O....OOOOO++++OOOOOOOOOO++%%&%%+OOOOOOOOOOOOOOOO%%&%%%++OOOOOOOOOOOOO+++OOOO++%%%++OOOOOOOOOOO+%%%%%+OOOOOO+%%%%++OOOOOOOOOOOO++%%%+OO.OOOO....OOOOOOOOO.OOO.OOOOOOOOOOOOOOOOOOO.OOOOOO.OOOOOOOOOO+%%%%+OOOOOOO++%%%%+OOOOOO+%%&%%+OOOOOOOOO+%%%%%OOOOOOOOO+%%%%+OOOOOOOOOOOOOOOOOOOOOOOOOOOOOOOOOOOOOOOOOOOOOOOOOOOOOOOOOOOOOOOOOOOOOOOOOOOOOOOOOOOOOOOOOOOO....................................OO.....................OOOOOOOOOO....O++OO...OOO++%+%%%&++++OOOO++++%&&&&=&&+++++++OOOO++++++%%&&:===;;=;;==&&&&&&&&&&&&&&&&&&&&&&&&&&&&&&&&&&&&&%%%%&&&&%@@++++++++++++++++++XXXXXOXXXXXO+++@@+++X+++++@@@@+####XXXXXXXXXXXXXXXXXXXXXXXXXXXXXXX#@@@@@@@@@###@@$$$$$$$$$****=-;;;====**$@@@#######XXXXXXXXXXXXXXXooooXXoooooooo oooo   . ooo                     ooXX@@$$$$$$@@#XXXXX.XXX.....X..OOXOOO",
"$@@+++......  ..ooXX++@@@$$*********$$@@@@@@################XXXXXXXXXX..                                                           ...XXXX###XXX........XXXX@@@@@@$$$@@@#XXX.XXXXXXXXX##@#XXXXX#@@@@@#XXXX####@@@@@@@@@@$$***************@@#XXX.XX....XX..ooXX..XXXXXXXXXXXXXXXXX#####@@@@@@##XXXX..XXXXXXXXXXXXXXXXXXXXXXXXXXXXXXXXXXXXXXX+XX++++++%&&&==::::::::::::::::::::::::==::::::::&&&&&&&:&&&+++++++++++OO+O++OOO++++OOOOOOOOOOOOOOOOOOOOOOOOOOOOOOOOOOOOOOO..OOOOOOOOOOOOOOOO......................................OOOO++++OOOOOOOOOO++%%&%%+OOOOOOOOOOOOOOOO%%&%%%+OOOOOOOOOOOOOOOOOOOOO++%%%%+OOOOOOOOOOO+%%&%%+OOOOOO+%%%%++OOOOOOOOOOOO++%%%+OO.OOOO...OOO.OO.OOO........OOOOOOOOO...OOOO....OO...OOOOOOOOO+%%%%+OOOOOOOO+%%%%+OOOOO++%%&%%+OOOOOOOOO+%%&%%OOOOOOOOO+%%%%+OOOOOOOOOOOOOOOOOOOOOOOOOOOOOOOOOOOOOOOOOOOOOOOOOOOOOOOOOOOOOOOOOOOOOOOOOOOOOOOOOOOOOOOOOOOOOOOOOOOO.OOO...OOOO......OOOO..........OO............OOOOOOOOOOOOOOOOO...O+++O...OOO+++%%%%&++++OOOO++++&&&&&&&@++++++++OOO++++++%%&&&====:====&&&&&&&&&&&&&&&&&&&&&&&&&&&&&&&&&&&&&&%%+++%&&&@@++++++++++++X+X++XXXXXXOXXXXX++@@@@@@+++++@@@@@@@@@@##XXXXXXXXXXXXXXXXXXXXXXXXXXXXX##@@@@@@@@@###@@$$$$$$$$$****=-;;;====**$@@@#######XXXXXXXXXXXXXXXooooXXoooooooo ooooo    ooo                    oooXX@@$$$$$$@@##XXXX.XXX........OOXXOO",
"$@@@+X.............O++@@@$**********$$@@@@@@+######@@#######XXXXXXXX....                                                           ...XXXX###XXXXo......XXXX@@@@@@$$@@@@XXXXX.XXXXXXX##@@@#XXXX#@@@@@##XXX##@@@@@@@@@@@$$$***************@@#XXXXXXXXoXXX..ooXX..XXXXXXXXXXXXXXXXX#####@@@@@@##XXXXX..XXXX.XXXXXXXXXXXXXXXXX.XXXXXXOX++XXXXX+X+++++++%&&&==::::::::::::&&&&&&&&&&:::=&&::&&&&&&&+&&&&&&&+++++O++++OOOOOOOOOO++++OOOOOOOOOOOOOO.OOOOOOOO......OOOOOOO.....OOO...OOOOOOOOOO.................O................O..OOOOO++++OOOOOOOOOO++%%&&%+OOOOOOOOO.OOOOOO%%&%%+OOOOOOOOOOOOOOOOOOOOOOO+%%%%+OOOOOOOOOOO+%%&%%OOOOOOO+%%&%++OOOOOOOOOOOO++%%+OOO.OOOO...O.......OO....OO....OOOO..O...OOOO.....OOO..OOOOOOOO+%%%%+OOOOOOOO%%%%%+OOOOOO+%%%%%+OOOOOOOOO+%%%%%OOOOOOOOO+%%%%+OOOOOOOOOOOOOOOOOOOOOOOOOOOOOOOOOOOOOOOOOOOOOOOOOOOOOOOOOOOOOOOOOOOOOOOOOOOOOOOOOOOOOOOOOOOOOOOOOOOOOOOOOOOOOOOOOOOOOOOOO......OOOOOOOO.OO....OOOOOOOOOOOOOOOOOOOO..OO+++O...OOO+++%%%%%++++OOOO++++&&&==&&++++++OOOOOO+++++++%&&&:=======&&&&&&&&&&&&&&&&&&&&&&&&&&&&&&&=&&&&&&&%+++++++@@@++++++#+++++++XXXOXXXOOOXXXX++@@@@+@@@###+@@@@@@@@@XXXXXXXXXXXXXXXXXX.XXXXXXXXXXXXXX#@@@@@@@@@##@@@$$$$$$$$$****=;;;;==*=**$@@@#######XXXXXXXXXXXXXXXXooXXXoooooooooooooooo  o                       ooX#@@$$$$$$@@##XXXX.X......XXXXXXXXOX",
"$@@@++.............O++@@$$**********$$$@@@@@@#++####@#######XXXXXXXX....                                                           ...XXXX###XXXX.......XXXX@@@@@@@@$@@@XXXXXXXXXXXXX#@@@@XXXXX#@@@@@###XX###@@#@@@@@@@$$$***************@@#XXXXXXoX.XXo....XX..XXXXXXXXXXXXXXXXX#####@@@@@@##XXXXX...XX..XXX...XXXXXXXXXXXXXXXXXXXOOOXXXXXX+XX+++++%&&&&&:::::::::::&&&&&&&&&&&&&&&&&&&&&&&&%+++&&&&&%+++++O+++OOOOOOOOOOOO++OOOOOOOOOOOOOO..OOOO............OO........OO..............................OO..............OOOO.OOOOO++++OOOOOOOOOO++%%&&%+OOOOOOOOO.OOOOOO%%&%%+OOOOOOOOOOOOOOOOOOOOOOO+%%%%+OOOOOOOOOOO+%%&%%OOOOOOO+%%%%++OOOOOOOOOOOO++%%+OOOOO.O.....O......OO..OOO...........O....OOO......OO...OOOOOOO+%%%%+OOOOOOOO%%%%%+OOOOOO+%%%%%+OOOOOOOOO+%%&%%OOOOOOOOO+%%&%+OOOOOOOOOOOOOOOOOOOOOOOOOOOOOOOOOOOOOOOOOOOOO++OOOOOOOOOOOOOOOOOOOOOOOOOOOOOOOOOOOOOOOOOOOOOOOOOOOOOOOOOOOOOOOOOOOOOOOOOO.....OOOOOOOOOOOOO..OOOOOOOOOO......OOOOOO.OO+++O...OOO++%%%%&%++++OOOO+++&&&&==&&++++++OOOOOO+++++++%&&&:=======&&&&&&&&&&&&&&&&&&&&&&&&&&&&&&&&&&&&&&%++++++++++++++++++++++++XXXXXOXXOOOXXXX+++++@+#@@@@@++####+##XXXXXXXXXXXXXXXX...o.XXXoXXoXXXXXXX@@@@@@@@@###@@$$$$$$$$$****=;;;;==*=**$@@@#######XXXXXXXXXXXXXXXXXoXXXoooooooooooooooo                          ooX#@@$$$$$@@@##XXXX.......XXXXXXXXXOO",
"$@@@+XX...  ......OX##@@@$$**********$$@@@@@@################XXXXXXXXXo.                                                           ....XXX##XXXXo.........XX#@@@@@@$$@@@+++XXXXXXXXXX##@@#XXXXX#@@@@@#XXXXXX##@#####@@@@$$***************@@#XXXXXXX...ooXXXX..XXXXXXXXXXXXXXXXXXX#####@@@@@@@##XXXXXX..X..XXXXXXX..XXXXXXXXXXXXXXXO+XXX+++++++++++++%%&&&::::::::&:&&&&&&&&&&&&&&&&&&&&&&&&&&+++++%&&&%+++++OOOOOOOOOOOOOOOO++OOOOOOOOOO.OO.OOOO....O..........O.OOO............OO...................................O..OOOO.OOOOO++++OOOOOOOOOO++%%&%%+OOOOOOOOOOOOOOOO%&&%++OOOOOOO....O..O.OOOOOOO+%%%%+OOOOOOOOOOO++%&%+OOOOOOO+%%&%++OOOOOOOOOOOO++%%%+OO.OO......OO........OOOO.......OOOO........OO.........OOOOOOO+%%%++OOOOOOOO+%%%%+OOOOOO+%%&%%+OOOOOOOOO+%%&%+OOOOOOOOO+%%%%%%%%%%%%++%%%%+++++++++O++++++%%%%%%%%%%%%%%%%%%%%%%%%%%%%%%%%%%%%%%%%%%%%%%%%%%%%%%%%++%%%%%+++++++%++%+++++++++++++++++++++++OOOOOOOOOOOOOOOOOOOOOOOO........OOOO...OO++OO...OO+%%%%%%&+++++OO++++&&====&@+++++OOOOOOOOOO+++++&&===:::==&&&&&&&&&%&&&%%%%%++++%%++++++++++++++++++++++OOOOOOO++OX++XXX+XXXXXXXXXXXXXXX++@@@@@@@&$$@@@@@@@##+++@+#+XXX.XXXXXXXXXXoooXXXoXXXXXXXXX#@@@@@@@###@@@@$$$$$$$$****=-;;;====**$@@@######XXXXXXXXXXXXXXXXXXXXoooooooooooo  oooo  oo                      ooXX@@$$*$$@@@#XXX.X....X.....X.X..OXX",
"$@@@+X...... .....OX##@@@$***********$$@@@@@@@###############XXXXXXXXXo.                                                           ....XXX##XXXXoo........XX#@@@@@@@$@@@@@@@#+###X#####@##XXXXX#@@@@@#XXXXXX##########@@@@@@$$$**********@@@XXXX.XX...XXXXXX..XXXXXXXXXXXXXXXXXX######@@@@@@@##XXXXXX.XX..XXXXXXXXXXXXXXXXXXXXXXXXOOXXXO++++++++++++%&&&&::::::&&&&&&&%&&&&&&&&&&&&&&&&&&&&%++++++%&&%++++OOOOOOOOOOOOOOOOOO+OOOOOOOOOOO......OO.......................................................................OOOO...OOOO++++OOOOOOOOOO++%%&%%+OOOOOOOOOOOOOOOO%&&%++OOOOOO....OO....OOOOOOO+%%%%+OOOOOOOOOOO++%&%+OOOOOOO+%%&%++OOOOOOOOOOOO++%%%+OO.O........O........OOOOO......OO..........O......O...OOOOOOO+%%%++OOOOOOOO+%%%%+OOOOOO+%%&%%+OOOOOOOOO+%%&%+OOOOOOOOO+%%%%%%%%%%%%%&%&%%%%%%%%%%%++++%%&&&&&&&&&&&&&&&&&&&&&&&&&&&&&&&&&&&&&&&&&&&&&&%%%&&&&&&&&%%&%%%%%%%%%%%%%%%%%%%%%%%%%%%%%%%%%%+%++++++++++++++++++OOOOOOOOO.......OOOO..OOO++O....OO+%%%%%%&+++++OO++++&&&===&+++++OOOOOOOOOOO+++++@&&===::==&&&&%%%%%%%++++++++++++++++++++++++++++OOO++OOOOOOOO.XO..OXXXXXXXXXXXXXX...XXXX++@@$&&&&&$$@@@@@@@@@@@@@@@#+XXXXXXXXXXXXXoXXXXXXXXXXXXXX##@@@@@@####@@@$$$$$$$$****==;;;====**$@@@######XXXXXXXXXXXXXXXXXXXXooXoooooooooo  ooo  oo                      ooXX@@$$$$$@@@#XXXXo..X.X.....XX...OXO",
"$@@@+X....  ......XX#@@@$$&***********$@@@@@@@@###############XXXXXXX...                                                          .....XXXX#XXXXoo........XX##@@@@@@@@@@@@@@@@@@@@@@@@@@@#XXXXX#@@@@@#XXXXXX##############@@@@@@**********@@##XXXXX...XXXXXX..XXXXXXXXXXXXXXXXXX##@###@@@@@@@@##XXXXXX.....X....XXXXXXXXXXXXXXXXXXXOXXXOXXX+++++++++%%&&&&&&&&&&&&&%%%%%%%%%%%%%&&&&&&&&&%+++++++++%%%++++OOOO++++OOOOOOOOOOOOOOOOOOOOOOOO.O.........................................................................OOOOO....OOOO++++OOOOOOOOOOO+%%&%%+OOOOOOOOOOOOOOOO%&&%++OOOOOO....OOO.OOOOOOOOO+%%%%OOOOOOOOOOOO++%&%%OOOOOO++%%%%++OOOOOOOOOOOO++%%%+OOOOO.................OOOOOOOOOOOOOOOOO.OO.O..........OOOOOOOO+%%%++OOOOOOOO+%%%%+OOOOOO+%%%%%+OOOOOOOOO+%%%%+OOOOOOOOOO%%%%&&&&&&&&&&&&&&%%%%%%&&%%%%%&&&::&&&::::&&:&&&&:&&::&::&&&&&:&&&&&&&&&&&&&&&&&&&&&&&&&&&&&&&&&&&&&&&&&&&&&&&&&&&&&&&%%%%%&&&%%%%%%%%%%%%%%%%%%%%%+++++OOO.......OOOO...OO+OO....OO+%%++%%&+++++OO+++%&&&&&&&+++++OXOOOOOOOOOO++++@&&========&&&&&%%&%%%%+%%%%++++++++++++++++++++++++++++++OOOOOOO......................XX+++@$$&***$$$@@@@@#+@@&**&@@@#+XXXXXXXXXXXXXXXXXXXXX##XXXX#@@@@@@####@@@$$$$$$$$****==;;;====**$@@@######XXXXXXXXXXXXXXXXXXXXooXXooooooooo    o                          ooX#@@$$*$$@@@#XXXoXXoXXX....XXXXX.OOO",
"$@@@+XX.... ......XX#@@@$$&***********$@@@@@@@@######@########XXXXXXXX..                                oo...                     ....XXXXXXXXXXoo....oo..XX##@@@@@@@$$$@@@@@@@@@@@@@@@@@#XXXXX#@@@@@#XXX####@@@######@@@@@@@@@@**********@@@#XXXXX..XXXoX...XXXXXXXXXXXXXXXXXXX##@###@@@@@@@@#XXXXXX......X....XXXXXXXXXXXXXXXXXXXXXXXXXXXX+++X++++%%%&&&&%%%%%%%%%%%%%%%%%%%%%%&&&&%%%+++++++++++%%%+++OOOOO++++++OOOOOOOOOOOOOOOOOOOOO.OO........................................................................OOOOOO....OOOO++++OOOOOOOOOOO+%%&%%+OOOOOOOOOOOOOOOO%&&%++OOOOOOO..OOOOOOOOOOOOOO+%%%%OOOOOOOOOOOO++%&%%OOOOOOOO+%%%++OOOOOOOOOOOO++%%%+OOOOO................OOOOOOOOOOOOOOOOOO.OOOO.....O....OOOOOOOO%%%%+OOOOOOOOO+%%%%+OOOOOO+%%%%%+OOOOOOOOO+%%%%%OOOOOOOOOO+%%%%%%%%%%%%%&&&%%%%%%%%%%%%%%%%%%%%&&&&&&&&&&&%%&&&&%%%%&&&&&%%%%%%%%%%%%%%%%%%%%%%%%%%%%%%%%%%%%%%%%%%%%%%%%%%%%%%%%%%%%%%%%%%%%%%%%%%%%%%%%%%%%%+++++OOO.......OOOO...OO+OO...OOO+%%++%%&++++OOO+++&&=&&&&%+++++OOOOOOOOOOOOOO+++@&&====;==&@&&&%%%%%%%%%%%&%%%+%%%%%%%%+++++++++++++++++++++++++OOOOX..................OX++@@$&**$$@@@@@@@+++@&***$@@@+XXXXXXXXXXXXXXXXXXX######X###@@@@@####@@@$$$$$$$$****=;;;;====**$@@@######XXXXXXXXXXXXXXXXXXXXooXoooooooooo      o                        ooX#@@$$*$$@@@#XXXXX.oXXX.X..XXX....OO",
"@@@@XXX...   ...X.XX++@@$&************$@@@@@@@@#@@############XXXXX.....                                o....                     ....XXXXXXXXXXXXX.ooXXXXXX####@@@@@@@@@@@@@@@@@@@@@@@@@#XXXXX#@@@@@######@@@@@@@@@@@@@@@@@@@@$**********@@@#XXooo.XoXXooooXXXXXXXXXXXXXXXXXXXX######@@@@@@@@@#XXXXX..X.....XXXXXXXXXXX.XXXXXXXXXXXXXOXXX++++XX++++%%&&&&&%&&&&&&%%&&&%%%%&&&&&&&&&%%%%+++++++++++%%%++OOOOOO++O+++OOOOOOOOOOOOOOOOOOOOOO....O.OO..........................................................O...O..O..OOO.....OOOO++++OOOOOOOOOOO+%%&&%+OOOOOOOOOOOOOOOO%&&%+OOOOOO.OOOO..OOO...OOOOO+%%%%OOOOOOOOOOOO+%%%%%OOOOOOOO%%%%++OOOOOOOOOOOOO+%%%+OOOOOO....OO......O...OOOOOOOO++++OOOOOOO............OOOOOOOOO%%%%+OOOOOOOOO+%%%%+OOOOOO+%%%%%+OOOOOOOOO+%%%%+OOOOOOOOOO++++++++++++%%%&&%%+++++++++++++++++%%%%%%%%++++++++++++++++++++++++++++++++++++++++++++++++++++++++++++++++++++++++++++++++++++++++O++++++++OOOOO+OOOOOOOO........OOOO...OO+OO.OOOOO++%+%%&+++++OOO+++&&&&&&&@++++XOXOOOOOOOOOOOO++++@&&======&@@%%%%%%%%%%%%%%%%%%%%%%%%%%%%%%%%%%+++++++++++++++++++O+OXX...............X+++@@$&***&$@@@@@&@@++@&**$&@@@##XXXXXXXXXXXXXXX##@@@@@@@@##@@@@@@@###@@@$$$$$$$$****=;;;;==***$$@@@######XXXXXXXXXXXXXXXXXXXXooooooooooooooo   oo  o                    oooX#@@$$$$$@@@#XXXXoXo.XX.X.XX....XXOO",
"@@@@XXX...    ..X.XX++@@$$************$$@@@@@@@##@@###########XXXXXX....                                .....                     .....XXXXXXXXXXXX.XXXXXXXXXX#X###@@@@@@@@@@@@##@@@######XXXXX#@@@@@######@@@@@@@@@@@@@@@@@@@@@$********@@@##XXX...XXoXoooo.XXXXXXXXXXXXXXXXXXXX#####@@@@@@@@@#XXXXXX.XXX..X.XXXXXXXXXX.OXOOOXXXXXXXOOOXX++++XX++++%%&&&&&&&&&&&&&&&&&&&&&&&&&&&&%%%%+++++++++O+++%%+++OOOOOO++OO++OOOOOOOOOOOOOOOOOOO.OO.OO.OOOO..........................................................O.OO..OO.OOO.....OOOOO++++OOOOOOOOOOO+%%&&%+OOOOOOOOOOOOOOOO%&&%+OOOOOO.OOOO..OOOO..OOOO++%%%%OOOOOOOOOOOO+%%%%%OOOOOOO+%%%%++OOOOOOOOOOOOO+%%++OOOOOO....OOOO....OO.OO+++++++%%%%++OOOO.O...O......OOOOOOOOOO%%%%+OOOOOOOOO+%%%%+OOOOOO++%%%%+OOOOOOOOO+%%%%+OOOOOOOOOOOOOOOOOOO+++++%%&%%++++++++++++++O++%%%%%%++++++++++++++++OOOO++++++++OO++O+OOOOOO++OOOOOOOOOOOOOOOOOOOOOOOOOOOOOOOOOOOOOOOOOOOOOOOOOOOOOOOOOOOOOOOOOOOOO..........OOOO...OO+OO..OOOO++%+%%%%++++OOO+++&&&&&&&@+++OOXOOOOOO.OOOOOOOX+++@&&=====&@@%%%%%%%%%%%%%%%%%%%%%%%%%%+++++%++++++++++++++++++++++++OX..............XXO++@@$&*&*&&@@@@@@@@@@@$$$@@@@##XXXXXXXXXXXXXXXX##@@@@@@@@##@@@@@@@###@@@$$$$$$$$****=;;;;===**$$@@@#######XXXXXXXXXXXXXXXXXXXooooooooooooooo   oo  o                    oooX#@@$$$$$@@@#XXXXo.o.XX.........XOOO",
"&@@@XX.....  ....XX++@@@$&************$$@@@@@#@##@@###########XXXXXX....                                o.oXoo                      .....XXXX.X...........XXXXXXXX++########XXXXXX##XXXXXXXXXXX#@@@@#XXX##################@@@@@@@@@@@@@@@@@@XXXXXXXXoo..........XXXXXXXXXXXXXXXXX#####@@@@@@@@@@#XXXXXXXXXX.XXXXXXXXXXXXXXOOOXXXXXXXXX++X+++XXXX++++%%%&&&&&&&&&&&&&&&&&&%&&&&%%%%%%%++++++OOOOO++%%%+++OOOOOO++O++++++++OOO++OOOOOOOOOOOOOOOOOOOOOO..........................................................O.......OO......OOOO++++OOOOOOOOOOO+%%&%%+OOOOOOOOOOOOOOOO%&&%+OOOOOO.OO....OOOO..OOOO++%%%%+OOOOOOOOOOO+%%%%+OOOOOOO+%%%%++OOOOOOOOOOOOO+%%++OOOOOO....OOOOOO...OOOOO++++++%%%&%+OOOO....OOOO....OOOOOOOOO+%%%%OOOOOOOOOO+%%%%+OOOOOO+%%%%%+OOOOOOOOO+%%%%+OOOOOOOOOOOOOOOOOOOOOOO+%&&%++OOOOOOOOOOOOOOO++%%%%+OOOOOOOOOOOOOOOOOOOOOOOOOOOOOOOOOOOOOOOOOOOOOOOOOOOOOOOOOOOOOOOOOOOOOOOOOOOOOOOOOO..OOOOOOOOOOO.....OOO............O....OOOOO...OO+OO.OOOOO+++%%%&++++OOOO+++&&====&+++++OXOOOOOOOOOXOOOOO+++++@&&==&&%%++%%%%%%%%%%%%%%%%%%%%%%%+%%+%%%%%%+++++++++++++++++++++OOXXX....X.....XXX++@@&&&&===*$@@@@@@@@@@@$@@@@####XXXX#XXXXXXXXXX#@@@@@@@@###@@@@@@@###@@$$$$$$$$$****=;;;;====**$@@@#########XXXXXXXXXXXXXXXXXXXXooooooooooooo  oo                        ooX#@@$$$$$@@@#XXX.o.o..X.........XXXO",
"&@@@+XX...........X+++@@$$************$$@@@@@@##@@@###########XXXXXX.....                               o.XXoo                       ............. .........XXXXXXXXXX###+@#########XXXXXXXXXXXX#@##XXXXXXXXXXXXXXXXX##########@@@@@@@@@@@##XXXXoooooo............XXXXXXXXXXXXXXX#####@@@@@@@@@@#XXXXXXXXXXXXXXXXXXXXXXXXXXXXXOOXXXXXX++XX++XXXX++++%%%%%%%%%%%%%%%%%%%%%%%%%%%%%%%%++++++OOOOO+++%%%+++OOOOOO++OO+++++++OOO++OOOOOOOOOOOO.OOOOOOOOO....OOOO..........................................................OOO.....OOOO++++OOOOOOOOOO++%%&%%+OOOOOOOOOOOOOOOO%&&%+OOOOOO.O.....OOOOOOOOOO++%%%%++OOOOOOOOOO+%%%%+OOOOOOO+%%%%++OOOOOOOOOOOO++%%++OOOOOO....OOOOOO..OOOOOOOOO+++%%%%%+OOOO....OOOOO...OOOOOOOOO+%%%+OOOOOOOOOO+%%%%+OOOOOO++%%%%+OOOOOOOOO+%%%%+OOOOOOOOOOOOOOOOOOOOOOO+%%&%++OOOOOOOOOOOOOOOO+%%%%+OOOOOOOOOOOOOOOOOOOOOOOOOOOOOOOOOOOOOOOOOOOOOOOOOOOOOOOOOOOOOOOOOOOOOOOOOOOOOOOOOO..OOOOOO...O........O.......OOOOOOOOO..OOOO...OO+OO.OOOOO++%+%%%++++OOOOO++&&===&&+++X+OOOOOXXOOXXXXOOOO++++++++@&&&%%++++%%%%%%%%%%%%%%%%++++++++++%+++++++++++++++++++++++++OO..XX..........XX++@&&&&&===&$$@@@#++++@@@@@@#+###XXXXXXXXXXXXXXX##@@@@@@@####@@@@@@###@@$$$$$$$$$****==;;;==****$@@@#####X###XXXXXXXXXXXXXXXXXXXXooooooooooooo  oo                        ooX#@@$$$$$$@@#XXX.o.oo.X...X..XXXXXXO",
"$@@@++OO..........XX@@@@$************$$@@@@@@#@@@@######@###XX#XXXXXX...                                ...o..                           .   .  .........ooo...o.XXXXX##+@@@@@@@@@@@##XXXXXXXXXX#@@##XXXXX####XXXXXXXX####@@@@@@@@@@@#####XXXXXXooooo..o...XXXoo.XXXXXXXXXXXXXXX#######@@@@@@@@@@#XX.XXXXXXXXXXXXXXXXXXXXXXXXXXXOOXXXX++++++XX++++++%%%%%%%%%%%%%%%%%%%%%%%%%+++++++++++++OOOO++%%%%++++OOOOOOO+++++OOOOOOOO++++OOOOOOOOOOOOOOOOOOOOOOOOOOOO................................................O.......OOOO....OOOOOO++++OOOOOOOOOO++%%&&%+OOOOOOOOOOOOOOOO%&&%++OOOOOO....OO...OO.OOOOO+%%%%O+OOOOOOOOOO++%%%+OOOOOOO+%%%%+OOOOOOOOOOOOO++%%+OOOOOOOO..........OOOOOOOOO+%%%%%%%%+OO...OOO.....O..OOOOOOOO+%%%++OOOOOOOOOO+%%%++OOOOOO++%%%%+OOOOOOOOO+%%%%+OOOOOOOOOOOOOOOOOOOOOOO+%%&%++OOOOOOOOOOOOOOOO+%%%%+OOOOOOOOOOOOO.OOO.........OOOOOOOOOOOOOOOOOOOOOOOOOOOO..OOOOOOOOOO....OOO.OOO..OOO....................OOOOOOOOOOOOOOOOOOOO+OOO..OO+OOO..OOO+%%+%%%+++++OO++++&&&==&@++++OOOOOOO.O....OOOOOO+++++++++++++++++%%%%%%%%%%%%%%%+%%%%%%+%%+++++++++++++++++++++++++++OXXXX...........XXX+&&&=======*@@@++##@@@@@@@@@@##XXXXXXXXXXXXXXXXX###########@@@@@@@##@@@@$$$$$$$$****==;;;==*=**$@@@######XXXXXXXXXXXXXXXXXXXoooooooooooooooooo ooo                       ooX#@@$$$$$@@##XXX.o.o.X.....XX.XX....",
"$@@@++............XX@@@@$$***********$$@@@@@##@@@@##########XXXXXXXXX...                                .o..o.                                 ..... .  ........XXXXXX##@@$$$$$$$@@@@#XXXXXXXXX#@@@@#XXXX#####XXXXXXXX##@@@@@@@@@@@@@@####XXXXXXoooo..XXX.X.XXoo..XXXXXXXXXXXXXX##@###@@@@@@$$@@@#XXXXXXXXXXXXXXXXXXXXXXXXXXXXXXXXXXXX+++++XXXX++#++%%%%%%%%%%%%%%%%++++++++++++++++++++OOO++++%&&%%++++OOOOOOO+OO+OOOOOOOOO++OOOOOOOOOOOOOOOOOOOOOOOOOOOOOOO...............................................O.......OOOO....OOOOOO++++OOOOOOOOOO++%%&&%+OOOOOOOOOOOOOOOO%&&%++OOOOOO....OOOO.OOOOOOOO+%%%%O+OOOOOOOOOOO+%%%+OOOOOOO+%%%%+OOOOOOOOOOOOO++%%+OOOOOOO.OOO...O..OOOOOOOOO++%%%%%%%+OOO...OOOOOOOOOOO..OOOOOO%%%%+OOOOOOOOOOO+%%%++OOOOOO+%%%%%+OOOOOOOOO+%%%%+OOOOOOOOOOOOOOOOOOOOOOO+%%&%++OOOOOOOOOOOOOOOO+%%%%+OOOOOOOOOOOOO.............O.O..OOO..OOOOOOOO....OOOOO...O.OOOOOOOO....OO....O..........................OOOOOOOOOOOO+OOOOOO+OO...OO+OO...OOO+%++%%%++++++O+++@&&&==&%++++OOOOOOOOOO...OO..XOO++++++++++++++++%%%%%%%%%%%%%%++++%%%%++++%+++++++++++++++++++++++++OOXXX...........XXX+@&&&=====&@@@+###@@@##@@###XXXXXXXXXXXXXXXXXXXXXXXXXXXXXXX##@@@@###@@@@$$$$$$$$****==;;;==*=**$@@@######XXXXXXXXXXXXXXXXXXoooooooooooooooooo  ooo   oo                  ooX#@@$$$$$@@##XXXXo.o....X.XX.XX..X..",
"@@@@#X............XX+@@@$$***********$$@@@@@####@@@#@@#######XXXXXXXXo..                                o.XXXoo                           .  .    ..    .........XXXXX##@@$$******$@@@#XXXXXXXX#@@@@@#####@@@##XXXXXX##@@@@@$*@@@@@@#@@###XXXXXXooo...XX...ooXoo..XXXXXXXXXXXXXX#@@###@@@@@$**@@@@#XXXXXXXXX.XXXXXXXXXXXXXXXXXXXXXXXXXX++XXXXX+++#++%%%%%%%%%%%%%%%%++OO+++++++++++++++++++++%%%&%%+++OOOOOOOOOOOOOOOOOOOOOO++++OOOOOOOO++++++++OOOOOOOOOOOOOO..............................................OO........OOOOOOOOOOOO++++OOOOOOOOOO++%%&%%+OOOOOOOOOOOOOOOO%&&%++OOOOOO..OOOOOOOOOOOOOOO+%%%%++OOOOOOOOOOO+%%%%OOOOOOO+%%&%++OOOOOOOOOOOO++%%+OOO.OO.OO....OO.OOOOOOOOOOO++%%&%%+OOO.....OOOOOOOOOOOOOOOOO+%%%%OOOOOOOOOOOO+%%%%+OOOOOO+%%%%%+OOOOOOOOO+%%%%+OOOOOOOOOOOOOOOOOOOOOOO+%%&%++OOOOOOOOOOOOOOOO+%%%%+OOOOOOO+++OOO...................................OOOO......OOO.OO......O..................................OOOOOOOOOOOOOOOOOOOO...OO+OO...OOO++++%%%++++OOOO++&&&&&=&%++XXOOOOO.OOOOXXOOOOOO++++++++++++++++++++%%%%%%++%%%%+++++++++++%%+++++++++++++++++++++++++OOX.X...........XXX+++@@@@&@@@@@@#+#@#++##XXXXXXXXXXXXXXXXXXXXXXXXXXXXXXXXXXXX#@@@@@@##@@@$$$$$$$$$****=-;;;==*=**$@@@######XX#XXXXXXXXXXXXXXXXXoooooooooooooooooo                          ooX#@@$$$$$@@@##XX.o.o............XXOX",
"@@@@#X............XX++@@$************$$@@@@@#@##@@@@@@#@#####XXXXXXXXo..                                ooXXXoo                           ...    .... ...........XXXXX##@@$********$@@#XXXXXXXX#@@@@@####@@@@@#XXXXXX##@@@$***$@@@@@@@@@##XXXXXXXo....XX...ooXXX..XXXXXXXXXXXXXX#@@@##@@@@@****@@@##XXXXXXXXXXXXXXXXXXXXXXXOXXXXXXXXXXX+XXXXXX++++++%%%%%%&&&&&&&&&&%%+++++++++++++++++++++%%%%%%%++++OOOOOOOOOOO+++OOOOOOOO++++++++++++++++%++++++++++++++OOOO.......................................................OOOOOOOOOOOO++++OOOOOOOOOO++%%&%%+OOOOOOOOOOOOOOOO%&&%++OOOOOOOOOOOOOOOOOOOOOOO+%%%%++OOOOOOOOOOO+%%%%OOOOOOO+%%&%++OOOOOOOOOOOO++%%+OOO.O..OOOO..OOOOOOOO+OOOO+++%%%%%+OO.....OOOOOOOOOOOOOOOOO++%%%+OOOOOOOOOOOO++%%%+OOOOOO+%%%%%+OOOOOOOOO++%%%+OOOOO.OOOOOOOOOOOOOOOOO+%&&%+OOOOOOOOOOOOOOOOO+%%%%+OOOOOO++%+OOO...................................OO......OOOOOOO..........................................................OOOO..OOO+OO...OOO++++%%%++++OOO+++&&&&&&&@+++XOOOOOOOOOO..OOOO++++++++@@+%%+++++++++%%%%++++%%%++++++++++++%%++++++++++++++++++++++++++O..X...........XXXXO++++@+++++#XX#+XXXXXXXXXXXXXXXXXXXXoXXXXoooooooXXXXXXXXXX#@@@@@@##@@@@$$$$$$$$****=-;;;==*=**$@@#######XX#XXXXXXXXXXXXXXXXXoooooooooooooooooo                         oooX#@@$$$$$@@@#XXX.o.o.......X....XXOX",
"@@@@#X...........XXX@@@@$$***********$$$@@@@@@@@@@@@@@@#@#####XXXXX.X...                                .oXXoo..                        ... .   ................XXXXXX##@@$********$@@##XXXXXXX#@@@@@###@@@@@@##XXXX##@@@$*****@@@@@@@@@@##XXXXXXX..XXXXXXXXooXXXXXXXXXXXXXXXXXX#@@@##@@@@@$***@@@##XXXXXXXXXXXXXXXXXXXXXXXXXXXXXXXXXXX+XXXXX++++++++%&&%&&&&&&&&&&&%%%%+%%%%%%%%%%%%%%%%%%%%%%%++++OOOO..OOOOOOO+++OOOOOOOO++++++++++++%%++++++++++++++OOOOOOO...........................................................OOOOOOOO+++OOOOOOOOOOO++%%&%%+OOOOOOOOOOOOOOO+%&&%++OOOOO...OO..OOO..OOOOO++%%%%O+OOOOOOOOOO++%%%%OOOOOOOO%%%%++OOOOOOOOOOOO++%%+OOO.O.OOO....OOOOOO+++++OOO+++++++OOOOOO.OOOOOOOOOOOOOOOOO+%%%%+OOOOOOOOOOOOO++%%%+OOOOOO+%%%%%+OOOOOOOOO++%%%+OOOOOOOOOOO...OOOOOOOOO+%&&%+OOOOOOOOOOOOOOOOO+%%%%+OOOOOO++%+OOO.........................................OOOOOOOO....O......................................................OOOO.O.OO+OO...OOO+%%%%+%+++OOOOO++@&&&==&@++OOOOOOXOOOOO.OOOOOOO+++++++++++OOOOO++++%%%%++%%%%++%%%%++++%%+%+++++++++++++++++++++++++++O..........X....XXXXX+####+XXXXXXXXXXXXXXXXXXXXXXXXXXooooXXooooXXoooXXXXXXXXX#@@@@@@##@@@$$$$$$$$$****=;;;;=*****$@@#######XXXXXXXXXXXXXXXXXXXXXXXXooooooooooo oo                         oooX#@@$$$$$@@@#XXX.o.o....X.....X..XXX",
"@@@@#XX.........XXXX+@@@$$$**********$$$@@@@@@@@#@@@@#@#@#####XXXXXXX...                                ..XXXo.                         .......................XXXXXXX##@@$*********@@#XXXXXXXX#@@@@@#X#@@@@@@##XXXX##@@@$*****@@@@@@@@@@@##XXXXXXXXXXXXXXXXXXXXXXXXXXXXXXXXXXXX#@@####@@@@$***$@@@#XXXXXXXXXXXXXXXXXXXXXXXXXXXXXXXXXXXXXXXXXX+++++++%%%%%%%%%%%%%%%%%%%%%%%%%%%%%%%%%%%%%%%%%%%++++OOOO..OOOOOOOO+OOOOOOOOO++++++++++++%++++++++O+++++OOOOOOOO.............................................O.............OOOOOOOO+++OOOOOOOOOOO++%%&%%+OOOOOOOOOOOOOOO+%&&%++OOOOO....O.OOO....OOOO++%%%%OOOOOOOOOOOO++%%%%OOOOOOO+%%%%++OOOOOOOOOOOO++%%+OOO.OOOO...OOOOOOOOOOOOOOOOOO+++OOOOOOOOOOOOOOOOOOOOOOOOOO+%%%+OOOOOOOOOOOOOO++%%%+OOOOOO++%%%%+OOOOOOOOO++%%%+OOOOOOOOOOOO.OOO..OOOOO+%&&%++OOOOOOOOOOOOOOOO+%%%%+OOOOOO+%%%OOO.......................................OOOO+++OOOO..........................................................OOOO...OOOOO...OOO+%%+%+%++++OOOO++@&&&&&&@++OOOOOOOOO....OOOOOO..XOOOOOOOOOOOOO++++++%%%++%%%%++%%%%++++%%+++++++++++++++++++++++++++++OO.........X...XXXXXX++@+++XXXXXXXXXXXXXXXXXXXXXXXXXXXoooooooooooooooooXXXXXX#@@@@@@##@@@$$$$$$$$*****=;;;;=*****$@@@######XXXXXXXXXXXXXXXXXXXXXXXXooooooooooo                            oooX#@@$$$$$@@@#XXX.o.o..........X.....",
"@@@@+XX.........XXXX@@@@$&$***********$$@@@@@@@@##@@@@##@@####XXXXXXX...                                .XXXXo..                     .  ......................XXXXXXXX##@@$*********@@##XXXXXX##@@@@@###@@@@@@@#XXXX##@@@$***$$@@@@@@@@@@@@####XXXXoXXXXXXXXXXXXXXXXXXXXXXXXXXXX##@####@@@@$***$@@@#XXXXXXXXXXXXXXXXXXXXXXXXXXOXXOXXXXX+++XXXXXX+++++%%%%%%%%%%%%%%%%%%%%%+%%%%%%%%%%++++++++++++OOOOO.....OOOOOOOOOOOOOOOOO++OOOOOOOO+++++OOOOOOOO+++++++OOOOO.....................................................OO......OOOOOO+++OOOOOOOOOOO++%%&%%+OOOOOOOOOOOOOOO+%&&%++OOOOO...OO..OOOO..OOOOO+%%%%OOOOOOOOOOOO++%%%+OOOOOOOO%%%%++OOOOOOOOOOOO++%%++OOOOOOOOOOOOOOOOOOOOOOOOOOOOOOOOOOOOOOOOOOOOOOOOOOOOOOO+%%%%++OOOOOOOOOOOOOO++%%%+OOOOOO++%%%%OOOOOOOOOO++%%%+OOOOOOOOOOOOOOOO..OOOOO+%&&%++OOOOOOOOOOOOOOOO+%%%%++OOOOO+%%%OOO..................................O...OOOOOOOOOOOOO.........................................................OOOO..OOO+OO...OOO+%%+%+%++++OXOO+++&&&==&@++XXOO..O.O.OOOOOOOOO.OXXOOOOO..X.XOOO+++++++%+%%%++++%+++++++++++++++++++++++++++++++++++++++OX....XX.........XXXXX#XXXXXXXXXXXXXXXX##XXXXXXXXXXXXXoXXXXXXXXXXXXXXXXXXXXX#@@@@@@#@@@@$$$$$$$$*****=;;;;=**=**$@@@#######XXXXXXXXXXXXXXXXXooXoXXoooooooooo o  oo    oo                 oooX#@@$$*$$@@@#XXXoo..o.XX.....XXX....",
"@@@@+X..........XXXX@@@@&$$***********$$@@@@@@@@##@@@@##@@####XXXXXXX...                               ..XXXXo.                    ...  ......................XXXXXXXX##@@$*********@@##XXXXXX##@@@@@###@@@$@@@######@@@@$**$$@@@@@@@@@@@@@@####XXXooXXXXXXXXXXXXXXXXXXXXXXXXXXX##@###@@$$$****$@@@#XXXXXXXXXXXXXXXXXXXXXXXXXXXXO+OXXXXXXXXXXXXX++++%%%%%%%%%%%%%%%%+++++++++++++++++++++++++++OOOOO.O.....OOOOOOOOOOOOOOOOOOOOOOOOOOO+O+++OOOOOOO+++++++++OOO.......................................O......O.......OOOO....OOOOOO+++OOOOOOOOOOO++%%&%%+OOOOOOOOOOOOOOO+%&&%++OOOOO...OO..OOOOOOOOOO++%%%%OOOOOOOOOOOO++%%%+OOOOOOOO%%%%++OOOOOOOOOOOO++%%%+OOOOOOOOOOOOOOOOOOOOOOOOOOOOOOOOOOOOOOOOOOO++++++++++++%%%++OOOOOOOOOOOOOOOO+%%%%+OOOOOO++%%%%OOOOOOOOOO++%%%+OOOOOOOOOOOOOOOOOOOOOOO+%&&%++O++++%%%++++OOOO+%%%%+OOOOOO+%%%OOO.....................................OOOOOOOO.O..................OOOO.......................................OOOO...OO+OO...OOO+%%+%+%++++OXOO+++&&&==&@+XXOOO..OOO.OOOOOOOO...X.XOOOOOOO.OOOO++++++++++%%++++%+++++++++++++++++++++++++++++++++++++++OX....XXX........X.XXXXXXXXXXXXXXXXXXXXXXXXXXXXXXXXXXXXXXXXX###XXXXXXXXXXXXX##@@@@###@@@$$$$$$$$*****=-;;;==*=**$@@@#######XXXXXXXXXXXXXXXXoooooooooooooooooo o oo    oo                 oooX#@@$$*$$@@@#XXXoo..o..X.....XXX....",
"@@@@XXX...........XX@@@$$&***********$$@@@@@@@#@##@@####@@####XXXXXX....                               .oXXXXoo..                 ....  ........................X#######@@$*********@@@XXXXXXX##@@@@@###@@$***$$$@$@$$$*********$$***$$$$$$$$$@@#XX###@@@@@@$$$$$$$$$$$$$$$$@@@@$$@@@@$$**$$*=**$@@@#XXXXXXXXXXXXXXXXXXXXXXXXXXXXXXXXOOXXXXXX+XXXX++%%%%%%%+++%%++++++++++++++++OOOOOOOOOOOOOOOOOO..........OOOO+++OOOOOOOOOOOOOOOOOOOOO++++OOOOOO+++++OOOOOOO..........O...............OO......OO..............OOOO..OOOOOOOOOOOOO++OOOOOOOOOOO++%%&%%%OOOOOOOOOOOOOO++%&&%+OOOOO..OOOO..OOOOOOOOOOO+%%%%OOOOOOOOOOOO++%%%+OOOOOOOO%%%%++OOOOOOOOOOOOO+%%%+OOO...OOOO..OOO+OOOOOOOOOOOOOOOOOOOOOOO++++++++++%%%%%%%++OOOOOOOOOOOOOOOOOO++%%++OOOOOO++%&%+OOOOOOOOOO++%%++OOO..........OOO.OOOOOO++&&++++++%&&&&&&&+++++++%%++XX++O+++++OOX...XXXoo.. ........................OOOOOO.......................OOOOO...OOO................................OOOOO...OO+O....OOO+%++%+%++++OOOOO++&&&=&&+XXXXXOOOOOOOOOOO......OOOO......XXX.OO++++++++%%++%%+++++++++++++++++++++++++++++++++++++++++OOXXXXXX....XXX..XXX.X.XXXXXXXXXXXXXXXX######XXXXXXXXXXXXXX##@@@@#XXXXXXXXXXX#@@@@@###@@@$$$$$$$$$****=;;;;=*****$@@#####XX###XXXXXXXXXXXXXXXXXooooooooooooooo                            oooX#@@$$$$$@@##XXX.o..oo.....X..XX...O",
"@@@@XX..........X.XX+@@$$$***********$$$@@@@@@#@##@@###@@@####XXXXXX.... .                             .oXXXXXo. .                 ...  ........................XX######@@$*********@@#XXXXXXX##@@@@@###@@**$$@$$@$$$**************************$#X#@$*******===*=******=======**===**===****===*$@@@#XXXXXXXXXXXXXXXXXXXXXXXXXXOXOXXXXXXXXXX++XXXX+++%%%%++++++++++++OOOOOOOOOOOOOOOOOOOOOOOO.O.O...........OOOOOOOOOOOOOOOOOOOOOOOOOO++++++OOOOOO++++OOOOOOOO..................................OO......O.......OOO...OOOOOOOOOOOOO+++OOOOOOOOOO++%%&%%%OOOOOOOOOOOOOO++%&&%+OOOOO..OOOO..OOOO.OOOOOO+%%%%OOOOOOOOOOOO++%%%+OOOOOOOO%%%%++OOOOOOOOOOOOO+%%%+OOO.....OO..OOO++OOOOOOOOOOOOOOOOOOOOOOOOOOOO+++++++++++++OOOOOOOOOOOOO++O++%%&&%+++++++++&&&%+++++++++++%%&%+++++++++++++++++OOOOO+++%&&%++++%&&&&&&&&&++++%&&&&++@++@+@&&@@@@@+@@@##@@XX.........................OOOO........................OOOOO..OOOOO...........OOOOO....OOOOOOOOO.OOOOOO....OOO....OOO+%++%+%++++OOOOO++&&&=&&++OXXOOO.....OO..O...................OO++++++++%++++%%++++++++++++++++++++++++++++++++++++++++OO.X..X.X....XXXX..XXXXXXXXXXXXXXXXXXXXXXXXXXXXXXXXXXXXXXXXX##@@#XXXXXXXXXXXX#@@@@@##@@@@@$$$$$$$*****=-;;;=*****$@@#####X####XXXXXXXXXXXXXXXXXoooooooooooooooo o                         oooX#@@$$$$$@@##XXX.o..oo........XX...O",
"@@@@XXX........o.XXX@@@$$************$$$@@@@@@#@@@@@######@####XXXXXX...                                .XXXXXo...                  ............................XX##+###@@$*********@@#XXXXXXX##@@@@@###@@$@@@@@@@@@@$********************==***$@#@$*=****==***********=**************=**=**===*$$@@#XXXXXXXXXXXXXXXXXXXXXXXXXXXXXXXXXXXXXX+++++XX+++++++++OO+++++++OOOOOOOOOOOOOOOOOO......................OOOOOOOOOOOOOOOO+++OOOOOOO++++++OOOOOO++OOOOOOOOOOO.O.......................................O...............OOOOOOOOOOO+++OOOOOOOOOO++%%&%%%OOOOOOOOOOO+++++%&&%+OOOOO...O...OOOO...OOOOO+%%%%OOOOOOOOOOOOO+%%%+OOOOOOOO+%%%++OOOOOOOOOOOOO+%%++OOOO......O.OOO++OOOOO+++++++++++OO+OOOOOOOOOOOOOOOO+OOOOOOOOOOOOOOOOOOOO++++%&&&&@@@@$$&*===***$*$$*******=***********$$$***$@#OO+@***==*************==******===*****=====**********===@X..........................OOOO......O.....O..........O++OO..OO++OO........OOO+++++++++++++++++OOOOOOO....OOOO...OOO++++%%%++++OOOOO++&&&&&&++OOOOO..OOOOO.......................O+++++++++%%++++++++++++++++++++++++++++++++++++++++++++++O...........XXXXXXXXXXXXXXXXXXX###################XXXXXXXXXXXXXXXXXXXXXXXXX##@@@@@##@@@@@$$$$$$$*****=-;;-=*****$@@@#########XXXXXXXXXXXXXXXXooooooooooooooooooo     o                    ooX#@@$$$$$@@##XXX.o..oo.........X..XX",
"@@@@XXXX.........XX++@@@$$***********$$$@@@@@@#@@@@@##@#@@@##X+XXXXXX...                                XXXXXXo...                  .......................X...XXXX#+##@@@**********@@#XXXXXXX##@@@@@###@@@@@@@##X##@@$$*******$***********=***$##@$***********=*******=**************=*=======*$$@@##XXXXXXXXXXXXXXXXXXXXXXXXXXXXXXXXXXXXX+++++XX++++++++OOOOOO++++OOOOOOOOOOO.OOO.........................OOOOOOOOOOOOOOOOOOOOOOOO+OO+++++OOOOOOO+OOOOOOOOOOO.........................................OO...................OOOOOO++OOOOOOOOOOO++%%&&%%OOOOOOOOOO+%&&%+%&&%+OOOOOO.......OO....OOOOO+%%%%OOOOOOOOOOOOO+%%%+OOOOOOOO+%%%++OOOOOOOOOOOOO+%%+OOOOOOOOOOOOOOOO++OOOOO+++++++++++++O+++OOOOOOOOOOOOOOOOOOOOOOOOOOOOOOOOOOO++++%&++++@@$$*&==**************==***=*********====*@XOO@@**======**=***************====****=****=*****==***=*@X...........................OOO......OO....OO.........O+++O.OOO++OO..........OOOOOOOOOOOOOOOOOOOOOOOOO...OO+OO...OO+++++%%%++++OOOOO++&&&&&&+++OOOOOOOOOOOO......................O+++++++++++++++++++++++++++++++++++++++++++++++++++++++++OOX....X....XXXXXXXXXX##X##########@@@@@@#@########XXXXXXXXXXXXXXXXXXXXXXXX##@@@@@##@@@@@$$$$$$$*****=-;;-=*****$@@@#########XXXXXXXXXXXXXXXXoooooooooooooooo oo    oo                    ooX#@@$$$$$@@##XXX.o...o.o..........XX",
"@@@@++.........o.XXX+@@$$$$$$*********$$@@@@@@@@@@#@@@@#@###XXXXXXXXXXo.                                .XXXXXo...                    ..................XX...XXXXXX####@@@$*********@@@#XXXXXX##@@@@@###@@@@@@@#XXXX##@@$$*$$@@@@$*****$*******$@#@****=******=***********===*********==========*$@@@#XXXXXXXXXXXXXXXXXXXXXXXXXXXXXXXXXXXXX+XXXX++++++++OO......++++OOOOOOOOO...OOO.O.....................OOOOOOOOOOOOOOOOOOOO+OOOOOOOOO+++OOOOOOOOO++OOOOOOOOOOOO................OO........OO..........OOOOOOOO..OOOO.....OOOOOOOOOOOOOOOOOOOOO++%%&%%+OOOOOOOOOO+%&%%+%&&%+OOOOOO..........OOOOOOOO+%%%%+OOOOOOOOOOOO+%%%+OOOOOOO++%%%+OOOOOOOOOOOOO++%%+OOOOOOOOOOOOOOOO+OOOOOOOOOOOO++++OO+OO++++OOOOOOOOOOOOOOOOOOOOOOOOOOOO+++OOOO++%%+++++++++%&&&&@$@@@$*****=====****************@#XX@$***************************************************$#X.............................OOOOOOOOOOOOOOOO........O++OOOOOO+++O...........OOOOOOOOOOOO.OOOO..OOOOO...OO+OOO.OOOO+%++%+%++++OOOOO++&&&&&&+++O...OOOOOOO+OOO...O...............O+++++++++++++++++++++++++++++++++++++++++++++++++++++++++OO....XX.XXXXXXX#@@@@@@@@@@@@@@@@@@@@@@@@@@@@@@@@@#######XXXXXXXXXXXXXXXXX##@@@@@@@@@@@@@@$$$$$$****==;;;-==****$@@@######X##XXXXXXXXXXXXXXXXXXoXXXooooooooooo ooooo  o                   oo##@@$$$$$@@@XXXX.o................XX",
"@@@@++.........o.XXX++@$$$*$$$$*******$$@@@@#@@@#@@@@@##@@##XXXXXXXXXXo.                                oXXXXXo...               . .  ...............o.XXXXXXXXX########@@$*********@@##XXXXXX##@@@@@###@@@@@@@#XXXX##@@$$*$@@@@@@$$$$$$@@$$**$$@#@********====*==****==**==****==****==========*$@@@#XXXXXXXXXXXXXXXXXOXXXXXXXXXXXXXXXXXXXOXXXX++++++++OO......++++OOOOOOOOOOO.OOOOO......................OOOOOOOOOOOOOOOOOO+++++++OOO++++OOOOOOOO++++OOOOOOOOOOOOO..OOOO.O..O.OOOOOO.....OOOOO...OOOO.OOOOOOOOOOOOOOOOOOOOOOOOOOOOOOOOOOOOOOOO++%%&%%+OOOOOOOOOOOO++++%&&%+OOOOO..........OOOOOOOOO+%%%%OOOOOOOOOOOO++%%%+OOOOOOO++%%%+OOOOOOOOOOOOOO+%%+OOOOOOOOOOOOOOOOOOOOOOOOOOOOOOOOO++++++++++++OOOOOOOOOOOOOOOO++O++OOOOOOOOOOO++%%++OOOO++++&&&+++@@@@@@@@$*********************@XX+@*********=**********=******************=*==*********@Xo...............................OOOOOOOOOOOOOOO.......O++OOOOOO+++OO...............OOOOOO........OOOOO...O+OOOO..OOO+%++%+%++++OOOOO++&&&&&&++OO......OOOOOOOOOOOOO..............O+++++++++++++++++++++++++++++++++++++++++++++++++++++++++OO....XXXXXXXXX+@@@$************************$@@@@@@@@@@@####################@@@@@@@@@@@@@@$$$$$$****==;;;-=*****$@@@##########XXXXXXXXXXXXXXXXXoXXXoooooooooo oooooooo                    ooX#@@$$$$$@@@XXXX.o...............XXX",
"@@@@+X........oo.XXX++@@$$$$**$*******$$@@@@#@@@##@@@###@####XXXXXX...o.                                oXXXXXo.oo             .    ...............XXXXXXXXX##@#@@#####@@@**********@@@#XXXXXX##@@@@@###@@@@@@@#XXXXX#@@@**@@@##@@@@@@@@##@@@$@@@@$****=********===****=***=****==******========**@@@#XXXXXXXXXXXXXXXXXXXXXXXXXXXXXXXXXXOXXXX+XXXX++++++OOOOOOOO++++OOOOOOOOOOOOOOOOOOO....................OOOO+OOOOOOOO+++++++++++++++++++OOOOOOO++++++OOOOOOOOOOOOOOOOOOOOOOOOOOOOOOOOOOOOOOOOOOOOOOOOOOOOOOOOOOOOOOOOOOOOOOOOOOOOOOOOOOOOOOOO++%%%%%%OOOOOOOOOOOOOO++%&&%+OOOOO...OOO....OOOOOOOOO+%%%%OOOOOOOOOOOO++%%%+OOOOOOO++%%%+OOOOOOOOOOOOOO+%%+OOOOOOOOOOOOOOOOOOOOOOOOOOOOO++++%%&&%%+++O++++++++++++++++++++++++++++++OOOO+%%%++OOOOOOO+%%%%OOOO++OOO++%&&%+@@@@@@@@@$$****$++X+@*****=**==*******************************=*********$@.................................OOO++OOOOOO+OOOO......OO+OO.OOO+++O..............................OO+O....O+OO....OOO+%++%+%++++OO..+++&&&&&&++OX............XOOOOOO.............O+++++++OOO++++++++++++++++++++++++++++++++++++++++++++++++OO..XXX.XXX...XXX#@@@@****=*==================******$$@@@@@@@@@@#@@@@@@@@@@@@@@@@@@@@@@@@@$$$$$$****==;;;==*****$@@@####XX####XXXXXXXXXXXXXXXXXoooooooooooooo     oooooo                 oooX#@@$$$$$@@#XXXXoo.o........XXXX....",
"@@@@+X.........o.XXX++@@$$************$$@@@@#@@@##@@#@##@#####XXXXX...o.                                ..XXXXo.oo             .  . ...............XXXXXXXX#@@@@@@#X#XX#@@**********@@##XXXXXX##@@@@@###@@@@@@@@XXXXX#@@$$*@@@##@@@$$$@@##@@@$@@@@$***=***==****====**==**====***********=======**@@@#XXXXXXXXXXXXXXXXXXXXXXXXXXXXXXXXXXXXXXXXXXXX++++++OOOOOOOO+++OOOOOOOOOOOOOOOOOOOO...OO...............OOOO++OOOOOOOOOOO++++++++++++++++OOOOOOO+++++OOOOOOOOOOOOOOOOOOOOOOOOOOOOOOOOOOOOOOOOOOOOOOOOOOOOOOOOOOOOOOOOOOOOOOOOOOOOOOOOOOOOOOO++%%%%&%%OOOOOOOOOOOOOOO+%&&%+OOOOO...OOOOO..OOOOOOOOO+%%%%OOOOOOOOOOOO++%%%+OOOOOOOO+%%%+OOOOOOOOOOOOOO+%%+OOOOOOOOOOOOOOOOOOOOOOOOOOO+++++++%%%+++++OOOOO++++++++++++++++++++++%%%%++++%%&%++OOOOOOO+%&%+OOOOOOOOOO++%&+++++X####@@@@@@@@+O++@********=********=*****************=**==***********@#..................................OO++++OO++++OO.......OOOOO..OO+++O..............................OOOOO...O+OO....OOO+%++%+%++++OO..+++&&&&&&++OXX...........OOOOOOOOOO.OO.OOO..OO+++++++++O+++++++++++++++++++++++++++++++++++++++++++++++O+OOXXXXXXXXX..XXXXX#@@@@@$$$$*****=============*=****$@@@@###########@@@@@@@@@@@@@@@@@@@@@$$$$$$****==;;;-==****$@@@#####X####XXXXXXXXXXXXXXoXXXooooooooooooo     oooo                   oooX#@@$$$$$@@#XXXX.o.oo...X....XXX....",
"@@@@#XXX........XXXX@@@$$*$$*$*$****$$$$@@@@@@@@@@@@@@@@#@###XXXXXXXXo....                            ..oXXXXXooo..           ........................XXX+@@@@@@@@#XXXX@@@*******$$@@@@#XXXXXX##@@@@####@@@@@@@#XXXXX#@@@@@@@@###@@@@@@@##@@@@@@@@$****==****=======********==***=====****=======*$@@##XXXXXXXXXXXXXXXXXXXXXXXXXXOOOXXXXXXXXXXXXX++++++++OOOOOOO+++OOOOOOOO+++OO..OOOOO...OOOOOO............OOOOOOO+OOO+OOOOOOOO+++++++++++++OOOOOO++++++++++++++++++++++++++++++++++++++++++++++++++++++++++++++++++++%%%%%%%%%%%%%%%%%%%%%%%%%%%%&&&%%%+OOOOOOOOOOOO++%%%%OOOO...O...OOO......OOOOOO%%%%OOOOOOOOOOOOO+%%%+OOOOOOOO++%%+OOOOOOOOOOOOOO+%%%+OOOOOOOOOOOOOOOOOOOOOOOO+O++++++OOOOO+++%%%%%%&&&&&&&&&::::::::::::::::::&&&&&&%++OOOOOOO+%%%+OOOOOOOOOOO+%%++OOOOOOOOOOOO....OO++**************==***********************==***********@X..................................OOOOOOO++++++OO.....OOOOOO.OOOO++O.............................OOOOO....O++OO....OO+++++%%+++O..OO++@&&&&&@+XO................................OOOOO+++++++++++++++++++++++++++++++++++++++++++++++++++++++++++++++XXXXXXXXXXXX####@@@@@@@@$$@@$$$$@@$$$$$$$@@@@@###XXXX###XXX####@@@@@@@@@@@@@@@@@@@$$$$$****==;;;;==*****$@@@########XXXXXXXXXXXXXXXXXooXooXooooooooo   o                          ooX#@@$$$$@@@#XXXX.o.o.......X........",
"@@@@#XXX........X.XX@@@$$*$**$$$****$$$@@@@@@@@@@@@@@#@@#####XXXXXXXXo....                             ..XXXXXooo..           .... ..................XXXX+@@@@@@@@#XXXX@@@$***$$@@@@@@##XXXXXX##@@@@####@@@@@@@#XXXX##@@@@@@@###@@@@@@@@###@@@@@@@$****==*****==*===********==****=====***=======*$@@#XXXXXXXXXXXXXXXXXXXXXXXXXXXXXOXXXOXOXXOOOOOO+O+++++OOOOOOO+++OOOOO.OO+++OOOOOOOOO.....OOOOOO.........OOOOOOOOOOOOOOOOOOOOOO++++++++++++OOO++++%%%%%%%%%%%%%%%%%%%%%%%%%%%%%%%%&&&&&&%&%%&&&&&&&&&&&&&&&&&&&&%%%%%%%&&%&&&&&&&&&&&&&&&&&&&&&&&&&&%%+OOOOOOOOOOOOOO+%%%%+OOO...O..OOOO......OOOOO+%%%%OOOOOOOOOOOO++%%%+OOOOOOO++%%%+OOOOOOOOOOOOOO+%%%++OOOOOOOOOOOOO+++++++++++++++++++OOOO++%&&&&::::::::::::::&&&&::::&&&&&&&&&&&&%%++OOOOOOO+%%%+OOOOOOOOOOO+%%%+OOOOOOOOOOOO.....O+@**************==***********************===*********$#X... .............................OOOOOOOOO++++OOOOO...OOOOOOOOOOO++O..........................OOOOOOOO....OOOOO....OO++++%%%+++O..OOO+@&&&&&@+XX....................................O.O..OOO+OOOOO+O++++++++++++++++++++++++++++++++++++++++++@@@#+#####XXXXXXXXXXX#########@@@@@@@@@@@@@@@@@@@@@@####X###X#X######@@@@@@@@@@@@@@@@@@@$$$$****==;;;;;-=*****$@@#########XXXXXXXXXXXXXXXXXooooooooooooooooooo   o                      ooX#@@$$$$@@@#XXXXoo.o..o....X....XX..",
"@@@@#X.X........XXXX@@@@$**********$$$$@@@@@@@@@@@@##@@@######XXXXXXXoo...                             ..XXXXX.o...             ......................XXXX#@@@@@@@XXXX#@@@$$$*$@@@@@@@@#XXXXXX##@@@@#X##@@@$@@@######@@@@@@@@@@@@@@@@@@@##@@@@@@@@*****=*******=**==****=*********===============**$@#####XXXXXXXXXXXXXXXXXXXXXXXXOOXXX.XXXXXXXXX+OO++++OOOOOOOO+++OOOOOOOO+++OOOOOOOOOO...O.OOOOO....OOOO.O.O.OOOOOOOOOOOOOOOOOOOOOOO++++++OOOO++++++%%+%%%%%%+%%%%+++%%%%%%%%%%%%%%%%%%%%%%%%%%%%%%%%%%%%%%%%%%%%%%&&%%%%%%%%%%%%%%%%%%%%%%%%%%%%%%%%+OOOOOOOOOOOOOOO+%%&%OOOOO.O....OOOO..OOOOOOOOO%%%%OOOOOOOOOOOO++%%%+OOOOOOOO+%%%+OOOOOOOOOOOOOO+%%%%%%&&&&&&&&&&&&&&&&&&&&&&&&&&&&&%++OOOO++%%&&&&%%%%%%%%%%%%%%%%%%%+%%%%++++++++++OOOOOOOOO+%%%+OOOOOOOOOOO+%%%+OOOOOOOOOOOOOOO..O#@*=*****==*****=****==*=*****==***=******==*********$Xo  .............................OOOOOOOOOOOOOOOOOOOOOOOO++OOOOOOO+++O..O.......O.OO.OOOO.....OOOOOOOOOO....OO+O.....OO+++++++++OO..OOX+@&&&&&@+XXX...................XX......XXX...X.X.Xo..XXX.......XXX.XXXXXXXXXXXXXXXXXXXX############XX##@@######@#######X#XXXX####@@@@@@@@@@@@@@@@@@@@@@@@###################@@@@@@@@@@@@@@@@@@@$$$$$$***==;;;;;;==*****$@@########XXXXXXXXXXXXXXXXXXXoooXoooooooooooooo    oo                    ooX#@@$$$$$@@#XXXXoo........XX..XXXX.X",
"@@@@#XX........XXXXX@@@@$**********$$$$@@@@@@@@#@@###@########XXXXXXXooo..                              .XXXXXX......         . ......................XXXX#@@@@@@#XXXX#@@$$*$*@@@@@@@@##XXXXXX##@@@@#X##@@$$$@@@@@@@@@@@@@@@@@@@@@@@@@@@@@@@@@@@@@*****=****=**********=*====******====*=========**$@#####XXXXXX#XXXXXXXXXXXXXXXXXOOXXXXXXXOXOOX.OOO++++OOOOOOOO++OOOOOOOOO+++OOOOOOOOOO...O.OOOOOOOOOOO........OOO..OOOOOOOOOOOOOOOOOOOOOOOOOOOOOO+++++++++++++++++++++++++++++++++++++++%%%%%%+++%%++++++++%%%%%%%%%%%%%%%%%%+++++++++++++++++++++++++OOOOOOOOOOOOOOO+%%&%OOOOO.......OO..OOOOOOOOOO%%%%OOOOOOOOOOOO+%%%%+OOOOOOOO+%%%+OOOOOOOOOOOOO++%&&&&&&&&&&&&::::::::::&&&&&&&&&&&&%%+OOOO+++++++++++++++++++++++++++++++++OOOOOOO+OOOOOOOOO++%%%+OOOOOOOOOOO+%%%+OOOOOOOOOOOOOOO..O#@******===*****==****==*=****=*=**********=*********@Xo...................................OOOOOOOOOOOOOOOOOOOO++++OOOOO+++OOOO....O.OOOOOOOOOOOOOOOOOOOOOOOOOO.OOOO+O....OO++++++%%++OOO.OOO+@&&&&&@+XXX...............................XXXXXXXXXXXXXX....X.XXXXXXXXXXXXXXXXXX######@@++++@@@@@@@@@@@@@@@@@@@@@@@@@@@@#XX#@@$*$*$$$$$$$$$$********$$@@##XXXXXXXXXXXXX#################@@@@@@$$$$$***==;;;;;;-=***=**$@@#######XXXXXXXXXXXXXXXXXXXXooooooooooooooooooo   o                     ooX#@@$$$$$@@#XXXooo........XX...XXX.X",
"@@@+XX..........XXXX@@@@$************$$$@@@@@@@#@@@######@####XXXXXX......                             o.XXXXXX...                 .............X.....XXXX#@@@@@@#XXXX##@$**$$@@@@#@@@##XXXXXX#@@@@@##X#@@*****$$$$$$**************************$@@****======********========******====*****========*$$@@@@@@@@@@@@@@@@@@@@@@#####XXX#############X#@@@@@##XXXXX+++++OOOOOOOO++OOOXXX+XXXXXXXXXXXXXXXXXXXXXXXXXXX.....OOOOOOOO...OOOOOOOOOOOOOOOOOOOOOOOOOOOOOOOOOOOOOOOOOOOOOOOOOOOOOOOOOOOOOOOOOOOOOOOOOOOOOOOO+OOOOOOOOOOOOOOOOO++++++@@@@+++++++++++OOOOOOOOO.O.OOOO+%&&%OOOOOO........OOOOOOOOOOO+%%%++OOOOOOOOOOO++%%%+OOOOOO++++&&++++++XXOOOOO++++%%%%%&&%%%%%%%%%%%%%%%%%%%%%%%%%%+++OOOOOOOOOOOOOOOOOOOOOOOOOOOOOOOOOOOOOOOOOOOOOOOOOOOOOOOO+%%%+OOOOOOOOOO++%%++OOOOOOOOOOOOOOO..O#@*******==**=======*********===************=********@....oo...............................O......XXXXXXXOOO++++++++OOOO+++OOOOOOOXXXXXXXXXX++XX+++X+++################XXXXX++%+++@@@@@@@@@@@@$**==*$@@@@@@@@@@@@@@@@@@@@@@@@@@@@@@@@@@@@@@$$$$$$$$$$@+..X@@$$$$$$$$$$$$*$******************=***=***************=====*@XX@*=***==*******====*********$@@#XoooooXXXXXXXXXXXXXXX#########@@@@@$$$$***==;;;;;;;==******$@@######XXX##XXXXXXXXXXXXXXXoooooooooooooooooooooo o                   o ooX#@@$$$$$@@#XXXo.o..o.........XXXXXO",
"@@@@XX.X........XXXX@@@$$************$$$@@@@@@@@@@@###########XXXXXX......                             ooXXXXXoo.o            .....................X..XXXX#@@@@@@#XXXX##@$$$$$@@@###@@##XXXXXX##@@@@##X#@@$*$$$$@@@$$*****************=**===***@@@****======********========******====******========************************$$@@@#XX@@@@@@@@@@@@@@@$$$$@@@@@@@@@@@@@+++++++++++++@@@@@@@@@@@@@@@@@@@@@@+++++++++++++++OO..O+++++++++++++++++++++++++++++++OOOOOOOOOO++++++++++++++++++++++++++++++++++++OOOO++OO++OOOOOOOOOOO+++++++++@@@@@&@@@@@@++++++OOOOOO.....OOOO+%%&%+++O.......O..OOOO.OOOOOOO%%%++OOOOOOOOOOO+%%%%+OOO+++++%&&&@@@@@@@+++++++++++++++++++++++++++++++++++++++++++OOOOOOOOOOOOOOOOOOOOOOOOOOOOOOOOOOOOOOOOOOOOOOOOOOOOXOOOOOO+%%%+OOOOOOOOOO+++%++++OOOOO++++++O+.OO#@*******=****===**=***=*******=**==********=*******@#XXXXXXXXXXXXXXXXOX++X+XXXXXX++++++....O+++@@@@+++@++++++OO++++OOO++++O++++@@@@&&&@&&&@&&&@&&&&$&$$&&$$$$$$$@@@$$@@@@@@&&&&++@&********$*========*******=======*=**====*************************$#o X$****=====================*********$@$$$****************===*@XX@****====******************=**$@#XoooXoXoXXXXXXXXXXXX#########@@@@@$$$$**==;;;;;;;===******$@@@####X#XX#XXXXXXXXXXXXXXXXooooooooooooooooooooo   o                    ooX#@@$$$$$@##XXXo.o..XX........XXXXXX",
"@@@@XX..........XXXX@@@@$*$$*$$$*****$$$@@@@@@@@@@@####@@#@##XXXXXXX.....                             ..XXXXXXoo..         ........................X..XXX+@@@@@@@#XXXX#@@@$$$$@@@@##@@##XXXXXX##@@@@##X#@@@@@@@@##@@@@@$$$$$$*********======**$@@$**********=*====***=****====*****=*****=**========*********===**==************@##@*==================*==========*******$$$$$**************===***==*=**===*********$@@X.O@@$$*************$$*$$$$@@@@$$$$$$$$@$$$**$$@@@@$$$$$$@@@@$$$$$$$$$$$$$$$@@@@@@@@@@@@@@@++OO..OOX#@@@@********************$$$@@@@@@@@@@@@@@@@@&&&&@@@@@@@@@@@@@@@@@@@@@@@@@$&=&&@@@@@@@@+OOO++%%%++@@@@@*$****************$@@@@@@+++++++++++OOOOOOOOOOOOOOOOOOOOOOOOOOOOOOOOOOOOOOOOOOOOOOOOOOOOOOOOOOOOO++++++++@@@@@@@@@&&&&&@@@@@@@@@@@@@$$$@@@@@@@@@$$$$$@+O.O@@****************==**==***********=****==**=*******$@$$$$$$$$*$$$$$$$$**************$**@X..@@***=*********==$++O++OOOOO++++++@&*======**==*===================================&@@$*====**============***===*=====***========***$************=*******$#XX@*=***==================**=*====***@#XX###@@@@@$$$$*******==*#XX@*****=****==**=*********==****$@#ooooooooXXXXXXXXXXXX########@@@@@$$$***=-;;;;;;===*******$@@@#########XXXXXXXXXXXXXXXXXXoooooooooooooooooo                         ooX#@@$$$$@@@#XXXo.o..XX..............",
"@@@@XX..........XXX#@@@@$*$$$$*$*****$$$@@@@@@@@#@@####@@@@##XXXXXX......                             ..XXXXXXoo..        ...... ...............XX.....XX+@@@@@@@#XXXX#@@@$$$$@@####@@@#XXXXXX##@@@@#X###@@@@@@#XXX###@@@@@@@@@@$$$***********$@@$************==**=**=******==*****=****==*=====*==*$$@$$$$$$*******************@###*===**============*================*=**$@@@@@@@@******=======================***=$@..X@*===========*=============================*@@@@@@@$$$********************=*==**====*==*@+OOOO+++@@**=*===***=**===*=========******$$$@@@@@$$&&&&&========*===*====**=============***=*@+OOO++%%&&$$****==========*====*==****=*&&@@@@++++++OOOOOOOOOOOOOOOOOOOOOOOOOOOOOOOOOOOOOOOOOOOOOOOOOOOOOOOOOOOOO+++++@@@&&$$$**==========*****==*===*=*********=====*+X.+@$=********************==******=*******====*==********=**=======================**==**=*@X.O@*========*======*++O+OOOOOOO+++O+@&*==========*****=***********===================$@@$**===**===**==**=====**=****==***========**$$@@$$$$$*****=*====*=*$XXX@*****======================***==**@XoXXoXXXXX###@@@@@$$$***$XX#@****==******==*****************@#oooooXXXXXXXXXXXXXXX########@@@@@$$$***=-;;;;;==********$$@@@#########XXXXXXXXXXXXXXXXXXXooooooooooooooo                           ooX#@@$$$$@@##XXXo.o.XXXX..X.X........",
"@@@@+X........XX.XX+@@@@$$******$***$$$$@@@@@@@@@#@@@@#@#####XXXXXXXX...                             ..XXXXXXo....    ..  .    ....................XXXXXXX@@@@@@@#XXXX#@@@$$*$@@@#####@#XXXXXX#@@@@##XX#@@@@@@@@#@@@@@@@@@@@@@@@@@@@***********$@$**=*********====***=*=*=====**===***====***===***=*$######@@@@@@@$************@#X#**==*=============**===*==========**===**$@#++++++@@+@@@@@@@@$$*********==**=***=*+OO+*===******=======**===*=====****======*==**$@#XXXX++@@@@@@@@@@@$$******************=**$@++OOX#@@$***==================*=====**==**=*****$@++++&&&&&$@@$$$******=*==*=**=*=============$@++O+@@$$*****=****======*******==***************$@OOOOOOOOOOOOOOOOOOOOOOOOOOOOOOOOOOOOOOOOOOOOOOOOOOOOOOOOOOOOOOOOOO++O++++++++@&@&&&=******============****=========*+XXX@*=***********==****************==*****==*******==**@@@@@@@$$$*******===**==========*==*@XX+@***=***=*=======*@@..OOOOOOOOOOO+@***==**===**==*===*@@++@@@@@$$$$***============&@@@$=***======*****==****======*=========**==*$#XXXXXXX##@@@@@@@@@$*=$@#X#@*=*======*==****====*=====*=*==*=*#XX...oooo..ooXXXXXXX###@#XX@$*****===************************@#XXXXooXXXXXXXXXXXXX#######@@@@$$$$****=;;;;;;===********$@@########XXXXXXXXXXXXXXXXXXXXXXXXoooooooooooooo o   oo                oooXX#@@$$$$$@@#XXXoooooX......X.XXX....",
"@@@@+X.........XXXX+@@@@$$****$*****$$$@@@@@@@@@####@@@@#####XXXXXXXo...                            ...XXXXXX......    . ...  .... .................XXXXXX@@@@@@@#XXXX#@@@$$$$@@@#######XXXXXX##@@@#XX##@@@@@@@@@@@@@@@@@@@@@@@#@@@@@@@@@@$$****@$***=**==****==****====****=======***====***===**==*$############@@@@@@@@@$$*$$@##@**==**====**=*====**==**======**========**@@++O+++#XXXXX##@#@@@@@$$$************=*++O+*===******======***====*====******=======**$#X..XOXXXX#####@@@@@@@@$$$$$$$$$**********@#OOOO@@$*******=***=====****===**=**=*****====***$@XXO+%&&%@@#@@@@@@@@$$$$$********==========*$@#OOO+@$**==**==****======******==****=****======*$@OOOOOOOOOOOOOOOOOOOOOOOOOOOOOOOOOOOOOOOOOOOOOOOOOOOOOOOOOOOOOOOOOOOOOOOXOOOOOO++&&&&@@@@$$$$$$****===**=*===*======$+XX+$*=************==*****==*=**********======***=***=*@#XXXXXX####@@@@@$$$$********====*==*#XX+$*=*******=*==*****@X.....OOOOOOO+@*********=====*===$#XXX++XX##@@@@@@@@$*********&@@@$=****====*=****==****===**=*========***=**$XXooXXXXXXXXXXXXXXX####XXX#@*=**==*=**==****===****=====*=***$XX....XoXo...ooXoooooXXXXXXX@*******=*************************@#XXXXoXXXXXXXX##XXXX#######@@@@$$$$****=;;;;;;==*********$@@########XXXXXXXXXXXXXXXXXXXXXXXXooooooooooooo     ooo                 ooXX#@@$$$$@@@#XXXoooooo......X.XXX....",
"@@@@XX.........XXX++@@@$$$**$$$$$****$$$@@@@@@##@@@##########XXXXXXXoo...                           oo.XXXXXX.....    ....... . ...................X..XXXX@@@$$@@#XXXX##@$$*$$@@@###@@##XXXXXX##@@@##X###@@@@@@@@@@@@@@@@@@@@@##@@@@@@@@@@@@@@@@@*****======***=*****************=****=====*=====*=**$@####XXXXXXXX#XX#####@@@@@###@***======*******=***==**=======**=====*****@@#O++++OOOOOO+OOOO+++++++++@@@@@@@$*&&++++*=********=**=************=*******=====****@X..........O.O..OOO++++++@@@@@@@@@@$$$**@@+OOO#@@***==*===****==******************==***=**==$@OOO+%%%%+OOOOOOOO+X+++@@@@@@@@$$**=======*@+OOOO@@*======*=*==****============**********=*****$@O.OOOOOOOOOOOOOOOOO+++++++++OOOOOOOOOOOOOOOOOOOOOOOOOOOOOOOOOOOOOOOOOOOOOOOO++%%&&&%++OO+++++#+@@&&&&&$$*****======&+.X+$*=*=**********=***=*****=*************==*==*=****$@OO................XX++@@@@@@@$$$***@+OO+$==****=**=*==**===$@X.....OOOOOX+$*===*=****===**=**$XX...O....O.....O+++++#+@@@@&+@@*=******======*=====**==****==*=**====*****@Xo................XXXXXXXX@@***===****====**====****====*=*=*@XoXX.oooooo.ooXXooo...ooooXX@*********************************@#XXXXXXXXXXXX###XXX########@@@@$$$$****=;;;;;-=**********$@@########XXXXX#XXXXXXXXXXXXXooXXXoooooooooooo oo   o                   ooXX#@@@$$$@@@#XXXooo..o......X..X...XX",
"@@@@XX.........XXX++@@@@$$**$*$*$****$$$@@@@@@##@@@###@@#####XXXXXXXoo...                         . ..XXXXXX..  ..    ......... ....o..............X.XXXX#@@@$$@@#XXXX##@@$$$@@@@@@@@@##XXXXXX##@@@##X###@@@@########@@@@@@@@@@@@@@@@@@@@@@@@@@@$*******====**==*******==*====*=******====***===*****$@####XXXXXXX##X##X########XX#@***=*=*=********==**==****====***====*******@+O++++.OOOOOOOOOO++++O+XX+++++@@@@@&@++++*=********===*************=***=***==******$@X...............OO.OOO.OOX++#+##@@@@@@@@@#+OO+@@********====***==************==***********==@#OOO+%%&%+OOOOOO...XXXXXXXX###@@@@@@&**$$$@@XOO++@$*=====**====****====*====*=*****************@#O.OOOOOOOOOOOOOOOO++++++++++OOOOOOOOOOOOOOOOOOOOOOOOOOOOOOOOOOOOOOOOOOOOOOOO++%&&&%++OOOO.O.XXX++++@@@@@@@@@@@$*=**@+OX@$***===************=*=====**=****=*****===***====*@@OO...............XXXXXXXXXXX####@@@@O.O+*===***==*=====*===*@+.O...OOOOOX@$*=*====***===*****@X.................OOXXXXXX@@++@@*=******======*=====*********=*=**=====****@Xo............ .........XX@$****==****====**====****====****$@Xooo..oooo....X. .......XXXX$***==**********=*****************$@XXXXXXXXXXXX####XXX######@@@@@$$$$****=;;;;;-=**********$@@@#######XXXXX##XXXXXXXXXXXXXoooooooooooooooo                          ooXX#@@@$$$$@@#XXooo...o............XXX",
"@@@@XXX.........XXX#@@@$$$$$**$*******$$@@@@@@@###@@########XXXXXXXXoXoo..                          o.XXXXXXX....      .   .... ......................XX#+@@@$$@@#XXXX##@@@$$@@@@@@@@@@#XXXXXX##@@@#####XXX#XXXXX#####@@@@@@@@@@@@@@@@@@$$$$@@@$$***********==*******$*********=****====**==****====*@####XXXXXXXXXXXXXXXXXX##XXXX#@***=******=====***==*****======**************@++++O..OOOO+++OOOO+OOOOOOO+++++++++++++@***=*=====********************====****=*=*$@OOOOOOOOOOOOOOOOOOOOOOOOOOOOOOOOOOOO+++++OOO#@$**=*******====*************===***==**********+OOOOO%%%%+OOOOO..............OOOO+++%%+++++OOO+@@***=*=***=*=====***========******************$@XOOOOOOOOOOOOOO+++%%+%%%%++++++++OOOO+++++OOOOOOOOOOOOOOOOOOOOOOOOOOOOOOO+++%%&&&%%+OOOOOOOOOOOOOO++++OOOOOOO+++&&&&%OO#@****==********=********=*==*****==****=========***@+OO............................OO.OO+..X@*==*=*============**@#OO...OOOOOX@*==*==**==*=**===**@.........................OO+++@&*=***=*******=*=======**********==*==*==**$@.........................X@*********==***========**=======**@#.....X.Xoooo.o..oooooXXXo.X#$=*********************************@XXXXXXXXXXXXX###XX#######@@@$@$$$$***=-;;;;;-=**********$@@#######XXXX##XXXXXXXXXXXXXXXooooXoooooooooo        o                   oXX#@@@$$$@@@#XXXooo..oo........XX..XX",
"@@@@#XXX........XXX#@@@$$$$$*$**$*****$$@@@@@@@@@#@@####@####XXXXXXXooo...                          ooXXXXXXX....          .... .....................XXXX#@@@$$@@#XXXX#@@@@@@@@@@@@@@@##XXXXXX##@@@##XXXXXXXXXX##########@@@@@@@@@@@@@@@****@@@$$******=****===*****$@@@$$$$$$***********===****==*=*@@#XXXXXXXX#XXXXXXXXXXXXXXXXX#@**********====***=====*******=====*******==**@+++++O....O+OOOOOOOOOOOOOO++++++++++++@@***=**==************=*==********==****===*@@OOOOOOOOOOOOOOOOOOOOOOOOOOOOOOOOOOOOOOOOOOO+@&*=*==***====**=*************====**===****=*=*@+OOOO+%%%%OOOOOOO.OO.......OOOOOOOOO+%%++OOOOOX+@$**==*=*====*******=====*=********************@+OOOOOOOOOOOOOOO+%%%%&%%%%%%%%%%%%++++++++++++++++++++++++++++++++++++++%%%%&&&&%%+++OOOOOOOOOOOOOO++++OOOOOOOOO+&&&%+OO#$********==****==****************==****=====*===*$@@XO.............................OO......X@*=****==*======*====*@OO..OOOOOOX@*=***=**==*=**====$@.........................OO+++@&****==******========*=*********===****==**@#.... ..     ............XX@*********==**========****=======*@X. ...............o.ooXXXXoX@***=*******************************@XXX#XXXXXXXXX###########@@@@$$$$$****==;;;;;-==*********$@@@######XXXX##XXXXXXXXXXXXXXoXoooooooooooooo       o                   ooXX#@@$$$$@@@#XXXooo..oo........XX....",
"@@@@#XX.........XXX#@@@$$$$$*********$$$$@@@@@@@##@@@@@@@####XXXXXXXXX....                       . ...XXXXXXXo..         ... ...............XXXX.X..XXXXX#@@@$$@@#XXXX#@@@@@@@@@@@@@@@#XXXXXXX##@@@@@@@@@@#@@@@@@@@@@@@@@@$$$$$$$$$$$$$$$$*$$$$$$****=*****===*****$@@@@@@$$$$************====*****=*$@###########XXXXXXXXXXXXXXXX#@***=*=**======****====********====**========**@#++OOOO..OOOO.OOO+OOOOOO+++++++++++++@@***=*=******==*****===**==******==**=====*@+OO++++++++++++++++++++++++++++%%%%+++++++++@$****=****=*==****==**********==****==*****=***@+OOOOO%%%%OOOOOOOOOOOO...OOOOOOOOOO++%%++OOOOO@@****==**====**********===*********************$@OOOOOOOOOOOOOOO++++%%%&&&&&&&&&&&&&&&&&&&&&&&&&&&&&&&&&&&&&&&&&&&&&&&&&&&&&&&&&%%+OOOOOOOOOOOOOOOOO+%%+OOOOOOOOO+%&&%+OO@$********===****=********$@@$$$**&&&&$$$$&&&*$$$$&@+OO....O.O..............................X@******=****===****==*@+O...OOOOO#@*=*******===*=====@#................XXXXX.....OO++@&****====******====****====****====**==*=**@#oo..ooooooooooooooXooo..XX$**=******==****==**********=****$@#XX###############@@@@@@@XX#@***=*******************************@XX###XXX#XXX############@@@@$$$$*****=-;;;;;==**********$@@@######XXX###XXXXXXXXXXXXXXXXoooXXooooooooo                           ooXX#@@$$$$@@@#XXXooo..oo........XX....",
"@@@@#XX.........XXXX@@@$$$$$********$$$$$@@@@@@@##@@@@@@#####XXXXXXXXXo...                       ...oXXXXXXXoo..        ..   . ........X....XXXXXXXXXXXXX#@@$$*@@##XXX#@@@@@@@@@@@@@@@#XXXXXXX##@@@@@@@@@@@@@@@@$$$$$$$$$$******************$$$@****=******===*****$@###@@@$$*************===****=***$@@##########XXXXXXXXXXXXXXX##@***===**=========*====*******=====**====*====*@#++OOOO..OOOOOOOOOOOOOOO+++++++++++++@$***=********==*=*===========***===**=====*@+++%%%%%%%%%%%%%%%%%%%%%%%&%%%%%&&&%%%&&&&&&&***==*=**===***=**======*****==******===**=***$@OOOOO+%%%%OOOOOOOOOOOO..OO.OOOOOOOOO+%%+OOO.O+@$****=**=====**********==*******====***********$@OOOOOOOOOOOOOOOOOO+++++%%%%%%%%%%%%%%%%%%%&&%%%%%%%%%%%%%%%%%%%%%%%%%%%%%%%%%%%%++OOOOOOOOOOOOOOOOO+%%++OOOOOOOO+%&&%+OO@$********==*=***=*******$@@@@@@@@@@++@@@@@@@@@@@@++OOO...OOOOOO............................#@****=*=*===*==***==*=*++OOOOOOOO+$==*=*=*******=====@#.................X.........O++@*****=**********=*****====================*@#XX..X...XXXXXXXXXXXXXX..X#$=******====*****=************=*=*@@@@@@$$@@@@@@@@$$$$$$$$$@#X#@****************************=******@XX###XXX#XXX###########@@@@@$$$$$****=-;;;;;===*********$@@@#######XXXXXXXXXXXXXXXXXXXXooooXXooooooooo  o   oo                   ooXX#@@$$$$@@@#XXXooooooo.....X..XX....",
"@@@@XXX......o.XXXX#@@@$$$******$*****$$@@@@@@@@@@@@@@#######XXXXXXX..o.                          ..ooXXXXXX. .      . .   .....................XXXXXXXXX#@@$$$@@@##XX#@@@@@@@#@@@@@@@##XXXXXX#@@@@@@@@@@@@@@@@@@$$$$************************$$$******=************$@#@@@@@$******************==*=****$$$@@@@@@@@@@@@@@####@@##XXX#@*=*=*****=====***==*****===**********====*===*$@##+XOOOOXX++XX+++OOOOOO+++++++++++++@*=**=**********===****=***=***=*=*****====$%+&%&&%%%%%%%%&&&&&&%&&&&&&&&&&&&&&&&&&&&&&&*===**=**********===*****************=====****=*@+OOOOOO+%&%OOOOOOO...OO...O....OOOOOO%&%++OOOX@$*******=====*****=*****===*****======**********&+OOOOOOOOOOOOOOOOOOOOOOOOOOO+OO++++++++++++++++++++++++++++++++++++++++++++++++OOOOOOOOOOOOOOOOOOOOO++%+OOOOOOOOO%%&&%+O+@$*****************=****@@+O+++%%%%+OOOO+++%%%+++++OOOOOOOOOOOO.............................#@********==**====**===*$@++OO+O+O@$*=*==*====*****==*@#XXXXXXXXXXXXXXXXXXXXXXXXXXXX++@******==**=**=============****==*==*==*=*=*$$@@@@@@@@$$$$$$$$$$$$$@X.X@*******==****=====*=**======*****$$$$$$$$$*****************$@X#@***=*******************************@XXXXXXXXXX#X##########@@@@@$$$$$$****=-;;;;;===*********$@@@#########XXXXXXXXXXXXXXXXooooooooooooooooooo  oooo                    oo##@@$$$$$@@#XXXX.o.XXX.......XXXX..X",
"@@@@XXX......o.XXXX#@@@$$$******$****$$$$@@@@@@@@@@#@@#######XXXXXXXX.o.                          ..ooXXXXXX. .     ....  ...............XXXX...X.XXXXXXX#@@@@$@@@##XX#@@@@@@@#@@@@@@###XXXXX##@@@@@@@##########@@@$$$$***=*******************$$*******************$@####@@@******************=*==**************$$$$$$$$@@@$$@@#X#@@*===******====**====****==******==**====****==*@@@@@++++@++++@@+++++++++++++++++++++@*=**=************====****==*****===****==*@++%%&%%+++++++++++++++++%%+%%%%%%%%%%%%%++%&**=*****==******====***********=******===****=**@+OOOOOO+%%%OOOOOOO...OO....OO....OOO+%%%+OOOO#@*******======*****==****===*****======**********@+OOOOOOOOOOOOOOOOOOOOOOOOO+++++++++++++O++++++++++++++++++++O++++++++++++++++++OOOOOOOOOOOOOOOOOOOOO++++OOOOOOOOO%%&&%+O+@*************=****=****@@+O++++%%%+OOOOO+++%&+++++OOOOOOOOOOOOOOOO......X.......XXXX..X....#$********=***====***==*$@++++++++@****===**==****=*=*$@@@@@@@@@@@@@@@@@@@@@@@@@@@@+++@*=***===****=******========****==========****$**$***********=*====@X.X@*******==****==*=******==********@@@@@@@@$$****************$#X#$***=*******************************@XXXXXXXXXXXX#########@@@@@@$$$$$$****=;;;;;;==**********$@@##########XXXXXXXXXXXXXXXXooooooooooooooooooo   ooo                    oX##@@$$$$@@@#XXXX.o.XX....X.XXXX..XXX",
"@@@@XXXX.......XXXX#@@@$$$****$*$$$*$$$$$@@@@@@@##@#@@@######XXXXXXXX....                        ..o.XXXXXXXX..     ............XXXX..XXXXXXXXXXXXXXXXXXX#@@@$*@@@#####@@@@@@###@@@@@@##XXXXX##@@@@#######XXXXXXXX###@@@**********************$$************==*****$@####@@@********===*==*=*****=*****=********************==$@##@$*=*==*******===**===**======*=*===*=***=*****=******$$@$$$$$$$$$*$$$$$$*$*@$$$$$@+++@*=******=*===******=*****==*****====***=**@@@&&$@@@@@@@@@@@@@@@@++@@+++++@@@@@@++++OO+@**************=======*****========*=****=****=**@@##+++++&&%+++X+XXXXXXXXXXXXXXXOXOO+++&&%++O+@*************=*=**=*=****===****************=**=*&+++++++%%%%%%%%++++%%%+++++%+++++++++++++++++++++++++++++++OOO+++++++++++++++++@@@@@@@@@@@@@@@@@@@@@@@@@@@@@@@@+@%&&&%+O+@*************==********@+OOOO+%%%%%+++++%%%&&&&%%%%%%&@@@@@@@@@@@@@@@@@@@@@@@@@@@@@@@@@+XXX@**********=**====**====*@OOOOOOO+@*****==*====*****===*=*************************@@++$*********************=====*=**=*=======*==*$$$$$************======$X.#@*******=*******==*===========**=$#XXXXXXX##@@@@@@@@@$$$$**$@XX@**************************=********$@XXXXXXXXXXXX#####@@###@@@@$$$$$$$****=;;;;;;==*********$$@@@##########XXXXXXXXXXXXXXXXooooXXXoooooooooo   oooo                    oX##@@$$$$@@@#XXXX.o.XXX......XX....XX",
"@@@@+XX.......oX.XX#@@@$$****$$*$$$*$$$$$@@@@@@@@###@@#@#####XXXXXXX..... .                      ...oXXXXXXXX..    ........o...XXXXXXXXXXXXXXXXXXXXXXXXX##@@@$*@@@####@@@@@@@###@@@@@@##XXXXX##@@@@###XX##XXXXXXXX#####@@$$******************$$$********=***=******$@####@@@$******====*====***=*=****$************************@##@$=====*******===**===*=============*=**==****************************************+OOO@*==*===========********==*=*****====******$&&&&&*******&$$$$$$&@@@@@@@@@@@@@@@@&&+OOO+@***************======******===**==*=******=**=**@@@@@@@@&&&&@@@@@@@@@@@@@@@@@@+++++@++&&&%+OX+@*************====*=**=****==****************=**=*&%%%+%%%%%%%%%%%++%%%%%%++++%%%%%%%%+%%%%+++++++++++++++++++++++++++++++@&@@&@@@@@@$$$$$@@@@@@@$@@@$$&&&&&&@@@@$&$&&&&%+O+@*******==****==********@+OOOO+%%%%%%%%%&&&&&&&&&&&&&&=&&&&=***************************$+...@*****=***==****===*====*$+OOOOOO+@********====*****=****=*======================*$@+@$=**=*=***=====********====*=****=======****@@@@@$$$$$*************@X.#$******==****=**=****=***==****=*@XoXXXXXXXXXXXXX#####@@@@@@@XX@***=*=*********$$$$$******=********$@XXooXXXXXXXX####@@@@@@@@@@$$$$$$$****=;;;;;;==*********$$@@###########XXXXXXXXXXXXXXXXXXooXXXXoooooooo    oo    o                 oX##@@$$$$@@@#XXXX.oooXX.......X.....X",
"@@@@+X........o..X##@@@$$$****$$$$**$$$$@@@@@@@@@@@###@@@@####XXXXXXXX....                       ..oXXXXXXXXXoo.o.......o....XXXXXXXXXXXXXXXXXXXXXXXXXXX#@@@@$*@@@####@@@@@@###@@@@@@@##XXXXX##@@@@###XXXXXXXXXXXXXXX##@@@@@$$$$$$$$********$@@@******=*==*********$@####@@@$******=****==*****=***=*$@@@@@@@@@@*********===***@XX@$****==*===**====****========*==***=====*====***$@@@@@@@$************************@XX+@*====*=======**===****===****=*=======*=*$@@&&&$$*******************************@X...@$**************==*======*====****==********==*=*$*$**$***====****************************&%++#@$*****=*****==*=**==**====*******************=***@++++++++++++++++++++++++++++++++++++++++++++++++++++++++OO++++O++++++++@@@@@@@$$********************====**********==&&%+X+$***=***==*==*=*********@+OOO+++%%%%&&&&&&&&&&&&&&&&&&===========******==****==**==*****+.XX$*****========*******====*@X....X#$**=***====*=======$@@@@@@@$$$******=*========**@@+@***==*****************====**=****=***=====*@XXXXXXXXXX#@@@@@@@@$$*@@Xo@$***=*****====*=====*=***==******@X....... ........oo...XXXX.oX@=**=*==******$@##X#@@*******=******$@XXXXXXooXXX###@@@@@@@@@@@$$$$$$$*****=;;;;;;==*********$$@@#######XX##XXXXXXXXXXXXXXXXXXoXXXoXoooooooo o        o                 oX##@@$$$$@@@#XXXXooooX...............",
"@@@@+X........oXXXX#@@@$$$****$$$$***$$$@@@@@@@@@@@@##@#@@####XXXXXXXX....                       ..oXXXXXXXXXooooo...XXXXXXXXXXXXXXXXXXXXXXXX######XXXX##@@@@$*@@@####@@@@@@@##@@@@@@@@#XXXXX#@@@@@#XXXXXXXXXXooXXXXX##@@$$$$$$$$$$$$$$$$$$$@@@@******====*********$#####@@@$******=***===*****=***=*$@######@@@@@@@@$$$$*****$@XX@*=**====*==*=====****========*==*=***===*====***$@#####@@@@@$$$*****************$#XOO@****=*=======**==*****=****======*======*@@++&&@@@@@@@@*********===**==*********$+...@*********=*****==*======*=*==****==**=**=*====**@@@@@@$$$*===********************=*=*====&%+O+@******=**=**==*=**=***==*=****************=*==**$@++++++++OOOOOOOOOOOOOOOOOOOOOOOOOOOOOOOOOOOOOOOOOOOOOOOOOOOOOOOOOOO+++++##@@@@@@@@@@$$$***********========*******===&&%++@$=********=====*********@+OOO+++%%%%%%%&&&&&&%%%%&&&&&&&&&&$$$$$******************=*****O.X#$*****==*===********=====*@#....X@*===****===*======*@XXXXXX###@@@@@@@$*****==****@@+&***=******************====**************==$@XX..XXXXoXXXXXXXXX#####XXX@*******=**===**=**$$$$$$$$$$$$$@@#X...... ...    o. o ooooXXooX$*****==******$#XXXX#@*********=****$#XXXXooooXXX####@@@@@@@@@@$$$$$$$*****=;;;;;;==*********$$@@#######XX##XXXXXXXXXXXXXXXXXXooXXooooooooooo   o o                     oX##@@$$$$@@@#XXXXooooX...........XOXX",
"@@@@XX.......oo.XX#+@@@$$$$**$$$$$****$$@@@@@@@@@@@@#@#########XXXXXXX....                        .o.XXXXXXXX..o...oXXXXXXXXXXXXXXXXXXXXXXX##########X##@@@@@$*@@@####@@@@@@@#@@@@@@@@@##XXXX#@@@@@#XXXXXXXXXXXXXXXXX#@@@$$$$$$$$$$$@@@@@@@@@@@@*****=====*********@######@@$*********===****===***=*$@@##XXXXXXXXX###@@@@@@@@@#XX@*==*==***====**====**=***********=***==*******==$@XO....OO+++++@@@@@@@$$$$*****$@XXO+@******===*=****==*****=*****===******=***@#++++++OOOO+++@@@@@@$$$*****=**==*****$+..+$=******=====****=*=*=*****=**********====**===*@@++++++++&&&&@$@$****************=*=**===&%++@$*=****==***===****==****=****=**************=*=*@@OOOOOOOOOOOOOOOOOOOOOOOOOOOOOOOOOOOOOOOOOOOOOOOOOOOOOOOOOOOOOOOOOOOOOOOOOOOOOO++++++##@@@@@@@@@@$$$***====********===&%+#@******************====*$++OOOOOOOOOOO+++++O+++OO++++++++++++++O++++++@@@@@@$$*********=@O.X@******==**********==*===**$@....X@*===**====****=*==*@..............XXX###@@@@@@@@+++&**************=*******===*****************@@........................XX@******=*****=*=*$@#@#######XXX#XXXo......     ......   ......X#$=*=**==***=**@#XXo.X@**************@#XXXXooooXX##@@@@@@@@@@@@$$$$$$$$*****=;;;;;;==**********$@@########X##X#XXXXXXXXXXXXXXXooXXoooooooooooo oooooooo                oooX##@@$$$$@@##XXXX.o.......XXXXX..XOOX",
"@@@@XX.......oX.XX++@@@$$$$**$$$$$$***$$@@@@@@@@@@@@@#########XXXXXXXX....                        .ooXXXXXXXXXoo....XXXXXXXXXXXXXXXXXXXXXXX###@#####XX##@@@@@@*$@@####@@@@@@@#@@@@@@@@@##XXXX#@@@@@#XXXXXXXXXoXXXXXX##@@$$$$$$@@@@@@@@@@@##@@@#@********==*********@####@#@@$*****=*=*=*=***=====**=*$@@###XXXXXX###XX##X#X####XXX@*==******====**====******************==******==*$@+O.....OO+XX+++##@@@@@@@@@@@@@@X.O+@******=********=******=******==*********$@X+++%++OO.....XXXXX##@@@@@@$$$********@...+$=**=*****====***=*===****************====***==*@#OOOOOO++%&&%##@@@@@@@@@@$$$********=*==*&+++@$*=****==****==****=******=====*************=**=*@+OOOOOOOOOOOOOOOOOOOOOOOOOOOOOOOOOOOOOOOOOOOOOOOOOOOOOOOOOOOOOOOOOOOOOOOOOOOOOOOOOOOOXXXXXXX#####@@@@@$$$**********===&%++@******************====*@++OOOOOOOOOOOOOOOOOOOOOO+OOOOOOOOOOOOOOOO..XXXXXX##@@@@@@@$$**$@..X@******=**********======****@....X@*===***===*****==*$#................XXXXXXXXX###+++&*******$$$****=*=*==**==********$@@@@@@@@@#X....................... XX@**=*===*********@#XXXXXXXXXooXXoo.o... .....      ...  ...oooX#***=*====**=**@X.oo.X@****==******=*@#XXXXooooXX##@@@@@@@@@@@$$$$$$$$$*****=;;;;;;=***********$@@########X#X##XXXXXXXXXXXXXXXoXXXXooooooooooo oooooooo                oooX##@@$$$$@@##XXXX.o..o.....XXX...XXXX",
"@@@@XXX......oooXXX#@@@$$$$***$$$$$*$$$$@@@@@@@@@@@@@@#######XXXXXXXXXo....                     .  .ooXXXXXXXo..oo.XXXXXXXXXXXXXXXXXXXXXXX##@@@#XXXXXX##@@@@@$$@@@@##@@@@@@@@#@@@@@@@@##XXXX##@@@@@#XXXoXXXXXXXXX####@@@@@@@@######XXXXXXXX###@$***===******=******@@####@@$$*******===*****==*******@@@###XXXXXXXX#XXXXXXXXXXXXXX@*==*****=**********$@@@@@@@*====***==****===****$+XO....OOOOO.OO++OOOOOO++++++++X..X+$*****==****=*===*****=*************===**@+OO+%%%+OOOO............OOOOOO++++@@@@@@O.X@*=*******************==*$**$$$*************==**$+O.OOOOOOO%%%%OOOOOO.OOOOO++++@@@@@@@$**&&&%++@**=***==***====***=****========*===*====**=***==*++++O+++++++++++++++++++++++++++++OOOOOOOOOOOO++O++OO++++O+OOOOOOOOOOOOOOOOOOOOOOOOOOOOOOOOO...OOOO.OO++%%++++@@@@@@&&&&%+#@****=************=***=*$@#XXXX#XXX####XXX##XXX++OOOO.OOOOOOOOOOO.................XO++++O..X@*******=****===*****====**=$@X..#@******=====*=*****@X....   .....................OO++&&@@@@@+@+@@**==*===****==**=**$#XX.X...............................XX$*********=*****=@.X.................ooo. ...oooooooooooXXXXXXX@******===*****@XX.XXX@********=*****@XooXXXXXXXX#@@$$$$$$@@@@$$$$$$$$******=;;;;;;==***$$****$$@@#########XXX#XXXXXXXXXXXXXXXoooXoXoooooooooo oo   o      oo           oooX#@@$$$$@@##XXXXoo..oo....X.XXXX...X",
"@@@@XXX......oooXXX#@@@$$$$***$$$$**$$$$@@@@@@@@@#@@@@##@####XXXXXXXXX.....                         .oXXXXXXXo..ooXXXXXXXXXXXXXXXXXXXXXXX##@@@@#XXXXXX##@@@@$$$$@@@@#@@@@@@@@#@@@@@@@@##XXXX##@@@@@###XXXX#XXXX#######@@@#####XX###XXXXXXXXX###@**==*=******==****$@#####@@$$********===****=*=****=*@@@#X#XXXXXXXXXXXXXXXXXXXXXX#@**=*=**==****=**=*$@#@@@@@@$**==****=****==*****$@XO......OOO.OO+OO+OOOOOOOOOXXXX.O++******==****==*******$@$@@@@@@@@@@@@@@@@@@+OO+%%%+OO...............OO...X..XXXXXXX..X@***=****==*=*******===*@@@@@@@@@@@@@@@@@$$*****@+OOOOOOOOO%&%%OOOOOOO..OO..OXXXX####@@@@&&%+++@**=***=****===****=******$$*****************====*++++++++++++++++++++++++++++++++++++++++++++++++++++++++++++++++++OOOOOOOOOOOOOOOOOOOOOO..OOO...OOO.OOO+++++++++##+++&&&%+@@************=***==*****$@@@@@@@@@@@@@@@@@@@@@@++OOOOO.OOOOOOOOOO..........................#@******==**=*==******====**=*@X..#@******====**==****@X....     ..... .  ..........OO++++++++XO+O@@**=**===***==******@XXX...............................o.X#$*********=******@.................XXXoooooooXoXXXXXXXXX####XX#@***=****==****@XXXXX#@**************#XooooXXXXXX#@@$$$$$$$@@@$$$$$$$$******=;;;;;;==****$****$$@@@########XXXXXXXXXXXXXXXXXXXXooXoXooooooooooo o          oo           oooX#@@$$$$@@##XXXXoo..Xo....XXXX.X.XXX",
"@@@@XXX.o....ooXXXX#@@$$$$$**$$$$***$$$$@@@@@@@###@@@@##@#####XXXXXXXXX..                           ..XXXXXXXo..ooXXXXXXXXXXXXXXXXXXXXXXX##@@@@#######@@@@@@$$***@@@@@@@@@@@##@@@@@@@@##XXXXX#@@@@@#####@@@@@@@@@@@@@@@@@@@@@@@@@@@@@@@@@@@@@#@$**********=*==****$@#####@@$$*********==**=*==*****=*@@#######XX####XXXXXXXXXXXXX#@*====**====**=****@@@++++@@@*******==***********$@X.......OOOOOOOOOOOOOOOOOOOOOOOOO+@****=====***==******@@++XOOOOOXXXXXXO++++OOOO+%%%+OO................................#@**=*==*=*=*****=**=*==*@+OOOO.OOOO.OOO++++@@$$&@OOOOOOOOOO%%&%OOOOOO..OOOOOOOOOOOOOOOO++%&%+++$***********==****====*@++++%&&&&&&&&&&&&&&&====&&&&&&&&&&&&&&&&&&&&&&&&&&&&&&&&&&&&&&&&&&&&&&&&&&&&&&&&&&&&&&&&&&&&%%%&&%&%&&&&&%%%+++OOOOOOOO.OOOOOOOOO+++++OOOOOOOO+%&&%%@*************==*********************************@OOOOO.OOOOOOOOOO..........................@$==****=*=*=====*******=***==*@XX#****=*===****=====*#X......  ....................OO+++++OXX..OO+@*===***======***=*$@XXXXXXXX.XXXoooo..o.ooooooooooooXXooX@*==*************$@..XXXXX#####@@@@@@@@@@@@@@@@@@$$$$$$$$$$$@#X#$*===*=**==***$@XXXXX@$******==*****$#XoXooooXXXX#@$$***$$$@@$$$$$$$$******==;;;;;;==*********$$@@@#########XXXXXXXXXXXXXXXXXXXooooooooooooooooo      o                 ooXX#@@$$$$@@##XXXooooo......XX.......X",
"@@@@XXX.oo...ooXXXX#@@$$$$***$$$$****$$$@@@@@@@@##@@@@##@#####XXXXXXXXX...                      .   oooXXXXXoo. oooXXXXXXXXXXXXX..oooXXXX##@@@@#######@@@@@@$***$@@@###@@@@####@@@@@@@##XXXXX#@@@@@#XXXX##@@@@@@@@$$$*$$$$$$$$$$$$$$$$$$$$$@@@@$****=*****===*****$@#####@@$*********=*=**====*****=*@@@#############XXXXXXXXXXXX#$***==**====**==***@@@@+@+@@*********=***********$@X.....OOOOOOOOOOOOOOOOOOOOOOOOOOO#@*=**===*=***********@#XXOXO...X.........OOOOOO%%++OO................................@@****=***==**====****==&@OOOOO.....OOOOOXXXX#@@@+OOOOOOOOOO%%%%OOOOOOO..OO.OOOOOOOOOOOO++%%%++@*===*****==*==****===**@++O++%&&&&&&&&&&&&&&&&==&&&&&&&&&&&&&&&&&&&&&&&&&&&&&&&&&&&&&&&::&&&&&&&&&&&&&&&&&&&&&&&&&&&&&&&&&&&&&&&&&&&&&&+OOOOOOO..OOOOOOOO+++++OOOOOOOO+%&%%%@*************==**********======****=============@OOOOO.OOOOOOOOOOOO.......................O@*==***==*=*======******==***=*@XX@*========****=====*#o.............................O++++OO.X..OO@@*===***=*====*****$#XXXXXXXXXXXXXXXXXXXXXXXXXXX#X#####XXX@**==************@#...O++#@@@@@@@@@$$$$******************=**$#X@**===*==*=***=$#XX.XX@******===*****$XXXXoooXXXXX#@@$***$$$@$$$$$$$$$******==;;;;;;==*********$$@@@#########XXXXXXXXXXXXXXXXXXXooooooooooooooooo     oo                 ooX##@@$$$$@@##XXXoooooo......X........",
"@@@#XXX.o......XXX##@@@$$$$*$$$$****$$$$@@@@@@@@#@@#@@##@@####XXXXXXXXX..o                        ...ooXXXXXooo ..oXXXXXXXXXoooo...ooXXXX##@@@#######@@@@@$$$$@@@@@####@@@@####@@@@@@@##XXXXX##@@@##XXXXXXXXX###@@@@@$$$$$******************$@@$*****===*===******$@######@$*******=*****====***==***$$$@@@@@@@@@@@@@@@@@@@@@@#XX#$****=****======***@+@++@+@@**********==*****====$@XXXXXXXX+++++++++++++++++++++OOOO#@*==*****==*=********@#OO...............OOOOOO++%++OO................OO.............X@$***********===****=**=$@+OOO....OO....OO..OOOO+OO.OOOOOOO+%%&%OOOOOOO.OOOOOOOOOOOOOOOOO+%%%++&*=**==*****=*****===**$@+XOOO+++%%%%%%%%%%%%%%%&&&%%%%%%%%%%%%%%%%%%%%%%%%%%%%%%%%%%%%%%%%%%%%%%%%%%%%%%%%%%%%%%%%%%&&&&&&&&&&&&&&&&&&&%+OOOOOOO....OOOOO+%+++OOOOOOOO+%&%%%@*=*********************=====***********=========@O...OOOO............................OX...O@***====*=====**======******==*$##@****=====**===*===$#oooXXXXoXXXXXXXXXXXXXXXXXXXX##@@@@@@@@@@XXX@@**====*=*====*****@@##@@@@@@@@@@@@$$$$$$$$$$$$$$$***$@#X#@**==*******=****@#XXXXXXXXX#@@@@@@@@$$$$***********=======*@#X@*====**=***===$XXXX##$*******====***@XXXXoXoXXXXX#@@$****$$$$$$$$$$$$******==;;;;;;==*********$$@@@##########XXXXXXXXXXXXXXXXXXooXooooooooooooo ooo       oo            ooX##@@$$$$@@@#XXXooooo................",
"@@@@XXX.oo.....XXX##@@@$$$**$$$*$***$$$$@@@@@@@@#@@@####@@####XXXXXXXXXX.o                        ...oo.ooooooo ..oooooooooo.ooo..ooooXXXX#@#####XXX#@@@@@@@@@@@@@######@@@####@@@@@@@##XXXXX##@@@##XXXXooXooXXXXX#####@@@$$$***************$@@*****=***====******$@#####@@$********=****=====**=*************$$****$$$$$$$$*@@XX@$=***=**====******$@@@++++#@**********===***===**$@#XX+XXXX+++++#X+++++++++++++++++O#@*==***=*****==**==**@#..........O.....O+OOOO++++++OO................OOOO...........X@*=*****===*==*===****==*@+++++OOOOOO..OOOOO.....O...OOOOOO+%%%%OOOOOOO.OOOOOOOOOOOOOOOO++%%%++&****===***==******==**$@@@++++++++++++++++++++%%%+++++%%%%%%%%%%%%%%%%%%%%%%%%%%%%%%%%%%%%%%%%%%%%%%%%%++++++++++++++++%++++%++++++%+++++OOOOOOO....OOOO++++++OOOOOOOO%%&%%%$***********************==***=**=*******========$@.....................X..............O....+$*****==*======*======*****=*=**@#$=**==========**==*$@###########@@@@@@@@@@@@@@@@@@@$$$$$$@$$@#X+@$****==*=*====*****@@@@@@@@$$*************************@XX@$=*==*=*****=**=*@##XX#X####@@@@#XX###@@@@@@@$$$$**********$@XX$*=====****===*$#XXX#@**=**=**====**$@XXXXoXoXXXX#@@$$*****$$$$$*$$$$$******==;;;;;;==*********$$@@@##########XX#XXXXXXXXXXXXXXXooXooooooooooooo o          o            ooX##@@$$$$$@@#XXXooooo.........XXXX...",
"@@@@XXXXoo.....XXX#+@@@$****$$$*$$**$$$$@@@@@@@@@@@@@@##@#####XXXXXXXXX.o.                        .o.ooXooooo.o  . oo...oooo.  .o  ooo.XXX#####XXXXX##@@@@@@@@@@@#######@@@####@@@@@@@##X#XXX##@@@##XXXXXooooXXXXXXooXXXXX##@@@@$$**********$@@$*=*===***===*******$@@@@@@$$********==****====*******************************$@##@$=**=*======**===*$@+++++OX#$*********==******=***@@@@@@@@@@@@@@@@@@@@@@@@@@@@@@@@++@@*===**==**=*=*******@#...OOOOO+++++@@@@@@@@@@@@@@++@#########+XXXXX+++++XXXXXXXX...+@*==****==*****=====***==*$$@@@@@@####XXXXXOOO++X+XX++O+OO++%&%%+++O++OOXXOOOOXXX+OO++++++%&%++&****==****====******=****$$$@@@@@@+++++OOOO+O+++++++OOOOOOO+++++OOOO++++OOOO++++OOOO++++++OOOOOOOOOOOOOOO+OOOOOOOOOO++++++++++++++++++OOXXXXXXXXXXXXXX++++++++++++++++%&&%%%**********=**=****====****==****====*==******==*@@####@##@@@@@@@@@@@@@@@@@@@@@@@@@@@@@@#O.O+***=********==****======*****=*=$@*=****========*****$@@@@@@@@@@$$$$$$$$$$**$*****************@@X#@$***=============*$@##@@@@@@$$$***********************@#X@****===*****=****$@@@$$$$$$$$$*@X......ooXXXXXXX##@@@@@@$@@@#XX$=**===*****=**$@@@@$***====**====**@#XXXXooXXXXX#@@$$*****$$$$***$$$$******==;;;;;;==*********$$@@@##########XX#XXXXXXXXXXXXXXXooXoXXooooooooooo o  o      oo           ooX##@@$$$$$@@#XXXXoooo....XX.XXXXXXO..",
"@@@@XXXXoo....XXXX#+@@$$****$$$*$$**$$$$@@@@@@@@@@@@@@@#@####XXXXXXXXXXXooo                      o.o.ooXXXoo...  .   o...o.o.       .oXXXX####XXXXXXX#@@@@@@@@@@####XX##@@@@###@@$@@@@##XXXXX#@@@@##XXXXXooooooXXooooooXXXX#####@@@$$$$****$$@@**=====***===*****==**$$*$****==*****==***======******$$$*********************$@##@*=**=*=======*=***@@X++OOOX@$***=******=******=***$*****************$***$$$*****@+++@$*=****==**=*=*******@X....OOO+++++@@@@@@@@$$&*&&&&&@@@@@@@@@@@@@@@@@@@@@@@@@@@++..X+@===***===*****=====***********$$@@@@@@@@+++++@@@@@@@+++++++&&&%++@+++++++++++++++++++++++%&%++&****=*****===*******=*====*****$$&@@+++OOOOOOOOOO++OOOOOOOOOOOOOOOOOOOOOOOOOO+++OOOOO++OOOOOOOOOOOOOOOOOOOOOOOOOOOO+++++++++++++++++++++++++@@++++++++++++%%++++++++++%&&%%%**********=*===**=====****===***======*=*=***==**@$$@@$$$$$**$$$$$@@@@@$$@@@$$$$$$$$$@@@..O+************==*****=======***===**********======*****@####@@@@@@$$****************************@@X#@$****=====***==*==$#XXXXX####@@@@@@@$$$$**************@XX@==**=******====****************@XoX... ....XXXXXXXXXXX#####XXX#$=*=**=*****************====**====**@#XXXXooXXXXX#@@$$*****$$$$***$$$$******==;;;;;;==*********$$@@@############XXXXXXXXXXXXXXXXooXXXXooooooooooooo  oo      o         o ooX##@@$$$$$@@#XXXoo.oo....XXXXXXXXXX..",
"@@@@XX.....XXX.XXX##@@$$$$$$$$$$****$$$@@@@@@@@@@############XXXXXXXXX....                       o...oXXoXo.ooo       ooo o   oooo..ooXXX#####XXXXXX##@@@@@@@@@@@#######@@@###@@@@$@@@##XXXXX#@@@@##XXXXooooooXooXoXooooXXXX########@@@@@@$$@@@*==**********==************************==*****=******@@@@@@@@@@$***************@##@*=***=********=*=*@#XXOOX.#@*****=*******=*=*=**$@@@@$$$$***********************@#++@$******===***=******$@#XXOOOOO++++XX+@@@@@@@@$*==******************************$@O..X$*==****====*=*****=****=**************$@@@@@@@+@&&@&@$$$$&&&&*$$@$$$$$$$$$$$$$$@@@$*$$***&&%%@&******====************==*************@@@@#XOOOOOOOOOOOOOOOOOOOOOOOOOOOOOOOOOOOOOOOOOOOOOOOOOOOOOOOOOOOOOOOOOOOOOOOOO+++@@@@@@$$$@@@@@@$$$$$$$$$$$$$$****$***********$$&&&%&&***************************==*******====*****=**@@@$$$*$********$**$$****$$$**********$@O.X@**====******=*******==******===****=====*****=**=*==*#XX.oXXXX#@#@@@@@$$$$$*******************@@X#@******====********@XX...X......XXXXXXXX####@@@@@@@$$$@#X@*****==***======*===*****=**==*$#XXX..............o.oooo...X..X@***====*=******************=*=**=**$@#XXXXXXXXXXX#@@$******$$$$***$$$$*****===;;;;;;==*********$$@@@###########X#XXXXXXXXXXXXXXooXoooooooooooo       oo                  ooX##@$$$$$@@##XXXooooooo....XXXXXXXXX.",
"@@@@XX......XXXXXX##@@$$$$$**$******$$$@@@@@@@@@@############XXXXXXXXX.....                     oo....XXXXoXoo.       oo.o.    oooooooXXX##@@#XXXX###@@@@@$$@@@@@@@####@@@@###@@@@$@@@##XXXXX#@@@@##XXXXXXXXooXooooooooXXXXXXX###########@@@@@$*******==****====**=*************====********==*****$@@@#####@@@@@@@@$$$$*****$@X#@*==*==***=****=*=*@#XXOOXO@@*****=*=*****=******@@##@@@@@@@$$*******************@#O+@$******===****==*=**$@@++OOO+++++XXXX#+#+###@@@$&$$*****************************$+X.X$*==****====*=*****=***==***********=****$@@@++++@@@@@@$$*&====**********=**************==&&%%@&*===**====******==*=**==****=*******==*$@@++OOOOO.OOOOOOOOOOOOOOOOOOOOOOOOOOOOOOOOOOOOOOOOOOOOOOOOOOOOOOOOOOOOOOOOOO+++++@@@@@@@@@@@@@$$$$************************====&&%%&&****************=***=*==***==*******====*=**===*@##@@@@@@@$$$$$$$***$***********$*$***$@..X@**====******=*******==******====****==*******=*==***$#.. ..oXXXXXXXXX##@@@@@@@@@@@@@$********$@#X+@***=*==*==***===**@XX...........X.XXXXXXXoXXXXXXX#####XX@*****==*****==*=====****===**=*$#Xoo.....    .................X@***=*=**=*==***************=****==*$#XXXXXXXXXXXX#@@$******$$$$****$$******===;;;;;;==*********$$@@@###########X#XXXXXXXXXXXXXXoooooXooooooooo       oo                 oooX##@$$$$$@@##XXXXoo.oo.....XXXXXXXXXX",
"@@@@XX......XXXXXX##@@$$$$*******$**$$$@@@@@@@@#@@#@##@#@#####XXXXXXXXXXXoo                     o .oooXXXXooo..          oooo  ooooooXXX##@@@######@@@$$*******@@@@@##@@@@@@##@@@@$@@@##XXXXX#@@@@##XXXXXXXoXXXXXoXoooooXXXXXXXX#############@@**==*====**======****=********=****====******=******$@@###XXXX#######@@@@@@@@@@#X#@*==*=*=*****==****$@@#@##@$********=******=*****@@++O...XXX#@@@@@@@@$@$$********@XO+@****=***==*****==****$$@@@@@@@@@@@@@@@@++..OO++++++@+@@@@@@$$***************=***$+X.+$*=*******====********====********==***=***$@++++++++++%%&&&&&&&&&******====**==*=*=======&&%%@***=****=******======**===***==*=**=**=****$@@#XO....OOOOOOOOOOOOOOOOOOOOOOOOOOOOOOOOOOOOOOOOOOOOOOOOO.....O.OOO...OO.OOOOOXX++#@#@@@@@@@@@@$$$$$*$***************=====*$&&&&*****=********=====*====**=====*======*=*****==*@#OOOO++++++@@@@@@@@@@$$*$$$$$$*******@@..#@***=******==********===*==***=************==*=*=**=*@#.. .................XXXXX####+@@@@@@@@@@+XX@@**=====**=**===**$@..................................XX#@*****=***********=******====*=*$XX...... .   ......X...o......#@***=********=*********=***==**==*=*@#XXXXXXXXXXXX#@@$******$$$$***$$$$*****===;;;;;;==*********$$@@@##########XX#XXXXXXXXXXXXXXoooooXooooooooooooo    oo                 ooX##@@$$$$$@@#XXXX.X.oo......X..X.XXX.",
"@@@@XXX.....XXXXXX##@@$$*************$$$@@@@@@@@@@@@##@@@@####XXXXXXXXXXoooo                    oo.oooXXXXXo...          ooooooooooXXXXX##@@@@####@@@@**********$@@@@#@@@@####@@@@$@@@##XXXXX#@@@@##XXXXXXoooXXXXXXXXXooooXXXXXX##############@*==**====***=====****==**===**=****===******====***$$@@@###XXX##X####XX######@@#X#@*==***=******=**==**@@@@@@**************===*****@@++X..XXXXXX+##@@@@@@@@$$$**$$$@XO+@$***=***=******==***************$$*$$$$@+.OOOO+++++++X###@@@@@@@@@@$$*******=***$+..+$********=====********====******************&&+++++%++++%%&&&&&&&&@$******==**====*===**==&&%%@***==***=*******=====**====***=****==**=*==**@@+O............OOOOOOOO.........O..O...O.OO....OO....OO.........O........O.....OOXXXXXX######@@@@@@@@$$$$*********=****=**@%&&&****************==***==============*****=****==$@#OOOOOOOOOOXXX+##@@@@@@@@$$$$$$$$$$$$@#..@$***=*****===*******========****************===****=*@X.. .. ................XXXXXXX+++@@@@####X.X@***=====**=**===*=$#..................................XX#@**********=***==**********==***@X.........  ................. #$**==******************==*****===*=$@XXXXXXXXXXXXX#@@*******$$$****$$$$******==;;;;;;==*********$$@@@##########XX#XXXXXXXXXXXXXXoooooXooooooooooooo  o  o                 ooX##@@$$$$$@@#XXXX.o.ooo..........XXX.",
"@@@@XXXXXXX..XXXXX##@@$$$**********$***$@@@@@@@@@@@@##@@@@@###XXXXXXXXX.Xo.                       o.oo.XXXXooo  ..        ooooooooXXXXXX#@@@@@####@@@$***********@@@@@@@@@@##@@@@@$@@@##XXXXX##@@@##XXXXXXXXXXXXXXXXXXXXXXXXX#########XXXX###@$***====**================****=***===*=***====******$$@@####XXXXXXXXXXXXX#XX#X##XX#@*=****==****==*=*************=*****===**=*==****@+++OO.....O++OO++++++O+++@@@@@@+O++@***==***=***=******=**==***************@+OOOOOO+++++OOOOOOOOO+++++++%&&&&@$$$$*$@X..+$*****==****=****=***=====***==***********=====&&&&&&&&&&&&&&&&&&&&&&&&&&&&&&&&&==========&&&%@**********=======*===****==**=***=*=*==****=**$@#O.......OOOO......O.............OOO.............OOOO............OO..........OOOOOOO.OO....OOOO++++@@++@@@@$$&$$*******&%%&&&**=***********==********==========***=**==*****$+++++OOO++++++++OO+++O++++++++++++@@@@+OOO@$***=******==*=****=======*****************====*=**=*@X........  . .................OO+++++OOOOO.X@***======***===***@#..................................XX#$**====********==****=*****==*=*@XXXo..ooooooXXXXXXXXXXXXXXXXXX@********=**=********==*====*====*=*@#XXXXXXXXXXXXX#@@$******$$$*****$$******===;;;;;;==*********$$@@@#########XXXX#XXXXXXXXXXXXXXXXoooooooooooooooo                       ooX##@@$$$$@@@#XXXo.X..X.....XX..XXXXO.",
"@@@#XXXXX.oX..XXXX##@@$$$**************$@@@@@@@@@@@@##@@@@@###XXXXXXXXX..o.                       oooo.XXXX.oo  ..         oooooooXXXXXX#@@@@@####@@@*************@@@@@#######@@@@$@@@##XXXXX##@@@@#XXXXXX############################XXX####@@**=====**=*============******===*==*==*=*====***=**$$@@@###XXXXXXXXXXXXXXXXXXXXXX@@******==****==*=**************=****===**====***$@+++O......O++OO+OO++OOO+++++++++O++@***==*=*=**==************************=*@+OOOOOO+++++OOOOOOOOOOOOOOO++&&&+@##@@@@@...+@*****==**************====***=**====**==**=*====:::::::&&&&&&&&::::::::&&&&&&&============&&%%@***********==*===**==**=*=========*====****===*$@+OOO....OOOO......OO............OOOO...O..O.....OOOOO..O.OOO....OOOO.O...O..OOOOOOOOOOOOOOOOXXXOXXX#++##@@@@@@@@@@@@@@%%%&&&***=**********************==*===****==*===******%%%%%+++%%%%++++++++++++++++++++++++#++OX+@********=**====****==**===**************=**==***=*==*#X...........  .................O+++++OOOO..#@*==*=====**=*==***@X...X..............................XX@$**==*=********==****=******===*@#XXXXX########@@@@@@@@@@@@@+XX@*******==*==********=**==**==**=*=$@#XXXXXXXXXXXXX#@@*******$$$$***$$$$*****===;;;;;;==*********$$@@@##########XX##XXXXXXXXXXXXXXXXooooooooooooo oo                     o  oX##@@$$$$@@@#XXXo.X..XX....XX..XXXX..",
"@@@@XXXX.o....XXXX##@@$$$**********$**$@@@@@@@@@@@@##@@@@@@##XXXXXXXXXX....                      o.oo.XXXXXXoo.             ooooooXXXXXX#@@@@@@@@@@@$*************@@@@#######@@@@@$@@@##XXXX##@@@@@#X#XX##@@@@@@$$$$$$$$$$$$$$$$@$$$@@@@@@@@#@@***==****==****======******===*****==**=*==****==*$$@@@@#####XXXXXXXX##XXX#######@$*=*=*====****===*==*===*******==****==***==****@++++OO....OOOOOOOO++OO+OOO+++++OOO++@*******==*=******====****=*************++OOOOOOO+++OOOOOOOOOOOOOOOOO%&&%++OO..XO....+@*******==****=*****======*********=***=****====&&&&&&&&&%%%%%&%&&&&&&&&&&&&&&&&&&&&&&&&&&&&%%@&***=*****===*=****======**=***=*****====***==***@+OO...OOOOOOOOOOOOOOOOOOOOOOOOOOOOOOOOOOOOOOOOOOOOOOOOOOOOOOOOOOOOOOOOOOOOOOOOOOOOOOOOOOOOOOOOOOOOOOOOOO+++++OOO++++++%%&****=***************===*********==****=*=*==***==*&&&&&&&&&&&&&&&&&&&&%%%%%%%%%%%%+++++++OO+@**=**====****====**==**==****====*****===*******=*=*$XX........... .................O++++++OO....#@****======**====**@X.X.X.XXXXXXXXXoXXXXXXXoXXXXXXXXXXXXX@*=**===******=========*******==*@@@@@@@@$@$$$$$$*********==*@XX@===****======***==**=******==*****$##XXXXXXXXXXXXX#@@*******$$$$****$$******===;;;;;;=**********$$@@@##########XX#XXXXXXXXXXXXXXXXXXXooooooooooo oo                    oo ooX##@@$$$$@@@#XXXooo........XX.XXXX...",
"@@@@XXXX.o....XXXX##@@$$$**********$**$@@@@@@@@#@@###@@@##@##XXXXXXXXXXX.o.                       ..o.XXXXXoo...            .ooooooXXXXX#@@@@@@@@@@@$*************@@@#########@@@@$@@@##XXXX##@@@@##XXXXXXX####@@@$$$$$***$$$$********$$$$$@@@@***===*********==*===*******==*****==****=*****=**$@@@@@####X####XXXX###XX#XX##X#@$=**=*=====**==*=**=***=*=*****==****==****=****@+O+OO.O...OOO++OOOO+OOOOOO+++++OOO++$*******==*==****==**=******************+OOOOOOOO++++OOOOOOOOOOOOOOOO%&&%+OOOO.......X@*=******=****==*****====**********=***=*******=&&&%%%+%%+++++++++++++++++++++++++++++++%%%&&%@&*****=**====******======*==*********===*****==**@@OOOOOOOOOOOOOOOOOOOOOOOOOOOOOOOOOOOOOOOOOOOOOOOOOOOOOOOOOOOOOOOOOOOOOOOOOOOOOOOOOOOOOOOOOOOOOOOOOOOOOOO++++OOOOOOOOO+%%&*=******************===*********=*****==**==**=*=*&&&&&&&&&&&&&&&&&&&&&%&&&%%%%%%%%+%%%+++++@=***=====****====**==**==****====****====*****===***$XX.............................O+++++OOO....@@*=========*=====**@XXXXXXXXXXXXXXXXXXX##########@@@@XXXX@*****==**==**=========*******==*@@@******************======*@XX@===*****=====**======*****==*****$@#XXXXXXXXXXXXXX#@@*******$$$$****$$******===;;;;;;=***$$*****$$@@@##########XX##XXXXXXXXXXXXXXXXXXXooooooooooooo                    oooooX##@@$$$$@@@#XXXooo.o......X...XXX...",
"@@@@XXXX..XX..XXXX##@@@$***********$$$$@@@@@@@@@##@#@@@@@#####XXXXXXXXo.ooo                    .  oooo.XXXXoo             oo ooooooXXXXX##@@@@@@@@@***************@@@#########@@@@@@@@###XXX##@@@@@#XXXXXXXXXXXXX##@@@@$$$*****************$@@$****====*=******=*******=====*********==*******=**$$@@@@@@@@@@@@@@@@@@@@@@@@@@@X#@$*===**=**=****==**************=******=*=**=****@++O+OOO...OOOOOOOOOOOOOOOOOO++OOO+++$=********===***==****=****************@@+OOOOOOO+++OO...O....OOOOOO++&&&+OOOO........@*=***********************==**************==***=**@+OOOOOOOOOOOOOOOOOOOOOOOOOOOOOOO+OOO+++%&%%+&***=====***********===***===***===**====****=****@+OOOOOOOOOOOOOOOOOOOOOOOOOOOOOOOOOOOOOOOOOOOOOOOOOOOOOOOOOOOOOOOOOOOOOOOOOOOOOOOOOOOOOOOOOOOOOOOOOOOOO++%%+OOOOOOOOO+%&&*********************=**=*======**==********=*==&@++++++++++++++++%%++++++++++++++++++++++++***=**===*********====**===*********======******====*$XXXXXXXXXXXXXXXXXXXXXXXXXXXXXXX#@@@@@@#XXX.X@*=**=========*====$@@@@@@@@@@@$$$$$$$$$$$$$********$*@XX@$**====***==******==************@@@@@@@@@@@@@@@$$$*****=====$#X#$========*****=**=*=**====*=***=*$@#XXXXXXXXXXXXXX##@@*******$$$$***$$$$*****===;;;;;;=****$*****$$@@@##########XX##XXXXXXXXXXXXXooooXooooooooo    o  o                  o ooX##@$$$$$$@@#XXXXXooooo.XX...XX.X.XXX",
"@@@@XXXXXXXX.XXXXX##@@$$***********$$$$@@@@@@@@@##@@@###@#####XXXXXXXXo.ooo                       .ooo.XXXXoo          o  oo  oooooXXXXX##@@@@@@@@****************@@@#########@@@@@@@@###XXX##@@@@@#XXXXXXXXXXXXXXXXX##@@@@@$$$$**********=$@@$***======*=****==******=======*******==**=****==******$*$$$$$$$$$$$$$$***$$$$@@XX@**===***===**********=********==******===******$@++++OOO..OOOO++++OOOOOOOOOOOOOO+OOO+$*********===***==****=****************@@+OOOOOOO+++OO........OOOOOO++&&%+OOOO........@$==*******=**************==****=*********=*=**=**$@OOOOOOOOOOOOOOOOOOOOOOOOOOOOOOOOOOOO++%&%++&****====*=****=***====***===****==**====*********$+++O+++++++++OOOO+OOOO++++OOOO++OOOOOOOOOOOOOOOOOOOOOOOOOOOOOOOOOOOOOOOOOOOO+OOOOOOOOOOOOOOOOOOOOOO++++%%%+OOOOOOOOO+%&&******************=*=====**=*==****=*********==*&+O+O+++O+OOOOOOOOOO++OOOO+OO+OO+++OOOOOOO++***=**===*****=***====**==********=*======***=**=*=**$##########+@@@@@@@@@@@@@@@@@@@@@@$$@@@@@XX.+@*=***=====*=======$@@@@@@$$$$************************@#X#***===***===*=******$$$$$$$$@@@@@XXXXXXXX##XX###@@@@$$$*$$**@XX@$*==*====********=****====******$@@#XXXXXXXXooXXXX##@@*******$$$$***$$$$*****===;;;;;;=****$******$@@@##########XX##XXXXXXXXXXXXXoooXXooooooooo    o oo                  o ooX##@$$$$$$@@#XXXXooooo.XX....X....XXX",
"@@@@XXXX..XX.XXXXX##@@*************$**$@@@@@@@@@##@@@@########XXXXXXXXXXooo                       oooooXXXXooo            oo  ooooooXXXXX#@@@@@@@@****************@@@#########@@@@@@@@###XXX##@@@@@##XXXXXXXXXXXXXXXXXXXXX###@@@@$$*******=$@@$*======**==*****===********=*=*==****===*==*******************************=***@##@**=**===*===*=*==**====**======**********====**$@@@@@@@@@@@@@@@@@@@@@@@@@@@@@@@+++O+@*********=**=***==**=*==**==*=*=*******@@+++++++++++++XX#XXXXXXOOOOO++&&&+OOO.XXXX....#@*********=**************==**====**********=**===*@OOOOOOOOOOOOOOOOOOOOOOOOOOOOOOOOOOOO++%&%+++**==**==========********====****======*=**===**===&&&&&&&&&%%&%&&&&&%%%%%%%%%%%%%%%%%%%%%%%%%%%%%%%%%%%%%%%%%%%%%%%%%%%%%%%%&%%%%%%%%%%%%%%%%%%%%%&&%%%%&&&%++O+OOOOOO+%&&**************************************====**=*=*@@O+++OO++O+++++++X+++++X#++++#####@@+++OO+@***=*=====****==**=*==**==******========*=**==***=***@@@@@@@@@@@@$$$$$$$$$$***$$*************$@#X@$*==**=====*======*@###@@@@@@@@$$*******************=*@X#@*===****======*=*$@@@@@######XXXX..X..........oXXXXX##+###@#X.X@*=****====*==***********=****=*$@@@#XXXXXXXXoXXXXX##@@*******$$$$****$*******===;;;;;;=****$$****$$@@@##########XX##XXXXXXXXXXXXXXooXXoooooooooooo  oooo                   ooX##@$$$$$$@@#XXXX.oo.........XX....XX",
"@@@@XXXXX....XXXXX##@@$***************$@@@@@@@@@##@@@@########XXXXXXXXXXoooo                      ooooXXXXXooo           ooo ooooooooXXXX##@@@@@@@$***************@@###XX#####@@@@@@@@##XXXX##@@@@@##XXXXXXXXXXXXXXXXXXX########@@@@@@$$$$$@@@$***====**===**=*=====***=****====*=====**===*****$$$$$$$$$$***********=======*@##@*****==**===*====*=====*=======**********==*==**$$****$@$$********$@@@@$@@@@@$$@@+O+@*********=****=**=*****=====****=*==***@@@++++@@@@&@@+@@@@@@@@@+++++++&&&+++O++XOO+O..X@$********=**************==***===******=******=***@+OOOOOOOOOOOOOOOOOOOOOOOOOOOOOO+OOO+++%&%++@**==***=========*********===***====*******====*====&&&&&&&&&&&&&&&&&&&&&&&&&&&&&&&&&&&&&&&&&&&&&&&&&&&&&&&&&&&&&&&&&&&&&&&&&&&&&&&&&&&&&&&&&&&&&&&&&&&&&&&&%+++++++++O+%&&******************===****=****************=*===*@@++++++++++++@@+@@@@@@@@@@@@@@@@@@@@@@+O.+@***=****=****===****==***=*****=========****==****=*$@@@@@@@@@@@@$$$$*************==**********@#X@***=**==========*=*@XXXXXX###@@@@@@@@@$$$$************@X#@*===****======*=*@##XXXX.XXXXXXXXXXXX......... oXXXXXXXXXXXX..X@*=****======****************==$@#@@##XXXXXXXXXXXXX##@@*******$$$*****$*******===;;;;;;=****$$****$$@@@##########XX##XXXXXXXXXXXXXXoooooooooooooooooooooo                   ooX##@$$$$$$@@#XXXX.o..........XX....XX",
"@@@@XXXXX...XXXXXX#@@@$***************$@@@@@@@@@##@@@@@#@@####XXXXXXXXXooo..                      ooXXXXXXooo             oooo oooooooXXXX#@@@@@@@$**************@@@###X######@@@@$@@@##XXXXX##@@@@#XXXXXXXXXXXXXXXXXX########@@@@@@@@@@@@@@@@$***====**==****====****==**==******====********$$@@@@@@@@@@@@@@@$*****========@##@******==============****=======*=********==*=*@@@@$****************************$@+O#@*********=*********=====*******====***$@++@@@@@@@&$$$$$$**$$$$$$$$$@$$***$$$$$$$@@@@X..+@*******==******************====***************==*@@+++@@@@@@@@@@@@@@@@@@@@@@@@@@@@@@@@@&&&+++@**=**==***===****=***==****====**==****=**=*======&%%%%%%%%%%%%&&&%&&&&&&&&&&&&&&&&&&&&&&%&&&&&&&&&&&&&&&&&&&&&&&&&&&&&&&&&&&&&&&&&&&***&**&*******$$$$$$@@@@@@@@@@+++%&&==*****************=*==*$$$$$$$@@@$$$$$$$$$$$$$$@@@@@@@@@$****$$$$$$$*********$*******@#..#@==***=****========***==***====*=======****====*==***@#XXXXX###@@@@@@@@@@@$$**********=**=*****@##@****=*========***=$@......X.....XXXXXXX####@@@@@@@@@@@#X@$*==*****==**=*=*$@XXO....OO....OO.XX...... .....XX............#@==**====**=*****==********=***$@#@@@##XXXXXXXXXXXXX#@@*******$$$*****$*$****====;;;;;;=**********$$@@@###########X##XXXXXXXXXXXXXXXXXoooooooooooooooooo                    ooX##@$$$$$$@@#XXXX....XXX...XX.....X.X",
"@@@@XXXXoX.XXXXXXX#@@@****************$@@@@@@@@#@@@@@@@@@######XXXXXXXXXoo.                      oooXXXXXXooo               ooooooooooXXXX#@@@@@@@$$*************@@@###X######@@@$$@@@##XXXXX##@@@##XXXXXXXXXXXXXXXXXX##@@@@@@@@@@@@@@@@@@@@@@***=====**==**======**=*==**==******=*********$$$$*@@@@#######@@@@@@@@@$$$*****@##@**=****=**=====*===******========****==**===*@@@+@@@@@@$$$*********************$@OO+@*********=**********=*************=***$@++++#@@@@&$$$$*$***********$**===**********$+X..@@**=***==******************====*=*************==*@@@@@@@@@@@@$$$$@@@@@@@@$$$$$$$$$****&&&&%++@$*=**==*****=**====*===****====***=******==*===*=*@%++%%%%%%%%%%%%%%%%%%%%%%%%%%%%%%%%%%%%%%%%%%%%%%%%%%%%%%%%%%%%%&&&&&&&&&&&&&&&&&=======*=====****************@$@++%&&==***************=*=***$#####XXXXX#########@@@@@@@@@@@$*$$****************************@#.X@$=****=****=======*****=***====**==*===****====**==**@X .oooooXXXXXXXXX####@@@@@@$$$***********@X#@**=*=***======****@#..........X.XXXXXXXXXXXXXXXXXX####XX@$******=****=*==*@#OOO.O.OOO....OO.XX.  ...    ..XX............@$==**==*=**=******=********=***$@@@@###XXXXXXXXXXXX##@@*******$$$*****$$******==-;;;;;;=**$*******$$@@@##############XXXXXXXXXXXXXoXXXooooooooooooooooooo                   ooX##@$$$$$$@@#XXXX..o.XXX...XX.......X",
"@@@@XXXXoXXXXXXXXX#@@@$**************$$@@@@@@@@###@@@@@@##@###XXXXXXXXXXoo.                       .oXXXXXXooo                ooooooooooXXX#@@@@@@@@$$************@@@##########@@@$$@@@##XXXXX##@@@##XXXXXXXXXXXXXXXX###@@@@@@@@@@@$$*$$$@@@#@@**=***==**===**======*====*===*****==********$$$***@@@@@###X####XXXX####@@@@@@@@X#@**===**======****==**********=====****=***=*$++OOOOX+XO+++@@@@@@@$$$***********$@OO#@********==****=***==**$$$$$$$$$$$$$$$$@+OOOOXX++++++@@@@@@@@**********===********=**@@..O+$*==***********=****==********==**************=*@@@@@@@@@@@@$********************====**=&&++#@@****=********====**====**==****====******===**=*@+OOO++++OOOOOOOOOOOOOOOOOOOOOOOO+++OOOOO+++++++++++++++++++++++++++++@@@@@$$&&&&*****==================****==***@@+%&&=********=********===*$@......................XXXXX#++@@@@@@@@@$$$$$$********=***=****@#..@$=****===**==****=*****==****==******===*******=*==*$#X........................XXX++++@@@@@@@@@#X@@*==============*=*@#.......................OX.......X.XX@************====*@#OOOO..O.O....OO.XXX.....o ...XXX..XXX..X..XX@****===****************=====**=$@@@@###XXXXXXXXXXXX##@@*******$$$*****$$*****====;;;;;;=**********$$@@@############XXXXXXXXXXXXXXXXoXoooooooooooooooo  oooo                 ooX##@$$$$$$@@#XXXXooooXX....XX......XX",
"@@@@XXXXXXXXXXXXXX##@@@**************$@@@@@@@@@@##@@@@@@##@###XXXXXXXXXXoo.                       ooXXXXXXooo           .    oo.oooooooXXX##@@@@@@@@$************@@@##########@@@@$@@@###XXXX##@@@##XXXXXXXXXXXXXXXXX##@@@@@@$@@@@$$$$$$@@@##@******=***===*=======*====*===*****==*******$$$$*$$@@@@##XXXX###XX#XX########@@###$**===**====******==************===***==*****@++OOO+XOX....XX#####@@@@@@@$******$@OO#@********==***====***@@@@@@@@@@@@@@@@@@++O......OO+++++####@@@@@@$$$$**===************@O..+@$************==*=***=**=*****===***==***=******+X++++@@#@@@@@@@@@*******==********=**==&&++X#@$**===*******====**====**=*****===**********=*=*@+OOOOOOOOOOOOOOOOOOOOOOOOOOOOOOOOOOOOOOOO+++OOOOOOO+OOOOOOOOOO+++O++++++++###@@@@@@@@@@@@@********==***====*****@#+%&&=********=********==**@#..........................XX.XXXXXXXXX###@#@@@@@@@@$$$$$******@#.X@*****=*=***=***********==************===*******=**=*$#.........................X.XXXXX+++++###XXX@$**==========*====*@X.......................O...OO.....XX@**********=****=*@#OOOOOOOX.....OO.XX......  ...XXX...XO......X@************=*$@$*=***=*====**=*@@@@##XXXXXXXXXXXXX##@@********$$******$*****====;;;;;;=***********$@@@############XXXXXXXXXXXXXXXXoooooooooooooooooooooooo                oooX##@$$$$$@@@#XXXooooo......XXX.....XX",
"@@@#XXXXXXXXXXXXXX##@@@**************$@@@@@@@@####@#@@@@#######XXXXXXXX.o.                      o ooXXXXXXXoo              o    ooooooooXXX##@@@@@@@$***********@@@@#########@@@@@@@@@##XXXX###@@@@#####@@@@@@@@@@@@@@@@@$$$@@@@@@@@$$@$@@@@@@**===***===*==*=*====***====*******=******@@@@$$$$@@@@@####XXXXX#X###+#XXXXX#####@$***==*=*******=*==*=**=***===******==***=**@+++OOO++O......O+++OO.OO+++++++@@@@++OO#@*******=***=********@XOO..........OOOOOO.......OOOOOOOOO.....OOOO+++++&&&&@@@@@$$$$*$@+..OX+@$************======*=****==*====**=====**=*=*#...........OO+++++@@@@@@@@@@$******====&&+++++@@*==********====**=====*====***======**=**====*@OOOOOOOOOOOOOOOOOOOOOOOOOOOOOOOOOOOOOOOOOOOOOOOOOOOOOOOOOOOOOOOOOOOOOOOOOO.OOOOOOOOOOOXXX++++@@@@@@@@@@*$*****$$+++%$==********==*********=*@#..................................................XXXX##@@@@@@+.X+@*==*=**==******==***$=*==**==****======*********=*=*@X.............................OO+++++++OXXX#$*==*==============*@X................XX.X.X..X...OX....XX$***********=**=*$@#X###XX###X#########XXXXXXX########@@@@@@XXX#$==*=********=*@@@*===******=**=*$#@@##XXXXXXXXXXXXX##@@$******$$$**************==;;;;;;=**********$$@@@##########XX####XXXXXXXXXXXoooXXoooooooooooo  oooooo o              oooX#@@$$$$$@@@##XXXoo.X...XXXXXXXX...XX",
"@@@##XXXXXXXXXXXXX##@@@**************@@@@@@@@@#@##@@@@@@#######XXXXXXXXX.o                      o  ooXooXXXXo               .  oooooooooXXX#######@@$$**********@@@@@########@@@@@@@@@##XXXX###@@@@#####@@@@@@$$$$$$$$$$$$$$$$$$$$$$$$$$$$@@@@*====***======*=**=**************=******$$@@@@$$$$@@@@####XXXXXXXX#XX+XXXXXX######$*=*==*=**==**====****==*****=******==****@@++++OOO++O......X+++O..X.OOO.OOXXX#++OOO#@**********==*******$@X............OOOOO........OOOOOO.............OOO+%&&+###@@@@@@@@@+O...O#@@$**********=====*******=**=******====*==*=$X..............OXOXXXXXX#####@@@@@@@**==&&++OOO+@@$**===****====**==****====****========****==*@OOOOOOOOOOOOOOOOOOOOOOOOOOOOOOOOOOOOOOOOOOOOOOOOOOOOOOOOOOOOOOOOOOOOO.OOOO...OOOOOO...XXXXXXXXXXXXX####@@@@@@@@@+++%$==********=************@#......................................................XXXXXXXX..X+$*=*****==****==**=*@@**======****====******=******=*@X..............................O+++++OOOXXX#$*==*=============*$@X........................X.X.......X#$***********==****@@@@@@@@@@@@@@@@@@@@@@@@@@@@@@@@$$@$*****@#XX@*===**********@@@@*=====****==*=*$@@@##XXXXXXXXXXXXX##@@*******$$$******$*******==;;;;;;=**********$$@@@##########XXXX##XXXXXXXXXXXoooXooooooooooooo    oooo                oooX#@@$$$$$@@@##Xoooo.X..XXXXXXXX....XX",
"@@@@#XXXXXXXXXXXXX##@@$**************@@@@@@@@@@@@@@@@@########XXXXXXXXXXoo                         ooooXXXXXoo         .   o..oo  ooooooXXXX#######@@$**********@@@@@########@@@@$@@@@##XXXX###@@@@###X#####@@@@$$$$$********************$$@@@*===*****==*==*==***$$$@$$$$***********$$@@@@@$$$$@@@@######XX##X####X###########@$***==**====****=************=******==**=*@#OO++OO+++OO......OOOOO..OOOO..OOOOO+OOOO@@**********===*=****@@X..............OO.........OOOOOOOOO..OO........O+%&%+OOOO......OOO......O#+@@@$********==***=********************=*=$+...............OOO.....OOOOOOO+O+++++&&&&++OOOO+++@@$**==**=*==*===****==*=*******===*******=*@OOOOOOOOOOOOOOOOOOOOOOOOOOOOOOOOOOOOOOOOOOOOOOOOOOOOOOOOOOOOOOOO..OO.....................OO.............OOO+O++OO++%*=****==***=********===*@X................................................................X@********===*====*==$@#@***=*=******=******=====**===*@XX.............................O+++++++OXO#@*=============*===*@#XXXXXXXXXXXXXXXXXX#XX##########XXX.X#$***********===****$$$$*$*****************************=====*#XX@*=*=**==*=**=*@@#@==*****=*===***$@@@##XXXXXXXXXXXXX##@$*******$$$****$$$*******==;;;;;;=**********$$@@@###########XXXXXXXXXXXXXXXXXoXoooooooooooooo      oo               ooooX##@$$$$$@@@#XXooXo.....X....XXXXXXXO",
"@@@@#XXXXXXXXXXXXX##@@@**************@@@@@@@@@@@@@@@@@########XXXXXXXXXXo.                        oooXooXXXooo             ooo   oooooooXXXXXX#####@@@$$*******$@@@@#########@@@@$@@@@##XXXX##@@@@@#XXXXXXXX####@@@@$$$*******************$$@@***==***==****====*$@@@#@@@@@$$$$$$$***$@@@@@$**$$@@@@@@@######X#######X##X######@$*=*=***====*****=**************=****=****@XO+++OOO++OO......OOOOO....OO..OOOOOOOOOO@$*=**==****=====****@#X..............OOO........OOOOOOOOO.OOOO.....OOOO%&%+OOOO.............OOOXX#@@@@@$$*******=************=*********===$X.......................OOOO..OOOOOO++%&&%++OOOO++++@@@@******=***==****************===******=*@OOOOOOOOOOOOOOOOOOOOOOOOOOOOOOOOOOOOOOOOOOOOOOOO..OOO.....OOOO..........................................OOOOOOOOO+++*=*****************=**=*@X................................................................X@*******===**=====*=@#X@*****====**********=====**===@#...............................O++++++++XO#@*=================*@#XXXX++###@@@@@@@@@@@@@@@@@@@@@@@#X.X@*=*==*******====*=***********==*==*$$*******=****=====*====*#XX@******==****=*@##@*********===***$@@@##XXXXXXXXXXXXX##@$*******$$$*****$$*******==;;;;;;=****$*****$$@@@###########XXXXXXXXXXXXXXXXXoooooooooooooooo                       ooooX##@$$$$$@@@#XXXXoX.....X....XXXXXXXO",
"@@@@#XXXXXXXXXXXX##@@@@***************@@@@@@@@@@@@@@@@###@@###XXXXXXXXXXoo                       oooooooXXooo          .  oo.oooooooooooXXXXXXX#XX##@@@@$***$$$$@@@@@#######@@@@$$@@@@##XXXX##@@@@@#XXXXXXXX#######@#@@@$$*****************$@@**************===*=$@#######@@$$$$$$$*$$@@@@$*******$$@@@@@@@@@@@@@@@@@@@@@@@@##X@**===*====****==*=*@$**********==*********@+O+++OOO+++OO.....OOOOOOOOOOO...OOOOO...O@****===*******=*****@+X..............OO.OOO....OOOOOOO..OOOOO......OOOO%&&+OOOOO..........O.OOOOOOOOO+++@@@@$$&*$***************=**=*****=$X.......................OO....OOOOOOOO%&&%++OOOOOOOOOO++@@@@@$**************====**=*==****==*=$@OOOOOOOOOOOOOOOOOOOOOOOOOOOOOOOOOOOOOOOOOOOOOOOO.O.OOOOO...............................O..................OOOOOOOO+@*=****************===*=*@X................................................................#@****=**=**=*****=**@..#$****==*=*******=**=====*===*@#..XXXXXXXX...XXXXXXXXXXXXXXXXX###@@@@@@#XX#@*==============****$@@@@@**$**********************==$@XX#@*=**==****==****=***===***====**==@@@@@@@@@@@@@@@$******==*@XX#@***=*===**===$@##@*=******====***$@@@##XXXXXXXXXXXXX#@@$*******$$$******$*****===-;;;;;;=**********$$@@@###############XXXXXXXXXXXXXXXXoXooooooooooo  o     oo             ooooX##@$$$$$@@@#XXXXXX........XX...XXXXX",
"@@@@XXXXXXXXXXXXX##@@@@***************@@@@@@@@@@##@@@@###@@###XXXXXXXXXXoo                       oooooXXXXXooo  oo   ..ooooooooooooooooXXXXXXXXX#####@@@@@@@@@@@@@@@@######@@@@@$$@@@@##XXXX###@@@@#XXXXXXXXXXXXXXX####@@@$$$$$$$**********$@@**************===*=$@########@@$$$$$$*$$@@@@$*************************$$$$***@@##@***=======**====*=@@@@********===***=*****@@++++OO++++OO.....OOOOO.OOOOOO.OOOOOO...O@****===*=*****==****@#X.............OOOOOOO.....OOOOOO.O.OOOOOOO..OOOOO%&&+OOOOO..........OOOOOO.OO..OOXX###@@&@@@******=*=****==**=******$X..............................OOOOOOO%&&%+++OO+OOOOOOOOXX+++@@@@@$****=****====**======*===*=$@OOOOOOOOOOOOOOOOOOOOOOOOOOOOOOOOOOOOOOOOOOOOOOOOOOOOOOOO..OO......OO..OO......OOO...OOOO..OO.O..OOOOOOOOOOOOOOOOOO+&*=**************=**====*@#XX..X.XXXX.......XX.X.XXXX......................................#@***==***********=**@..#@**==*=********==**=====*****@@###+#+####+++#@@@@@@@@@@@@@@@@@@@@$$$$@@#X@@*=============**=*$$$*@$*****=******************=*==*@XX#@*=*===****==****===*==****==*=**=*@#XXXXXXXXXX####@@@@@@@@@@X.#@******=******@###@*****=**==*=***$@@@##XXXXXXXXXXXXX#@@$*******$$$*****$$*****===-;;;;;;=**********$$@@@##############XXXXXXXXXXXXXXXXXXoooooooooooo  oo    oo     o       ooooX#@@$$$$$@@@#XXXXXX........XX....XXX.",
"@@@@XXXXXXXXXXXXX###@@@*************@@@@@@@#@#@@###@@@########XXXXXXXXooXoo                   o  ooooXXXXXXoooo ooooooo.oooooooXoXXXoXXXXXXXXXXXXX####@@@@@@@@@@@@@@#########@@@$$@@@@##XXXXX##@@@@###XXXXXX#XXXXXXXX###@@@@@@@@@@$$$$$****$@@********====*===**=$@#######@@@$$$$$$$$@@@@@@@$*****************==*====**===**@##@******===***=====*@##@$********=*****=*****@@@@@@@@@@@@@@@#@@@@@@####@#######++++OO+@*****=*==****==*****$@####XXXXXXXXXXXXXXXOO......OO....OOOO+XOOOOOOOOO++&&+OOOOOO..O.XX##XXOOOO.....OOOOOOOO++%++@@****=**=***===**=*==***@O.............................OOOOOOOO%&&&++++OOOOOOOOOOOOOOOOOO+++++@@*=***=*==*===*******==*@#OOOOOOOOOOOOOOOOOOOOOOOOOOOOOOOOOOOOOOOOOOOOOOOOOOOOOOOOOOOOO.OOOOOOOOOOOOOOOOOOOOOOOOOOOOOOOOOOOOOOOOOOOOOOOOOOOO+&*=*****************==*=*@@@@@@@@@@@@@@@@@@@@@@@@@@@@@#XXX.................X...XXXXXXXX....@$***=*==***==****=**@...+$*=*********====****=***==**@@@@@@@@@@@@@@@$*************************$@#@***=============*=*@@#@@@@@@@@@@@$***************=*==*@XX@$*=*===***===***========******==*=*@#OOO............O...XXOO..X@$****==*******@###@*=**===**==****$@@@##XXXXXXXXXXXXX#@@$*******$$*******$*****===-;;;;;;=**********$$@@@###########X####XXXXXXXXXXXXXXXXoooooooooooo  oooo  oo    oo       ooooX#@@$$$$$@@@#XXXXXo.o....XXXX..XXXXXO",
"@@@@XXXXXXXXXXXXX##@@@@*************@@@@@@####@@##@#@@########XXXXXXXXoooo                    oo ooooXXXXXXXXoo ooooooo.ooooooXXXXXXXXXXXXXXXX########@@@@@@@@@@@@@@##X######@@@@$@@@@##XXXX###@@@@###XXXXXXXXXXXXXXXX##@@@@@@@@@@@@@@@@$$$@@@$******=*======****$@#######@@@$$$$$$$@@@@@@@@$$*$$$@@@@@$$*******=****=====**@##@******==****=====*@@X@@*********************&&&&******$$*@@@@$$$$@@@@@@@@@@@@@@@++O+@*******====**====*=*$@@@@@@@@@@@@@@@@@+@+++++OOOOOOOOOOOOO++++++OOOOO++%&&%+OOOO.....#@@@@+.OOO...OOOOOOOOOO++%+O+@****==*=****==**=*==***@.............................OOO..OOOO+&&&++++O+OO+OOOOOOOOOOOOOOOO+++@*=*****=**===*******==*@#OOOOOOOOOOOOOOOOOOOOOOOOOOOOOOOOOOOOOOOOOOOOOOOOOOOOOOOOOOOOOOOOOOOOOOOOOOOOOOOOOOOOOOOOOOOOOOOOOOOOOOOOOOOOOOOOOO+&*=*****************====*$@$$@@@$$$$$$$$*$$**********@@XXXXXXXXXXXXXXXXXXXXXX++###@@@@++..X@*=*****=***==******$#...X$*==***==***====********==*$@@#@@@@@@@$$*****************************$@#@***=*===========***@XXXXXXXXX#####@@@@@$$$$$$$**$****@#XX@*==**==***====**==*===****===*=****@XOOO............O..XOO....O@***=**=*******@X##@*=**====***=***$@@@@#XXXXXXXXXXXXX#@@$*******$$******$$*****===-;;;;;;=**********$$@@@##########XX####XXXXXXXXXXXXXXXoooooooooooooo ooooooooo   oo       ooooX#@@$$$$$@@@#XXXooo..X..XXXXX..XXXXXO",
"@@@##XXXXXXXXXXXX###@@@*********$*$@$$@@@@@@####@@##@@@@#####XXXXXXXXXoooo                      o ooXXXXXXXooo..oo.. ooooooooXXXXoXXXXXXXXXX##########@@@@@@@@@@@@@##XXXXXX###@@@@@@##XXXXXX##@@@@@###XXXXXXXXXXXXXXXX##@@@@@@###@@@@@@$@@@@@@******=======*****=$@########@@$$$$$$$$@@@@@@@$**$@@@@@@#@@@@@@@@@******=====*@##@**==*==**=*=======@@++@*******=************$@@@@@@**=****==============*=*******@#X+$********=****====**************************@@@@@@@@@@@@@@@@$@@@@@@@@@@@@&&@@@@@@#OO..@****$@@@@######XXXO+++++%++@@******=****=*=****===*@@##XXXXXXXX#X#XXXXXXXXXXXXXXXXXXXXXX+OO++&&*&@@++++++++++++++++++++++++$*====****==**====**===*++OO+OOO++++++++++OOOO+++O+++OOOOOOOOOOOOOOOOOOO++OOOOOOO+O+++++++++++++++++@@@+++@@@+++@@@@@+@@@@@@++@####@##++O+O+@&*=*********=********=*************************==***=*$@@@@$@@$$$$$$$$$$$$$$$$$$**$$$$$XX.X@****===****=*******@X....@$**==*=====*****===****=*=$#XXXXXX####@@@@@@@@$$********===***=*=***$##@***==**=======*===*#X...............XXXXXXXXXX###@@@@#XXX@*****====***===******=====****=**=*++XOO.............O........X@*********=***$@###@*=**==*=**==****@@@@#XXXXXXXXXXXXX##@$*******$$$****$$******====;;;;;;=*****$****$$@@@@##########XX#XXXXXXXXXXXXXXooooXXoooooooooooooo                   ooooX#@@$$$$$@@##XXXXoX..XXXXXXXXXX..XXXX",
"@@@##XXXXXXXXXXXX###@@@***********$@$@@@@@@@@###@@@#@@@@#####XXXXXXXXXoooo                        ooXXXXXXXoo oooo     o  oooooooooXXXXXXXXX##########@@@@@@@@@@@@##XXXXXXX###@@@@###XXXXXXX##@@@@@##XXXXXXXXXXXXXXXXX#@@@@@######@@@@@$@@@@@@******===*==*******$@########@@$$$$$$$$@@@@@@@$***@@@@@#########@@@@@@@@$$***$@@#@*===*==*==**=*===*@#++@@************==******@@++##@@@@@$$$$***===========*******@@X+@*******==*=**==**************************=*@@@@@@$$******==***********$&&&&$$**&@+O.O@***=***@@@@@@@@@@++++++%&+@@@******=***====**==**=**$@@@@@@@@@@@@@@@@@@@@@@@@@@@@@@@@@@++OO++&=====&&&&&&&&&&&&&&&&&&&&&&&&======****=****===**=*=*++++++++%%++++%%%+++++%+++++++++++++++++++++++++++++++++++++%%%%&&&&&&&&&&&&&&&&&&$$&&&&$@$$&&$$$$$&&@$$@$$$$$&@+@++&*==******************=====***************=*=**===*************************************$XXXX$****=******==******@X....#@***=**==*******===****==*@XX..X.XXXXXXXXXXX###@@@@@@$*************$@##$*=*=***=**====*=**$#X....XX.........XXX..XX.XXXXXXXXXX.X#$**=**===****===****===*==*****=***@++.OO.....................X#$****=****=*=*@#X##@************=*=*@@@@#XXXXXXXXXXXXX##@$*******$$$******$*****====;;;;;;=*****$****$$@@@@###########XXXX#XXXXXXXXXXXooooXXoooooooooooooooo                 ooooX#@@$$$$$@@##XXXooX..XXXXXXXX.XX.XXXX",
"@@@##XXXXXXXXXXXX###@@@$**********$@$@@@@@@@##@@@@###@@@@#####XXXXXXXXoooo                        ooooXXXXXoo   o            ooooooooXXXXXXX#########@@@@@@@#######XXXXXXXXX###@####XXXXXX#X##@@@@@##XX#XX###X##XXXXX##@@@@@@@#@##@@@@@@@@@@@@********=*==*******$@########@@$$$$$$$$@@@@@@@$**$@@@@@####XXX#X##X#####@@@@@@###@*=**********==*==*@#++#@***********=*==*****@@++.OO++X#####@@@@@******======****@#XX$*************==**=*=*****====****=========*@#++@@@@@$$$*========================@+OO+*=**==*=***************************==*****====**====*************************************@+O++*===============================**=*=**===********====&&:::::::::::::::::::::::::::::::::::::::::::::::::::::::::::::::::::=:=::=======================================*&&====********************===*********==============****$@@@@$@@$$$$*************========@X.X#$=***=*****====***=*@X....X#*==*=*******==**===*===**@X...................XXO+++++@@@@@@@@@@@@@@X@$*=*===***====**==*@XX..................................X@*=*==********===***===*=*******=***@++XXXX....oXXXXXXX.XXXXX..X@*=**********=*@XX+#@*****====*******@@@@#XXXXXXXXXXXX###@$*******$$$****$$******===;;;;;;;=****$*****$$@@@@###########XXXX#XXXXXXXXXXXXXooXXoooooooooo oooooooo              ooooX#@@$$$$$@@##XXXooo....XXXX...XX.XOOX",
"@@@##XXXXXXXXXXXXX##@@@$*********$@@$@@@@@@@###@@@@#####@#####XXXXXXXXXooo                        ooooooXXXoo   o  .        oo oo  oooooXXXXXX##XX################XXXXXXXXXX########XXXXXX####@@@@@########@####X#######@@@@@######@@@@@@@@@@$**********===******$@##X####@@@@$$$$$$$@@@@@@@$$$$@@@@@###X##XXXX################@*==*****==***=****@@++X@$*******************@@++OOO+++XXXXXXX##@@@@@@$$$*******$@XXX$******=*******=*====******===****==*==*==*$#XXXXX##@@@@@@@$******==============*@+OO@***********===***================*=*******====**===*$$@@@$$******========================@+O+@*====*=*=**=****============***=**=***====********====&&:::&&&&&:&&&&&&&:&&&&&&&&:::&&&:&&&&::::&&&&&&::&&&&&&&&&&&&&&::&&&&&&&&=======================================*&&====********************===**********=============****@XX#####@@@@@@$$$$$$***********==@X.X@*=******==*====***=*+X....oX$***=********=****====**$@......................O+++++++@+@@@@@@@##XX@*==*====**====**==$@X...................................X@*=**==******====**====*********=*=*@XXXXX.....XXXXXXXXXX##@#..X@********=*****@XX##@****==*****=**=*@@@@#XXXXXXXXXXXXX#@@$*******$$$******$*****===;;;;;;;=****$*****$$@@@@###########XXXXXXXXXXXXXXXXXXooXXoooooooooo ooooooooo o            ooXX#@@$$$$$@@##XXXooo.....XXX..XXXXXXX.",
"@@@##XXXXXXXXXXXX##@@@@@*********$@@@@@@@#####@@@@@#####@@#####XXXXXXXXXoo                         oooooXXXooooo   .          ooo  oooooXXXXXXXXXXX#############XXXXXXXXXXXX########XXXXXXXX###@@@@#XX##@@@@@@@@@@@@@@$$$$$@@@@@@@@@@@@@@@@@@$*******************$@@######@@@@$$$$$$$@@@@@@$$*$$@@@@###XX############++++##+###@********=**==***=*@@+++#$********************@++OOO+++O......X++OO+X+++++@@@@@@@+OXX$***************=====*******=****==*=*=****@+OOOO..OOOOOOO+++++@@@@@@@$*=====**$&++O+@******=***=***=******==*=============*===*=****=*==$@XX++#+@@@@@@$$$********==========*==@XX#@*==*=*=****=****==========*****=*==***===**********==&%+%%%++++%++%+++++%%+++%%%%%++++%%%%%%%%%%%%%%%%%%++++%%%%+%%%%%%%%%++++%+%%&&&&&&&&&&&&&&***===================&+@&**=*********************===**********=======*****====$X.....XX...XXXXXXX##@@@@@@@@$$**$@..X@*=*******======*==*$X.......@$***=******==**==***=**@#.......................OOOO+OO++++++++++XX#@*=******=**=======@@XX........XX...X....X...............X@*=*==********======**********====*$@##########@@@@@@@@@@***@Xo#@*************$#XXX#@****======*==*=*@@@##XXXXXXXXXXXXX#@@$*******$$$******$******==;;;;;;;=**********$$@@@@##########X##XX#XXXXXXXXXXXXXooooooooooooooooo    o o  o           oooX#@@@$$$$@@##XXXooo....XXXX..XXXXXXX.",
"@@##XXXXXXXXXXXXX###@@@@$********$@@@@@@@##@##@@@@@@@@@@@@@#####XXXXXXXXoo                        ooooXXXXoooo    oooooo    ooooo  ooooXXXXXXXXXXXX#############XXXXXXXXXXXX###@####XXXXXXXX###@@@##XXXX##@@@@@$$$$$$$**$$$$$$$$$$$$$$$$$$@@@$**************=****$@#######@@@@@$$$$$$@@@@@@$$$$$@@@@@###XX++X+#####X#X+++####X#@*********=====**=*@@+OOX@*=******************@++OOO+++O.O....O+++OXXXXO.XXX#####OOXX$***************************==********=*==*@OOOOOOOOOOOO..OOO+++++++O++@@*==**$@%+++@****====***======*****===*==*=========*===***==*=*==$#X...XXXXX####@@@@@@@$$$$$******===*$@XX#@**=***=====****=====*=====**==****==**************=*&++++++O++++++++OOOO++O+++++++OO++++OOOO++OO+++OO+++++++++++++OO++++++OOOOOOOOOO+++++++++++++@@@@@@@$$$$*********$+++@***=********************==******==**========*****====$X.....X......XXXoXXXXXXX######@@#X..X@*=**==****===*==***@.. ... .#@*=*****=**==**==****=*@X..........................OOOOOO++++++OO..#@*=******=*=====*=*@#XX..................XX..............#$==*=********======*=**==**=***====**$$**$$$$$*******=======@Xo@$***==********@#XXX#@****=**========*@@@##XXXXXXXXXXXXX#@@$*******$$******$$*****===;;;;;;;=**********$$@@@###########X##XXXXXXXXXXXXXXXXoooooooooooooooo     o    oo          ooXX#@@$$$$$@@##XXXXoX....XXXXX.XXXXXXO.",
"@@##XXXXXXXXXXXX###@@@@@$********@@@@@@@@#@@@@@@@@@@@@@@@@@####XXXXXXoXXo.                        oooXXXXXooo   oooooooooo    oooooooooXXXXXXXXXXXXX############XXXXXXXXXXXX###@###XXXXXXXXX###@@@##XoXXXX######@@@@$$$*******************$@@$*******=========***$@########@@@$$$$$$$$@@@@@$$$$$@@@@@##############X#########X#@**==*=*=*====*=*=*@@++OO@*******************=*@+O.O+++O......O++OOOOO+OOOOO+++OOOOXX$*****************=******=*=*******=**=*==*@OOOOOOOOOOOO..OOOOO++++OOOOO++&&&&&&&&&&*==*===*=***=**********=**==****===***======***=====*@O.OO...............X++#+#@@@@@@@@@@@@#.X@$******=***************==*******=******************=*@+++OOOOOOOOOOOOOOOOOOOOOOOOOOOOOOOOOOOOOOOOOOOOOOOOOOOOOOOOOOOOOOOOOOOOOOOOOOO.OOOO.OO.OOOOOOOOOOOO++++++++++++++OO+@********************************==****====*******====@....................................#$==**==*****=*=*****@........X@*=*=*===*******=****=*@X...........................OOOOOOO++++OOOX@@*=****=*===*====**@#XXXXXXXXXXXXXXXXXXXXXXXXXXXXX#XXXX..@$==****==******====****=====***=*****==*******=*************@XX@*=******==*=**@XXXX@@***==*********$$@@@@#XXXXXXXXXXXX##@@********$$******$$*****===;;;;;;;=*****$****$$@@@##########XX####XXXXXXXXXXXXXXXoooooooooooooooo         o o o      oooXX#@@$$$$$$@##XXXXXX.X...XXXX.X.XXXXXX",
"@@##XXXXXXXXXXXX####@@@@$$$***$$*@@@@@@@@#@@@@@@@@@@@@@@@@@###XXXXXXXXXXo.   o                  oooooXXXXooooo   ooooooooo     o   oooooXXXXXXXXXXX##@@@@@@@@###XXXXXXXXXXX####@##XXXXXXXoXX########XXXX############@@@$$$$$$$************$@@$*********=*=====***$@######@#@@@$$$$$**$$$$$*****$$@@@@@@@#####X#####X###X###X#X#@**======*===**===*@@+OO.#@********************@@OOO+++O......O++OOOOOOOOOOO+++OOOO.X$*******=********==*===**===*******==***=**@.OOOOOOOOOO.....OOOOO+++OOOOO+++%&&&&&&&*=****=*********=*****==*********=******=*******==**@@.....................XXXXXXXXXXX###@OX.+@$**********************=*==**===********************$+OOOOOOOOOOOOOOOOOOOOOOOOOOOOOOOOOOOOOOOOOOOOOOOOOOOOOOOOOOOOOOOOOOOOOOO..OOOO...OOO......OOOOOOOOOOOOOOOOOOO+O+++OO+@*********************************=******==*****=*=*=*@....................................@$==***=*****=******$@........X#$**=====******==*****$@X............................OOOOOOOO+OOOOO@****=****=======***@#OXX##########@@@@@@@@@@@@@@@@@@@#XXX@*******====***=********=====***=***@@@@$$$$$$$$$$$$********$@X#@***=*********@#XOXX@@**$$@@@@@@@@@@@@@@@##XXXXXXXXXXXX##@@********$$******$$*****===;;;;;;;=**$$*$****$$@@@##########XX######XXXXXXXXXXXXXoooooooooooooooooo       o   o      oooXX#@@$$$$$@@##XXXXXX.X..XXXX..XXXXXXX.",
"@@####XXXXXX#########@@@@$$$$$$$@@@@@@@@@#@@@@@@@@@@@@@@@@####XXXXXXXXoo                         ooooooooooo    oooooooooo        ooooooooXXXXXXX###@@@@@@@@@@####XX##############XXXXXXXXXX##############@@@@###XX###@@@@$$@@@$$$$$******$$$$************=******$@####@#@@@@$$$$$$*********===**==*****$$$$@@@@@@@@@@@@@@@#XX@@*****=**=**=*====*@#++O.X@*=******************$@+OO+++OO....OO++OOOO+++OOOOOOOOO.OO+************=*******====****==*=**==*******@OOOOOOOOOO..........OOOOOOOOOOOOO++++++%**=***==************====**=***************==****===*@#O................................O....X#$********************=***=*****=*********************@+OOOOOOOOOOOOOOOOOOOOOOOOOOOOO.OOOOOOOOOOOOOOOOOOOOO....OO.OOO......OO........OOO.....OOO...OOOOOOOOOO...OOOOOOOOO.O#@**=*==************=======****===***=====*****====***$@...................................X@*=***********=*****@#.........X@=*******=**=****==*=$XX......XXX..X..XXXXXX.XXXXXXXXXXXXX#X+X..X#$*****=**=***===***$@@@@@*@$$$$$*********************@X.X#$*****==*******=****=*===***=****==*@#++XXXXXX#######@@@@@@@@#X#@@$$@@@@@@&@@@++OOXX@@@@#XXX....XXXX#@@@@##XXXXXXXXXXXX##@@********$$$*****$$*****===-;;;;;;=**********$$@@@@##############XXXXXXXXXXXXXooooXXXooooooooooooooo  oo     ooooo    ooXX#@@$$$$$@@###XXX.X.XXXXX..XXXXXXXXOO",
"@@######XXX########@@@@@@@$$$@@@@@@@@@@@#@@@@@@@@@@@@@@@@@###XXXXXXXXXooo                       oooooXooXXXoo   ooooooooo      o  ooooooooXXXXXXX##@@@@@@@@@@@#######@@@@@######XXXXXXXXXXXXX####@@@####@@@@@@@######@@@@@$$@@@@@@$$$$****$$$$**********====*****@@#######@@@@$$$$$$*$$$$$***=****===********************$@@#X@$******===**======*@#+O..X#$*****=**************@+OO++OOO.....OOOOOOOOOOOOOOOOOOO..X+************===******===**=====*=*==*=*****@OO....OOO...................OOOOOOOOOOO+************=*==**********==********====**====**===$@X......................................X#$=***************************==***************=*****@@O.OOOOOO..OOOOOOOOOOOOOOOOOOO..OOOOOOOOOOOOOOOO.OOOOOOOOOO.......O.OOOO...OO....OO....OOO...OOOOOO.......O...OO.OO.O@@*******************==*===*****==****====****==*=****@@...................................X@*=*****************@#...... . .@**=****===*=****==*=$XX..XXXXXX##XXXX###++++##@@@@@@@@@@@@@@+..X#$********==********$@@@@@@$**************************@XoX@*==*****==*****==***=========***==*@#XXXOX......ooXXXXXXX###X...#####XXX+@+++++XOOXX@@@@#XX....XX.XX#@@@@##XXXXXXXXXXXXX#@@$*******$$$*****$$******==-;;;;;;=**********$$@@@@##############XXXXXXXXXXXXXooooXXooooooooooooooo   ooo   oooo o    ooXX#@@$$$$$@@###XXX.o..XXXX.XXXXXXXXXXO",
"#############@##@@#@@@@@@@@@@@@@@@@@@@@@@@@@@@@@@@@@@@@@@@####XXXXXXXXooo                       oooooXXXXXoooo  oooooo  o o     oooooooooooXXXXXX##@@@@@@@@@@#####@@@@@@@@@@##XXXXXXXXXXXXX#####@@@@@@@@@@@@@@@#######@@@@@@@@@@@@@@@$$$$$$$$$$**************===*$@#######@#@@$$$$$$$$@@@$$****$$$**********=*==******====*@##@***========*=*====*@#OOO.X+@***************=*****@@@@@@@@@@##@@@@@############XXX..X@*******=****=*==***=***=====*===****===***$@................................OOOOO.X@**********======*********====**=**======********==$@XX......................................X@*=***********************=***==*********************@#.OOOOOO.......OOOOOOOOOOOO..OO.OOOOOOOOO..OOOO..OOOOOO.OOOOOOOO..O.OO................OOO........O............O......@@*******************************=******==**======*=**@#XXXX...X...........XXXXX..XXXXXo..X#$*=*==****=*=**===**@X..........#@=****======*****=**$@@@@$@@@@$**$$$$$$$$******************@#.XX@$*************=****@########@@@@@@@@@@$$@@$$$$$$$***$@Xo#$===*****==*****=======*******$$$$@@+O+O+O...  ..........XXXX.....OOOOOOO++++++OO..XX@@@@#XX....XXoXX@@@@@##XXXXXXXXXXXXX#@@********$$$*****$******===-;;;;;;=**$$$*****$@@@@@#############XXXXXXXXXXXXXXXoooXXoooooooooooooooo  oo            ooooXX#@@$$$$$@@##XXXX.o..XX....XXXXXXXXOO",
"##########@@@@@@@@@@@@@@@@@@@@@@@@@@@@@@@@@@@@@@@@@@@@@@######XXXXXXXXooo.                      oooooXXXXoooo     ooooooooo      oooooooooooXXXXXX##@@@@@@@@#####@@@@@@@@@@@#XXXXXXXXXXXXX#####@@@@@######@@@@@#############@@#####@@@$$@@@@@@@$$$$$$$$$*********@@#XX######@@$$$$$$$$@@@@$$**$$@@@$$@@$@$$$*************=*@##@*==*======**====*=*@#OX..XX@***======***====******$*****$$$@@@@**@@@@@@@@@@@@@@@+O.X@*******=*===**===****=****==**==****==****$@XX..XX................................+@**********======***********==*****======********=*@#XX......................................#@*************************=*==*************=********$@XOOOOOOO........OOOOOO.OOOO..OO..OOOO.OOO..OOOO..OOOO....OO...OOOOOOOO...OOOO....OOO..OOOO..........................O@$*********************************=****==**======*=**@#XXX....XX.XXXXXXXXXXXXXXXX####+X..X@*==*===**=====*===**@X...... ...X@******===*=**=*****$@@@@@@@$$*****************************@X.X#@************==*****@#XXXXXXXXXXXXXX#########@@@@@@@@@#XX#$==***=**$*$$$$$@@@@@@@@@@@@#####XX..O+++O...............X++O......OOOOOOO+++++OO..X+@@@@XXXX..XXXoXX@@@@@##XXXXXXXXXXXXX#@@********$$$*****$*******==-;;;;;;=**$$$*****$$@@@@############XXXXXXXXXXXXXXXXXXXoXoooooooooooooooo  ooo    o      ooooXX#@@$$$$$@@##XXXX.o.oXX....XXXXXXXXXX",
"######@@@@@@@@@@@@@@@@@@@@@@@@@@@@@@@@@@###@@@@@@@@@@@@@#######XXXXXXXXooo                      oooooXXXXooooooo  oooooooooo   ooooooooooooooXXXXXX#@@@@@@########@@@@@@@@@@#XXXXXXXXXXX####################@@####XXXX#X#############@@@@@@@##@@@####@@@$$$$$$$$@@##########@@$$$$$$*$$@@@$$**$$@@@@@@@@@@@@@@@@$$******==*@##@*==*=====*========*@#OX....@$**==**=****=*********$**===*==*********=******=***$@O.#@****==****==****===*=**********=*=****==*=*$@@@@@@@@@@@@@@################XX+X....@************=**=***==****======*=*====**=*********$@XXXXXXXXXXXXXXXXXXXXXXXXXXXXXXXXXXXXX....@@************************=****==*******************$@+OOO..OO..OOOO..OOOO........O.OOOOOOOO.OOOO.OOO...OOOOOOOOOOO.OOOO....OOOOOOOOXX.XXXXXXXOOXXXXXXXXXXXXXXXXXXXXXXX....+@*=*********************************===*=====******=**@@@@@@@@$$@@@$$$$$$$$$$$$$$$*****@..X@*==*==*************$XX...........#$*=*====**=*******@#XX.XXXXX#@@@@@@@$$$$****************=*@X.X@$************====***@#X.........XXX.......X...XXX..XX....X+##########XXXX..X..XO+++OOOOOOO.....O+++O....... ........+O.......O.O.OOO+++++OO..X+@@@#XXo....XXoXX@@@@@##XXXXXXXXXXXXX#@@********$$$****$$*******==;;;;;;;=**$$*$****$$@@@############XXXX#XXXXXXXXXXXXXXXoooooooooooooo oooo o    oo       ooooXX#@@@$$$$@@@#XXXXXX.oX....XXXXXXXXXXX",
"@###@@@@@@@@@@@@@@@@@@@@@@@@@@@@@@@@@@@@###@@@@@@@@@@@@######XXXXXXXXXXooo                      oooooXXXXooooooo  ooooooooooooooooooooooooooooooXXXX########XXX###@@@@@@@@@###XXXXXXXXXX#####X##X###############XXXXXX#X##########X###@@@@@@@@@@@@#####@$$$$$@@@@@##########@@$$$$$**$$@@@$$**$@@@@@@@########@@@@@@@$$$***@##@*========*========*@@OO....#@**=************=*=**$@@@$$$*********=*====*=*==***$@XX@@****==*=**==*****===***********=*=*=*===*=*$**************$$$$$@@@@@$$@@$$$$$@+...@*******==******=**********==*==*********==*******$$@@@@@@@@@@@@@@@@######XXXXXXXXXX##X#XX...O@************************************************==*@#XOOOO.OOO.OOOO..OO.O....O.OOOOOOOOOOOOOOOO..OOO...OOOOOOOOOOOO++++++++++++++++++++++++++++@@@@@@@@@@@@@@@@@@@@@@@+OOX@$**=*********************************=**======********==******************======*=====*@..X@*==*==****==*=*****$XX..........oX@*====********=***@#oXoXXXXXXXXXXX#####@@@@@@$$$$$$$*****$@XXX@********************@##X.XX.........XX.X...XXXXXX...X......XXXXXXXXXXXXX.......O+++OOOO++O.....OO++O....... .......OO+.......O....O++++++OOOOX+@@@#XXo..oXXooXX@@@@@##XXXXXXXXXXXXX#@@********$$$****$$$******==-;;;;;;=**$$$$****$$@@@############X#XX#XXXXXXXXXXXXXXoooooooooooooo   oo   o         o  ooooXX#@@$$$$$@@@#XXXXXX.o......XXXXXXXXXX",
"@@@@@@@@$$***********@@@@@@@@@@@@@@@@@@@######@#@@@#########XXXXXXXXXXooo                       oooooooooo o  oo  ooooooooooooooooooooooooooooooXXXXXXXXXXXXXXXXX##@@@@@@@@@###XXXXXXXXXXXXXXXXXX#####@####@@@############@@@@#######@@@@@@$$$$@@@#####@$$$$$@@@@@@#########@@$$$$***$$@@$$***$@@@@@@@#XXXXX##XXXXXXXX##@@@#X+@@$$@@**********===*@@OOOOOO#@**==******==***===**$@X#####@@@@@@@$*****=****=*=*$@XX@*****==******==***===************====**====$$@@@@$$$$****====****=*==========*$+X.X@*=*****==****==*=*******===************==***=************************$$$$$$$$$$$$$$$$$$@@OOXX@*********************************************=****@+OOOOOOOOOOOO.OOOOOOOO..OOOOOOOO..O.OOOOOOOOOOOOOOOOOOOOOOOOOOO+++++@@@@$$$*$$$$*****************************=====*$+XX@***==*******************************====**==******==**$*$**********=***=**==***=======$@..#$**=====****=*===***@XX............@$*====*======*=*$@X. ....................XXXXXX#+#+#@@@@@O..+@$$@@@@@@@@@$*****$@@@+X....XXX.X.XX...............................X.X..........O+++OOOOOOO.....O+++O...      ..  ..O++X...........OO+++++OOOOX+@@@#XXX..o.XX.XX@@@@@##XXXXXXXXXXXXX#@@********$$$****$$$******==;;;;;;;=*****$****$$@@@#################XXXXXXXXXXXoXXooooooooooooooo  oooo         ooo   oooXX#@@$$$$$@@@#XXXXXo.oXX.X..XX.XXXXXXO",
"@@@@@@@$*************$@@@@@@@@@@@@@@@@@@####################XXXXXXXXXXoo                     o ooooooooooo      ooooooooooooooooooooooooooooooooXXXXXXXXXXXXXXXXXX##@@@@@@@@@@##XXXXXXXXXXXXXXXX##@@@@@@@@@@@@@##@@@@@@@@@@@@@@@####@@@@$*****$$@@#####@$$$$@@@@@@@#########@@$$$$**$$@@@$$***$@@@@@@@##XXXXXX##XX####X#X##XXX########@##@@@@@@@@@@@++++++@@@$**********====****@@XXXXXXXXXXX#@@@@@@$$$$$*****$@XX@**=*====*****=*******************==*==*====@@XX##@@@@@@@$$$******========**===*+X.X$=******==*****=**====****==************==*****$@@@@@@@$$$********===*====**======****==*@OOX+$*************************************************@@+OOOOOOOOOOOOOOOOOOOOOO.OOOOOOOOOOOOOOOOOOOOOOOOOOOOOOOOOOOOOOOOO+++++@@@@@@@@@@*************===========**======*==$+XX@************************************====**===***====*$@@##@@@@@@$$$$$$$$*******=***===@#..@$**====*=**==*===***@.X....... ....#@**===**==******$#o..........................XXXXXXXXXXXX....X###########@@**&$@@##XX..OO..XXX.XXXX..................... ........XX..........O++++OOOOOO.....OO++O...       .. ..OOO............O++++++OOOOX#@@@#XXXX.oXXX.XX@@@@@##XXXXXXXXXXXXX#@@********$$$****$$$******==;;;;;;;=**********$$@@@@#################XXXXXXXXXXoXXoooooooooooooooooooooo    oo   oo   ooooX#@@$$$$$@@@#XXXXXX.XXXXX.XXXXXXXXXXO",
"@@@@@@@$**************@@@@@@@@@@@@@@@@########################XXXXXXXXooo                    oooXooooooooo...oooooooooooooooooooooooXXXXXXXXXXXXXXXXXXXXXXXXXXXXXX###@@@@@$$@@@@#XXXXXXXXXXX#####@@@@@@@@@@@@@@@@@$$$$********$@###@@@$$$******$$@####@@$$$$$@@@@@########@#@@$$$$$$$$@@@@$$***@@@@@@@##XXX###XXXXXXXXXXXX#########+##XX++XXXX++++++++++++++++@@+@@@@++++++++@&@OOOO+OX.......+++XO+++XXX#@@@@@+.+@$*=======*****=*****===***====***=====*=*==@X.    ....XXXXX#@@@@@$$***********@+..+@********=*****=******===*******=********=**==$@XX.XXXX###@@@@@@@$$****===========*=***=*@..X+*==***********************==********************&@+OOOOOOOOOOOOOOOOOOOOOOOOOOOOOOOOOOOOOOOOOOOOOOOOOOOOOOOOOOOOOOOOOOOOOOOO+OO++++++@@@@@@@@$$$$$*******=****===*******@X.#@******************************************==**==**=**@O...O...O+XX++@@@@@@@@@@@@@@$$*$@X..+$==========****====$#...............+@@$$$@@@@@@@@@@#.... ..........................................O....XXOX+&&&=*&@@#XXXX..OOXXX.X...X..........X...................X....  ....O++++OOOOOO.....OO++O...      .   ..OOO......O....OO++++++OO.OO+@@@+XXX....oXoXX#@@@@@#XXXXXXXXXXXX##@@********$$$*****$$******==;;;;;;;=**$$$*****$$@@@@##############XXXXXXXXXXXXXXXXooooooooooooooooo     ooooo  o    oooooXX#@@$$$$$@@##XXXXX.XXXX.XXXXXXXXXXXXX",
"@@@@@$********=*=*****@@@@@####@@@########XXXXX#X###############XXXXXXoooo              oooooooooooooooooooooooooooooXooooooooooXXXXXXXXXXXXXXXXXXXXXXXXXXXXXXXXXX##@@@@$$$$$@@@#XXXXXXXXXXX#####@@@@@@@@@#@@@@@@@$$$$********$@##@@@@@@$$*****$$@#####@@$$$@@@@@@########@#@@$$$***$$@@@@$$***@@@@@@@##XXXXXXXXXXXXXXXXXX#+####++#+X+XX+++XXX++++++++++++++++++++++++++OO++++++OOOOOO.......O++O..OOO..XX+#+#XXO+@@@@@@@@@@@@@@@$$$$$$$**$**********===*====*@X.........oooXXXXXX###@@@@@@$$$$$*@#XXX@@***==********=******===***********=********$@X...o.XooXXXXXXXX###@@@@@$$$$*******=***=*@...+$**********************************************@@#OOOOOOOOOOOOOOOOOOOOOOOOOOOOOOOOOOOOOOOOOOOOOOOOOOOOOOOOOOOOOOOOOOOOOOOOOOOOOXXXXXXXX#####@@@@@@@@$$$$$$$*********=**@X.#@*===***********************===*==**=====**====****=*$@X.OO.....OXXXXXXXXXXXX#X####@@@@#X..+@@@@@@@@@@@@@@@@@@@#X........ .......XXXXXXXXXXXXXXoo.... ...............................................XXXX+@&&==&&++XXXX..XOXXXX...XXX....XXX.............  .. ...XX...   ....O+++OOOO+OO.....OO++O...     .. . ..OOO......OO....O++++++OO.OO+@@@+XX......XXXX@@@@@#XXXXXXXXXXXXX##@@********$$$*****$$******==;;;;;;;=**$$$$****$$@@@@###############XXXXXXXXXXXXXXXooooooooooooooooo      oo o  o    oooooXX#@@$$$$$@@##XXXXX.XXXXX.XXXXXXXXXXXX",
"@@@@@****========*****@@@@##################X#######@@@@@@@@#@@@##XXXXXooooo           oooooooooooooooooooooooooooooXXXXooXXXXXXXXXXXXXXXXXXXXXXX#XX##XXXXXXXXXXXX##@@@@$**$$$@@#XXXXXXXXXXX####@@@@@@@@@###@@@@@@@@$$$$*****$$@@@@@@@@@@$$$$$$@@@######@@@@@@@@@@########@#@@$$$**$*$@@@@$****@@@@@@@##XXXXXXXXXXXXXXXXXXXX++++XXXXXXXX++XXXX++++++++++OOOOOOOO+++++OOOOO+O+++OO...OO........++OOOOOO...OOOOOOOOO+OOOO...........X..X.XXXXXXXXXXXX+++@@@@@@@+O................ ... ......XXX##+@#....XO@@@@$***********************************$@@@.....................XXXXX####@@@@@@@$@***@+OOO+&&*&**===***====****==******==**********=***&@++OOOOOOOOOOOOOOOOOOOOOOOOOOOOOOOOOOOOOOOOOOOOOOOOOOOOOOOOOOOOOOOOOOOOOOOOOOOOOOOO....OOOOOOOOOOOO+++++++++++++@@@@@@@$@&@OO+&************************==*&&$$$&&&&&&&&@@@&@@@@@@+@++OOOOOOOOOOOOOOOOOOOOOOOOOOOOOOOOO..OOOOOOOOO.................................... .......... ..................................................XXOO+&&&***&@++OOO..OXXX....XXXXXXXXXXXXX.......oo....  .....XX...  ....O+++OOOO+OO.....OO++O... .   .  . ..OOO.......O.O..O++++++OO..X+@@@+XX....ooXoXX@@@@@##XXXXXXXXXXX###@@********$$$****$$$******==-;;;;;;=*$$$******$$@@@@##############XXXXXXXXXXXXXXXoooooooooooooooooooo        o oo      ooXX#@@$$$$$@@##XXXX..XXXXXXXXXXXXXXXXXX",
"@@@@****=========*****@@@#########################@@@@@@@@@@@@@@#@##XXXXoooooo    ooooooooooooooooooooooooooooooooooXXXXXXXXXXXXXXXXXXXXXXXXXXX#XXXX#X##XXXXXXXXXX##@@@@$**$*$@@##XXXXXXXXX#####@@@@@@@@@@#@@@@@@@@$$$$$$$**$$$@@@@@@@$$$$$$$$@@@########@@@@@@@@@###X######@@$$$$$$$$$@$$*****@@@@@@@####XXX+X#XX####XXXXXX+XX+XXXXXXXXXXXXXX++++++++OO........+++++OOOOOO++++OO...OO........++OOOOOO...O++OOOOOOOO.O..........oooo..o....... ooo....XXXXXX.................................XX.........XXX##@@@$$$$********==***********$$$@@@@@#XX.........................XXXXXXX###@#@@@@@@+OOOO++@@@*****======***********=**************@@@@++++OOOOOOOOOOOOOOOOOOOOOOOOOOOOOOOOOOOOOOOOOOOOOOOOOOOOOOOOOOOOOOOOOOOOOOOOOOOOOOOOOO.OO.OOOOOOOOO+++OOOOOOOOXXXX+###@@@XOOX+@@@@@@@@@@@@@@@@@@@@@@@@$&@@++##++XXXXOOXXXXXXXO++OOOOOOOOOOOOOOOOOOOOOOOOOOOOOO.O..O...OOOOOOOOOO...............O....................................................................................OO+@&&&&&&@++OOOX.OXOXOOOOXXXXXXXXXXXXXX......oo..... ....XX..... ....O+++OOOO+OO.....OO++O...     .  . ..OOO.......O...OOO+++++OO..X+@@@@XXX....oXoXX@@@@@##XXXXXXXXXXXX##@@********$$$*****$$******==;;;;;;;=*$$$******$$@@@@##############XXXXXXXXXXXXXXXXoXoooooooooooooooooo        ooo      ooXX#@@$$$$$@@##XXXX..XXXXX.XXXXXXXXXXXX",
"@@@@****=========***$@@@##################@@@@@@@@@@@@@@@$$$@@@@@@@#XXXXooooooo oooooooooXXXXXXoooooooooXoooooooooooooXXoXXXXXXXXXXXX############@@@@##@##XXXXXXXX##@@$$$****$@@#XXXXXXXXXX######@@@@@@@@@##@@@@@@@$$$$$$$$$$$$$@@@@@$$*****$$@@@##############@@@##########@@@@$$*$$$$@$$*****$@@@@@@###XXXXXXXX###XXXX+##+XXXX###XXXXXXXXXXXX++++++O..........O++++OOOOOOO+++OOO.OOOO......O++OO.OOO...OOOOOOOOOOOOOOO.........  ............. ....................... ....  . ...   ....... ..... ...........XXX##@@@@@@@@@@@@@@@@@@@###XXX... ...............................OOO+++++++++++++++++++++%&&&&&&&&&&================*&&&&&&&%%+++++++++++++++++++++++%%%%+++%%%%%%%%%%%%++++++++%+++++++++++++++++++++++++++OOOOOOO...OOOOOOOOOOOOOO+OO+OO+++++++O+O++OO+++OOOO+OOOOOOOOOOOOOOOOOOOOOOO++%%+OOO+++++++++++++++++++++++++++++++++++++++++++++++++++++OOOOOOOOOOO++OO........................................  .........................................................OO+@&&&&&&&++++XXXXXXXXXXXXXXXXXXXXXXX....XXXXo...........XXX.. ......O++++OOOOOO.....OO++OO.. .   ..  ....OX.......O....OO+++++OO..X+@@@#XXX...ooooXX@@@@@#XXXXXXXXXXXX###@@********$$$*****$$******==-;;;;;;=**$$******$@@@@@###########XXXX##XXXXXXXXXXXXXXXoooooooooooooooooooooo  ooooo      oooX##@$$$$$@@##XXXXX.X..XXXXXXXXXXXXXXX",
"@@@@*****=======****$@@@#####X###########@@@@@@@@@@@@@@$@$$$@@@@@@@#XXXXooooooooooooooooooXooXXXooooooooXoooooXoooooooooXXXXXXXXXXXX#######@@@@@@@@@@@@@###XXXXXXX##@@@$$****$@@##XXXXXXXX#######@@@@@@@@@@#@@@@@@@@$$$$$$$$$$$$@@@@@$$$$$$$$@@@@@##########@#@@@@##########@@@@$$*$*$$@$$*****$@@@@@@##XXXXXXXX+###XXXX+###+XXX##+#XXXXX#XXXXX+++++XO..........O++++OOOOOOOO++OOO.OOOO......O++OOOOOO...OOOOOOO...O..OOOO......... ........       ..................................  ...........................XXXXXXXXXXXXXXXXXXXXXXXXoooo.. .................................O+++++%%&&&&&&&&&&&&&&&&&&&&&&&&&===================&&&&&&&&&&&&&&&&&&&&&&&&&&&&&&&&&&&&&&&&&&&&&&&&&&&&&&&&&&&&&&&&&&&&&&&&&&&&&&&&&&&&&&&%%+OOOOOOOOOOOOOO++++++%%%%%%%%%%%%%+++++OOO++OOOOOOOOOOOOOOOOOOOOOOOOOOO+++%%++++%&&&&&&&%&&&&&&&&&&&&&&&&&&&&&&&&&&&&&%&&&&%%%%%%%%%%%%++++++++O++OO.....................  .......................... .................................................OO+@&&&&&&&&++++XXXXX+++X+XXXXXXXXXXXXXXXXXXXXX.....oo...XXXX.... ....O++++OOOOOO.....O+++O... .   ..  ....OXX...........O++++++OO..X+@@@#XXX...ooXXXX@@@@@##XXXXXXXXXXX###@@********$$$*****$$******==-;;;;;==**$$******$@@@@@###########XX#X##XXXXXXXXXXXXXXoooooooooooooooooooooooo ooooo     ooooX##@$$$$$@@##XXXXXXXXXX.XXXXXXXXXXXXX",
"@@@@*****=*====*****@@@@##########@@@@@@@@@@@@@@@@@$$$$$$$$$$@@@@@##XXXXooooooooooooooooooooooooooooooooooooooXXoXoXoooXXXXXXXXX####@@@@@@@@$$***$$$@@@@@@#XXXXXXX###@@$******@@##XXXXXXXX#######@@@@@@@@@@@@@@@@$@@@$$$$$$$$$$@@@@@@$$$$$$$$@@@@@########@@@@@@@@########@@@@@$$$***$$$$$*****$@@@@@@#XXXX##+XXXX##XXXX#+##XXXX++XXXX++++XXXXXX++++O...........O++++OOOOOOOO++OOOOOOOO......OO+OO.OOO...OOOOOOO...OOOOOOO...      ........   ...............................   ........................... ....................................................................OOO++++++%&&&&%%%%%%%%%&&&&&&&&&&&&&&&&&&&&&&&&&&&&&&&&&&&&&&&&&&&&&&&&&&&&&&&&&&&&&&&&&&&&&::&:&&::::::::::::::::::::::::::::::::::::&&&&&&&&%+OO...OOOOOOOO+%&&&&&&&&&&&&&&&&&%%%+++++++++++++++++++++++++++++++++++++%%%++++%%%%%%%%%%%%%%%%%%%%%%%%%%%%%%%%%%%%%%%%%%%%%%%%%%%%%%%%%%++++++OOO....................... .........................  .................................................O.++&&&&&&&&@+++++XX+++++#++++XXXXXXXXXXXXXXXXX...oo.....XXXX.........O++++OOOOOO.....O+++O...     .    ..O+X............O++++++OO.OX+@@@+XXX..oooXXXX@@@@@##XXXXXXXXXXX###@@********$$$*****$$******==;;;;;;;=**$$$*****$$@@@@#################XXXXXXXXXXXXXXooooooooooooooooooo oo    oo      ooooXX#@@$$$$$@@##XXXXooXXX.XXXXXXXXXXXXXX",
"@@@@***************$@@@@@###@@@@@@@@@@@@@@@@@$@@@@@@@@@@@@$$@@@@@###XXXXXoooooooooooooooooooooooooooooooooooooooXXXXXXXXoXXXXXXX##@@@@@$$$$********$@@@@@@##XXXXXX##@@@$******@@##XXXXXXXX#########@@@@@@@@@@@@@@$@@@$$$$$$$$$$@@@@@@@@$$$@@@@@@@#########@@@@@@@@########@#@@@$$**$$*$$$$*****$@@@@@@#XXX#+++XXXX++XXXXX+###X#X++#XXX++++XXXXXX+#++O...........O++++OOOOOOOO++OOOOOOOO......OO+OO.OOO...OOOOOOO...OOOOOOO..  .   ........    . ..............................  ........    .....................................................................................OOOOOOOOO++O+O++++++O++++++++++++++++++++++++++%%++++++%%%%%%%%%%%%%%%%%%%%%%%%%%%%%%%%%%%%%%%%%%%%%%%%%%%%%%%%%%%%%%%%%%%%%%%%%%%%%%%%%%%+++OOOO....OOOOOO+%&&&&&&&&&&&&&&&%%+%%%%%%%&&&%&%&&&&&&&&&&&&&&&&&&&&&&&&&%%%%%+OOOOOOOO++++++++++++++++++++++++++++++++++++++++++++++++++++OOOOOOOOOO....................... ............................................................O...............O.++&&&&&&&&&++++++++++###+++++++X+++XXXXXXXXXX...o.......XXX.........O+++OOOO+OO.....O+++O...     ..   ..OOX............O++++++OO.OX+@@@+XXXX.oooXoXX@@@@@##XXXXXXXXXXX###@@********$$$*****$$******==;;;;;;-=**$$$$****$$@@@##################XXXXXXXXXXXXXXoooooooooooooooooo   o     o    ooooooXX##@$$$$$@@##XXXXXXXXXXXXXXXXXXXXXXXX",
"@@@$$************$$@@@@@@@@@@@@@@@@@@@@@@@@@@@@@@@$@@@@@@@@@@@@######XXXXXXXoooooooooooooooooooooooooooooooooooooooooXXXoXXXX###@@@$$$$$******$$$$@@@@@@@@@#XXXXXX##@@@$$****$@@@#XXXXXXXX########@@@@@@@@@@@@@@@@$$$$$$$$$$$$@@@@@@@@$$$$$@@@@@@####XX#####@@@@@@##########@@@@$$$$$$$$$$*****$@@@$@@#XXXXXX###++XXXXXXXXXXX#+XXX#####+#+++X+XX+++++OO.........O+%++OOOOOOOO++OOOOOOO........O+O..OOO...OOOOOOOOOOOOOOO....     .. ....... ..   ............................ ......   ...  ... ................. ....................... .. . .............  ...........................OOOOOOOOOOOOOOOOOOOOOOOOOOOOO++OOOOOOO+OOOOOOOOOOOOOOOOOOOOOOOOOOOO+OO+OOOOOOOO+OOOOOOOOO++++++O+++++++++++++++++++++++++++++OO+OOOOOOOOOOOOOOOOOO++&%%++++++++++++++%%&&&&&&&&&&&&&&&&&&&&&&&&&&&&&&&&&&&&&&&%%%%+OOOOOOOOOOOOOOOOOOOOOOOOOOOOOOOOOOOOOOOOOOOOOOOOOOOOOOOOOOOOOOOOOOOOOO......................................................................................................+@&&&&&&&&&&@+####+++++++++###+X#XXXXXXXXXXXXXXX.......XXX...    ...O+++OOOOOO......O+++.....         ..OOO............OO+++++OO.OX+@@@@XXXXoo..X.XX@@@@@##XXXXXXXXXXX###@@$*******$$*****$$$$*****==;;;;;;==**$$$$****$$@@@#############X##XXXXXXXXXXXXXXXoooooooooooooooooooo o        o o    ooXX#@@$$$$$@@##XXXXXXXXXXXXXXXXXXXXXXXX",
"@@@$$$*********$$@@@@@@@@@@@@@@@@@$$$$$$$@@@@@@@@@@@@@@@@@@@#########XXXXXXXXXoooooooooooooooooooooooooooooooooooooooXXXXXXXX##@@@@@$$$$$$$$$$@@@@@@@@@@@@@#XXXXXX##@@@$$****$@@###XXXXXXX#########@@@@@@@@@@@@@@@$$$$$$$$$$$$@#####@@@$$@@@@@@@####XXXX########@@##########@@@@$$$*$*$$$$*****$@@@$@@##XXXXXX##++XXXXXXXXXX##++XX#X+#++XX++++XX+++++OO.........O+%++OOOOOOOO++OOOOOOO.......OO+OO.OOO...OOOOOOOOOOOOO........  ...........  ..  ...........................  .... .      ......................  ........ .............  .... ............. ...............................OOOOOOOOOOOOOOOOOOOOOOOOOOOOOOOOOOOOOOOOOOOOOOOOOOOOOOOOOOOOOOOOOOOOOOOOOOOOOOOOOOOOOOOOOOOOOOOOOOOOOOOOOOOOOOOOOOOOOOOOOOOOOOOOOOOOOOOOOOOOOOO++++OOO+OOOO+OOOO++%&%%%%%++++%%%%%%+%%%%%%%%%%%%%%%%%%%%%%%%%%%+OOOOOOOOOOOOOOOOOOOOOOOOOOOOOOOOOOOOOOOOOOOOOO..O.OOOOOO.........OOOOOO.....................................................................................................X+@&&&&&&&&&&@@@@@++++@++++@@@##+#XXXXXXXXXXXXXX......XXXX...    ...O+++OOOO+O......O+++.....       . ..OOO............OO+++++OO..X+@@@+XXXXoo..X.XX@@@@@##XXXXXXXXXXX###@@$*******$$******$$$*****==;;;;;;=***$$$$****$$@@@#############X#XXXXXXXXXXXXXXXXoXXooooooooooooooo   ooo    ooo o   oooXX#@@$$$$$@@##XXXXXXXXXXXXXXXXXXXXXXXX",
"$$$$$$$$$$$$$$$$@@@@@@@@$$$$$$$$$$$$$$$$$@@@@@@@@@@@@@@@#####################XXXooooooooooooooooooooooooooooooooooooooXXXXXXX##@@@@@@@$$$$@@@@@@@@@@@@@@@@@#XXXXXX##@@@$*****$@@##XXXXXXX########@@@@@@@@@@@@@@@@@$$$$$$$$$$$@@#####@@@@$@@@@@@@####XXXX######@@@@###########@@@$***$**$$$*****$@@@@@@####XXXXXX++XXXX++XX++++++XXXXXX++XXX++XXX++++++OO........O++++OOOOOOOO++OOOOOOO.......OO+OO.OOO...OOOOOOOOOO......................... ..............................       . ..   ...............  ......      .......... . .....  ....  ............  ..................................OOOOOOOOO..OO.OOOOOOOOOOOOOOOOOOOOOOOOOOOOOOOOOOOOOOOOOOOOOOOOOOOOOOOOOOOOOOOOOOOOOOOOOOOOOOOOOOOOOOOOOOOOOOOOOOOOOOOOOOOOOOOOOO..OOO+%%++OOOOOOOOOOOOOOOOOO++%%+++OOOOOOO+OO+OOOOOOOOOOOOOOOOOOOOOOOOO++%%+OOOOOOOO......OOOOOOO..........O........OO.......................OOOOO.......OOO............................................................................................X+@&&&&&&*&&&&&&@@@@@@@@++++@@@@@###XXXXXXXXXXXXXXXXooXXXXX.........O+++OOOO+O......O+++....    ........OOO...  .......OO+++++OO.OX+@@@#XXXXoo.oX.XX@@@@@##XXXXXXXXXXX###@$$*******$$*****$$$*****===;;;;;;=***$$$$****$$@@@#############XXX#XXXXXXXXXXXXXXoXXooooooooooooooo    ooo   oooooooooooXX#@@$$$$$@@##XXXXXXXXXXXXXXXXXXXXXXXX",
"****$$$$$$$$$@@$@@$$$$$$$$$$$$$$$$$$$$$$$@@@@@@@@@@@@#####XXXXX#####@@@@@@@###XXooooooooooooooooooooooooooooooooooXoooXXXXXX####@@@@@@@@@@@@@@@@@@@@@@@@@@@##XXXX###@@@$$****$@@##XXXXXXX#########@@@@@@@@@@@@@@@@$$$$$$$$$$$@@#####@@@@@@@@@@@@####XXXX#####@@@#############@@@$***$**$$$*****$@@@@@@@##X#XXXXX++XXXXXXXX++++++XX#XX+++XXX+++XX++++++++O.......O++++OOOOOOOO+++OOOOOO.......OO++OOOOO...OOO.OOOO......................  . .  . ...........................    .    ... ......  ........  .....         .......  . .....  ....  ...   .. .... .......................................O.O..........OOOOOOOOOOOOOOOOOOOOOOOOOOOOOOOOOOOOOOOOOOOOOOOOOOOOOOOOOOOOOOOOOOOOOOOOOOOOOOOOOOOOOOOOOOOOOOOOOOOOOOOOOOOOOOOOOO+&&&+OOOOOOOOOOOOOOOOOOO+%&%+O+OOOOOOOOOOOOOOOOOOOOOOOOOOOOOOOOOOOOO+%%+OOOOOOOO.........................................................OO++O.....................................................................................................OO+@&&&&&&&&*&&&&====***&&&@@@@@#@@@@+###XXXXXXXXXXXXXXXXXXX...... ..O+++OOOO+O......O+++O....   ........OOO............OO+++++OO.OX+@@@#XXXXo..XXXXX@@@@@#XXXXXXXXXXXX###@$$*******$$*****$$$*****===;;;;;;=***$$$$****$$@@################X#XXXXXXXXXXXXXXXXooooooooooooooooo  o oo   oooooooooooXX#@@$$$$$@@##XXXXXXXXXXXXXXXXXXXXXXXX",
"*****$$@$@@@@@@$$$$$$$$$$$$$$$$$$$$$$@@@@@@@@@######@#####XXXXXX###@@@@@@@@@@#XXooooooooooooooooooooooooooooooooooooooooXXXX######@@@@@@@@@@$$$$$$@@@@@@@@@##XXXXX##@@@$****$$@@##XXXXXXXX#######@@@@@@@@@@@@@@@@@$$$$$$$$$$$$@@###@@@@$$$@@@@@@##XXXX#####@@@######XXXX#####@@@$$*****$$$$*****@@@@@@####+XXXX+XXXXXXXXX##+++++++++XXXX+XXXXXXX+++++++++O.....OO++++OOOOOOOO+++OOOO+OO......OO+OOOOOO...OO..OOO....... ..........        ....   .......................... .    .......     ...... ....  .....         ....... .  ..  .  .......... ... ...............................................OO.........OOOOOOOOOOOOOOOOOOOOOOOOOOOOOOOOOOOOOOOOOOOOOOOOOOOOO............OOOOOOOOOOOOOOOOOOOOOOOOOOOOOOOOOOOOOOOOOOOOOOOO+&&%OOOOOOOO.......OOOOO%%&%OOOO..OOOOOOOOO.OOOOOOOOOOOOOOOOOOOOOOOO+%%+OO...OOOOO........................................................OO+OO.............................OOOOO...................................................................OO+@&&&&&&&===&&&===========*&@@@@@@@######XXXXXXXXXXXXXXXX.........O+++OOOO+O......O+++O....   .... ...O+O............O++++++OO.OX#@@@#XXXXX..XXXXX@@@@@#XXXXXXXXXXXXXX#@$$*******$$******$*****====;;;;;;==***$$$****$$@@###################XXXXXXXXXXXXooooXXoooooooooooooooo  o  o o    ooooooXX##@$$$$$@@##XXXXXXXXXXXXXXXXXXXXXXXX",
"==****$$$$@$$$$$$$$$$$$$$$$$$$$$$$@@@@@@@@#########@@@####XXXXXX###@@@$$$$@@@#XXooooooooooooooooooooooooooooooXXoooooooXXXXXX######@@@@@@$$$$*****$$$@$@@@@#XXXXXX##@@@$$****$@@##XXXXXXXX########@##@@@@@@@@@@@@@$$$$$$$$$$$@@@###@@@@@@@@@@@@@##XXXX##############XXXX#####@@@$$$$***$$$$$****$$@@@@####XX+XXXXX##XXXXXX++++++X+##XXXX++XXXXXX+++++++++O....OOO+%++OOOOOOO++++OOOOOOO......OO+OOOOOO...OOO.OOO.....  ...........  ..       .   ......................... .....  ......      . ... ....  ....  .     ... ....... ..      ..........   .....  ..........................................OOOO.OOOOOOOOOOOOOOOOOOOOOOOOOOOOOOOOOOOOOOOOOOOOOOOOO++++++OOOOOO..O.OOOOOOOOOOOOO++++++++++OOOOOOOOOOOOOOOOOOOOOOOOOOOOOO++%%+OOOOO.....OO.OOOOOO+%&&%OOOOOOOOOOOOOOOOOOOOOOOOOOOO..O.OOOOOOOO+%%%OO.................................................................OOO..............O........OOO.....OOOO...................................................................OO++&&&&&&&===&&&&&&===========*$@@@@@######XXXXXXXXXXXXXXX.........O+++OOOO+O......O+++O.... .   .. ...O+O............O++++++OO.OX#@@@#XXXXXX.XXXXX@@@@@#XXXXXXXXXXXXX##@$$*******$$*****$$******===;;;;;;=****$$$****$$@@@##################XXXXXXXXXXXXXoooXoooooooooooooo   o  o  ooo   ooooooXX##@$$$$$@@##XXXXXXXXXXXXXXXXXXXXXXXX",
"===****$$$$$$$$$$$$$$$$$$$$$$@@@@@@@@@@@@#######@@@@@@@###XXXXX###@@@$$$$$$$@@#XXXooooooooooooooooooooooooooooXXoooooXXXXXXXXX####@@@@@$$$$*********$$$@@@@@XXXXXX##@@@$$*$$*$@@###XXXXXXXXX#########@@@@@@##@@@@@@$$$$$$$$$@@@@@@@@@@@@$$@@@@@@##XXXX################XX#####@@@$$$$***$$@$$*****$@@@@##XX+X+X#+XX##++X+XXXX+XX+X+###+XX#+####XX++++++++++O...OOO+%++OOOOOOO++++O.OOOOO.......O+OOOOOO...OOO.OOO....    ..............       .    ..................................   . .  ... ........ ....  .........  . ...... .  .............     .... .. ........................................OO...OOOOOOOOOOOOOOOOOOOOOOOOOOOOOOOOOOOOOOOOOOOOOOOO++++++++OOO...................OOOOOOOOOOOOOO.O.OOOOOOOOOOOOOOOOOO++++++++OOOOO....O........OOO+%&&%OOOO....OOOO..OOOOOO....OOOOOOOOOOOOOOOO+%%%OO..........................................................................OO....OOOOO.......OOO...........................................................................OO++&&&&&&&==&=&==&&===============$$@@@########XXXXXXXXXXX.o.......O+++OOOO+O......O+++O...  .      ...++XX...........O++++++OO.OX#@@@#XXXXXX..XoXX@@@@@#XXXXXXXXXXXX###@$$*******$$*****$$******===;;;;;;=****$$$****$$@@@################XXXXXXXXXXXXXXXXXoooooooooooooooo   o  ooooooo o  oooooX##@$$$$$@@##XXXXXXXXXXXXXXXXXXXXXXXX",
"===****$$$$$$$$$$$$$$$$$$$$$$@@@@@@@########X###@@@@@@@@###XXXX###@@@$$$$$$$@@#XXXoooooooooooooooooooooooooooooXoooXXXXXXXXXXX####@@@@$$$$$********$$$$$@@@@XXXXXX##@@@$$*$$*$@@###XXXXXXXXX##########@@@@@###@@@@@$$$$$$$$$$$@@@@@@@@@@@@@@@@@######X#######@@@#####XXX#####@@@$$$$$**$@@$$******@@@###XXXXXX+#XX##++++XXXXXXX#++#######++#++XX+++@@%%%+++OOOOOO+%++OOOOOOO++++O.OOOO........O+OO.OOO...OOO.OOO..... .............  . .    .... ...................................  .... ............. ....  .....................   ..... .......   ..... .. .......................................................O...OOOOOOOOOOOOOOOOOOOOOOOOOOOOOOOOOOOOOOO+++OOO.......................OOO..........................O++%&&%++OOOO...............OOO+%&%+OOOOO..OOOOOOOOO.O.O.......OOOOOOOOOOOOO+%%%OOO.O.................................................... ..................OOOOOOOOOOOO......OOOOO.........................................................................OOOO@&&&&&&&=&&&==&&&==================$@@@#####XXXXXXXXXXXXo.......O+++OOOO+O......O+++O...  .      ...O+OX...........O++++++OO..X#@@@#XXXXXXX.ooXX@@@@@#XXXXXXXXXXXXX##@$********$$*************===;;;;;;==***$$$****$$@@@################X#XXXXXXXXXXXXXXXooXooooooooooooooooo  ooooooo   ooooooX#@@$$$$$@@##XXXXXXXXXXXXXXXXXXXXXXXX",
"====***$$$$$$$$$$$$$$$$$$@$$@@@@@@##X#XXXXXXX##@@@$$@$@@@@#XXXXX##@@@$$$***$@@#XXXXooooooooooooooooooooooooooooooooooXXXXXXXXXXX####@@@@$$*********$$$$$$@@#XXXXXX##@@@$$***$$@@##XXXXXX########XXX####@@@@###@@@@@@$$$$$$$$$$@@@@@@@@@@@@@@@@@#####XX#####@@@@@#######XXX####@@$$$$$**$@@$***==**$$@######XXXX+++++XXXX++++XXXX+XX###X++++++++#+++++@%&@%++O.OO+++%++OOOOOOO+++O..OOO........O+OO.OOO...OOO.OOO.......OOOOOO.....                ................................  ...... ..........  .............       ..  .........   ...    ........  .................................................................OOOOOOOOOOOOOO+++++++++++++++OOOOOOOO+++OOO....................................................OO++++OOOO.................OOOO+%&%+OOOO....OO....OO..OOOOOO.......OO.OOOOOO+%%+OO........................................................................OOOOOOOOOOOOOOO.........OOO....................OOO................................................OOOO+&&&&=&&&&====&&&=====================*$@@@#####XXXXXXXooo......O+++OOO++O......O+++O......      ...OOO......X.....O++++++OO..O+@@@#XXXXooooXXXX#@@@@#XXXXXXXXXXXXX##@$********$$******$$*****===;;;;;;=***$$$*****$@@@@############XX#X####XXXXXXXXXXXoXXXXooooooooooooooooo  oooo oooo  ooooXX#@@$$$$$@@##XXXXXXXXXXXXXXXXXXXXXXXX",
"====***$$$$$$$$$$$$$$$$$@@@@@@@@@@##X#XXXXXX###@@@$$$$@@@@##X#X###@@@$$****$@@#XXXXooooooooooooooooooooooooooooooooooXXXXXXXXXXXX###@@@@$$$*********$$$$$@@@XXXXXX###@@$$***$$@@##XXXXXX########XXXX###@@@@###@@@@@@$$$$$$$$$@@@@@@$$@@@@@@@@@@#####XX######@@########XXXX####@@$$$$$*$$@@**====*$$$@@#####XXX+++XXXXXXX++X+XXXX+XXX##X+++##+++#++++++@&&&+++OOO+++%+OOOOOOOO+++O..OOOO......OO+OO.OOO....OO.OOO......OOOOOOO...       .     .   ...................................... ..  .......... ...............    ....  ....       ...    . ......  .................................................................OOO+++++++++++++++++++++++++++OOOOOOO+++OOO.....................................................OOOOOOO....................OOOO%&%+OOOO....OO....OO..O....O.OOO...O...OOOOO+%%+OO..OO....................................................................OOOOOOOOOOOOOOOO..........OO.......................................................................OOO+@&&&=&&&&====&&&===&&$$**===============*@@######X#XXXoo.o.....O+++OOO++O......O+++O......      ...OOO............O++++++OO..X+@@@#XXXXooo.XXX##@@@@#XXXXXXXXXXXX###@$$*******$$*****$$$*****===;;;;;;=***$$$*****$@@@@############XX#X#X##XXXXXXXXXXXoXXXXooooooooooooooooo  oooo oooo ooooooX#@@$$$$$@@##XXXXXXXXXXXXXXXXXXXXXXXX",
"===****$$$$$$$$$$@@@@@@@@@@@@@@@@###XXXXXXXX###@@@$$$$$@@@##X#XX##@@@$$***$$@@##XXXoooooooooooooooooooooooooooooooooooXXooXXXXXXXX###@@@$$**********$$$$$@@@#XXXXX##@@@$$***$$@@##XXXXXX#######XXXXX###@@@@@##@@@@@@$$$$$$$$$$@@@@@$@@@@$$$@@@@@###XXX####@@@@##########XX####@@@$$$$$$@@@$*====*$$@@@#####XXXXXXXXXXXXXXXXXXX++X###XXX#XX#+++XX+++++++@&@@@+XOOO++++OOOOOOOO+++OO.OOO.......OOOOO.OOO....OOOOOOO..OOOO++OOO..... .    .   ................................ ....  ....  ......................... ...........   ...         ....    .........................................................................OOOOOOOOO+++++++++++++++++++++OOOOOOO+++OOO........................................................OOO.O...................OOOO%&%+OOOOO...OOO...OO.........O.....O...OOOOO+%%%OO........................................................................OO.OOOOOOOOOOOOOOO........OOOO.........O.......OOOOOO..............................................OOOO+&&==&&&&=====&====&@@@$$**=========;;=====@@######XXXXoo......++++OOOO+O......O+++O......       ..OOO...........OO++++++OO..O+@@@#XXXXooo.XXXX@@@@@#XXXXXXXXXXXX###@@$******$$$******$******===;;;;;;=***$$$****$$$@@@###############XXXXXXXXXXXXXXXXoXXoooooooooooooooooooooooo   ooo oooooXX#@@$$$$$@@##XXXXXXXXXXXXXXXXXXXXXXXX",
"==****$$$$$@$@@@@@@@@@@@@@@@$@@@@@##XXXXXXXX##@@@@$**$$$@@##XXXX##@@$$$***$$@@##XXXooooooooooooooooooooooooooooooooooooXoooXXXXXXX####@@$$**********$$$$$@@@#XXXXX###@@$$$**$$@@##XXXXXXX######XXXXX###@@@@@##@@@@@@$$$$$$$$$@@@@@@@@@@$$$$$@@@@###XX######@@@##########XX####@@$$$$$$$@@$**====*$@@@@#####XXXXXXXXXXXXXXXXXXX++XXX#####X###+++X##+++++@@@&@+OOOO++++OOOOOOOO+++OOOOOOO......OOOOO.OO.....OOOOOOOOOOO+OOOO...... .. .... ...............................    ... .... ....... ............... .................  ....    .   ....    ............................................................O.OOOO.......OOOOOOOOOOOOOOOOOOOOOOOOOOOOOOOOOOOOO+++OOO................................................................................O.OO%&%+OOO.O...OOOO..OO..............OO...OOOOO+%%%OOO...........................................................................OOOOOOOOO...OOOOO.......OOOOOO..OOOO...OO...OOOOO.............................................O.OOO++&==&&&&==&&&=====@$$$**$$$*=======;==;;;==*@@###XXXXXoo......++++OOOO+O......++++O...... .     ..O+O...........OO+++++OOO..O+@@@#XXXXooo.XXXX@@@@@#XXXXXXXXXXXX###@$$******$$$*****$$*****====;;;;;;=***$$$*****$$@@@################XXXXXXXXXXXXXXXXXXoooooooooooooooooooooooo  ooooooooooXX#@@$$$$$@@##XXXXXXXXXXXXXXXXXXXXXXXX",
"=*****$@@@$@@@@@@@@@###@@@@@$$$$@@@##XXXXXX###@@@$****$$@@@###XX##@@@$$**$$$@@##ooooooooooooooooooooooooooooooooooooooooooXXXXooXXXX##@@@$$********$$$$$$@@###XXXX###@@$$$$$$$@@##XXXXXXXX#####XXXXX###@@@@@###@@@@$$$$$$$$$$@@@###@@@@@$$$$$$@@###XXX####@@@@######XXXXXX#####@@$$$$$$$*====;;=*$@@@@##XXXXXXXXXXXXXX++XXXXXX++X+###X++XX#+++XX#@+++++@@@@@+XOOO++++OOOOOOOO+++OOOOOO.......OOOOO..O.....OOOOOOOOOO++OO....... ........................................  .....   ..   ...   ...................................... . .............................................................OOOOOOOOOOOOOOOOOOOOO.....OOOOOOOOOOOOOOOOOOOOOOOOOOOOOOOOOOOOO++++OO................................................................................O.OO%&%+OO..OOOOO.OO.OOO.......O........O..OOOOO+%%+OOOO..........................................................................OOOOOOOOOOOOOO.OO.........OOOOOO++++++++++OOO+OOOO..............................................OOOO+@&&&&&&=========&$$**=**$$$*=======;;;;=====@@@##XXXXo......O++++OOO++O......O++O......  ..    ..O+O............O++++++OO..X+@@@#XXXo.ooXXXXX@@@@@#XXXXXXXXXXXX###@$$******$$$*****$$*****====;;;;;;=***$$$*****$@@@@###############XXXXXXXXXXXXXXXXooooooooooooooooooooooooo      ooooooooXX#@@$$$$$@@##XXXXXXXXXXXXXXXXXXXXXXXX",
"******$@@@@@@@@@@######@@@@@$$$$@@@###XXXXX###@@@$****$$@@@###XX##@@@$$**$$$@@##oooooooooooooooooooooooooooooooooooooooooooXXXooXXXX##@@@$$********$$$$$$@@###XXXX###@@$$$*$$$@@##XXXXXXXX#####XXXXX###@@@@@###@@@@$$$$$$$$$$@@@##@@@@@@@$$$$$@@###XX######@@@######XXXXXX#####@@@$$$****=;;;===*$@@@@##XXXXXXXXXXXXX#++XXXXXX++++X+##++XX#+++###@+++O+@@$&@+XOOO++++OOOOOOOO++OOO.OOOO......OOOOO..O.....OOOOOOOOOOOOO.......  ..................................... ......            ..  ....................................... ..................  ........................O.......................OOOOOOOOOOOOOOO.......OOOOOOOOOOOOOOOOOOOOOOOOOOOOOOOOOOOO++++OO................................................................................O.OO%&%+OO..OOOO.OOOOOOOO...OOOO........OOOOOOOO+%%+OOOO..................................................................OO......OOOOOOOOOOOOOO.OOOO.......OOOO++++++++++++++++++OOOO...OOO......................................OO.O++@&&&&&=&======&&@$***$$$$$*=======;;;;=====$@@##XXXXoo.....O++++OOO++O......O+++O....   ..  . ..O+OX...........O++++++OO.XX+@@@#XXXXX.oXXXXX@@@@@##XXXXXXXXXXX###@$$******$$$*****$$*****====;;;;;;=***$$$*****$@@@@##############XXXXXXXXXXXXXXXXoooooooooooooooooooooooooooo    ooooooooXX#@@$$$$$@@##XXXXXXXXXXXXXXXXXXXXXXXX",
"*****$$@@@@@@@#########@@@@@$$$$@@@@##X#XXX###@@@$****$$@@@##XXX##@@@$$*$$$$@@##XooooooooooooooooooooooooooooooooooooooooooXXXooXXXX###@@@$$*******$$$$$$@@#XXXXXX###@@$$$**$$@@@#XXXXXXXX#####XXXXX###@@@@@####@@@$$$$$$$$$$@@@#@@@$$@@@@$$$$@@###X#######@@@######XXXXXX#####@@@$$*****==;===*$$@@@####XXXXX++X+++XXX+X++XXXX++X++X++X##+++###+++#+X#@@@&@@+OOO++++OOOOOOOO+++O..OOOO......OOOOO..OO....OOOOOOOOOO... ...... ..................................... .........  ..    . .. .................................................... .....   ......  ..............OOOO.................................OOO.......OOO++++++++++++++++++++++++++OOOOOOOO++++OO................................................................................OOO+%&%+OO....OO.OOOOOOOOOOOOOOOOOOOOOOOOOOOOOOO+%%+OOOO..................OO...............................................OO......OOOOOOOOOOOO...OOOO.......OOO+++%%%&&&&%%%%+++++OOOOOOOOOOO......................................XXOO+@&&&&&&&&&=&=&@$*****$$$$========;;=======*@@##XXXXo......O++++OOO++O......O+++O...    .  .....OOOX...........O++++++OO.OX+@@@#XXXXooooXXX##@@@@#XXXXXXXXXXXX###@$*******$$$*****$$$*****===;;;;;;=***$$$*****$@@@@##############XX###XXXXXXXXXXXooXoXXXXoooooooooooooooooooooo    ooooooXX#@@$$$$$@@##XXXXXXXXXXXXXXXXXXXXXXXX",
"*****$$@@@@@@##########@@@@$$$$$$@@@####XXX###@@@@****$$@@@##XXX##@@@$$*$$$$@@##Xoooooooooooooooooooooooooooo oooooooooooooXXoooXXXXXX##@@$$*******$$$$$$@@#XXXXXX###@@$$$**$$@@@#XXXXXXXX#####XXXXX###@@@@#####@@@@$$$$$$$$@@@#@@@$$$$$@@$$$$@@###XXX#####@@@######XXXXXX#X##@@$$$****$$$===**$@@@@@####XXXXX++X+++XX#X#+++XX+++#X#X+++###++###+++++X+#@@&@@#OOO++++OOOOOOOO+++O..OOO.......OOOOO..OO....OOOOOOOOOO... ...........OOOO............................  .........  ... ... ..........................................   .........  . ...   ......  ..............OOOO...........................................OOOOOOOOOOO++++O+++++++++++++OOOOOOOO++++OO................................................................................OOOO%&%+OO.....O..OOOOOOOOOOOOOOOOOOOOOOOOOOOOOO+%++OOOOOOOOO.............OO................................................OO......OOOOOOOOOOOO..OOOOOO.....OOOO++%%&&&&&&&&&%%+++OOOOOOOOOOOO.....................................XXOX+++@&&&===&&&=&&$$****$$$*========;;=======*@@##XXXXoo.....O++++OOO+OO......O+++O...    .  .....OOO............O++++++OO.OX+@@@#XXXoooooXXX##@@@@##XXXXXXXXXXX###@$*******$$$*****$$$*****===;;;;;;=***$$$****$$@@@@@@#############X###XXXXXXXXXXXXoXXXXXXoooooooooooooooooooooo    ooooooXX#@@$$$$$@@##XXXXXXXXXXXXXXXXXXXXXXXX",
"******$$@@@@###########@@@$$$$$$$$@@####X#XX##@@@$$***$$@@####XX##@@$$$***$$@@##Xooooooooooooooooooooooo ooo  ooooooooooooooXoXXXXXXXX##@@$$$*******$$$$@@@###XXXX###@@$$$$$$$@@##XXooXXXXX####XXXXXX##@@@@#####@@@@@$$$$$$$@@@#@@@$$$$$$$$$@@@@###XX######@@######X####XX#X##@@$$*****$@@*====*$$@@@###XXXXXXXX+XXXX+++XXXXX+++XXX+XX#XXXXX+++++@@#+XX+@@$@++OO++%++OOOOOOOO+++O..OOO........OOOO.OO.....OOOOOO......  ..........O............. ...............     ........   .. .     .......................................... ............     .......   .............OOOO........................ ...................OOOOOOOOOOOOOOOOOOOOOOOOOOOOOOOOOOOOOO++++OO................................................................................OOO+%%%+OOOO....OOOOOOOOOOOOOOOO....OOOO.OOOOOOO++++OOO......................O........................................ ................OOOOOOOOOOOO..OOOOO...OO+++%+%%&&&&&&&&&%%++OOOOOOOOOOOOO.....................................OOO++X+++@@&&****&&$$$**$$$$*===*======;;;;====@@##XXXXo.......++++OOO+OO......O+++..... ..   .. ..XOO.......O....O+++++OOO.OX+@@@#XXXX....XXXX#@@@##XXXXXXXXXXXX###@$*******$$$******$$******==;;;;;;==**$$$*****$$@@@############XX####XXXXXXXXXXXXXXoooXooooooooooooooooooooooooooooooooooXX#@@$$$$$@@##XXXXXXXXXXXXXXXXXXXXXXXX",
"******$$@@@@###########@@@$$$$**$$@@####XXXX##@@@$$**$$$@@####XX##@@$$$***$$@@##Xooooooooooooooooooooooo oooo ooooooooooXooooXXXoXXXXX##@@$$$*******$$$$@@@###XXXX###@@$$$*$$$@@##XXoXXXXXX####X#XXXX###@@@#####@@@@$$$$$$$$@@@#@@@@$$$$$$$@@@@@###XX#####@@@######XXX#XXX####@@$$*****$@@@*==**$$@@@###XXXXXXXX+XXXX+++XXXX#+++XXX+XX####XX+##X++@##XX+@@$@++OO++%++OOOOOOOO+++O..OOO.......OOOOO.OO.....OOOOOO......  .......................    .......................... ......   ............................................ .......................... ............OOOOO.............................................OOOOOOOOOOOOOOOOOOOOOOOOOOOOOOOOOOOOO++++OO................................................................................O.OO%%%+OOOO...OOOOOOOOOOOOOOOOO.OOOOOO.OOOOOOOO++++OOOOOOOOO.OO............O...................................................OO......OOOOOOOOOO...........OOO%%%%%%&&&&&&&&&&&%++OOOOOOOOOOO......................................XOOXXO+++++++@@@@@@@@@@@@@@$*==***=====;;;;;===@@##XXXXoo......++++OOO++O......O+++.....     ..  ..XOO.......O....O+++++OOO.OX+@@@#XXX.....oXXX#@@@##XXXXXXXXXXXX###@$*******$$$******$$******==;;;;;;=***$$$****$$$@@@#############XX###XXXXXXXXXXXXXXoXooooooooooooooooooooooooooooooooooooXX#@@$$$$$@@##XXXXXXXXXXXXXXXXXXXXXXXX",
"==*****$@@@@@##########@@@$$$***$$@@##X#XXXX##@@@$$$**$$@@@###XX##@@$$$$**$$@@##XoooooooooooooooooooooooooooooooooooooooooooooooooooXXX##@@$$*******$$$$@@@#XXXXXX##@@@$$$**$$@@##XXooXXXXX####X#XXXX##@@@@#####@@@@@$$$$$$@@@@###@@@$$$@@@@@@#####XX#############XXXXXXXX####@@$$******@@*===*$@@@@@###XXXXXXXX+XXXXX++X+XX+#X+##+XXX####+X++#X++@+#XX#@@$@@+OOO+%++OOOOOOOO+++OO.OOO........OOOO.OOO....OOOOO..............O................   ...............................    ................................................    ..................................OOOOO..............................................OOOOOOOOOOOOOOOOOOOOOOOOOOOOOOOOOOOOO++++OO..................................................................................OO%%%+OOOOO..OOOOOOOOOOOOOOOOOOOOOOOOOOOOOOOOO+++OOOO.........OOO..OOO....O...................................................OOOO.....OOOOOOOOOOOOOOOOOOOOOO++%&&%%%%&&&&&&&&&&&+++++++++OOOOO.....................................XOXXX+++XXX+++#@@@####@@@@@$***$*==;==;===;;==@@##XXXXoo......++++OOO++O......O+++.....     ......OOO............O+++++OOO.OX#@@@#XXXX..oooXXX#@@@##XXXXXXXXXXXX###@$*******$$$*****$$$******==;;;;;;=*$*$$$*****$$@@@@#################XXXXXXXXXXXXooooXXooooooooooooooooooooooooooooooooooXX#@@$$$$$@@##XXXXXXXXXXXXXXXXXXXXXXXX",
"==******$@@@@@@@#######@@@$$$***$$@@###XXXXX##@@$$$$**$$@@@###XX##@@$$$$**$$@@##XoooooooooooooooooooooooooooooooooooooooooooooooooooXXXX#@@$$$****$$$$$$@@@#XXXXXX##@@@$$$**$$@@##XXooXXXXX#####XXXXX###@@@#####@@@@@$$$$$@@@######@@@@@@@@@@#####XXXX############XXXXXXXX####@@$$******@@*===*$@@@@@###XXXXXXXXXXXXXXXXX+XX#XXXX#X++X##+X##++##+@@##XX#@@$@@+O+O+%++OOOOOOOO+++OO.OOO........OOOO.OO......OOOO...........OOOO............................................... ..    .................................................   .. ..   .........................OOOOO..........  ............. .....................OOOOOO++++++++++++++++OO++O+++OOOOOOO+%++OOOOO.....OOOOOOOOOOOOO........................................OOO..................OO%%%+OOOOOOOOOOOOOOOOOOOOOOOOOOOOOOOOOOOOOOOO+++OOOOO....OOOOOOO.....OOO.....................................................OOOOO.....OOOOOOOOOOOOOO....OOOO++%&&&&%%%&&&&&&&&&&&%++++++OOOOOO......OOOO...........................OXXOOXXXX++++####@#####@@@@@@@@*==;====;;====@@#XXXXXoo.o....++++OOO++O......O+++.....     ......O+O............O+++++OOO.OX@@@@#XXXXoooooXXX@@@@@#XXXXXXXXXXXX###@$*******$$$******$$******==;;;;;;=*$*$$$****$$$@@@@#################XXXXXXXXXXXoooXXoXooooooooooooooooooooooooooooooooooXX#@@$$$$$@@##XXXXXXXXXXXXXXXXXXXXXXXX",
"===*****$$$@@@@@@#####@@@@$$$$$$$$@@####X#X###@@$$$***$$@@@###XX##@@$$$$*$$$@@##ooooooooooooooooooooooooooooooooooooooooooooooooooooXXXX#@@$$$*****$$$$$@@@#XXXXXX##@@@$$$**$$@@##XXXoXXXXX######XXXX###@@########@@@@@@@@@@########@@@@@@@@@#####XX##############XXXXXXXX####@@$$$*****@*=;;=*$@$@@@#XXXXXXXX++XXXXXXXX#X++XXXX####+++#+#++X###++@##XX#@@$@@#OX++%++OOOOOOOO+++OO.OOO........OOO..OOO.....OOOOO........OOOOOO......  .... .....................................  .................OOOOO..OOOO.OOOOOOOOO..............  ................................OOOOOO...............................................OOOOOO++++++++++++++++OO+++OOO++OOOOO+%++OOOOOOOO..OOOOOOOOOOOOOO.......................................OOOO.................OO%%%+OOOOOOOOOOOOOOOOOOOOOOOO+O+O++++++++++++++OOOOOOOOOOOOOOOOOOOOOOOOOO.....................................................OOOOO.....OOOOO+++++++OOOOOOOOOO++%&&&&%%%&&&&&&&&&&&&&++++++++OOOOOO..OOOOO..........................X...OXXXXX++++++##+#@@@@@#@@@@@@*==;====;;;==@@##XXXX......OO++++OOO++O......O+++... ..    ......XOO............O+++++O...OX@@@@XXXXXXooo.XXX#@@@@##XXXXXXXXXXX##@@$*******$$$*******$*****===;;;;;;=**$$$$*****$$@@@@##############XXXXXXXXXXXXXXXooooXXooooooooooooooooooooooooooooooooooXX##@$$$$$@@##XXXXXXXXXXXXXXXXXXXXXXXX",
"====******$$@@@@@@@###@@@@$$$*$$$$@@###XX#XX##@@$$****$$@@@###XX##@@$$$$*$$$@@##XooooooooooooooooooooooooooooooooooooooooooooooooooooXXX#@@@$$**$$$$$$$$@@@#XXXX####@@@$$$**$$@@##XXooXXXXX#####XXXXXX##@@##########@@@@@###########@@@@@@@@@#############@@@@####XXXXXXXX####@@$$$*****@*=;;=*$@$@@###XXXXXXX++XXXXXXXXXX++##XXX#+++X+++#+#X+##++@##XX+@@$@@#OO++%++OOOOOOOO+++OO.OOOO.......OOOO.OO.....OOOOO.......OOOOOO........  ........................................ .. .. .......................OO..OOOOOOOO................................................OOOOO.................O.OOOO...........................OOOOOOOOOOOOOOOOOOOOOOOOOOOOOOOOOOO+%++OO........OO.OOOOOOOO++OO......................................OOOOOO.............O.OO%%%+OOOOOOOOOOOOOOOOOOOOOOOOOOOOOOOO++++OO++++OOOOOOOOOOOOOOOOOOOOOOOOOOOO....................................................OOOOO.O...OOOO+++++++++++++++OO+++%%&:&&&%&&&&&&&&&&&&&&+++++++++OOOOOOOOOOOOOOO.........................OOOXXXX+XXXXXX###@@@@#####@@@*==;=====;=*@##XXXXX......OO++++OOO++O......O+++....      ......OOO............O+++++O...OX@@@@XXXXX.oooXXXX@@@@@##XXXXXXXXXXX###@$*******$$$******$******===;;;;;;=**$$$$*****$$@@@@@################XXXXXXXXXXXXooooXXooooooooooooooooooooooooo ooooooooX###@$$$$$@@##XXXXXXXXXXXXXXXXXXXXXXXX",
"====*********$@@@@@@@@@@@$$$$*$$$$@@##XXX#XX##@@$$$***$$@@@#X#XX##@@$$$*$$$$@@##ooooooooooooooooooooooooo  oooo oooooooooooooooooooooXXX#@@$$$**$$$$$$$$@@@###XX####@@@$$$$*$$@@##XXooooXXX####XXXXXXX######XXXXX#########XXXXXX###@@@@@@@@@@############@@@@@####XXXXXXXX####@@$$$*******=;;==*$$@@@##XXXX+XXXXXXXXXXXXXXXXX#++XX++XXXX##+###+#++@##X+@@@$@@#OO+++++OOOOOOOO+++O..OOOO......OOOO...O.....OOOOO....OOOOOOOO........  ........................................ ......   .......OOOOOOOOOOOOOOOOOOOOOOOOOOOOO............. .. ..........................OOO+OOO............OOOOOOOOOOOO...............................OOO.O...OOOOO....OOOOOOOOOOOOO++++OO.................OO++OOO......................................OOOOOOO...........OOO+%%%+OOOOOOOO++OOOOOO+++O+++++O++++++++++++++%%++++++++++++++++%%%++++++OOOO....................................................OOOOOOO....OO+++%%%%%%%++++++++++%%%&:::&%%&&&&&&&&&&&&&&&%+++++++OOOOOOOOOOOOOOO......................OOXXOXXXXXXXXX+#X###########@@@@*=====;;=*@###XXXX......OO++++OOO++O......O+++....      ......OOO............O+++++OO..O++@@@XXXXX.o.oXXXX#@@@##XXXXXXXXXXXX###@$*******$$$******$$*****===;;;;;;=**$$$$*****$$@@@#############X######X#XXXXXXXXXXooooooooooooooooooooooooooooooooooooooX##@$$$$$$@@##XXXXXXXXXXXXXXXXXXXXXXXX",
"=====**********$@@@@@@@@@$$$$$$$$$@@##XXXXXX##@@$$****$$@@##XXXX##@@$$**$$$$@@##Xoooooooooooooooooooooooo  ooooooooooooooooooooooooooXXX#@@@$$***$$$$$$$@@@###XX####@@@$$$**$$@@##XXooooXX#####XXXXXXXXX##XXXXXXXX####XXXXXXXXX###@@@@@@@@@#####XXX###############XXXXXXXX###@@@$$$*******;;;=*$$$@@@##X++++XXXXXXXXXXXXXXXXX#++XX++XXXXX#X#++++++@#XX++@@$@@#OOO++++OOOOOOOO+++O..OOOO......OOOO...O......OOOO...OO++OOOO.......   ............................OO...........   ....  ........O++%%%%%++++++++++++++++++++OOO...........   .  ........................OO++OO............OO++++++O++OOO..............................OOO......OOOO....OOOOOOO...OOO++++OO.................OOO++OO......................................OOOOOOOO..........OOO+%%%+++%%%%%%%%++++++%%%+%%%%++%%%%%%%%%%%%%%%%%%%%%%&&&&&&&&&&&&&&&&&&++OOO.....................................................OOOOOO....OOO+++%%%%&%%%++++++++++%%%&:::&&&&&&&&&&&&&&&&&&&++++++OOOOOOOOOOOOOO.........................XXXXXX+XXXXXXXX###########@@@@@@*===;=*@###XXXX.......O++++OOO+OO......O+++....       .. ..XOO............O+++++OO..O++@@@#XXX....oXXXX#@@@##XXXXXXXXXXXX###@$*******$$$******$$*****===;;;;;;=**$$$$****$$$@@@#############XX#####X#XXXXXXXXXooooXooooooooooooooooooooooooo ooooooooX##@$$$$$$@@##XXXXXXXXXXXXXXXXXXXXXXXX",
"=======*=*******$$@@@@@@@$$$$*$$$$@@###XXXXX##@@@$$***$$@@##XXXX##@@$$$$**$$@@##XooooooooooooooooooooooooooooooooooooooooooooooooooooXXX##@$$$$***$$$$$$@@@###X#XX##@@@$$$**$$@@##XXooooXXXX###XXXXXooXXXXXoooXXXXXXXXXoXXXXXXX###@@@@@@#################@@@######XXXXXXXX####@@$$$*****$=;;;=*$$$@@##XXXXXXX+++XXXXX+++###XXX++XX++####XXXX###+++++#X##@@$@@+OOO++++OOOOOOOO+++O..OOO........OOO..OO......OOOOOOO+++OOO...... .  .. ......OOO............................... .... . .........O+%&&&&&&&&&&&&&&&&&&&&&&&&&%%++OO....................................OO++++O.............OOO+OOOO++++OOO.................................................OO......OO++++OO..................OO+++O........................................OO+++OOOO........OO+%%%++%&&&&&&&&&&&&&&&&&&&&&&&&&&&&&&&&&&&&&&&&&&&&&&&&&&&&&&&&&&%%%%+++OO.........................................................OOOOOOOOO.OOOO++%&&&&%%%%+++++++%%%%&&::::&&&&&&&&&&&&&&&&&%++++++OOOOOOOO++++OO.....................XXXXXXXXXXXXXXXXXXX##XXXXXX#####@@@@*====@##XXXXo........++++OOO++O......O+++.....    .......O+O............O+++++OO..XX@@@@XXXoo..oooXXX#@@@##XXXXXXXXXXXX###@$$******$$$*************===;;;;;;=***$$$****$$@@@@###############XXXXX##XXXXXXXoXXXXooooooooooooooooooooooooooooooooooooX##@$$$$$$@@##XXXXXXXXXXXXXXXXXXXXXXXX",
"===========*****$$@@@@@@@$$$$*$$$$@@###XXXXX##@@@$$**$$$@@##XXXX##@@$$$$**$$@@##XooooooooooooooooooooooooooooooooooooooooooooooooooooXXX##@@$$$****$$$$$@@@@##X#XX##@@@$$$**$$@@##XXooooXXXX####XXXoooXXXXXXXXXXXXXXXXXoooXXXXXX##@@@@###################@@@@@@####XXXXXXX####@@$$******@=;;;=*$$$@@##X#XXXXXX+XXXXXX#++##XXXX++XX++##X#XXXX##+#+@++XXX#@@$$@+O+O++++OOOOOOOO+++O..OOO........OOO..OO......OOOOO++++OO.......... .  ......OOO................................ ...... ..........O+++%%%%%%%%%%%%%%%%%%%%%&&&%++OO...................................OOO+++OO..............OOOOOOO+++++O..................................................OO......OO++++OO..................OO+++O........................................OOO++++OO........OOO%%++OO+++%%%%%&&&&&&%&&&&&&&&&&&&&&&&%&%&%%%%%%%%%%%%%%%%%%%+++++OOOOOO............................................. .............OOOOOOOOOOOOOOO+++%%&%%%%%+++++++%%%%%&&::::&&&&&&&&&&&&&&&&&%++++OOOOOOOOOO++++OO.....................XXXXXXXXXXXXXXXXXXXXXXXXXX#####@@@@*==*@##XXXXo........++++OOO++O......O+++.....    .  ....OO... ........OO+++++OO..X#@@@@XXXo..ooooXXX#@@@###XXXXXXXXXXX###@$*******$$$*******$*****===;;;;;;=***$$$****$$@@@@################XXXXXXXXXXXXXooXXXoooooooooooooooooooooooooooooooooooXX##@$$$$$$@@##XXXXXXXXXXXXXXXXXXXXXXXX",
"===========******$@@@@@@$$$$***$$$@@##XXXXXX##@@@$$*$$$$@@###XXX###@$$$$**$$@@##XooooooooooooooooooooooooooooooooooooooooooooooooooooXXX##@@$$$****$$$$$@@@@X#XXXX##@@@$$$$$$$@@##XXoXooXXX#####XXooooXXXXXXXXXXXXXXXooooXXXXXX####@##@@@@@@@####XX#####@@@@@@#####XXXXXXX###@@@$$*****$@=;;;=*$$$@@#XX#XXXXXXXXXXXXXX#+##X+XXXXXXX###XX+X+####++@++#X+#@@$$@#O+O++++OOOOOOOOO++O..OOO........OOOO.OO.....OOOOOOOOO.........    ........OOOO...............OOO................. ..    ...........OOOOOOOOOOOOOOOO+++++++OOOOOO.....................................OO+++OO...................OOO++%++O..................................................OO......OOO+++OO..................OO+++O........................................OOOO++++OO.......OOO%%++OOOOOOOOOO++++++++++++++++++++OO+++++OOO++++OOOOOOOOOOOOOOOOOOOO................................................      . ........OOOO+OOOOOOOOOO+++++++++++++++++%%%%%%&::::::&&&&&&&&&&&&&&&&&++++OOOOOOOOOOO+++OO...................X.X...XXXXXXXXXXXXXXXXXXXXXX#######@@*@@##XXXooooo....O++++OOO++O......O++O.....    .... ..OO...  .......OO+++++OOO.O#@@@#XXXX...oooXXX#@@@##XXXXXXXXXXXX###@$******$$$$*****$$$*****==-;;;;;;=**$$$$****$$@@@@##################XXXXXXXXXXXXXXXXooXXoooooooooooooooooooooooooooooooXX##@$$$$$$@@##XXXXXXXXXXXXXXXXXXXXXXXX",
"===========*****$$@@@@@@$$$$**$$$$@@##XXXXXX##@@@$$$$$$$@@###XXX###@$$$$**$$@@##XooooooooooooooooooooooooooooooooooooooooooooooooooooXXX##@@$$$****$$$$$@@@###XXXX###@@$$$$$$$@@##XXooooXXX#####XXoooooXoXXXXXXXXXXXXXXXoXXXXX####@@@@@@@@@@@@##XXXX###############X#########@@$$$*****$@=;;;=*$$$@@##XXXXXXXXXXXXXXXX++XXXXXXXXXX##+XXX+++######@@##X+#@@$@@#O++++++OOOOOOOO+++O..OOOO.......OOO..OO.....OOOOOOOO......        ......OOOOO...............OOOO................. ..    ..........OOOOOOOOOOOOOOOOOO+++OOOOOOOOO....................................OO++++OO...................OO+%%%+OOO...........................OO.OO....OOOOOOOO....OOO......OOO+++OO..................OO+++O.........................................OOOO+++OOO......OOO%%+OOOOOOOOOOOOO++O+OOOO+O++++OOOOOO+OOOOOOOOOO+OOOOOOOOOOOOOOOOOOOO................................................        ........OOOO++OOOOOOOOOOO+++++++++++++++++%%%%%%&&:::::&&&&&&&&&&&&&&&&&++++OOOO...OOOO++++O........................XXXXXXXXXXXXXXXXXXXXXXX#######@##XXXXoooo.oo...O++++OOO++O......+++O.....     .  ...OXX..  .......OO+++++OOO.X+@@@#XXXXo..o.oXXX#@@@##XXXXXXXXXXXX###@$******$$$$*****$$$*****==-;;;;;;=***$$$****$$@@@@###################XXXXXXXXXXXXXXXooXXoooooooooooooooooooooooooooooooXX##@$$$$$$@@##XXXXXXXXXXXXXXXXXXXXXXXX",
"==========******$@@@@@@@@$$$**$$$$@@##XXXXXX##@@@$$$$$$$@@##XXXX##@@$$$***$$@@##XoooooooooooooooooooooooooooooooooooooooooooooooooooXXX##@@$$$*****$$$$$@@@#X#XX#####@@@$$$$$$@@##XXXXXXoXX####XXXoooooXXXXXXXXXoooXXXXXX######@@@@@@@@@@@@@@@##XXXXX####################@@#@@@$$$*****$$=;;;=*$$$@@##XXXXXXXXXXXXXXXXXX#XXXXXX#XXXX++++######++#@@##X#+@@@@@#++O++++OOOOOOOOO++O..OOOO......OOOO..OO.....OOOOOO....    ..   ........OOOOO.................O......................  .................OOOOOOOOOOOOOOOOOOOOOOO......................................O++++OO....................OO+%%%+OOOO..OOOOOO....OOOOOOOOOO..OOOOOOOOOOOOOOOOOOOOOOOOOOO.....OOO+++OO..................OO+++OOOOOOO..OOOOOOO...OOOO..OOOOOOOOOOOOOOOOOOOOOO++OOOO...OOOOO%%+O.....OOOOOOOOOOOOOOOOOOOOOOOOOOOOOOOOOOOOOOOOOOOOOOO............................................................       . ........OOO+++++OOOOOOOOOOOOO+++++O+++++++%%%%%%%&&::::::&&&&&::&&&&&&&&&++++OOOOOOOOOO+++++OO....................XXX.XXXXXXXXXXXXXXXXXXXXXX#######XXXXXXo.   ....O++++OOO++O.....O+++O........    ....XXO... ........O+++++OOO.O#@@@#XXXX...ooXXXX#@@@###XXXXXXXXXXX###@$******$$$$****$$$******===;;;;;;=**$$$$****$$@@@@######################XXXXXXXXXXXoooooooooooooooooooooooooooooooooooooX##@@$$$$@@@##XXXXXXXXXXXXXXXXXXXXXXXX",
"=========******$@@@@@@@@@$$***$$$$@@##XXXXXX##@@@$$$$$$$@@##XXXX##@@@$$***$$@@##XooooooooooooooooooooooooooooooooooooooooooooooooooXXXX#@@@$$*****$$$$$$@@@###XX####@@@@$$**$$@@##XXXXoXoXX#####XXoooooXXXXXXXXXoXXXXX#####@@@@@@@@$$$$$@@@@@@###XXXXXXX############@@@@@@@@@@$$$$*****$$=;;;=*$$$@@##XXXXXXXXXXXXXXXXXXXXXXXXX#XXXXXX#######X#+##@##X##@@@@@#OOO++++OOOOOOOOO++O..OOOO......OOOO..OO.....OOO..........  .. .......OOOOO..........................................  ....................OOOOOOOOOOOOOOOOO.........................................OOOOOO.....................OO++++++++OOO++++++++++OOOO++++++++++++++++++++++++++OOOOOOOOO.....OOO+++OO..................OOO++OOOOOOOOOOO+O++OOOOOOO+++OO++++++++++OO++OOOOOOOOOOOOOOOOOO++%%OOOOOO..OOOOOOOOOOOOOOOOOOOOOOOOOOOOOOOOOOOOOO....OO.O..............................OOOO..................... ...       ..  .........OO++++++OOOOOOOOOOOO+OOOO++++++++%%%%%%%%&&::::::&&&&&&&&&&&&&&%+++++OOOOOOOOO+++++++O..................XXX..XXX..XXXXXXXXXXXXXXXXXXX##XXXXXX....oo  ...O++++OOO++O......+++O...... .   ......XO... ........O++++OO.OOO#@@@#XXXo...oooXXX#@@@###XXXXXXXXXXX###@$$*****$$$$****$$$******===;;;;;;=**$$$$****$$@@@@###############X######XXXXXXXXXXXXoooooXooooooooooooooooooooooooooooooX##@@$$$$@@@##XXXXXXXXXXXXXXXXXXXXXXXX",
"=======*****$$$@@@####@@@$$$$$$$$$@@###XXXXX##@@@$$$$*$$@@##XXXX###@@$$$**$$@@#XXooooooooooooooooooooooooo oooooooooooooooooooooooXXXX##@@$$$***$*$$$$$$@@@###XX####@@@@$$**$$@@##XooooXoXXX####XXoooooXXXoooXXX#######@@@@@@@@@@@@@$@@@@@@@@#####XXXXXX####@###########@@@@@@$$$******$$*;;==*$@$@@##XXXXXXXX++XXXXXXXX#XXXXX##XXXXXX##X#X##X#+++@##X##@@@@@#O+O++++OOOOOOOOO++O...OOO.......OOO..OO.....OOO.....         .......OOOO....................................... ....  ..........................OOOOOO...............................................OOOO.......OOOOOOOOOO.....OOO++++++++OO++OOOOOOOOOOOOOOOOO++++++++++++++++++++++OOOOOOOO.....OOO+++OO...................OOOOOOOOOOOOOOOOOOOOOOOOOOOOOOOOOOOOOOOOOOOOOOOOOOOOOOOOOOOOOOOO+++OO.........................OOOOOOOOOOO....OOOO......................................OOOOO...................  ....  . ....     .......OO+++++++OOOOOOOOOOOOOOOO+++++++%%%%%%%%%%&&:::::&&&&&&&&&&%%%++++++++++++++++++@@++++OX...OXX..............XX..XXXXXXX..XXXXXXXXXXX##XXXXXX...o..  ...O++++OOO+OO......O++O....        .....OO............O++++OO.O.X+@@@#XXXo...oooXXX#@@@##XXXXXXXXXXXXX##@$******$$$$***$$$$******===;;;;;;=**$$$$****$$@@@@@###############X######XXXXXXXXXXXXXoXXXXXooooooooooooooooooooooooooooX##@$$$$$$@@##XXXXXXXXXXXXXXXXXXXXXXX#",
"=====******$$@@@@@####@@@$$$$$$$$$@@###XXXXX##@@@$$$$*$$@@##XXXX##@@@$$$*$$$@@#XXoooooooooooooooooooooooo     ooooooooooooooooooooXXXX###@$$$***$$$$$$$$@@@###XX####@@@@$$**$$@@##XoooooXXXX###XXXXXooXXXXXXXX#####@@@@@@@@@@@@@@@@@@@@@@@@@@###XXXXXXX###@@@@##############@@$$*******$$*====*$@@@@#XXXXXXXX+++XXXXXXX#+XXXXX###XXXXX####XXXX##++@##X##@@@@@#O+O++++OOOOOOOOO++O...OO........OOO..OO......OO.....    ...........OOOO....  .................................. ...... ....................OOO..OOOOOOOO.......................................................OOOOOOOOOOOO...OOOOOOOOOOOOOOOOOO..OOOOOOOOOOOOOOOOOOOOOOOOOOOOOOOOOOOOO.OOOOO.....OOO+++OO.....................O..........OOOO...OOOOOOOOOOOOOOOOO.OOOOOO...OO.OO.........OOOO++OOO............OOO...OOO...OOOOOOOO.O.....OO.........................................OOOOO..................  ............    .........OO++++++OOOOOOOOOOOOOOOOO+++++++%%%%%%%%%%%&&:::::&&&&&&&&%%%++++++++++++++++++++++++OOOO.OXXXXXX......oo......X.XXXXXX..XXXXXXXXXXXXXXXXoo...... ....O++++OOO+OO......O++O...        .. ..OOO.. .........O+++++O.O.O#@@@#XXXoo..oooXXX#@@###XXXXXXXXXXXXX##@$******$$$$****$$$$*****===;;;;;;=**$$$$****$$@@@@@#################X#####XXXXXXXXXXXXXXXXXXXooooooooooooooooooooooooooo###@$$$$$$@@##XXXXXXXXXXXXXXXXXXXXXXX#",
"====*****$@@@@@#######@@@@$$$$*$$$@@##XXXXXX##@@@$$$*$$$@@##XXXX###@@$$***$$@@##XXoooooooooooooooooooo    ooooooooooooooooooooooooXXXX##@@$$***$***$$$$@@@@###XXXX##@@@$$***$$@@##XXXooXXXX#####XXXooooXXXXX#####@@@@@@@@@@@@@@@@@@@@@@@@@####XXXXXXX#####@@@@##############@@$$$******$@$*==**$@@@@#XXXXXXXXXXXXXXXXXXXXXXXXX++##+#++#XXX#######@@#XX##@@@@@#OXO++++OOOOOOOOOOOO..OOO........OOO...OO....OOO...... ...........OOOO....   ............ ......................................................OOOOOOO.......................................................OOOOOOOO+++++O.........................................OOO...OOOOOOOOOOOO....OO......OOO+++OO..........................................................OOOO....................OOOOO...............................OO..O................................................OO++OOO.....................   ...      ....   ....OO++++++++OOOOOOOOOOOOOOOO++++++++%%%%%%%%%%&&::::&%%&&%&&%%++++++++++++++@%%@@@@@+X+XXXXXXX.XXXX...X..........oXXXXXo..XXXXXXXXXXXXXXXXXo..o... ....O+++OOOO+OO......O++O...           ..OO... .........O+++++OO..O++@@#XXXoooooooXXX@@@@##XXXXXXXXXXXXX##@$$*****$$$$$**$$$$$*****===;;;;;-=**$$$$****$$$@@@###################X#XXXXXXXXXXXXXXXXXXXXoooXXooooooooooooooooooooooooX##@@$$$$$@@##XXXXXXXXXXXXXXXXXXXXXXXX",
"********$@@@@@########@@@@$$$$**$$@@##XXXXXX##@@@$$$*$$$@@##XXXXX##@@$$***$$@@##XXooooooooooooooooooooo   ooooooooooooooooooooooooXXXX##@@$$******$$$$$@@@@###XXXX##@@@$$$**$$@@##XXXooXXXX####XXXXooXXXXXXXX######@@@@@@@@@@@@@@@@@#########XXXXXXXX###@@@@@@###############@@$$*****$$@$*==**$@@@@##XXXXXXXXXXXXXXXXXX+XX+XXX###+###X+XX#####+#@@#XXX#@@@@@#OXO++++OOOOOOOOO+OO..OOOO.......OOO...OO....OO....... ..........OOOO....  ...................................................................OOOOOOOOO.......................................................OOOOOOOOO++OOO...........................................OO.O.OOOOOOOOOOO....OOO.....OOO+++OO...........................................................OO.........O...........OOOO.....................................................................................OOO++OO....................  . ....     .....  .....OO+++++++OOOOOOOOOOOOOOOOOOOO++++%%%%%%%%%%%%&&::&&%%&&&&&&%%++%%++++++++%&@&@@@@++++XXXXXXXXXXX.XXXX........o..XXXXX...oXXXXXXXXXXXXXXX.......  ...O+++OOOO+OO......O++O....        ....OO... .........O++++OO...O++@@#XXXoo....oXXX#@@@##XXXXXXXXXXXXX##@$$*****$$$$$***$$$$*****===;;;;;-=**$$$$$***$$$@@@#####################XXXXXX#XXXXXXXXXXXXXXXoXooooooooooooooooooooooooXX##@$$$$$$@@##XXXXXXXXXXXXXXXXXXXXXXXX",
"****$$@@@@@###########@@@@$$$$$$$$@@##XXXXXX##@@@$$$*$$$@@##XXXXX##@@$$$$$$$@@##Xooooooooooooooooooooooo ooo oooooooooooooooooXXoXXXXX##@@$$*******$$$@@@@@###XX#X###@@@$$$*$$@@##XXXoXXXXX#####XXXXXXXXXXXXXXXXXX###@@@@@@@@@@@@@############XXXXXXX####@@@@@###############@@$$*****$$$$*==**$@@@###XXXXXXXXXXXXXXXXXXXXXXXXXXXX+X####XX##X+++#@+++XX#@@$@@XOOO++++OOOOOOOOO++O..OOOO.......OOO...OO.....O..............O..OOO............... .........................................................OOOOOOOOOOO.......................................................OOOOOOOO+++OOOO............................................OOOOOO++++OOOOO..OOOO......OO++OOO.................................................OOOOOOO..........OOOOOOOOOOOOOOOOOOOOOOO.OO.OOOOO..O...OOOOOOOOO.OOOOOOOOOOOO..............................................OOO++OOO..........................     .....  .......OO+++++++++OOOOOOOOOOOOOOOOOO++++%%%%%%%%%%%&&::&%%%&&&&&&&%@++%%%+++%%%&&&&&@@@@++##X+XXXXX...XXXX........oo.XXX....ooXXXXXXXXXXXX.XX.o.....  ...O+++OOOO+OO......+++O.....    .......OO... .........O++++OO...X++@@#XXXoooooooXXX#@@@##XXXXXXXXXXXXX##@$$*****$$$$****$$$$*****===;;;;;-=**$$$$$***$$@@@@@#####################XXXXX#XXXXXXXXXXXXXXXXoooooooooooooooooooooooooXX##@$$$$$$@@##XXXXXXXXXXXXXXXXXXXXXXXX",
"****$@@@@@############@@@@$$$$$$$$@@##XXXXXX##@@$$$$*$$$@@##XXXXX##@@$$$$$$$@@##Xooooooooooooooooooooooo  oooooooooooooooooooooXoXXXXX##@@$$*******$$$@@@@@###XXXX###@@@$$$$$$@@##XXXXXXXXX######XXXXoooooooXXXXXX###@@@$$$$@@@@##############XXXXXXXX###@@@@@@##############@@@$$****$$$$$****$$@@###XXXXXXXXXXXXXXXXXXXXXXXXXXXXXX###XXX##X#++#++++XX#@@@@@XOOO++++OOOOOOOOO++O...OO........OOO...OO.....O..........OOOOOO........................    ................................................OOOOOOOOOOOO......................................................OOOOO+OOO+++OOOO.....O..OO....O.OOOO..OOOOOO....O.O.....OOOOOOOO++%%%%+OOOOOOOOOO......OO+++OO........................................OOOOOOOOO...OOOOOOOOOOOOOOOOOOOOOOOOOOOOOOOOOOOOOOOOOOOOOOOOOOOOOOOOOOOOOOOOOOOO...OO................................................OOO++OO............................   .....   .......OO+++++++++OOOOOOOOOOOOOOOOOOO+++%%%%%%%%%%%%&::&&%%&&&&&&&%%%%%%%+@%%%&&&&&&&&&@@@#XX+++XXXXXXXXXXX..X...oo.XXX....ooXXXXXXXXXX.X....o.o ..   ..O+++OOOO+OO......+++O.....    .......OO... .........O++++OOOOXX+@@@#XXXo.oooooXXX#@@@@#XXXXXoXXXXXXX##@@$*****$$$$****$$$$*****===;;;;;-=**$$$$$***$$@@@@@######################XXXXX#XXXXXXXXXXXXXXXoXXoXoooooooooooooooooooXX###@$$$$$$@@##XXXXXXXXXXXXXXXXXXXX##XX",
"$$@@@@@@##############@@@$$$$*$$$$@@##XXXXXX##@@@@$$**$$@@@#XXXXX##@@$$$$$$$@@##Xoooooooooooooooooooooooo oooo  oooooooooooooooooXXXXX##@$$$$$*$*$$$$$$@@@@###XXXX###@@@$$$$$$@@##XXooXXXXX#####XXXXXooooooooXXXXX###@@$$$@@@##XXXXX#########XXXXXXXXXX##@@@@@@####@@@#######@@$$$$***$$$$$****$$@@@##XXXXXXXXXXXXXXXXXXXXXXXXX#XXX###XXXX##XX###@+++XX+@@@@+XOOO++++OOOOOOOOO++O...OOO.......OOOO..OO.....OO......OO+++OOOO....  ......................................................................OOOOOOOOOOOOO.....................................................OOO++++++++++OOOOOOOOOOOOOOOOOOOOOOOOOOOOOOOOOOOOOOOOOOOOOOOOO+++%%%%%OOOOOOOOOOO.....OOO++OO......................................OOOOOOOOOOOOOOOOOOOOOOOOOOOOOOOOOOOOOOOOOOOOO+++++O+++OOOOOOOOOOOOOOO+OOOOOOOOOOOOOOOOOOOOO.....................OOOOOOOOO................OO++++OO.................................. . .   .....OO+++++++OOOOOOOOOOOO.OOOOOOO+++%%%%%%%%%%%&&:::&%%%&&&&&&&%&%++++%%@@%&&&&&&&&@@@++##++++XXXXXXXXXXXoo.oo......oooo..o.XXXXXXX.Xoo.o.      ...O+++OOOO+OO......O++O.....   .. . ...OX.............O++++OOO.XX#@@@#XXXooo.oo..XX#@@@##XXXXXXXXXXXXX##@$$*****$$$$***$$$$$*****===;;;;;;=**$$$$$***$$@@@@@######################XXXXX##XXXXXXXXXXXXXXXXXooooXoooooooooXXooXXXXX###@$$$$$$@@##XXXXXXXXXXXXX##XX####XXX",
"@@@@@@@################@@@$$$*$$$$@@##XXXXXX###@@@$**$$$@@##XXXXX##@@$$$$$$$@@##XXooooooooooooooooooooooooooooo oooooooooooooooooXXXXX##@$$$$$$$$$$$$$@@@@@#XXXXXX###@@@$$$$$$@@##XXXoXXXXX#####XXXXooooooooXXXXXXX##@@@@@@###XXXXXXX########XXXXXXXXX####@@@@@###@@@@#######@@$$$$**$$$$@$****$@@@@##XXXXXXXXXXXXXXXXXXXXXXXXX#XXX#X#XXXX####XX#@+++XX+@@@@+XOOO++++OOOOOOOOO++O...OOO.. ....OOOO..OO....OOO......OO+OOOOO........................... ..............................................OOOOOOOOOOOOOOOO.....................................................OOOOOOOOO++O++++O+++OOOO++OOOO+OOOOOOOOOO+OOOO+OOOOO+++++++OOO++++++++OOOOOOOOOOO.....OOO++OO...........O......................OOOO+++%%%%%%%%%%%%%%%%%%%%%%%%%%%%%%%%%%%%%%%%%%%%%%%%%%%%%%%%%%%%&&&&&&&%%%%%%%%+++++++++OOOOO..................OO+++++OOO.................OOO++++O................................... ..   .....OO++++++++OOOOOOOOOOO..OOOOOOOO+++%%%%%%%%%%%&:::&&%%%&&&&&&&&@++++++++@+%@@@@@@&@@@@#+XX+XXXXX...XXXooo.oo.... oooooo...XX.XXX.o.....      ...O+++OOOO+OO......O++O... .      . ...OXX............O+++++OO.XX#@@@#XXXoooooo..XX#@@@##XXXXXXXXXXXXX##@@$$****$$$$***$$$$$*****===;;;;;;=**$$$$****$$@@@@########################XXXX##XXXXXXXXXXXXXXXXooooXXXoooooooooooooooXX###@$$$$$$@@###XXXXXXXXXXXXX#########X",
"@@########XXXXXXXX#####@@@$$$***$$@@##XXXXXXX##@@@$**$$$@@##XXXXX##@@$$$$$$$@@##XXoooooooooooooooooooooooooooooooooooooooooooooooooXXX##@@$$**$$$$$$$$@@@@@#XXXXXX###@@@$$$$$@@@##XXXoXXXXX#####XXXXoooooooooXXXXX##########XXXXooXXX#######XXXXXXXXXXX##@@@@@@###@@@@@######@@$$$***$$$$@$$**$$@@@@##XXXXXXXXXXXXXXXXXXXXXXX+X#XX##XXXXXX####XX+@@#+XX+++@@+XOOO++++OOOOOOOOO++O..OOO...  ...OOOO..OOO...OOOOOOOOOOOOOO.....................OOOOOOOOOO.............................................OOOOOOOO++++OOOOO......................................................OOOOOOOOOOOOOOOOOOOOOOOOOOOOOOOOOOOOOOOOOOOOOOOOOOOOOOOOOOOOOOOOOOOOOOOO...OOOOO.....OOO++OO...........O........................OO+++++++%%%%+++++%%%%%+++++++++%++%%++++%%%%%%%%%%%%%%++++%%%%%%%%%%%%%+++++++++++++%%%%+++OOOOO..............OOO+%%&%+OOOO.................OO++++OO..........................  . ......  ........OO++++++++++OO++OOOOOOOOOOOOOO++++%%%%%%%%%%&::::&&%%%&&&&&&&@++++++++@@+@++@@@@@@@@@+##X+XXXXX.XX...o.ooo..  ....o......XXXX.o.....o     ...O+++OOOO+OO......O++O....         ...XXX............O+++++OO..X#@@@#XXXoo...o..XX#@@@##XXXXXXXXXXXXX##@@$$$**$$$$$****$$$$*****===;;;;;;=*$$$$$****$$$@@@################################XXXXXXXXXXXXXXXXoXXXXXXoooooooooooooXX###@$$$$$$@@###XXXXXXXXXXXXXXXXX#####X",
"@@#####X##XXXXXXXXX####@@@$$$***$$@@##XXXXXXX##@@$$$*$$$@@##XXXXX##@@$$$$*$$@@##XXooooooooooooooooo   oo  ooooooooooooooooooooooooXXXX##@@$$**$$$$$$$$@@@@@#XXXXXX####@@$$$$$@@@##XXXoXXXXXX####XXXoooooooooooooXXXX########XXXoooXXXX#######XXXXooXXX###@@@@@@@###@@@@######@$$$$***$$$$@$$$$$@@@@###XXXXXXXXXXXXXXXXXXX##XXXX#XX##XXXXXX#+###X###+XXXX++@@+XOOO++++OOOOOOOOO++O..OOO...   ..OOO...OOO....OOOOOOOOOO......... ...........OOO+++++++++OO.............................................OOOOO++++++OOOOO...OOO.....................................................OOOOOOOOOOOOOO..OOOOOOOO..OOOOOO........OOOO...OOOOOOOOOOOOOOOOOOOO...OOOOO.....OOO++OOO..........O........................OOOOOOOOOOOOOOOOOOOOOOOOOOOOOOOOOOOOOOOOOOOOOOOOOOOOOOOOOOOOOOOOOOOOOOOOOOOOOOOOOOOOO%%%%%%++OOOO..............OOO+%%&%%+OO..OO..............OOO++%+O.....................  ....   .. ..............O++++++++++++++++OOOOOOOOOOOOO+++%%%%%%%%%%%&&:::&&%%&&&&&&&@%+++++++++++++@+@@@@@@@@####XXXXXXXX..ooo.oo.   ... ..  ...XXX.oo..o....    ...OO++OOOO+OO......O++O...         ....OX.............O++++OO...X+@@@#XXXoo..oo..XX#@@###XXXXXXoXXXXXX##@@$$$**$$$$$***$$$$$*****===;;;;;;=**$$$$$***$$@@@@################################XXXX##XXXXXXXXXXXXXXXXXoooooooooooooXX###@$$$$$$@@###XXXXXXXXXXXXXXXXXX####X",
"####XXXXXXXXXXXXXXX####@@@$$****$$@@##XXXXXX###@@@$$$$$$@@##XXXX###@@$$$*$$$@@#XXXoooooooooooooooo ooooo  oooooo  ooooooooooooooooXXXX##@@$$$$$$$$$@@@@@@@##XXXXXXX###@@@$$$$$@@##XXXXXXXXXXX##XXXoooooooooooooXXXXXXXXX##XXXXXooXXXXX####@##XXXXXXXXX###@@@@@@###@@@@@@@####@$$$$**$$$$$$$$$$$@@@@#XXXXXXXXXXXXXXXXXXXXXX##XXXX##XXXX##XX##++++++++XXXXX##++OO.OO+++OOOOOOOOO+OO...OO.... ...OOO...OO....OOOOOOOOOOO................OOOOO++++%%%%%+++OO..............................................OOO+++++++OOOOOOO.OOOOOOOOOOOO....................................................................................................O.OOOOOOOOOO...OOOO......OO+++OO.........OO...............................O.O....OOOOO........O.......OOOOO.OOOOOOOOOOOOOOOOOOOOOOOOOOOOOO.....O.OOO.OOO+%%%&&%%OOOO..............OOO++%&&%%+OOOO................OOO++%%OOOO.O......................       .............OO++++++++++++++++++++++OOOOOOOO++%%%%%%%%%%%&::::&&%%&&&&&&&&@+++++++++@+@@@@@@@@@@@@@+#++#+XXX..o........o... o...oooXXX...........   ....+++OOOO+OO.....O+++O... .   . ......OOX...........OO+++OOO...X#@@@XXXXooo..oo.XX#@@###XXXXXoooXXXXXX#@@$$$**$$$$$****$$$$******==;;;;;;=**$$$$$***$$$@@@@###########################X###XXXX##XXXXXXXXXXXXXXXXXXooooXoooooooXX##@@$$$$$$@####XXXXXXXXXXXXX##########",
"####XXXXXXXXXXXXXXXX###@@@$$$***$$@@##XXooXXX##@@$$$*$$$@@##XXXX###@@$$$*$$$@@##XXooooooooooooooo    ooo  ooooooooo   oooooooooooXXXXX##@@$$$$$$$$$@@@@@@@##XXXXXXX####@@$$$$@@@##XXXXXXXXXXXX##XXooooooooooooooXXXXXXXXX###XXXXoXXXXX######XXXXXXXXX####@@@@@@###@@@@@@@@##@@$$$$**$$$$$@@$$$$@@@@#XXXXXXXXXXXXXXXXXXXXXX#X#XXX#XXXX++#XX##++++++++XOXXXXX++XO.OO+++OOO.OOOOOOOO..OOO...  ...OOO...OO.....OOOOOOOOOO...............OOOO++++%%%%%++++OOO................................................OO++++OOOOOOOOOOO....OO.OO.......................................OOO...................................................O.......O....OOO.OOOOO.OOOOO.......O+++OO............................................................OOOO....O...............OOOO..........................OO.OOO++%&&&%%+OOO...............OOO++&&&&++OOO.O.............OOOOO+%%+OOO......................... ..  . ..............O++++++++++++++++++++++OOO..OOO++%%%%%%%%%%%&&::::&&%&&&&&&&&@@@++++++++@@+@@@@@@@@@@@###+++XXX.oo.................o..X....oo.....    ....+++OOOO+OO.....O+++O...     . ......OO............OO++++OO..XX#@@@XXXXoo...oo.XX#@@@##XXXXXoXoXXXXXX##@$$$*$$$$$$$**$$$$$$*****==;;;;;;=**$$$$$***$$@@@@@#################################XX##XXXXXXXXXXXXXXXXXXXoooXXooooooXX##@@$$$$$$@###XXXXXXXXXXXXXX########XX",
"#XXXXXXXXXXXXXXXXXXX###@@$$$$$**$$@@##XXooXXX##@@$$**$$$@@##XXXX###@@$$$**$$@@##Xooooooooooooo                  oooo   ooooooooooXXXXX##@@$$$$$@@@@@@@@@@###XXXXXXXX###@@$$$$@@@##XXXXXXXXXXXX##XXooooooooooooooooooXXXXXXX#XXXXoXXXXX##@@@@#XXXXXXXX###@@@@@@@@##@@@@@@@###@@$$*****$$$$$$$$$@@@@##XXXXXXXXXXXXXXXXXXXXXX##XXXX##XXXX##X###XXXX#@@#XXXXXXX++OO.OO+++OOO..OOOOOOO..OOO...  ...OOO...OOO....OOOOOOO+++O..........OOOOOOO++++%%%%+++++O++O................................................OOO+OOOOOOOOOOOOOOOOOOOOOOOOOOOOO..............................OO.OO.........OOOOOOOOOOOOOOOOOOOOOOOOOOOOOOOOO.OOOOOOOOOOOOOOOOOOOOOOOOOOOOOO.OOOOO.......O+++OO......................................................................................................................OOO+%%&&&&%+OOOO..............OOO+%%&&%%OOOOOO.......O..O.OOOO++%%%%+OOO..........................   .  ...... ......OO++++++++++++++++++++++OOOOOOO++%%%%%%%%%%%%&&::::&&&&&&&&&&&&&%+++++@@@@@@@@@@@@@@@XXXXXXXXXXoo.... .      o    ...............   .....+++OOOO+OO.....O+++O...      .......X.............OO++++OO..XX+@@@XXXoooooooo.XX#@@@##XXXXooooXXXXXX##@@$$$$$$$$$***$$$$$$*****==;;;;;;=*$$$$$$***$$@@@@@@################################XX######XXXXXXXXXXXXXXXXXXooooooooXX##@@$$$$$$@@##XXXXXXXXXXXXX###X#XX#XXX",
"XXXXXXXXXXXXXXXXXXXX###@@@$$$$*$$$@@##XXooXXX##@@$$**$$$@@##XXoo###@@$$$**$$@@#XXXooooo oo  o                   oooo  oooooooooooXXXXX##@@$$$$@@@@#########XXXXXXXXX####@$$$$@@@##XXXooXXXXXXX#XXXoooooooooooooooooooXXXX##XXXXXXXXXXX###@@##XXXXXXX####@@@@@@#####@@@@@####@@$$$****$$$$$$$$$@@@@##XXXXXXXXXXXXXXXXXXXXXX##XXXXXXXXXXXXXX##XXXX#@@#XXXXXXXXXO..OO+++OOO..OOOOOOO..OOO........OOO...OOOOOOOOOOOO++++OO...........OOOOO+++%%%%%++++++++++...............................................OOOOOOOO+%%%%%%%%%%%%%%%%&&&%%++OO.....................OO.....OOOOOOOOOOOOOOOOOOOOOOOOOOOOOOOOOOOOOOOOOOOOOOOOOOOOOOOOOOOOOOOOOOOOOOOO+++OOOO..OOOO........O+++OO.......................................................................................................................OOO++%&&&&%+O.O...............OOO+%&&&%+OOOOOOO..OOOO.OOOOOOO++%%%%%+OO.......................... .      ...  .......O+++++++++++++++++++++++OOOOOOO+%%%%%%%%%%%%%%&&::::&&&&&&&&&&&&@@+++@@@@@@@@@@@@@@+##XXXXXXX.o.XX..             .........o.  .    ....O+++OOOO+OO.....O+++O...      .......X.............OO++++OO..XX+@@@XXXooooooooXXX#@@@##XXXXooooXXXXXX##@@$$$$$$$$$$*$$$$$$$*****==;;;;;;=*$$$$$$***$$@@@@@#################################XX########XXXXXXXXXXXXXXXXooXXoXXXXX##@@$$$$$$@@##XXXXXXXXXXXX####XXXXXXXX",
"XXXXXXXoXXoXXXXXXXXX###@@$$$$$$$$$@@##XXooXXX##@@$$*$$$$@@##XXXX###@@$$$*$$$@@#XXXooooo o                    ooo ooooooooooooooooXXXXX##@@@@@@@######XX####XXXXXXXXXX###@@$$$@@@##XXXoXXXXXX####XXooooooooo   oooooooXXX####XXXXXXXXXXX##############@@@@@@@################@@$$$**$$$$@$$$$$$@@@@##XXXXXXXXXXXXXXXXXXXXXXXX+XXXXXXXXXX#XXXXXX##+@##XXXXXXX+O...OO+++OOO.OOOOOOOO...OO... ....OOO...OOOOOOOOOOOOOOOOO.......OOOOOOO++++%%%%%++++++++++++O..........................OOOOO...............OOOOOOO+++++%%%%%%%%%%&&&%%%%++OO........OOOOOOOOOO++++++++++++++++++%%%%%%%%%%%%%%++++%%++++++++++++++++%%%%%%%%%%%%%%+++++%%%++OOOO+%%%++OOO..OOOO......OO++OOO.......................................................................................................................OOOO+%&&&&&%+OOOO.............OOOO+%&&&%%OOOOOOO.OOOOOOOOOOO+%%%%%%%%+OOO......................... ..        ....   ...O++++++++%+%%%%%%%%%%+++++OOOO+%%%%&%%%%%%%%%%&::::&&&%&&&&&&&&@@@+@@@@@@@@@@@@@@@@@#XXXX.o...XXXo.   ..      ........oo..        ...O+++OOOO+O......O+++O....        ....XX...  ........O++++OOO..X+@@#XXXooo.ooooXXX#@@@##XXXXooXooXXXXX###@$$$$$$@$$$*$$$$$$$*****==;;;;;;=***$$$$***$$@@@@@@@@#########################################XXXXXXXXXXXXXXXXXXXXXXXXX##@@$$$$$$@@####XXXXXXXXX##XXXXXXXXXXX",
"XXXXooXooooooXoXXXXX###@@@$$$$$$$$@@##XXXXXXX##@@$$$$$$$@@##XXXX###@@$$$$$$$@@#XXooooo  o                          o o   oooooooooXXXXX#########XXXXXXXXXXXXXoXXXXXXX###@@@@@@@##XXXoooooXXX####XXooo   oo      o oooXXX#####XXXXXXXXXXX######@@@@@@@@@@@@@@@@@#############@@$$*$$$$*===**$$$$@@@#XXXXXXXXXXXXXXXXXXXXXXXXXX+XXXXXXXXX#XXXXXX+#++##XXXXXX++O...OO+++OOO..OOOOOOO...OOO..  ....OO...OO+OOOOOOOOOOO..........OOOOOOO++++%%%%%++++++++++++O...........................OOOOOOO...........OOOOOOOOOOOOOOOO+++++++++++++OOOOO........OO++++%%%%%%%%%%%%%%%%%&%%&%&&&&&&&&&&&&&&&&&&&&&&&&&&&&&&&&&&&&&&&&&&&&&&&&&&&&&&&&&&&%++OO%&&&%+OOO..OOOO......OO++OOO......................................................................................................................OOOOOO+%&&&&&%+OOO...........O..OOOO%%&&&%+OOOOOOOOOOOOOOOOO++%%%%%%%%++OOOO....................... ..      . ..........OO+++++++%++%%%%%%%%%%++++++OO++%%%%%%%%%%%%%%%%&::::&&&&&&&&&@@@@++++##+###XX++++#XXXXXXX....o..Xo   .       ........o  .        ...O+++OOOO+OO.....O+++O...         ....XX............OO++++OOO..X+@@#XXXoo..oooooXX#@@@#XXXXXooXooXXXXX###@@@$$$@@$$$$$$$$$$$$****==;;;;;;=**$$$$***$$$@@@@@@@@@#########################################XXXXXXXXXXXXXXXXXXXXXXXX##@@$$$$$$@@####XXXXXXXXX###XXX#XX#XXX",
"XXXXXoooooooooooXXXX###@@@$$$$**$@@@##XXXXXXX##@@$$$$$$$@@##XXXXX##@@$$$$$$$@@##Xoo   oo                                oo oooooooooXXXXXXXXXXXXoXXXXoXXXXXoooXXooXXXX##@@@@@@##XXXooooooXXXX##XXooooooo          ooooXX#####XXXXXXXXXXX####@@@@@@@@@@@@@@@@$@@@##########@@@@$$$$$$*=;;=*$$$$$@@#XXXXXXXXXXXXXXXXXXXXXXXXXXXX##XXXXXXXXXXXXX#++++++XOXXXX++O...OO+++OOO..OOOOOOO...OO.... ....OOO.OOOOOOOOOOOOOO..O....OOOOOOOOO+++%%%%%%+++++++++++++O.........................OOOO++++OOO.....OOO.OOOOOOOOOOO.OOOOOOOOOOOOOOOOOOOOO..........O+++%%%%%%%%%&%%%%%%%%%%%%%%%%%%%%%%&&%%%%%%%%%%&%%%&&&%&&&&&&&&&&&&&%%%%%%%%&&&&&&&&&%%++O+%&&&%+OO...OOOO......OO++OOO..................OOOO...............................................................................................OOOOOOO+%&&&&&&+OOO..O.OOOO......OOOO++&&&&%+OOOOOOOOOOOOOOOO+%%%%%%%%%%%++OOO.....................  ......  ....    ......O++++++%%%%%%%%%%%%%%%%+++++++%%%%%%%%%%%%%%%%%&&::::&&&+++++++XOXXXXXXXXXXXXXXXXXXX.XXXX....oooo....       ........            ...O+++OOOO+OO.....O+++O...         ....XX............OO++++OO..XX#@@#XXXo... ooooXX#@@##XXXXXXoXXooooXXX###@@@@@@@@$$$$$$$$$$$*****=-;;;;;=**$$$$$$*$$$@@@@@#@@@##########################################XX######XXXXXXXXXXXXXX###@@$$$$$$@@####XXXXXXXXXX##XX######XX",
"XXXXooooooooooooXXXX###@@@$$$$$*$@@@##XXoXXXX##@@$$$$$$$@@##XXXXX##@@$$$*$$$@@##Xoo                                         ooooooooooXXXXXXooooooooooXXXoooooooooooXXX###@@@###XXXoooooXXXXXXXXXXoooooo  ooo     ooooXX####XXXXXXXXXXXX###############@@@@$$$@@#######@@@@@$$$$$$$=;;;;=*$$$$$@@#XXXXXXXXXXXXXXXXXXXXXXXXXXXX#XXXXXXXXXXXXX##+#++++XOXXXO++O...OO+++OOO..OOOOOO....OO...  ....OOO.OOOOOOOOOOO....OO...OOOOOOOOO+++%%%%%%+++++++++++++OO........................OOOO+%%&++OOO..OOOOOOOOOOOOOOOO..OO.OOOOOOOOOOOOOOOOO...........OOOOO++++++%%%%%%%%%%%%%%%%%%%%%%%%%%%%%%%%%%%%%%%%%%%%%%%%%%%+%%%%+++++%%%%%%%%%%%%%%%%++O+%&&&%+OOO..OOOO.......O++OOO........O.......OOOOOOO..............................................................................................OOOOOOOO+%&&&&&%+OOOOOOOOOOOO......O.O+%&&&&%+OOOOOOOOOOOOOOO++%%%%%%+%%%%+OOO.....................  ......   ...  . .......O+++++%%%%%%%%%%%%%&&&%%+++++%%%%%%%%%%%%%%%%%%%&&&::&&++++XXXX.......o..oX....o.....XXXXXXXXX.......     ........o   .        ...O+++OOOO+O......O+++O....        ....OX............OO++++OO..XX#@@#XXoo..o ooooXX#@@##XXXXXXoXoooooXXXX####@@@@@@$$$$$$$$$$$$****=-;;;;;=**$$$$$$$$$$$@@@@#@#@###################################################XXXXXXXXXXXXX###@@$$$$$$@@####XXXXXXXXXXX#########XX",
"XXoooooooooooooXooXXXX#@@@$$$$*$$$@@##XXXoXXX##@@$$$$$$$@@##XXooX##@@$$$**$$@@##ooo                                         oo  oooooooooooooooooooooooXXooooooooooooXXX######XXXXXoooooXXXXXXXXXXXXXXoooooooooo  oooXXX####XXXXooXXXXX###@@@###X#X###@@@@@@$@@@######@@@@$*****$==;;;;;=*$$$$@@@#XXXXXXXXXXXXXXXXXXXXXXXXXXXXXXXXX++XXXXX++++X#@@++XXXXXXXXO...OO++OOO....OOOOO....OO... .....OOO..OOOO+OOO.....O...OOOOOO+OO+++%%%%%%++OO+++++%++++OOO........................OOO+%&%%OOOOO...O.OOOOOO............OOOOO.OOOO...................OOOOOOOOOOOOOOOOOOOOOOOOOOOOOOOO++OOOOOOOO++OOOOOOOOOOOOOO++OOOOOOOOOOOOOOOOOOOOOOOOOOOOO++%&&&%+OO..O.OO.......OO+++OO................OO+++OOO.............................................................................................OOOOOOOOO+%&&&&&%+OOO...O..........OOOO+%&&&&%+OOOOOOOOOOOOOOO++%%%+++%%%%%+OOO............................... ....   ........O++++%%%%%%%&%&&%%%%%%%%%+++++%%%%%%&%%%%%%%%%%%%%&&&++OO......o.o..o..    oooo....XXXXXXXXX.....          ...... ...        ...O+++OOOO+OO......O++O... .        ...OO.... .......OO++++OO..XX#@@#XXooo.o  oooXX#@@##XXXXXXooooXXXXXXXXXX######@@@@@@@@@$$$$$$$**=-;;;;=*$$$$$$**$$$$@@@@#################################################XX####XXXXXXXXXXXX####@@$$$$$$@@####XXXXXXXXX###X#X###X###",
"XXooooooooooooooooXXXX#@@@$$$$*$$@@@##XXXXXXX##@@$$$$$$$@@##XXoXX##@@$$$**$$@@##ooo                                          oooo   oooooooo   oooo ooooooooooooooooooXXX###XXXoXooooooooXXXXXXXXXXXXXXXXXoooooooooooXXX####XXXXXoXXXXX##@@@@@@#######@@@@@@@@@@######@@@@$*****=-;;;;;=**$$$$@@##XXXXXXXXXXXXXXXXXXXXXXXXXXXXXXXXX+XXXXXX++++##@@+OXXXXXOXXO...OO++OO.....OOOOO....OO..   ....OOO.OOOOOOOOO.........OOOOOO+++++%%%%%++++O++++++++++OOO.........................OO+%%%+OOOOO.................................O.....................OOOOOOOOOOOOOOOOOOOOOOOOOOOOOOOOOOOOOOOOOOOOOOOOOOOOOOOOOOOOOOOOOOOOOOOOOOOOOOOOOOOOOOO++%&&&%+OO..O.OO.......OO+++OO..........O....OOO++%+OOO.........................................................................OOOO......O.......OOOOOOOOOO+%&&&&&&%+OO.O.O.O........O.OO+%%&&&%%+OOOOOOOOOOOOOO+++++++%%%%%&%+OO....................................  ..........O+++%%%%%%&%&%&%%%%%%%%%++++++%%%%%%%%%%%%%%%%%%+++%++OO...........o..   ooo.o....o..XXXXXX...o.o.       ......   ..        ...O+O+OOOO+OO......O++O....         ...XO.... .......OO+++OO...XX#@##XXoooo    ooXX##@##XXXXXXoooXoXXXXXXXXX#########@@@@@@$$$$$$$$**=-;;;=*$$$$$$$$$$$$@@@@###@@@####@######################################XX####XXXXX###XXXX####@@$$$$$$@@####XXXXXXXXX###X#########",
"XXooooooooooooooooXXXX#@@@$$$$$$$@@@#XXXXoXoX##@@$$$$$$$@@##XXoXX##@@$$$**$$@@#Xooo o                                                 oooo      oooooooooooooooooooooXXXXXXXXXooooooooooXXX#############XXXXooooooooXXXX###XXXXXXXX#####@@@@@@@@#####@@@@@@@@@@@#######@@@$****=;;;;;;;=**$$$@@@#XXXXXXXXXXXXXXXXXXXXXXXXXXXXXXXXXX+XXXXXXXX#X##++OO..XX.XX.....OO++OO....OOOOOOO....O..  .....OOO.OOOOOO.......OOOOOOOO+++++%%%%%%%++++++++++++++OOO.......................OOOOOO++%++OOOOOOO.............OOOOO................................................OO..OOOOOO.OO........OOOOOOOOOOOOOOOOOOOOOOOOOOOOOOOOOOOOOOOOOOO.....OOOOO++%&&&+OOO..OOOOO......OO+++OO...............OOO+%%%++OOOOOOOOOOOOOOOOOOOOOOOOOOOOOOOOOOOOOOOOOOOOOOOOOOOOOOOOOOOOOOOO.....OOOOOOOOOOOOOOOOO......OOOOOOOOOOO+%&&&&&%%OOOOOO.OOOO...OOOOOO++%&&&&&%+OOOOOOOOOOOOOOOOOO++++++%%%+OO.O..........................   .. ...............O++++%%%%&%&%&&%%%%%%%&%++++++%%%%%%%%%%%%%%%%%++++++OO........... o. .  ..ooo.Xooo.XX.......o...      . ....    .        ....O+O+OOOO+OO......O++O......       ...XX............O++++OO...XX#@@#XXooo...ooooXXX#@#XXXXXXXXoooXXXXXXXXXXXXXXX#######@@@@@$$$$$$$$*==--=*$$$$$$$$$$$$@@@@@#@@@@@########@@###########################################X##X#######@@$$$$$$@@#####X##XXXXXXX##XX#######",
"XXooooooooooooooooXXXX#@@@$$$$$$$@@@#XXXXoXoXX#@@$$$$$$$@@##XXoXX##@@$$$**$$@@#Xooo o                                                oooooo     oooooooooooooooooooooXXXXXXXXXooooooooooXX###@@@@@######XXXXXooXooooXXXXXXXX#######@@@#@@@@@@@@@#####@@@@@@@$@@@###X###@@@$$***=;;;;;;;=*$$$@@@#XXXXXXXXXXXXXXXXXXXXXXXXXXXXXXXXXXXXXXXXXXXXX+##++O.............OO++OO....OOOOOOO....O... .....OOOOOOOO...........OOOOOO++++%%%%%%+++++++++++++OOOOO........................OOOOO++++OOOOOOOOOOO.....................OO...............................................OOOOOOOOOOOO..OOOOOOOOOOOOOOOOOOOOOOOOOOOOOOO..................OOOOO+%&&&&+OOO...OOO........O+++OO..............OOOOO+%%%+++++++++++++++++OOOOOOOO++++OOOOO++++++++++++++++++OOOOOOOOOOOOOOOOOOOOOOOOOOOOOOOOOOO...O.OOOOOOOOOOOOO%%&&&&&%++OOOOO.OOOO..OO..OOO+%%&&&&&%+OOOOOOOOOOOOOOOOOOOOO+++%%+OO.O.........................     .   ..............OO++%%%%&&%&&&&%%%&&%&%%%%+++++%%%%%%%%%%%%%%%+++++OOO.... ...... ... .oo.oo.ooooo..o.    o...o..         ..     . .      ...O+OOOOOO+OO......O++O......       ..XXX............O++++OO...XX#@##XXooo... oooXX####XXXXXXXXXXXXXXXXXXXXXXXXX##########@@@$$$$$$$$$$**=**$$$$$$$$$$$$@@@@@@@@@@@@#####@@@@##########################################XX##########@@$$$$$$@@###########XXXX###X#######",
"XXooooooooooooooooXXXX##@@$$$**$$@@@#XXXooXoX##@@$$$$$$$@@##XXoXX##@@$$$**$$@@#Xooooo                                                         oooo oooooooooooXXXXXXXXXXXXXXXXoooooooooXXX###@@@#########XXXXXoooooooXXXXXX###@@@@@@@####@@@@@@######@@@@@$@@@@@###X###@@@$$$$*=;;;;;;=**$$$@@@#XXXXXXXXXXXXXXXXXXXXXXXXXXXXXXXXXXXXXXXXXXXXXXX++X......XXX.....OO+++OO..OOOOOOOO....OO........OOOOOO..........OOOOOOO++++%%%%%%++++++++++++++OOOOO...................OOOOOOOOOO+%%%+OOOOOOOOOOOOOOOOOO.OOOOOOOO........................................OO........OOOOOOOOOOOOOOOOOOOOOOOOOOOOOOOOOOOOOOOOOOOOOO....O..............O.OOOO+%%&&&&+OOO..OOOO........O++OOO........OOO...OOOOOOO++OOOOOOOOOOOOOOOOOOOOOOOOOOOOOOOOOOOOOOOOOOOOOOOOOOOOOOOOOO...OOOOOOOOOOOOOOOOOOOOOOOO....OOOOOOOOOO+++++O+%%&&&&&%+OOOOO.OO....OO..OOOO+%&&&&&&++OOOOOOOOOOOOOOOOOOOOOOOOO+OOOO.........................       .................OO+++%%%%%&&&%%%%&&%%%%&%%%%++++%%%%%%%%%%%%+++OOOO.........     ..  oo....ooo.....ooo...  .ooo .         .. .  .        ...O+OOOOOO+O.......O++O...  .   .   ...XX............O++++OOO..XX+@@#XXoo    oooXXX####XXXXXXXXXXXXXXXXXXXXXXXXXXX########@@@@@$$$$$$$$$$$$$$$$$$$$$$$$$@@@@@@@@@@@@@@@@@@@####@@@@####@@##########################################@@$$$$$$@@#####X######XXXXXXXX######",
"XoooooooooooooooooXXXX##@@$$$**$$@@##XXoooXXX##@@$$$$$$$@@##XXoXX##@@@$$$$$$@@#Xooooo                                                        ooooo oooooooooXXXXXXXXXXXXXXXXXXoo  ooooXXXXX######@@@######XXXoooooooooXXXX#####@@@@@@####@@@@@@@####@@@@@$$@@@@@###X###@@@$$$$*=;;;;;;=**$$$@@@#XXXXXXXXXXXXXXXXXXXXXXXXXXXXXXXXXXXXXXXXXXXXXXX+XX......XXX.....OO+++OO....O.OOOO....OO.........OOO....O......OOOOOOO+++%%%%%%%%+++++++%++++OOOO....................OOOOOOOOOOO+%&&%OOOOOOOO.OOOOO++OOOOOOOOOOOOOOOOOOOOOOOOOOOOOOOO............OOOOOOOOOOOOOOOO..OOOOOOOOOOOOOOOOOOOOOOOO+++++++++++++O++++++++OOOOO................OOO++%&&&&&+OOOO.OOOOOOO...OOO++OOOOOOO..OOOOOOOOOOOOOOOOOOOOOOOOOOOOOOOOOOOOOOOOOOOOOOOOOOOOOOOOOOOOOOOOOOOOOOOO..OO..OOOOOOOOOOOOOOOOOOOOOOOOOO..OOOOOOOOOO+OO+++++%&&&&&%%+OOOO.OO....OO..O.OO++%&&&&&++OOOOOOOOOOOOOOOOOOOOOOOOOOOOOO........................        . .... ...........OO++%%%%%%&&&%%%%&%%%%&&%%%%++++%%%%%%%%%%%%++OOOO..........    ..  oo.o     o..o    ...  oooo            .             ...O+OOOOOO+O.......+++O...       .  ..XXX............OO+++OOO..XX+@##XXoo....oooXXX####XXXXXXXXXXXXXXXXXXXXXXXXXX###########@@@@$$$$$$$$$$$$$$$$$$$$$$$@@@@@@@@@@@@@@@@@@@@@@##@@@@###@@@@@@#######################################@@$$$$$$@@#####X######XXXXXXXX######",
"XoooooooooooooooooXXX###@@$$$$*$$@@@#XXooooXX##@@@$$$$$$@@##XXooX##@@$$$$$$$@@#Xoooo                                               ooooo  oooooooooooXXXXXXXXXXXXXXXXXXXXXXXXXooooooooXXXXX###@@@@@@@#####XXXXooooXXXXXX########@@@@####@@@@@@@@@####@@@@$$$@@@@###XX##@@@$$$$*=;;;;;;=*$$$@@@#XXXXXXXXXXX.XXXXXXXXXXXXXXXXXXXXXXXXXXXXXXXXXXXX+XX.....X.X......OO++OOO......OOOO....+O.........OO.......O..OOOOOO++++%%%%%%%++++++++%++++OOOO.............OOO......OOOOOOOOO+%%&&%+OOOO.OOOOOOOOOOOOOOO++++++OOO++++++OOOOOOO++OOOOOOOOOOOOOOOO+++++++++++++++++++++++++++++++++++OOOO+++%&&&&&&&&&&&&&&&&&&&%%++OOO.............OOOOO++%&&&&&&+OOOOOOOOOOOOOOOOOOOOOOOOOOOOOOOOOOOOOOOOOOOOOOOOOOOOOOOOOOOOOOOOOOOOOOOOOOOOOOOOOOOOOOOOOOOOOOOOOOOOOOOOOOOOOOOOOOOOOOOOOOOOOOOOOOOOOOOOOOOOO++++++++++++%&&&&&&&++OO..OO....OOO.OOOO++%%%%++OOOOOOOOOOOOOOOOOOOOOOOOOOOOOOOO........................  ..         ...............OO++%%%%%&&&&&&&%&&&&&&&%%%+++++++%%%%%%%%++++OO........o.. o..oo oo...o o.o.oooooo... .                              ..OO+++OOOO+O.......+++O...        . ...XX............OO++++OO..XX+##XXXo.. ..o..XXX####XXXXXXXXXXXXXXXXXXXXXXXXXXXXXX##########@@@$$$$$$$$$$$$$$$$$$$$$@@@@@@@@@@@@@@@@@@@@@@@@@@@@@@@@@@@@@@@#@@##################################@@$$$$$@@@#####XXX######X#XXX#######",
"ooooooooooooooooooXXXX##@@$$$$*$$@@@#XXoooooXX#@@@$$$$$$@@##XXooX##@@$$$$*$$@@#Xooo                                               oooooooooooXXXoooXXXXXXXXXXXXXXXX##XXXXXXXXooo o oooXoXXX##@@@@@######XXXXoXXXXXXXX###########@@@@#####@@@@@@@@@###@@@@@$@@@@@###XX###@@$$$$$=;;;;;=**$$$@@@#XXXXXXXXXXX.XXXXXXXXXXXXXXXXXXXXXXXXXXXXXXXXXXX++XXX.XXXXXX......OO++OOO.......OOO....XX..............OOOOOOOOOOOO++++%%%%%%%+++++++%%++++OOOO.............OOOO..OO.OOOOOOOOO+%%&&%+OOOOOOOOOOOOOOOOOOOO+%%&&+OOOOOOOOOOOOOOOOO++OOOO+++++++++++++++++++++++++++++++++++++++++++++++OOO+++%%%%%%%%%%%%%%%%%%%%%+++OOOO..............OOOO+%%&&&&&&+OOOOOOOOOOOOOOOOOOOOOOOOOOOOOOOOOOOOOOOOOOOOOOOOOOOOOOOOOOOOOOOOOOOOOOOOOOOOOOOOOOOOOOOOOOOOOOOOOOOOOOOOOOOOOOOOOOOOOOOOOOOOOOOOOOOOOOOOOOOO+++++++++++%%%&&&&&&&%+OO.OOO....OOO.O.OOOO++++OOOO.OOOOOOOOOOOOOOOOOOOOOOOOOOOOO.OO.....................   .......    ........ .....OOO+%%%%%%&&&&&&%&%&&&&&&&%+++++++%%%%%%%%+++OOO............o .o.oo.o.   o   ooo    .o                      .         ...O+++OOOO+O.......+++O...        . ...XX............OO+++OOO..XX#+XXXX... .ooo.XXX###XXXXXXXXXXXXXoXXXXXXXXXXXXXXX#############@@@@$$$$$$$$$$$$$$$$$$$@@@@@@@@@@@@@@@@@@@@@@@@@@@@@@@@@@@@@@@@@@@@################################@@$$$$$$@@######XXX####XX###########",
"oooooo       ooooooXXX##@@$$$$$$$@@##XXXooooXX#@@@$$$$$$@@##XXoXX##@@@$$*$$$@@##oo                                      o ooooooooooXXXXXXXXXXXXXXXXXXXXXXXXXX#XXXXXXXXXXXXooo   oooooooXX##########XXXXXXXXXXXXXX############@@@@@@#####@@@@@@@@###@@@@@@@@@@@@########@@$$$$*=;;;;-=$$$$@@@#XXoX.X..XXXXXXXXXXXXXXXXXXXXXXXXXXXXXXXXXXXXXXXX++XX.XXXX.#XXXX.....++O..OOO....OOO....OO...........OOOOOOOOOOOO++++%%%%%%%%+++++++++++++O...................O....OOOOOOOOOOO+%%%%%+OOO.OOOOOOOOOOOOOOO++&&&&%OOOOOOOOOOOO.OOO...O..OOOOOOOOOOOOOOOOOOOOOOOOOOOOOOOOOOOOOOOOO+++++OO+++%%%%%++OOOOOOOOOOOOOOOOOOOOOO................OOOOO+%&&&&&&%+++++++++++%%+++++++++%%++%%+++++++++++++++++++++++%%++++++++++++++++++++++++++++++++++++++++++++++++++++++++++++++++++++++++++++++++++++++%%%%%%&%%&&&&&&&&&&&&&&%+OOOOOOO.OOOO..OOOOOOOOOOOOO....OOOOOOOOOOOOOOOOOOOOOOOOOOOOOOOO.......................         .........  .......OO+%%%%%&&&&&&&%%&&&&@@@@@++++++++++%%++++++OO........o.o......oo  ooo..ooo      o.              ..                ...O+OOOOOO+O.......+++O...        . ...XX............OO+++OOO..XXXXXXXXoo     oXXXXX##XXXXXX###XXXXXXXXXXXXXXXXXXXX############@@@@@@@@$$$$$$$$$$$$$$$@@@@@@@@@@@@@@@@@@@@@@@@@@@@@@@@@@@@@@@@@@@@@@@@@############################@$$$$$$$@@#############XXX##########",
"ooooooo       ooooXXXX##@@$$$$$$$@@@#XXXooooXX#@@@$$$$$$@@##XXoXX##@@@$$$$$$@@#Xooo                                  ooooooooXXXXXXXXXXXXXXXXXXXXXXXX############XXXXXXXXooooo   ooooooXXX######XXXXXXXXXXXXXXXXXXXX##########@@@@@@######@@@@@@@###@@@@@@@@@@@@##XX#X##@@$$$$*=;;;;=*$$$$@@@#XXooXX..XXXXXXXXXXXXXXXXXXXXXXXXXXXXXXXXXXXXXXXX+#XXXXXXXX#XXXXXX...XOO......OOO.OO....OO.......O.OOOOOO.OOOOOOO++++%%%%%%%+++++++%%%+++OO.............X.....O.O..OOOOOOOOOO++%%%++OOOO.OOOOOOOOOOOOOOO+&&&&%+OOO.............................OO........OOOOOOOOOOOOOOOOOOOOOOOOOOOO+%&&&&&%+OOOOOOOOOOOOOOOOOOOOOO.................OOOO++%&&&&&&&&&&%&&&&&&&&&&&&&&&&&&&&&&&&&&&&&&&&&&&&&&&&&&&&&&&&&&&&&&&&&&&&&&&&&&&&&&&&&&&&&&&&&&&&&&&&&&&&&&&&&&&&&&&&&&&&&&&&&&&&&&&&&&&&&&&&&&&&&&&&&&&&&&&&&&&&&&&&&&&&%++OOOOOOO..OOOO...OOOOOOOOOO......OOOOOOOOOOOOOOOOOOOOOOOOOOOOOOO........................   ...   .........   .......OO++%%%%&&&&&&%%%&&&@@@@@@+++++++++++++++++OX.X......o. .....o          ....         o                            ...O+OOOOOO+O.......+++O...        .....OXX...........OO+++OO...XXXXXXXXoo     oooXXX##XXXXXXXXXXXXXXXXXoXXXXXXXXXXXX#############@@@@@@@$$$$$$$$$$$$$$$@@@@@@@@@@$@@@@@@@@@@@@@@@@@@@@@@@@@@@@@@@@@@@@@@@####@####################@@$$$$$$$@@##########################",
"XXoooooooo   ooooooXX##@@@$$$$$$$@@##XXXooooXX#@@$$$$$$$@@##XXoXXX#@@$$$$$$$@@#Xooo                                oo...ooXXXXXXXXXXXXXXXXXXXX########@@########XXXXXooooooooooooooooooXXXXXXXXXXXXXXXXXooXXXXXXXXXXXXXX#####@@@@@@@@####@@@@@@@####@@@@@$$$$@@@#####X##@@$$$$*=;;;;=*$$@@@@#XXXo.XX..XXXXXXXXXXXXXXXXXXXXXXXXXXXXXXXXXXXXXXX++#@@@@@@@@@@@@@@@@#@@##XXXXXXXXXX#XXXXXXXXXXXX.X..OOOOOOOOOOOO++++%%%%%%%+++++++++++++OO....................OOOOOOOOOOOOOOOO++++OOOOOOO....OO.OOOOOOOO+&&&&%+OOO..................................................OOOOO..OOOOOOOOOO+%&&&&&&%+OOOOOOO....OO................OO.........OOO+++%&&&&&&&&&&&%%%%%&&&&&&&&&&&&&&%%&&&&&&&&&&&&&&&&&&&&&&&&&&&&&&&&&&&&&&&&&&&&&&&&&&&&&&&&&&&&&&&&&&&&&&&&&&&&&&&&&&&&&&&&&&&&&&&&&&&&&&&&&&&&&&&&&%%%++%%+++++%++++++++OOOOOOO.OO.............OOOO........OOOOOOOOOOOOOOO++OOOOOOOOOOOOOOOOOOOOOOO.....................    ........ ...........O+++%%%&&&&&%%&&&&&&&&&&@@+++++++++++++++O............. ...o                    .                                ..O+OOOOOO+O.......+++O...          ...OXX...........OO+++OOO..XXXX#XXXooooooooooXXX#XXXXXXXXXXXXXXXXXXXXXXXXXXXXXXXX#############@@@@@@$$$$$$$$$$$$$$$$@$$$$$$@@$$@@@@@$@@$@@@@@@@$@@@$@@@@@@@@@@@@@@@@@@@@@@@@##################@@$$$$$$$@@##########################",
"Xoooooooooo   ooooooX##@@@$$$$$$$@@##XXoooooXX#@@$$$$$$$@@#XXXooXX##@$$$$$$$@@#Xoo                                 o...ooXXXXXXXXXXXXXX#XXXXX######@@@@@@@@###XXXXXooooooooooooooooooooXXXXXXXXXXXooooooooXXXXXXXXXXXXXX#######@@@@@#####@@@@@@@####@@@@$$$$$@@@##X##X##@@$$$$*=;;;=*$$$@@@@#XXXoo.X..X.XXXXXXXXXXXXXXXXXXXXXXXXXXXXXXXXXXXXX#+#+++###@@@@$$*******$$@@@@@@@@@@@###XXXXXXXXX....OOO...OOO+++++++%%%%%%+++++++%%%++OOOO.O.........OO.....OOOOOOOOOOOOOOOOO++OOOOOOOOOOOO..OO.OOOOOOO+&&&&&+OOOOOO........................................................OOOOOOOOO+%&&&&&%+OOOO.....................................OOOOO++++%%%%+++++++++++++++++++++++++++++++++++++++++++++++%+++%%%++%++%%%%++++++++++++%+++++++++++++++++++++%+++++++++++++++++++++%++++++++++++++++O+++OO++OO+O+OOO++O++++OOOOOOO..O...............OOO.........OOOOOOOOOOOOOO++OOO+OOOOOOOOOOOOOOOOOOO..................... .. .   .. .............OO++%%%%%%&%&&&&&&&&&&&&@@%%++++OOOOO++OOO..........oo....oooo.o.oo                  .                          ...OOOOOOO++O.......+++O...         .....XX...........OO+++OOOXX++@##XXXXXXoooooooXXXXXXXXXXXXXXXXXXXXXXXXXXXXXXXXXXXX##############@@@@@$$$$$$$$$$$$$$$$$$$$$$$$$$$$$@$$$$$$$$$@@@@$$$$$@@@@$@@@@@@@@@@@@@@@@@@@@@@##############@@@$$$$$$$@@##########################",
"Xooooooooo   oooooooXX#@@@$$$$$$$@@##XXXooooXX#@@$$$$$$$@@##XXooXX##@@$$$*$$@@#Xoo                                  oooooooooXXXXXXXXXXXXXXXXX###@@@@@@@@@@#XXXXXoooooo ooo  oooooooooooooXooooooooooooooooooXXXXXXXXXX#######@@@@@@@####@@@@@@@####@@@@$$@@@@@@##X##X##@@$$$$$*-;=*$$@@@@@#XXXX.o.XXXXXXXXXXXXXXXXXXXXXXXXXXXXXXXXXXXXXXXXX++#+XXXX.XX###@@@@@@$$*=========*******$$$$$$$@@@#XOX@@@@@@@@@@@@@@@&@@@@+++++@@@@+++XX.XXXXXXXXXXXXXXXX++++OOO.OOOOOOOOOOOOOOOOOOOOOOOOOOOOOOOOOOOOOO%&&&&&++OO.............................................................O.OOOOO+%&&&&&&+OOOOO................................OOOO..OOOOOOOOOOOOOOOOOOOOOOOOOOOOOOOOOOOOOOOOOOO+O++++OO+OO++++++OOOOOOOOOOOOOOOOOOOOOOOOOOOOOOOOOOOOOOOOOOOOOOOOOOOOOOOOOOOOOOOOOOOOOOOOOOOOOOOOOOOOOOOOOO+++++++++OOOOOOOOOOOOOO....................................OOOOOOOOOOOOO+++++++OOOOOOOOOOOOO+++OOOOO.................. .. .     . ..............OO++%%%%%%&&&&&&&&&&&@&&&@@@++OOOOOOOO.....XXX.........ooo......o.              .... .                        ..OO+OOOOOO+O.......O+OO...         ...X..............OO+++OOOO+@@@@#XXXXXXo.oooooXXXXXXXXoXoXXXXXXXXXXXXXXXXXXXXXXXXX##X############@@@@$$$$$$$$$$$$$$$$$$$$$$$$$$$$$$$$$$$$$$$$$$$$$@@$$$$@@@@@@@@@@@@@@@@@@@@@@@@@#@@##########@@@@$$$$$$@@##########################",
"oooo  ooo    ooooooXXX##@@$$$$$$$@@@#XXXooooXX#@@$$$$$$$@@##XoooXX##@@$$$$$$@@#Xoo                                    oooooooXXXXXXXXXXXXXXXX####@@@@@@@@@#XXXXXooooooo oooo ooo oooooooooooooXXXXXXXXXXoooXXXXXXXXXX###########@@@@@####@@@@@@@####@@@@@$@@@@@@##XXXX##@@$$$$$**=*$$$@@@@@#XXXoooXX.XXXXXXXXXXXXX..XXXXXXXXXXXXXXXXXXXXXXXXX+XX.X.XXXXX###XXX###@@@$$$****===============*=*@+++@$*********&&&&*&&&&&&&&&&&@@@++++++XXXXXXXXXXXXXXX++++OOOOOOOOOOOOOOOOOOOOOOOOOOOOOOOOOOOOOOOO+%&&&&&%+OOO............................................................OOOOOOO+%&&&&&&%+OOO.O........................OO......OOOO...OOOOOOOOOOOOOOOOOOOOOOOOOOOOOOOOOOOOOOOOOOOOOOOOOOOOOOOOOOOOOOOOOOOOOOOOOOOOOOOOOOOOOOOOOOOOOOOOOOOOOOOOOOOOOOOOOOOOOOOOOOOOOOOOOOOOOOOOOOOOOOOOOOOO++%%&&&%+++OOOOOOOOOOOO..................................O..OOOOOOOO+++++++++++++OOOOOOOOOOO++%%++OOO......................       ...............OOO++%%%%%&&&&&&&&&&$@&&&&&@@++OOOOOOO......oo.........o ooo.oooooo   o ooooooo   .                           ..OOOOOOOOO+O.......++OO...         .....X............OO+++OOO+++@@###XXXooooooooooXXXXXXoooooXXXXXXXXXXXXXXXXXXXXXXXX##X############@@@@@$$$$$$$$$$$$$$$$$$$$$$$$$$$$$$$$$$$$$$$$$$$$$$$$$$$$@@@@@@@@@@@@@@@@@@@@@@@@@@@##@######@@@$$$$$$$@@@#########################",
"oooo        o ooooooXX##@@$$$$$$$@@@#XXXooooXX#@@@$$$$$$@@##XoooX###@@$$$$$$@##Xoo                                 oooooooooXXXXXXXXXXXXXXXXX#####@@@@@@@#XXXXXooooooooooooooooo   ooooooooooXXXXXXXXXXoXoXXXXXX###############@@@@@@@@##@@@@@@@####@@@@@@@@$@@@##XXXX##@@$$$$@$$$$$@@@@@@#XXXXooo.X.XXXXXXXXXXXXXX.XXXXXXXXXXXXXXXXXXXXXXXXXXXOX....O+++++OXX....XXX+#@@@@$******===========$@+@@*==============******=***********$$$$$$$$@@@@@@@@@@@@+OOOOOOOOOOOOOOOOOOOOOOOOOOOOOOOOOOOOOOO+%&&&&&%+OO..............................................................OOOOOOO+&&&::&&%+OOO.O.........................O...................O.OOOOOOOOOOO.XOOOOOOOOOXOXOOOOOOOOOOOOOOOOOOOOOOOOOOOOOOOOOOOOOOOOOOOOO...OOOOOOOOOOOO....OO........OOOOOOOO....OOOO.O....OOOOOOOOOOOOOOOOOO+%&&&&&&%++OOOOOOOOOOOOO......O...................OO..O..OOOOOOOO+++%%&&&&%%++++++++OOOOOOOOO++%%&%+OOOO......................       ...............OO++%%%%%&&&&&&&&&$$&&$$$@@@++O............. .o.....ooooo.oooooooooo  ooooXXXXXXXooo                        ..OOOOOOOOO+O.......++OO...         ....XX..........OOO++++OOX++######XXXXoo.o..oooXXXXXoooooooXXXXXXXXXXXXXXXXXXXXXXXXXXX###########@@@@$$$$$$$$$$$$$$$$$$$$$$$$$$$$$$$$$$$$$$$$$$$$$$$$$$$$$$$$$$$@$@@@@@@@@@@@@@@@@@@@@@@@@@@##@@@$$$$$$$@@@@########################",
"oooo        ooooooooXX##@@$$$$$$$@@@##XXooooXX#@@@$$$$$$@@##XoooX##@@@$$$$$$@##Xoo                                 oooooooXXXXXXXXXXXXXXXXXXXXXXX##@@@@@##XXoooooooooooooooooooo    oooooooooXXXXXXXXXXXXoXXXXXX################@@@@@@@@@@@@@@@@####@@@@@$@@@@@@##XXXX##@@@$$$$@$$@$@@@@@#XXXXooooXXXXXX..XXXXXX.XX.XXXXXXXXXXXXXXXXXXXXXXXXXXOX......OXO++OX....X+XXXX####@@@@@@$$$*****=*==*@@@@*=======**=*==*******=**==========****************$$&+OOOOOOOOOOOOOOOOOOOOOOOOOOOO.OOOOOOOOO++&&&&&&+OOO..........................................................OOOOOOOOOO++&&:::&&%OO.O.O..............................................OOOOOOOOOOOOOOOOOO++++++++++++++++++OOOOOOOOOOOOOOOOOOOOOOOOOOOOOOOOO.....OOOOOO...OOO....OO........OOOOOOOOOO..OOOO.OOOOOOOO..O.OOOOOOOOOOO+&&::&&&&%++++OOOOOOOOOO.OO.OOOOO............OOOOOOOOOO.OOOOOOOO+++&&&&&&&&&%++++++++OOOOOOOOOO+%%&%+OOO......................  .    ...  ..........OOO++%%%%%&&&&&&&&$$&$$$$$@@@+XOX............. .    .   oo..ooooooooXXXX#@@@@@$$@Xoo                         .OOOOOOOOO+O.......++OO...          ...XXX.........OOOO+++OOX++####XXXXXooo....oooXXXoooooooooooXXXXXXXXXXXXXXXXXXXXXXXXX###########@@@$$$$$$$$$$$$$$$$$$$$$$$$$$$$$$$$$$$$$$$$$$$$$$$$$$$$$$$$$$$$$$$$@@@@@@@@@@@@@@@@@@@@@@@@@#@@@$$$$$$$@@@@########################",
"ooooo         oooooXXX##@@$$$$$$$@@##XXXooooXX#@@@$$$$$$@@##XXXoX##@@@$$$$$$@@#Xooo                                 ooooXXXXXXXXXXXXXXXXXXXXXXXXXXXX###XXXooooooooooooooooXXXXooo o    o oooooooXXXXXoooXXooXXX#################@@@@@@@@@@@$$$@@@@@@@@$$$$$@@@@@##XXXX#@@@@$$$@@@@@@@@@##XXoXo..XXXX..XXX..XXXX...XXXX..XXXXXXXXXXXXXXXXXXXXXXXXXXXXXXX#+XOX...OXXXXOO++XXX+++++++++@@@@@$$$$@@+@$**===***=****=***=****===****=====***************=****%++++%%%%+++++OOOOOOOOOOOOOOOOOOOOOO++&&&&&&%+OO.................................................OOOOOOOOOOOOOO++OOO++%&&&::&&%+OOO.....................................O.....O.....OOOOOOOOOOXXXX#@@@@@@@$$$$$@@$@@@@@@@@@###XXXXOOOOO..OOOOOO............................................................................OOO++%&::::&&&%+++OOOOOOOOO...OOOOOOO............O...............OOOOOO+&&&&&&:&&&%++++++++++++OOOOO++%%&%%OOOO...................      ..........  ........O++++%%%&&&&&&&**$$$@@@@@@+++XXXXo.o.X.ooooooooXXXXXXX####@@@@@$$$$$*********@X                          ...OOOOOOOOO.......OO+OO...          ...XX..........OOO++++O++@@@###XXXXXXooooooooooXXXXooooooooXXXXXXXXXXXXXXXXXXXXXX####XX########@@@@$$$$$$$$$$$$***********$*$$$$$$$$$$**$$$$$$$$$$$$$$$$$$$$$$$$$$$$$$@@@@@@@@@@@@@@@@@@@@@@@@@@$$$$$$$@@@@########################",
"ooooo   oo    ooooooXX##@@$$$$$$$@@##XXXooooXX#@@@$$$$$$@@##XXXXX##@@@$$$$$$@##Xoooo                                 oooooXXXXXXXXXXXXXXXXooooooooXXXXXXXoooooooooooooXXXXXXXooo o     o  ooooooXXoooooooXoXXX################@@@@@@####@@@$$@@@@@@@@@$$$$$@@@@@##XXXX#@@@@$$$@@@@@@@###XXooo...XXX..XXX.....X.X...XXX..XXXXXXXXXXXXXXXXXXXXXXXXXXXX+++#XXOX...O.X..OOOOOOOX+++++++++@@@@@@@@@@+@$***=*********=**==****===**=======***************=**=*&&&&&&&&&&&%++OOOOOOOOOOOOOOOOOO+OO++&&&&&&%+OOO.............................................OOO..OOOOOOOOOOOO++%+OOO+%&&&::&&++++OO.X..................................O......O....OOO.OOOOO+++@@@$$**********=*********$$$@@@+++O...O..OO.......O.OOOO...................................................................OOOO+%&::::&&&%+OOOOOOOOOOO....O..OO..............................OOOOO++&&:&&&&&&%++++++++++++OOOO+++%%%&%%+OOO............ ......    .. ........   ........++++%%%&&&&&&&&&&&&@@@@@@@++#XXXX.XXXXXXX###@@@@@@@@$$$****=*===*=====*****$#o                          ...OOOOOOOOO.......OO+OO..           ................OOO+O+O++@@@@##XXXXXoooooooooooXXoooooooooXXXXXXXXXXXXXXXXXXXXXXXX###X#########@@@@@$$$$$$$$$******==************$*************$$$$$$$$$$$$$$$$$$$$$$$$$@@@@@@@@@@@@@@@@@@@@@@@$$$$$$$$$@@@########################",
"oooooo  o     ooooooXX##@@$$$$$$$@@#XXoXooooXX#@@@$$$$$$@@##XXXX####@@$$$$$$@##Xoooo                                  ooooooooooXooooooooooo ooooooooooooooooooooooooXXXXXXXXooooooo  oo  ooooooooooooooXXoXXX##@@@@@##########@@@#####@@@$$$$@@@@@@@@@$$$$@@@@@##XXXX##@@$$$$@@@@@@##XXXXXooo..XX....XX..XXXX....XXXXXXX.XXXXXXXXXXXXXXXXXXXXXXXX++++##++XX.X..XOXX+++O++++++++++++++++++++++%%@&****************==****==****======****====**==***=**=*&&&&&&&&&&%%+OOOOOOOOOOOOOOOOOOOOO+%&&&&&&%+OO.......................................OOOOOO++++++++++++++++++%%&&&++++&&&:&:&&++++++@@@@@@@@@@@@@@@@@@######################XXOO.OOOOOOOXX#@@@$$****======****========**======**$@@@###XO........................O......................OOO.....OOOOOO......OOOOO..........OOOOO%&&&&:&&&%++OOOOOOOOOO.........................................OOOO+&&&:::&&&&%+++++++++++++++OO++++%%%%++OOOO................  .      .................O++++@@&&&$$$*$$*$**$*$$$$@@@@@@#XX#@$$$$$$*******==******====***=**======*@oo                          ..OO+OOOOOO+.......OO+OO..      .    ................OOO+++O++@@@@@#XXXXooXooooooooXXXoooooooooXXXXXXXXXXXXXXoXXXXXXXXXX############@@@@@@$$$$$$$$****==--====******************************$$$$$$$$$$$$$$$$$$$$$$@@@@@@@@@@@@@@@@@@$$$$$$$$$@@@#@######################",
"oooooo        ooooooXX##@@$$$$$$$@@#XXoXooooXX##@@$$$$$$@@##XXXXX###@@$$$$$$@#XXooo                                   oooooooooooooooooooo      oo   oooooooooooooXXXXXX##XXXXooo  oooooooooooooooooooooXXooXX###@@@@##################@@@$$$$@@@@@@@@@$$$$@@@@@##XXXX##@@@$$$@@@@@##XXXXXXooo.oXXo...XX..XXXX.X..XXXXXXXXXXXXXXXXXXXXXXXXXXXXXX##++++#XXXXXX...OOXXXX++OOOO++++++++++++++++++%%@************=****====**==****==**===***==****==**==*==*&&%%%%%%%%++OOOOOOOOOOOOOOOOOOOO++%&&&&&&&+OOOOO...................................OOOO+++++++++++++++++++++++%%&%+++%&&&:&&&%+++++++@@@@@@$$$$$$*$*$$**$$$$$$$$$$$$$$@@$$$$@$@@+++OOOO+@@@$**=====**==============*=***========***$$@@@+O...........OOO............................O..OOOOO....OOOOOOOO..O.OOOOOO.......OOOOOOO%%&&&:&&&%+OOOOOOOOOOO.........................................OOOOO+&&:::&:&&&%++++++++++++O+O+++++%%%%%+OOO.......................   .......  ........O++++@@@@@@$$**$***************$@XX@*==***********==****=*****==****====*=$#oo                          ..OO+OOOOOO+.......OO+OO...     ..   ........  ......OO++OOO+@@@@@@@#XXXXXXo..o.oXXXXXoooooooooXXXXXXXXXXXXXooooXXXXXXXXXXX##########@@@@$$$$$$$$$***==-;;;;;-==********************************$$$$$$$$$$$$$$$$$$$$$@@@$@@@@@@@@@@@$$$$$$$$$@@@@###@@##################",
"ooooo          oooooXX##@@$$$$$$$@@##XXXooooX##@@$$$$$$$@@##XXXX####@@$$$$@@@#XXoo                                 o    oooooooo                       ooooooooooXXXXXXX####XXooooooooooooooooooooooooooooooXX###@@@@@##################@@$$$$@@@@@@@@@@$@@@@@@@##XXXX##@@@$$$@@@@@#XXXXXXX.ooooX.o..XXX.XXXXXX.XXXXXXXXXXXXXXXXXXXXXXXXXXX+X##+#++++##@@@@@@###############@###+##@+++++++++%&&$*=***************=====*=******=****========*===*===*=**+++++++++++OOOOOOOOOOOOOOOOO+++++%&&&&&&&+OO.....................................OOOOOO+OOOOOOOOOOOOOOOOOOOO++++%+++%&&&&&&&%+++OOOOOOXXXXX##@@@@@@@$*****======**=*==**=======$%+++##@@***==*****=*====********==*===**==**====**===**$+O......................OO..................................OO.....OOOOOO..........OOOO+%%&&&&&&&&+OOOOOOOOOOOO......................................OOOOOOO+%&&::&&&&&&%+++++++++++++++OO++++%%%%%+OOOO.............   .........oXXXXXXXXXXX###@@@@@@************==*==*=*==*=*$#X#@***==*******==*=========*=**=****=****@Xo                           ..OO+OOOOOO+.... ..OO+OO..    ..  .. ....... .  ......OO+OX+++@@$$@@@#XXXXoooooooXXXXXXooooooooXXXXXXXXXXXXXXXXXXXXXXXXXXXX#########@@@@@$$$$$$$$*****=-;;;;;;;;;========*=*****=**=====**********$$$$$$$$$$$$$$$$$$$$$$$@@@@@@@@@@@$$$$$$$$$@@@@@##@@@@################",
"ooo oo          ooooXX##@@$$$$$$$@@##XXXooXXX##@@$$$$$$$@@@#XXXX####@@@@@@@@##XX                                                                        oooooooooooooXX###@#XXooooooooXXooooooo ooooooooooooXX###@@@@##########@#########@@@@@@@@@#@@@@@$@@@@@@@##XXXX##@@@$$$@@@@@#XXXX...oooo.......XXXXXXXXXXXXXXXXXXXXXXXXXXXXXXXXXXX+++#+++++++@@@@@$****$$$$$@@@@@@@@@@@@@@@@@+++++++%%&&&$**=*****=***==***========****==****=====*==**==*=====*$+++++++++OOOOOOOOOOOOOOOOOOO++++%&&&&&&&++OOOO..................................OOO+++++OOOOOOOOOOOOOOOOOOOOO++++++%%&&&::&&+++OOOOO....XXXXXXXX####@@@@@@$*******====***====*@@OOO+@@$****=*==*=*=*==**==*==***==*===*===**====*======$+O....OO...OOOOOOOOOOOOOOOOOOOOOOOOOOOOOOOOOOOOOOOOOOOOOOOOOOOOOOOOOOOOOOO....OO.OOOOOO++%&&&&&::&%+OOOOOOOOOOOOO....................................OOOOOOO++%&&:&&&:&&&%++++++++++++OOOO+++++%%%%%OOOO..............oo...XXXXX##@@@@@@@@$$$$**=***=======***=================$XX#$=**=====****====****======**********=$#oo     oo....                ..OO+OOOOOO+.... ..OO+OO..     .   . ....... .  ......OOOOXX++@@$$@@@@##XXXXXXXXXoXXXXXoooooooXXXXXXXXXXXXXXXXXXoXXXXXXXXXX########@@@@@@$$$$$$$*****==-;;;;;;;;;;;;;;--=====================***********$$$$$$$$$$$$$$$$$$$$$$$$@@@$$$$$$$$$$@@@@@@@@@@@@@##############",
"ooooooo  o     oooooXX##@@$$$$$$$@@##XXXXXXX###@@$$$$$$$$@@##X######@@@@@@@@##XX                                                                     ooooooooooooooooXXX####XoooXXXXXXXXXooooooo        ooooXXX##@@@@@#########################@@@@@@@$$$@@@@@@@##XXXX##@@@$$$@@@@#XXXX.oo..XXXXo........XXXXXXXXXXXXX..XXXXXXXXXXXXXXXXX#++++++++OOOOO+++@@@$**======**********************$&&&@$*=*****===**==========********==**==***********=====*@+++++O+OOOOOOOOOO.OOOOOOOOOO+++%&&&&&&&++OOO.O..................................OO++++++OO...........OOOOOOOOOO++++%&&::::&&++++OOOOOOOOOOOO+++++++++++++++@@@@@@@$$********$@+OOO@@******===*******************=***=**===*******=====*@++OOOOO+OOOOO+++++++++O+++OOOOOOOO++++++++++++OO++++++++++++++++++++++++OOOOO..O..OOOOOO+%%&&&:::&&%OOOOOOOOOOOOOO..................................OOO++++++++%&&&:&::&&%%+++++++++++++O+++++++%%&&%+OOX#@##@@@@@@@@$$$$$$$$********===*===**$$@@@@@@@@@@@@@@@@@@@@$$$$$$$$**$@XX@*=**=**==*=*=***=====**==*==*====*****@oo      o.....                ..OO+OOOOOOO.... ..OO+OO..     .   . ......... ........OOO++++@@$$$@@@@@##XXXXXXXXXXXXoooooooXXXXXXXXXXXXXXoXXXXoXXXXXXXXXXX######@@@@@@$$$$$$***======;;;;;;;;;;;;;;;;;;;;;;;;;;;;;;=========***************$*$$$$$$$$$$$$$$$$$$$$$$$$$$$$$$$@@@@@@@@@@@@@@@###@@######",
"oooooo         oo ooXX##@@$$$$$$$@@###XXXXXX###@@$$$$$$$$@@@########@@@@@@##XXoo                                                                     oooooooooooooooooXXXXXXXXooooXXXXXXXXoooooo        oooooXX###@@@############################@@@@@$$$@@@@@@@##XXXX##@@@@$$@@@@#XXXXoooXXXoo.o........XXXX.XX.XXXXX..XXXXXXXXXXXXXXXXXX+++++XOOOOOOOOOOXX##@@@@$****==**==================*&%@$*******===**==========********==**************======*@+++++++OOOOOOOOOO.OOOOOOOOO+++%&&&&&&&%+OOOO.O.................................OO++++++OOOO.........OOOOOOOOOO++++%&&&::::&%++O+++OOO++++++++++++++++++++#########@@@@@@@@@@@#OOO+@*==*=*===****=*********====*=**===**===*****====*==$@++++++++++++++++++++++++++++++++++++++OOOOOOOOOOOOOOOOOOOOOOOOOOOOO++++++OOOOOOO.OOOOOOO++%&&&::::&%+++OOOO++++OOOO.................................OO+++++++O++&&&&:::&&&%%@+@+++++++++++++++++&&&&&&+O+@***********===****====*******=======*$@@#XXXXXXXXXXXXX#########@@@@@@#X#$*****==*=****==*=****===****=========$# o        o....               ..OO+OOOOOOO.... ..OO+OO...   ..  ............ ........OOOOOX+@@$$@@@@@@###XXXXXXXXXXXoooooooXXXXXXXXXXXXXXoooXXoXXXXXXXXXXX####@@@@@@@$$$$$$**==-;-;-;;;;;;;;;;;;;;;;;;;;;;;;;;;;;;;;;;-========***************$$$$$$$$$$$$$$$$$$$$$$$$$$$$$$@@@@@@@@@@@@@@@@#@@@####@@",
"oooo          oo  ooXX##@@$$$$$$$$@##XXXXXXX###@@@$$$$$$$@@################XXooo                                                                     oooooooooooooooooooooooooXXXXX#####XXXXoooo  oo     ooooXX###@##################XXX######@@@@@@@@$$$$$$@@@@##XXXX##@@@@@@$@@@#XXX.oXooXXX..XX....XoXXXXXX.X..XXXXX.XXXXXXXXXXXXXXXXX#+++++++OOOOO+++++++++++++@@@@@@$***================*@@@$*******=====*=*=**====*==***====***************====**$######XXXXXXXXXXXXXXX++X+++++%&&&&&&&+++OOOOOOOO.....O........................OOO+++++++O.........OO....OOOOOO++++&&&&&&:&&++++OOOOOOOOOOOOOOOOO++OOO+++++O++++OOOOO+++++++++OO+@$====**====********==*=******=*====*****=====******=*@+OOOOOOOOOOOOOOOOOOOOOOOOOOO.OOOOOOOOOOOOOOOOOOOOOOOOOOOOOOOOOOOOOOOOOOOOOOOO..OOOOOOOOOOO+%&&::::::&++++O+++&&&&+++OOOXXOOOO........XXX.o...XXXXXXXXX++@%%++++@@&&&&::::==&&***=**************======&&&%@*=*******==****==***====**********==***$@XXo.o.o.....ooooooXX..XXXXXXXoo#*********=====***=********=*********=*@X                               ..OOOOOOOOO.......OO+OO..      .....XXX..............OXXXXXX#@@@@$@@@@@####XXXXXXXXooooooooooXXXXXXXXXXXXXXXoooXXoXXXXXXXX####@@@@@$$$$$$$$**==;;;;;;;;;;;;;;;;;;;;;;;;;;;;;;;;;;;;;;;;;;;;-=========****************$$$$$$$$$$$$$$$$$$$$$$$$$$@@@@@@@@@@@###@@##@#####",
"oooo          oo  ooXX##@@$$$$$$$$@@##XXXXXX###@@@$$$$$$@@@#######XX#####XXXooo                                                                       oo  o            oooooooXXXXX#####XXXXooooo o      ooooXXX######XXXXXX###########X###@@@@@@@@@@@$$$@$$@@@@##XXXX##@@@@$@@@@#XXXX.o..oXXX..XX....Xo..XXXX....XXXX..XXXXXXXXXXXXXXXXXX+++++O+OOOOOO++++OOOOX+++++X###@@@@@@@$***=========*@@@$******************==============**********====***===*$@@@@@@@@@@@@+++++++++++++++++&&&&&&&&+++OOOOOOOOXXOOOOOOO.....................OO++++++OOO........OOO....OOOOOO+++%&&&&&&:&&+++OOO...OOOOOOOOOOOOOOOOOOOOOOOOOOOOOOOO++++OO+OOO++$*=====*====*****=*=********========*******===*******@+OOOOOOOOOOOOOOOOOOOOOOOOO....OO.O..OOOOOOOOOOOOOOOOOOOOOOOOOOOOOOOOOOOOOOOOOO...OOOOOOOO+++%&&::::::&+++++++%&&&&&++++++++OOOOOXXXXXXXXXXXX###@@@@@@@$$&&&&&&&&&&&&=::::::;=======**************=====&&&&*==*******==*=**=*****==*==*=*****====**=$@Xoooo  ..  ooooooooo.ooooo.ooX@*****=***=====***=*=****======*===*==*#o                               ..OOOOOOOOO..... .OO+O...    .......XXX... ..........OOXXXX##@@@@$$@@@@@##XXXXXXXXXoooooooooooXXXXXXXXXXXXXooooooooXXXXXXX####@@@$$$$********===;;;;;;;;;;;;;;;;;;;;;;;;;;;;;;;;;;;;;;;;;;;;;;;==========**************$$$$$$$$$$$$$$$$$$$$$$$$@@@@@@@@@@@@@#@@#@@@@###",
"ooo o             oooX##@@$$$$$$$$@@##XXXXXX####@@@$$$$@@@@#####XXXXXXXXXXXooo                                                                                          ooooooXXXX#######XXXXXooooo       oooXXX#####XXXX######@@####X####@@@@@@@@@@@@@$@@@@@@@@##XXXX##@@@@@@@@@#XXXX.o.........XX.XXXX....XXX..XXXXX..XXXXXXXXXXXXXXXXX+++++++OOOOOO++++OOO++++++++++++++++++++@@@&&$******@@@@******=****==******===============*==*=**======*******$@@@@$$*********$***$$$$$@@@@&&&&&&&&@+++##@@@@@@@@@@@@@@@@@##XXXXX..........OOO++++++OOO.........OOOOO..OOOOOO++%&&&&::&&&++++OOOOOOO+OOOOOOOOOO++OOOOOOOOOOOOOOOOOOOOOOOOOOOO@@=======****=**=*===*==*=**==========********=====****@+OOOOOOOOOOOOOOOOOOOOOOOO.......OOOOOOOOOOOOOOOOOOXXOOOOOOOOOOOOOXXXXXXXXXXXXXXX###@@@@@@@++@&&&::===&@@@@@@@$******$$@***&+++@@*$**$$$**************========&&&@&@&=====;::=&======*=*==******===*==*&&&&*==**=*=*=**====********============**===*@X.                o....... oo#@***=****=====***===========*****==*==$X                                ...OOOOOOOO..   ..OOOO.          ......... ........XXXXXX+++@@@@@@$$$@@@@@#XXXXXXXXooooooooooooXXXXXXXXXXXooooooooooXXXXXXXX###@@@@$$$*********==;;;;;;;;;;;;;;;;;;;;;;;;;;;;;;;;;;;;;;;;;;;;;;;;-=========*************$$$$$$$$$$$$$$$$$$$$$$$$@@@@@@@@@@@@###@@@@@@@@",
"ooo               oooX##@@$$$$$$$$@@##XXXXXXX###@@@$$$@@@@#####XXXXXXXXXXoooo                                                                                             ooooXXXXX#X##XXXXXXooooooo    ooooXXXX#####XXXXXX#####@@###X###@@@@@@@@@@@@@@$@@@@@@@@##XXXX##@@@$@@@@@#XX.o..o....X..oo..XXXX.o..XX..XXXXXX..XXXXXXXX.X..XXXXX++++++O+OOO++++++++O+++++++++++++++++++@@@&$$$$@@@@@@@@@*=*=*******=****=**============================*=**=*$@###@@@@@@@******************==&&&&&%@@@@@@@@@$$***********$@@@@@++O..........OO+++++OO..O.........OOOOOOOOOOOO++%&&:&::&&&++++++OOOOOOOOOOOOOOOOOOOOOOOOOOOOOOOOOOOOOO+O+OOOOO@$=**====*******==**=*====*=======*=****==****=======*@@+OOOOOOOO+OOOO+++++++++OOOOOOOOOOOOOOOOOOOOOOOO+++++++++++++++++++++++++@+@@@@@@@@@@@$$***&&&&&==&====&&***&**=====*****==&+++@*===============***=*****====&&%+++++&&===:===&=$**********$@$********$%+%&===*=*=***=*====***=**=*============*=====@#.                ooo   o.ooo@*********==**=***====================*@o                                ...OOOOOOOO.. . ..OO+OO.          .... .......o....OOXXX+++##@@@@@@@$$$@@@@##XXoXXoooooooooooooXXXXXXXXXXXoooooooooXXXXXXXXXX####@@@@$$$$********==;;;;;;;;;;;;;;;;;;;;;;;;;;;;;;;;;;;;;;;;;;;;;;;;;--=======*************$**$$$$$$$***$$$$$$$$$$@@@@@@@@@@@@@@@@@@@@@@",
"ooo oo            oooX##@@$$$$$$$@@@##XXXXXXX####@@@@@@@@@###XXXXXXXXXXXooo                                                                                               ooooooXXXXXXXXXXXooooooo  o  oooooXXXXX#XX#########@@@@@#######@@@@@@@@@@@@@@@$$$@@@@@##XXXXX#@@@$@@@@@#XXoX..oo........oo....XXX.....XXXXXXXXXXXXXXXXXXXX...O+++++++O++++++++++++++++++++++++++++++@@&&&&&&@@@@@@@@@@@*=*===*==*******=====**=============***=====****===*=$@XX.XXXX####@@@@@@$$*********$$$&@@@@@********===***=*****==*=****$@@XX....OOOO+++%++OO..O.........OOOOOOOOOOO+++%&&:::::&&&%@%+++@@@@@@@@@@@@@@@@@@@@@@@@@@@@@@@++++++++++OOO+@****===******========****====**==****====**===****=**@@@+@@@@@@@@@@@@@@@@@@@@@@@@@@@@@@++++@@@@$$@$$$$$******************************===*==**$*====================*===**==****=*&@@@************************=======&&%%++++&====::::=&&&%%%%%%%++++++++++++++++&*====**====*==***===**========*====***====$@o ooooooooooooooXXXXXXXXXooX$*********====***=========******===*=*@#                                 ...OOOOOOOO..    .O++OO..        ..... .. .....O+++####+++#@######@@@@@@@@@@#XXXooooooooooooooXXXXXXXXXXXXooooooooXXXXXXXXX########@@@@@$$$$$****====;;;;;;;;;;;;;;;;;;;;;;;;;;;;;;;;;;;;;;;;;;;;;;;;;;;;-======***************$$$*******$$$$$$$$$@@@@@@@@@@@@@@@@@@@@@",
"ooo  o            oooX##@@$$$$$$@@@###XXXXXXX#####@@@@@@@##XXXXXXXXXXXXoooo                                                                                                     ooooooooooooooo o   ooooooooXXXXXXX########@@@@@@@###XX##@@@@@@@@@@@@@@@$$$@@@@@##XXXXX#@@@$@@@@@#XXoX.Xoo.....o..oo....XX......XXX..XXXXXXXXXXXXXXX....O++++++O++++++++++++++++++++++++++++++@@&&&&&&@+@+@@@@@@@****************===*=*===***===========*==**===*===*=$@XXXXXXXXXXX####@@@@@@@$$***@@@@@@@$*=====*****=======*=*****=====**@@+O...OOOO++%%++OOO.........OOOOOOOOOOOOO+++%&&&::::::====&:======================**********&&*&&&&&&&%%%&*=***=====****=*==*====***====*===****====**==*****=======***===========**=====**=======&&&&==============****************====******=**====**@@@&&==========***===========********@@@@************=****===**********=&&%%+++++&&==::::===&%%+++++++++++++++++++O+&====***=*=******====*====*====**==**=*****$@ooooXXXX#######@@@@@@@@@#XX#*******=**==*=****===*=*====**=*=====*@X                                 ...OOOOOOOO..    .OOOOO.         ........ .....O+++@@@@@@##@###XX###@@@@@@@@#XXXXXoooooooooooooXXXXXXXXXXXooooooXoXXXXXoXXXX#######@@@@@@@$$$$$****====;;;;;;;;;;;;;;;;;;;;;;;;;;;;;;;;;;;;;;;;;;;;;;;;;;;;--=====*==**********************$$$$$$$$$@@@@@@@@@@@@@@@@@@@",
"oo                oooX##@@@$$$$$@@@###XXXXXXXX#############XXXXXXXXXXXXoooo                                                                                                     o oo o             oooooooXXXXXXXXX######@@@@@@@@@##XXX######@##@@@@@@$$$$$@@@@@#XXXXXX#@@@@@@@@@#XX.o..oooo......ooo...XXXX..X.XX....XX.XXXXXXXXXXX...OO++++++++++++%&&&&&&%++++++++++++@+@@&$$$$$$@@@++++@@@@@@@@@@@@@@@@@@@@$**=======**=*=**====**********====****$@XOOOXXOOXX++++O+OXXX+++@@@@@@#@@$***********====****==***=====***==**@@@+OOO++++%++OOOOO.OO..OOOOOOOOOOOOOOOO+++++%&&&&&&&&&&&&:::=========================================&====**==****===*******==**********===********===****================================**====&$@*=====*=======*==**==*=====*****************=====**&&&&&&&&&&&&%%%&&&&&&&*&*========*=*&&$*******************************&&&&&%%%++%&&::::::::&&%%%%&%%++++++++++OO++@****=****====*=***==**===****===*==***=====*$@@@@$$$$$$$$***********$#X#@***********==*=*=====*****==*=*****$$@X                                 ....OOOOOOOO..    .OOO....        ......   .....X++@@@@@@@@@@@##XXXXX##@@@@@@#XXXXXoooooooooooooXXXXXXXXXXXoooooooXXXXXXoXXXX###########@@@@$$$$$*****====;;;;;;;;;;;;;;;;;;;;;;;;;;;;;;;;;;;;;;;;;;;;;;;;;;;;;;-=======********************$$$$$$$$$$$$@@@@@@@@@@@@@@@@",
"ooo               oooo##@@@@$$$$@@@###XXXXXXXX############XXXXXXXXXXXXXooooo                                                                                                                          oooXXXXX##########@@@@$$$@@@###XX###########@@@@$$$$@@@@@@#XXXXXX#@@@@@@@@@#XX.o.ooooo......ooo...XXXX..XXXX......XXX..XXX.XXXX..OOOOO++OO++++++++%&&&++++++++++++@@@@&&$*$$$@@@++++++@@@@@@@@########@@@@***=====***===***==*****$$$$**********$@XO.OOXOOXX++++++OXOXXXXX###X#@@****=*=*****==***************====*=*==*$@++++++++%++OOOOO.OOO.OOOOOOOOOOOOOOO++++++++++%%%%%%&&&&&&&&&&&&******============================&&=&==*==**=**====******===*********===********===****==**@@@@$$$$****======**=************$@+@@*==*******=*==*=*******=*****************===*****$&&&&&%%%%%%%+%%%&&&&&&@@@$******=***&&*******************===******=***&&&&&%%%+++&&&::::::::&&%%%%%%+++++++O++O+O+@***==****======***=======***===**==**====*=********************===**$#X#$**=*********==*=======**==***$$@@@##XX                                   ...O.OOOOOO... ...OOOOO..       .........  .....X++@@@@$$@@@@@#XXXXXXX###@@##XXXXXXXoooooooooooXXXXXXXXXXXooooooXXXXXXXooXXX###########@@@@@$$$$$$****======;;;;;;;;;;;;;;;;;;;;;;;;;;;;;;;;;;;;;;;;;;;;;;;;;;;;;--====****==**************$$$$$$$$$$$$$@@@@@@@@@@@@@@@",
"ooo              oooooX##@@@$$$$@@###XXXXXX#############XXXXXXXXXXXXXooooooo                                                       ooooo                                               o        oooo    ooooXXXX####@@@@$@$$$$$$@@@###XXXXXXXX#####@@@@$$$$$@@@@#XXXXXX#@@@@@@@@@#XX...o..oo ooo.......ooo.....X.X...oXXXXX.....X........OOOOOOOOO++++++++++++++@@@@@@@$$*********$$$$$$$$@@$$@$@@@@@@@@@@@####@*==**=======*==*=***==*@@@@@@@@@@@@@@@@@XXO+OO++X++++++OOOOOOOOOO++#@@*******************=*=*====***===*********$@++++%%%+OOOOOOOOOOOOOOOOOOOOOO+++++%++++++++++++++++++%%%%%%%+%%%%%%%%&&&&&&&&&&==============&&%%@$*===***=========****==**======*****====****=**=*====*@++++++++++++++@&&@&$$$$$$******=*&@+@$====**==****==**=*=======**===*=****************&%%%%%%%%%%%%%%%%%%&&&&&%%%%%%&&&&&&&&&&*******************==***********&&&&&&&&&&&&&&&=::::::&&@++++++++++++++++O#@*********=**============****===***==**====***$$$$$$$$***************$@XX@$************==*=====*==*=**@XXo.                                          ....OOOO+O.. . ..O+OO...        .........   ...XXX#@@@$$$$$@@@##XXXXXX####XXXXXXXXXXXooXoooooXXXXXXXXXXXoooooooooooXXXooXXXXX#XX########@@@@@@$$$$$$**=======-;;;;;;;;;;;;;;;;;;;;;;;;;;;;;;;;;;;;;;;;;;;;;;;;;;;;;;;-=========***************$$$$$$$$$$$$@@@@@@@@@@@@",
"oo             o oooooXX#@@@$$$$@@####XXXX#############XXXXXXXXXXXXooooooooo                                                      ooooooo                                                               oooooXXX###@@@$$$$$$$$$$@@@###XXXXXXXX###@@@@@@$$$$@@@@@#XXXXXX#@@@@@@@@@#XX....ooo   oo.......oXX....XX.X....XXXX...............XOOOOOO+++++++++%%%%%&@@@@$$$$$$***************************$$$$$$@@@@@@**=**=*=====*===***==*$@##@##@#@########++O++++++++++++OOOOOOOOOOOX#@********************=*=********==*=********=$%+%%%%++OOOOOOOOOOOOOOOOOOOOOO++%%%%++++++++++++++++++++++++++++++++++++++++++@@@@@@@@$$$$$$$$%%++@*===****=========**=*=***************=**********=====$@++++++++++++++++@@@@@@@@@@@@@@@$@@++@*==****===***===*=====**=*****=****************=*&%%%%%%%%%%%%%%%%%&&&&&&%%%%++++@&&&&&&&*************=*****==******=****&&&&&&&&&&&&&&&&::::::&&+@++%%@++++@@@&++O@@********==***=====*==***==*====***=***====**$@########@@@@@@@@@@@@@@@#X#@$*$*$$$$@$*=****=*==**===**@#oo                                            ......OOOO..   ..O+OO...        .................XX#@@$$$$$$@@@##XXXXXXXXXXXXXXXXXXXXXXXXoooooXXXXXXXXXXooooooooooooXXooXXXXXXXX#########@@@@@@$$$$$$$***=======;;;;;;;;;;;;;;;;;;;;;;;;;;;;;;;;;;;;;;;;;;;;;;;;;;;;;;;-=========*=***********$$$$$$$$$$$$$$@@@@@@@@@@",
"ooo          oooooooooXX##@@@@@@@@#########@@@@@@@@####XXXXXXXXXXXXoooooXooo                                                     ooooXoooo                                             o              o oooooXXX##@@$$$$$$$$$$$$$@@###XXXXXXXX###@@@@@@$$@@@@@@@#XXXXXX#@@@@@@@@##XX......o   ..o.oo....ooo.XXXXXXXX.XXX.......XX......XXXXXXX+++++++++++++@++@@@@@@@@@@@@$$@@$$$$$$************************$@@@**=**=**=========*===*$@@@@@@@@@@############X##@@@@@+XXXXXXXXXXXXX@***********************=*=*****=======*****==*&&%%%%+OOOOOOOOOOOOOOOOOOOO+++%%%&%%%%%+++++++++++++++++++++++++++++++++++++++++++++++++++++++++++$==*==****==****====*****=**====********==============$+O++OOO++++++O+++++++++++++++++++++++@*******==*=**==**====***************===**********%%%%%%%%%%%+%%%%%%&&&&&&&%%++++++++%%%$************===*****==*****====***@%&&&&&&&&&&=======::=*$*************&@++@$**====*===********====**==**====**==**=====*@X oo.o...o.ooooooooooXooooX########Xo@*==**====**===**$Xo                                              ......OOO...  ...O+OO..         .................XXX#@@$$$$$$@@@###XXXXXXXXXXXXXXXXXXXXXXXXXooXXXXXXXXXooooooooooooooXooXXXXXXXX###########@@@@@@@@$$$$$***=======-;;;;;;;;;;;;;;;;;;;;;;;;;;;;;;;;;;;;;;;;;;;;;;;;;;;;;;;-=============**********$$$$$$$$$$$$@@@@@@@@",
"oooo  ooooooooooooooooXX##@@@@@@@@######@@@@@@@@@@@@###XXXXXXXXXXXXXooXoXoooo                                                    oooXXooooo         oooo                                            oooooooooXX##@@@$$$$$$$$$$$$$@@###XXXXXXXX###@@@@@@$@@@@@@@@#XXXXXX#@@@@@@@@##Xo.....ooo....ooooo...ooo..XXXXXXX.XXXX...XXXXXX....XXXXXXXXXX++++++++++++++++@@@@@@@@@@@@@@@@@@@$$$$$$$*******************@@@*=====*=**=*=====*=****$@@@@@@@@@@@@@@@@@@@@@@@@@@@@@+++####X#XXX+@@**********==*******=***=****=**====*====**====&&&%%%++OOOOOOOOOOOOOOOOOOOO++%%&&%%%%%%++++++OOOOOO++++++++++++++++++++++++++++++++++++++++++++++*=**==****==****====**===*******$$$$@$$$************==@+OOOOOOOOOOOOOOOO+++++++++++++OO+++++@******===****==***===***************==***********%%%%%%%%%%%%%%%%%%&&&&&&&%%+++++++++++$********************==*=====*==***$&%&&&&&&&&&====::==:=****=====****=*&@++@***===***==********=**=**=***====**==***=**=*@Xo.oooo.. oooo..ooooooo  oooooooooooo$*==*==*=**==****$Xo                                              ......OOO...  ...O+OO..        ...................XXX#@@$$$*$$@@@##XXXXXXXXXXXXXXXXXXXXXXXXXXXXXXXXXXXooooooooooooooooooXXXXXXXXX###########@@@@@@$$$$$$$$****=======;;;;;;;;;;;;;;;;;;;;;;;;;;;;;;;;;;;;;;;;;;;;;;;;;;;;;;;;;============*********$$$$$$$$$$$$$$$$$$$",
"ooooo ooooooooooooooooXX####@@@@@@@@@@@@@@@@@@@@@@@####XXXXXXXXXXXXXXXoooooooo                                                    ooooooooo   oo    oooo                                      oo     ooooooooXX##@@$$$$$$$$$$$$@@@@###XXXXXXXX##@@@@@@$$@@@@@@@@#XXXXXX#@@@@@@@@##XX.o.o..   o .  ..ooo....X....o..XXXoXXXX...XXXX....XXXXX.XXXXXXXXX.XXXXXXXXXX++XXX#++++#@@@@@@@@@@@@@@@@@$$$$$$$**********@@@**==**==**====*=*==***@@@@@@@@$$$$$*******************@@$$@@@@@+X@$********==*********====**=*==***=======***======&&%%%%+++++++OO+++++++++++%%%%%&&%%%%%%+++++++++++++++++++++++++++++++++++++++++++++++++++++++++&*=*===*=**==**=====*====*@@@+++++++++++@@@@@@@@@@@$$*@++OOOOOO++++OOO++++++++++++++++++++++@********=***====**====**********==***************$@@++++++++@@@+%%%&&&&&&&&&@@@@@@&&@++@****************=*******==****=*=*====&==&=*&&============**=======***=*$@#@$*********====*****=*****===****==**===******$#o...      .     o ooooo oooooooooXoo#$*==*===*====****@.o                                              ......OOO...   ..O+OO..         ...................XXX#@@@$$$$@@@@###XXXXXXXXXXXXXXXXXXXXXXXXXXXXXXXXXoooooooooooooooooooXXXXXXXX############@@@@@@@@@$$$$$$****=======;;;;;;;;;;;;;;;;;;;;;;;;;;;;;;;;;;;;;;;;;;;;;;;;;;;;;;;;;-===========**********$$$$$$$$$$$$$$$$",
"oooooooooooooooXooooooXX######@@@@@@@@@@@@@$$$$@@@@@###XXX#XXXXXXXXXXXXXXXXoo                                                      ooooooo    oo   oooooooo                                   oo      oooooooXX##@@$$$$$$$$$$$@@@@####XXXXXXXX##@@@@@@$$@@@@@@@@#XXXXXX#@@@@@@@@##XX.o.o.   oo..   oo.oo.........o.XXXXXXXXXX.XXXX....XXXXXXXXXX.XXX...OXXXXXXXXOO++++++XX##@@@@@@@@@@@@@@@@@@$$$$$$********$@@@*===**==***=**==*==***@#####@@@@@@@@@$$$$*************$$****@@+##@$***=****=**=***==***==***=*==****===*==**========&&%%%+++OO+++++++++++++++%%%%%&&&%%%%%%+++++++++++++++++++++++++++++++++++++++++++++++++%%%%+++&*=*=*=****==**==******==*@++++++++++++++++##+##@@@@@@@+O+OOOOOOOOOOO++++++++++++++++++++++@@*****=**==**====**====********=*********==********&&&&&&@@@@@&&&&&&&&&&&&==**&&***&&++@$**********==*******=****==******====;;=;;;======;=;====&****************@@#@*=*********===*******$$$$**=**=====******=**=$Xo........o . .... ooo oooooXXXXXXXoX@*=*==*=====*****$#                                                .......OO...   ..O+O...         ....................XXX#@@@@@@@@@@#XXXXXXXXXXXXXXXXXXXXXXXXXX######XXXoooooooooooooooooooXXXXXXXX#XX##########@@@@@@@$@@$$$$$******======-;;;;;;;;;;;;;;;;;;;;;;;;;;;;;;;;;;;;;;;;;;;;;;;;;;;;;;;;;;-=========**********$$$$$$$$$$$$$$",
"ooooooooooXXXXXXoooooooXXXX#####@@@@@@@$$$$$$$$$@@@######X#XXXXXXXXXXXXXXXXooo                                                       ooooo    oo oooooooooo                                  ooooooo   ooooooXX##@@$$$$$$$$$$$@@@@##XXXXXXXXXX##@@@@@@@$$$$$@@@@#XXXXXX#@@@@@@@@##XX.o.o    oo..o..ooo....oooo......XX.oXXXX.XXXXXXXXXXXXX....XXXX..XXXXXXXXXXXXXXXXXXX#X#######@@@@@@@@@@@@@@@$$$$$$$$$$$$$@@@@**==**======***====***@@X############@@@@@@@@$**$***********@@X+@@***=**=*==******==***===*=**=*****==**===*========&&&&%%%%%%%%%%%%%%%%%%%%%%%%%&&&&&%%%%%%%%%%++++++++@@@+@@@@@@@@@++@@@@@@@@+@@++++%%+++%%%%%%%+&==***********===******==&++++++++++++++++++++++###@@@@++@+@#########@@@@@@@@@@#+++@@@+@@@+@$****==*************==*****=*===*******==*****=****************==**========*=======$@++$=**********==***==**=********=***=*=*&&&=&=&&&&&*=&&&&&++++++@@@@@&$$&&&@++@@**********====***$@@@@@##@$*========****====*@XXoooXXXXXXXXXXXXXX####@@@@@@@$$$@###$==*==*=====**=**@X                                                .......OOO.... ..O+O...         ....................XXXXX##@@@@@@@##XXXXXXXXXXXXXXXXXXXXXXXXXX######XXoooooooooooooooooooXXXXXXXXXXX############@@@@@@@@$$$$$$$$******======-;;;;;;;;;;;;;;;;;;;;;;;;;;;;;;;;;;;;;;;;;;;;;;;;;;;;;;;;;;=========*********$$$$$$$$$$$$$",
"ooooooXXXXXXXXXXXooooooXoXXXX####@@@@@@$$$$$$$$@@@@#########XXXXXXXXXXXXXXXooo                                                        o o     oo  oooooooo                       oo        ooo    o   oo  oooXX##@@@$$$$$$$$$@@@@@##XXXXXXXXX###@@@@@@@$$$$$@@@@#XXXXXX#@@@@@@@@##XX.o.o    ooo. oooo.....oooooo...XXX..Xooo..XXXXXXXXXXXX...XXXXXXXXXXXXXXXXXXXXXXXXXXXX##XX######@@@@@@@@@@@@$$*******$$$$$@@$**==**======**===*=*=*@#X#######X#######X##@@@@@$$$$$$$*****@@OO@@****====****==**==*****=**********==**==***=======&&&&&&&&::::::::::::::::::::::::&&&&%%%%%%&&&&&&&&&&&&&&&&&*&&&&&&&&&&&&&&&&&&&&&&&&&&&&&&%%+%%&===********=**==******==&+++++++++OO++++++++++@@@@@@@@@+@@@@@@@@@@@@@@@@@@@@@$@@@&&&&&&&@+@$****===************=******=====*==***************$************=***============***=*@+&*=****=*****=****=====***=****=***=*$@+++++++++++++++++++++++++@@@@@@@@@@@++@@*=********====***$@#XXXXX@$==========***====$@XXXXXX###@@@@@@@@@@@$$$$$***$****@XX@*==**==========**Xo                                                ........OOO... ..OOO..        ........................XXXXXX#########XXXXXXXXXXXXXXXXXXXoXXXXX#######XXooooooooooooooooooXXXXXXXXXXXX############@@@@@@@@$$$$$$$$$$****========;;;;;;;;;;;;;;;;;;;;;;;;;;;;;;;;;;;;;;;;;;;;;;;;;;;;;;;;;;--========***********$$$$$$$$",
"XoooooooXXXXXXXoXXooooooooXXXX###@@@@@@@@@@@@@@@@@##########XXXXXXXXXXXXXXXXooo                                                             o ooo                                                    ooo ooooXX##@$$$$$$$$$$$$@@@@##XXXXXXXXXX##@@@@@@@@$$$@@@@@#XXXXXX#@@@@@@@@##Xo.o   oo    .oo o....ooo........XXX..XXX..XXXXXXX....XX.XXXXXXXXXXXXXXXXX#########################@@@@@@@@@$$**==--=========--=========**====*=*=**@#XXXXXXXXXXXX#XXXXX+++@++####@@@@@@@@@#XX@****=******=*****===***=======*****==**===*=*=======$&&&&&&&&&&&&::&&&&&:&:&&&&&&&&&%%%%&&&&&&&&&&&&&&&&&&&&&===============================*$@%%&&==*=********===*====*==*$@++++++++++++++++&&&&@@@$$$@@$$$$********========**************@@@********=*****=**====**====******==*****=**=*****&&&&&&&&&&&&&&&&&&&&&============*&%@&*=********=*****==*=*=************=*@@++++++++++++++++++++++++++++++++++@+@@@*===*******===****@XX....X@*===***=====*==*=*@@@@@@@@$$$$$$$$*******************@##$====***=====*===@o                                                  ................OOO...      .........................OO.XXXXXXXXX###@#@##XXXXXXXXXXooooXXXXXXXXXXXXXXoooooooooooooooooooXXXXXXXXXXX##X###########@@@@@@@@@@@$$$$$$$$$*****=======-;;;;;;;;;;;;;;;;;;;;;;;;;;;;;;;;;;;;;;;;;;;;;;;;;;;;;;;;;;;========*************$$$",
"XoooooooXXXXXXXoXXoooooooooXXXX###@@@@@@@@@@@@@@@###########XXXXXXXXXXXXXXXXooo                                                             ooooo o                                        oo        ooo ooooXX##@$$$$$$$$$$$$@@@@##XXXXXXX#####@@@@@@@@@$$@@@@@#XXXXXX#@@@@@@@@##Xo.o   oo    .oo  .o.ooo.o..o.....XX.XXXX..XXXXXXX..X.XX..XXXXXXXXXXXXXXXX####@@@@@@@@@@@@@@@@@@@@@@@@@@@@@@$$$*=-----;;;;;;;;;==========*====*=****@#XXXXXXXXXXXXXXXXX+@@@@@++#XX####@@#####@$*=*********===*=*===********=*******==*===*=*======*$%%%%%%%%%%%%%%%%%%%%%%%%%%%%%%%%%%%%&&&:&&&&&&&&&&&&&&&&==================================&&====******==*====***========&&&&&&&&&&&%+++++@++@@@@@@@@@@@@@@@@*****=******==**=********@@@$**==*********==**===***====**********************&&&%%%%%@@@@@&&&&&&&&&======*****$++@&==****************************===***@@++++++O++++++++++++++++++++++++++++@@@$*===*******===****@XX....X@**==***===*=*=****@@@@@@@@$$$$$$$*$*****************@##@*====***===*=**=$#o                                                  .............O..OOO....    ..........................OO..XXXXXXXXXX##@@@@@##XXXXXXXXXoXXXXXXXXXXXXXXXooooXoXooooooooooooXXXXXXXXXXXX#X#############@@@@@@@@@@$$$$$$$$$$*****========;;;;;;;;;;;;;;;;;;;;;;;;;;;;;;;;;;;;;;;;;;;;;;;;;;;;;;;;;;;-=======**************",
"oooooooXXXXXXXXooooooooooooooXXXX##@@@@@@@@@@@#################XXXXXXXXXXXXXoooo                                                             ooooo                      oooooooooooooooo   oo  ooo    oooooooXXX#@$$$$$$$$$$$$@@@@##XXXXXX######@@@@@@@@@@@@@@@@XXXXXXXX@@@@@@@@##XX.o...     ....  ooooooo.oo......XXXXXX....XXXXXX..XX....XXXXXXXXXXXXXXXXX######@@@@@@@$$$$*******************===----;;;;;;;--=*=======***===***==*@#XXXXXXXXXXXXXXOX@@&&&&&++++++++++#+@@@@@*=****=***=*==**====*********==****====*==*****======$+++++%%%%%++%%%%++++++%%%%%%%%%%%+%%%&&:::::::::::::::::::::::::::::::::::================;:===**=**========****==***=============**@@@@##++++++++++++++++++++++++@&&&&&&&**********$@@@$***==********======****=====*==********=********&&&&&%%%%%%%%%%%%%%&&&&&:&&&&&&&&&%%%&&==**********====*$*=*****=*****=****@@++++++++++++++++++++++++XX##++++@@@@@$*=======******=***@#..oXXX@$**=***====*=*****$#XXXXXXX######@@@@@@@@@@@@@@@@@@@@#X#@*===*****==*==*=@o                                                    .......  ...OOOOOO....   .......XX................XXXX....ooXXXXXXXX#@@@@@@##XXXXXXXoXXXXXXXXXooooXXoooooooooXoooooooooXXXXXXXXXXXX##X############@@@@@@@@@@@@$$$$$$$$$$$*****=======-;;;;;;;;;;;;;;;;;;;;;;;;;;;;;;;;;;;;;;;;;;;;;;;;;;;;;;;;;;;;;========*********",
"ooooooXXXXXXXXooooooooooooooooXXX######@@@######################XXXXXXXXXXXXXooo                                                            oooo                           oooooooo     ooo    o ooo      oooXXX#@$$$$$$$$$$$$@@@@###XXX########@@@@@@@@@@@@@@@@XXXXXXX#@@@@@@@@##XX.o... o  . .o.    ooooooooo....X....XX....XX..X..XXX....XXXXXXXXXXXXXXXXXXXX#XXX###@@@@@@$$********=**======--=---==--;;;-==**========*===****==**@#XXXXXXXXX#XXX+++@&&&&&&++@&&&&@@@@@@@@@$*=**===***====***==*$@@@@@@@$$$$$**====***====**=====*++++++++++++%%%%+++++%%%%%%%%%%%%%%%%&:::::::::::::::::::::::::::::::::==:================::===**=**========****==**========*=======**$@@@+++++++%++++%%%%+++++++%@@@@@&$$$$*******$@@@@*************=======****=========****************&&&&&&&%%%%%%%%%%%%%&&&&:&&&&&&&&&&%&&&====********====*$***==**=*****=****@@++++++++++++++++++++++++++@@@@@@@@@@@$========**********@X....XX@*=*****====*==***$@XXXXXXXXXXXXXXXXXXXXXXXXXXXXXXXXXXXo@**=====***==**==*#o                                                               ..O++OO................................XXXOX...oo.XXXXXXX#@@@@@@@@##XXXXXXXoXXXXXooooooooooooooooooXXXoooooooXXXXXXXXXX##XX###############@@@@@@@@@@$$$$$$$$$$$$******=======;;;;;;;;;;;;;;;;;;;;;;;;;;;;;;;;;;;;;;;;;;;;;;;;;;;;;;;;;;;;-=======********",
"oooXoXXXXXXXXXooooooo ooooooooooXXX######XXXXXXX################XXXXXXXXX##XXooo                                                           ooo                        ooooooXXXXXXoooooo   oo  o ooo  ooooooooXX##@@$$$$$$$$$$@@@@###############@@@@@@@@@@@@@@@XXXXXXX#@@@@@@@@#XXX.o.o......  o o ooo o.oooo....XXX..X.......X....XXXX...XXXXXXXXXXXXXXXXXXXXXXXX########@@@@@@@$$$$**=====---------==---===*$*==========***=**===**@@########XX##XX+@@&@@@+++@@@@@@@@@@@@@@@$***==****===*****=*$@##+++@@&&&&@$*=**==*==*=*=*=====*@@+++++++++++++++++++++%%%%%%+++++%%&&&&&&&&&&&&&&&&&&&&&&&&&&&&&&&&&&&&&&&&&&&&&&&&&&&&&&&&==*==**========*******===*=======*************$@@++%%%&&&&&&&&&&&&&&&&&&&&&&&&&&&&&&&&%++++&&&$****=====*****==***====*=====***$&@&&&&%%%%%&&&&&&&&&%%%%%%%%%%%%%&&&::::::::&&&&&&=====*****==****&&&%***==*************$@@@@@+++@@@@@@@@@@@@@@@@@$$$*$$**$@@@@$==***===********=$#X..ooX#$**=*===****===***@#XXXXXX................ooo.oooooooooX@***********=*=*=$X                                                                ...OO++O..........XX...................XXXX..XX.o.XXXXXXX#@@@@@@@@@@@##XXXXXXXXooooooooooooooooooooXXXXXooooooXXXXXXXXXXX#X################@@@@@@@@@@@$$$$$$$$$$$$$$****========;;;;;;;;;;;;;;;;;;;;;;;;;;;;;;;;;;;;;;;;;;;;;;;;;;;;;;;;;;;;;--=======***",
"XXoXXXXXXXXXXXooooooooooooooooooXXX####X#XXXXXXXXX#############XXXXXXX#####XXXo                                                           oo    o                  oooooooXXXXXXXXXXoooo   oo    o o  ooooooooXX##@@$$$$$$$$$$@@@@##############@@@@@@@@$$@@@@@@XXXXoXXX@@@@@@@@#XXX.o.o . .o.. o      o oooo....XXXXX..X.....XX...XXXXXX.XXXXXXXXXXXXXXXXXXXXXXXXX####+##@@@@@@@@@$$$$$***=--------========*****==*======****====*=**@@@@@@@@@@@@@@@@@&@@@@%@+++@++++++@@++++@**=*=****=====****=*@####+@@@&&&@@$*****===**=========*@+++++++++++++++++++++%%%%%%%++++++%%%%%%%%%%%%%%%%%%%%%%%%%%%%%%%%%%%%%%%&&&&&&&&&&&&&&&&&&*=**=***=======********=**======******=***==**=*&&&%%%%%&&&&&&&&:&::&:&&::&&&&&&&&&&+++++++&&&@@$$*****$*****=******==*=====**$@@@+++++++++%%%&&&&&&%%%%%%%%%%%%%&&&::::::::::::&&=======***==**==&&&&**=*=***********=****$$*&&*******************=======*@@@@*==****==**=***==*@XX.XXX@@***=====****=*=**$@XXXXXXX..........o.. ..oo...o ooo. X#$*=******=**===**@oo                                                        ..      ....O++O.........X.X............X.....XOOO..XX...XooXXXX#@@@@@@@@@@@@##XXXXXXooooooooooooooooooooooooXXXooooXXXXXXXXXXXXX####################@@@@@@@@@@$$@$$$$$$$$$$*****========;;;;;;;;;;;;;;;;;;;;;;;;;;;;;;;;;;;;;;;;;;;;;;;;;;;;;;;;;;;;;;;========",
"XXXXXXXXoXXXoXooooooooooo ooooooXXXX#XXXXXXXXoXXXX############XXXXX#X######XXXo                                                         oooooo    o     oooooooooooooooXXX####@@@###XXoo   oo      o      ooooXX##@@$$$$$$@$$$$$@@######@@@@@@@@@@@@@@@@$$$@@@@@XXXXoXXX@@@@@@@@#XXo.o.o    ooo.      .  ooo...XXX....XX........XXXXXX....XXXXXXXXXXXXXXXXXXXXXX###XXX#####@@@@@@@@$$$$***=-;;;;;;-;;;---===***$*==*====****====*=*==*@@@@@@@@@$@@@@$$***$@$$$$@$$$$@@@@@@@@#+@*******=*==========*@+XO++%&&&&&%@$****====*=====**====$@++++++++++++++++++++++++%%++++++++%%%%%%%%%%%%%%%%%%%%%%%%%%%%%%%%%%%%%%%%%%%%%%%%%%%%%%%%$*********=*==*********==*****=***====*****==*****$@++%%%%%%%%%%%%%%&&&&&&&&&&&&&&%%++++++%&&%%%%&&&&&&%@@**==****************&@++++++++++++%%%&&&&&&%%%%%%%%%&%%&&&&&&&::::::::=======*==***=====::::*==*=*==************$$$$$*$*****************========*@@@**==********====**$@XX##@@$****=**===***=*==*@XXXXXXXXoX.Xooo...XoooooooooooooooXo#@**=**=====**==**@#                                                      .   .       .....OO++O.........OOX..... .........OOXOOO.XXXX.XoooXXX##@@@@@$$$@@@@@##XXXXooooooooooo   oooooooooooooooooXXXXXXXXXXXXX#######@#############@@@@@@@@@@@@@@$$$$$$$$$$$****========-;;;;;;;;;;;;;;;;;;;;;;;;;;;;;;;;;;;;;;;;;;;;;;;;;;;;;;;;;;;;;;-=====",
"XXXXXXoXoXXooooooooooooooooooooXXXXX##XXXXXXooXXXX############XXXXX#########XXo                                                         ooooo           oooooooooooooXXXX##@@@@@@@@##Xoooo oo      o      ooooXX##@@$$$$$$@$$$$$@@#####@@@@@@@@@$@@@@@@@$$$$@@@@#XXXXXXX@@@@@@@@#XXo.o.o   oo.o..    .. .ooo...XXX.............XX.XXXX....XXXXXXXXXXXXXXXXXXXXXXX###########@@@@@@@@$$$**=-;;;;;;;-;;;---===*$$$*==***===***====*====*@######@@@@@$**====*********=*=*===*@@#+@=*=*==*=**========*$@+++++%&&&&%%@$******========**====$@++++++++++++++++++++++++%%+++++++++++%++%+++++++%%%%%%++++++%%%%%%%%%%%%%%%%++++%%%%%%%%%%$=**********==********==******===***===***=*****==*$%++++++++++++%%%%%%%%%%%%%%%%%+++++++++%%+%%%%&&&&&&@@**=*****************&@++++++++++++%%%&&&&&&&%&&&&&&&&&&&&&&&&&&&&&&&&&==========***=====::::==**===****=******$$@@@@@@@@@@@@@@@$************====*@@@**==********====*=*$@@$@*****===**===***=***$@XXX...Xo..oXoo..o.ooooooooXXXXXXXXXX#$*==*======***=**#o                                                      .  ..         .....O+++O........OOX..............OOOOOO..XXXXXooooXX##@@@@$$@$@@@@@@##XXXooooooooooo   ooooooooooooooooXXXXXXXXXXXXX#####@@@@@@@@@@@@@@@@@@@@@@@@@@@@@@@@@$$$$$$$$$$$******=======;;;;;;;;;;;;;;;;;;;;;;;;;;;;;;;;;;;;;;;;;;;;;;;;;;;;;;;;;;;;;;;-==",
"XXXXXXooooooooXoXXXXXXXXXXoooXXXXX#######XXoooooXXXX##########XXXXX#####@##XXo                                                           oooo  o      oooooooooXXX#X###@@@@$$$$$$$@@##Xooooo       ooo o  ooooXX#@@@$@$@$$@@@@@@@@#####@@@@@@@@@@@$@@@$$$@@@@@@@#XXooXXX#@@@@@@@#XXo.o.   oooo.o   o.o..oo.XXXXX..X...ooX.....XoXX..XXXXXX.X..XXXXXXXXXXXX#XXX##XX######@@@@@@@@@@$$$$$=-;;;;;;;;;-;-;-==***$$$$$*=*=*****==****=***=*@#XXXXXXX#++@@&==*@$$$$$$***====**==$@++$**=********===**===$@O+++&&&&&&@@@$=====*======*===**==@++++++O+++++++++OO+++++++%++++++++++++++++++++++++@@@@@@@@@@@@@@@@@@@+++++++++++++++++++++%$=***====***========****========****===*******=*=***@@++OO+++++++++++++++++++++++++++++++@@@@@++%&&&&&&%@@********==***===**=*$@+@@@@@@@@@@@@$$****=*&$*************==&=&&&&&&$==*==**=****=====&&&&&&***=**************@@@@@@+++++O+++++++@@@@@@@@@@@@@@@@@@@***=******==*****************===*****=****=*@#XXXXXXXXXXX###X#######@@@@@@$$$$@@#X$**=*==========*=$Xo                                                     . ......            ..O+++OO..............XXXXX.O..XXXXX........XoooXXX@@@@$$$$@@$$@@##XXoooooooooooo       ooo  ooooooXXXXXXXXXXXXXX####@@@@@@@@@@@@@@@@@@@@@@@@@@@@@@@@@@@@$$$$$$$$$$$$$*****=======-;;;;;;;;;;;;;;;;;;;;;;;;;;;;;;;;;;;;;;;;;;;;;;;;;;;;;;;;;;;;;;",
"XXXXXoooooooooXXXXXXXXXXXXXXXXXXX########XXooooooXXX##########XXXXX#######XXooo                                              o       ooo oooooooooooooooooooXXXXXX###@@@@$$$**$$$$@@##Xoo  o       oo  o oooooXX##@@$$$$$$@@@@$@@@#############@@@@@@$$$@@@@@@@@#XXooXXX#@@@@@@@#XXo.o.   oooo.o   o.o....XXXXXXX.....ooXX....XXXXXXXX..XXX..XXXXXXXXXXXXX#############@@@@@@@@@$$$$*==;;;;;;;;;;;;;-==*$$$$$$$$$*=*==**====****===**$@#XXXXXXXX++@@&@@@#@@@@@@@@@******=*$@#@$*==********====*===*@O++&&&&&&&@+@**====*=*====*=*=====&+++++O+++++++++++O++++++++++++O+++++++%%%%%%&&&&&&@@@@@$$@&@&@$$$&&&$@@@@%%%%++++%+%++++++%$=*****=****========****========*=**==*=******====****+++++++++++++++++++++++++++++++++@@@@@$$&&&&&&&&&&&&*************===*=**$@@&&&*****$$$****=====*************======&&:&&&*==*==**=*******==&%%%%&********=**=*****$@@@@@@@++++OOOXXXXXXXXXX#+##@@##@##+@@******==**==*****==******=****===*====*****$@##X####@@@@@@@@@@@@$$$$$$********$@##$*==**=*======*=*@o                                                      ........             ...O+++O.......................XXOXX.......ooooXXX#@@@@@@$$$$@@@##XXoooooooooooo        oo  oooooooXXX##XXXXXXXX#####@@@@@@@@$$@@@@@@@@@@@@@@@@@@@@@@@@@@$$$$$$$$$$$$$$*****=======-;;;;;;;;;;;;;;;;;;;;;;;;;;;;;;;;;;;;;;;;;;;;;;;;;;;;;;;;;;;;",
"XXXXooooooooooXXXXXXXXXXXXXXXXXX####@@###XXooooooXXX####@@#####XXXX#X#####XXo                                               oooo    oooooooooooooooooooooooXXXXX##@@@$$$$$*****$$$@@##XXo               ooooooXX##@@$$$$$$$$$$$@@@##X#X#####X###@@@@@$$$$@$@@@@@#XXoooXX#@@@@@@##XXoo...            oo..o.XXXXX.......XXXXXX.XXXXX.X..XXXXXXXXXXXXXXXXXXXXX#######@@@@@@@@@@$$$$$$**=-;;;;;;;;;;;;;-=*$$$$$$$$$$$*=*==========*=====*$@#XXXXXX+++&&&%++++++++++++@@@@@$$*$@@+@*=******=======*====*@++%&&&&&&&++@$*==***==**=*=**=====@@+O++OOO+++++++++++++++++++++++++++++%%%%%%%%&&&&&&&&&&&****===========**************$$&@+%****==*===***=**======***=****====**==*******===***===$$%%%%@&&&&$$$$$$$$$$***$***$$*$$$**********=*&&&&$***************==****@@@@@&$&*******=**=====*************========&&&&*==*==*=*=**=*****&%%%%&**=*************=@@@@@@@&@++OOOOOOOOOOOOOOOO++++++++#+@*******==***=*==***=*****==****==***=******$@####@@@@@@@$$*********************$@#@*=*=*=***====**=@#o                                                      . .. ..            ......O+++++O...................OOOOXX...ooo.oooooXX#@@@@@@@$$$@@@##XXooooooooooo         o   oooooooXXX#######XXXX######@@@@@@@@@$$$$$$$$$@@@@@@@@@@@@@@@@@@@@@$$$$$$$$$$$*****========-;;;;;;;;;;;;;;;;;;;;;;;;;;;;;;;;;;;;;;;;;;;;;;;;;;;;;;;;;",
"XXXoooooooooooXXXXX#######XXXXX###@@@@###XXoooooooXX###@@@@####XXXXXX###XXXoo                                                        ooooooo ooooooooooooooXXXXX#@@@$$$$***$***$$$$@@#XXo               ooooooXX##@@$$$$$$$$$$$$@@##XXXX#XXXXX##@@@@@$$$$$$@@@@@XXXoooXX#@@@@@@##XXoo..o            .....XXX........X.XXXXX...XXXX......XXXXXXXXXXXXXXXXXX########@@@@@@@@$$$$$****==-;;;;;;;;;;;-==*$$$$$$$$$@$$*=*=*=============***@#XXXXO++@&&&&%++++++++++++++@@@@@@@@+++*==***==============*@++%&&&&&&+++@**==*******=****====*@@OO+++OO++++++++++++++++++++++++++++++%%%++++%+%%%@@@&&&&*****==========================*&&*=*==**===********====***=****====**==*******====*=*==**&&&&&&&*==========**==*====*=******===****==&&&&***************=*=****@#++++@@@@$$$$$$@$$*********************====&&&&===*=*==*=**=****$%%%%%&**=*****=**=****=@#@+@@&&%+++OOOOOOOOOOOOOO++++O++++++@*******==*****===**===***==****==**===****$@#XX##@@@@@@@@@$$$$****************$@##@*=*****=*====***@Xo                                                      .    ..      .   ..........O+++++O........XX.XXX.OOXXOOOX..o.oo....ooXX##@@@@@@$$$@@@##XXoooooooooo  o oo   ooo   oooooooXXXX########X#########@@@@@@@@$$$$$$$$$$$@@@@@@@@@@@@@@@@@@@$$$$$$$$$$$******=======;;;;;;;;;;;;;;;;;;;;;;;;;;;;;;;;;;;;;;;;;;;;;;;;;;;;;;;;",
"XXooooooooooooXXX##########XXX####@@@@@##XXoooooooXX##@@@@@###XXXXXXXXXXXXooo                                                                     ooooooooooXXXX#@@@$$*****$$$$$$$$@##Xoo     o           ooooXX##@@$$$$$$$$$$$@@@##XXXXXXooXXX##@@@@@@@$$$@@@@#XXXoooXX#@@@@@@##XXX.ooo           ...oo.X...XX................X......XXXXXXXXXXXXXXXXXXXXX########@@@@@@$$$$******=-;;;;;;;----==******$$$$$@@@$*=*=*==========***==*@#XXXX++@&&&&&%++++++++++++++++++++++++@*==*****============*@+@&&&&&@@+++@***=====****===*====*@@O+++OO++%+++++++++++++++++++++++++++%+++++++%%%%+++++++%%%%%%&&&&&&&====================&&*===*****=***=**===**=************==***=****===*=======*&&&&&&&&&&&&&&&&==============*****==*=***==&&&&*****************=***@++OOOO+++++%%%%%%%%&&&&&&&&&&&&&&&&&&&&&&&&&&&*==***=***===******$%%%%@**==*********=****@++++@@@@@++++OOOO+XX++XX+++####+++#@$*************====*===========***=====****$@XXo.oXooooXXXXXX##@@@@@@@@@@@@@@@@@@#X@$==*=*=**====***$Xo                                                                    ..    .. . .....OO+++O.......OOOXXO.XXOXOOX..X.oo.oooooooXX#@@@@@@$$@@@@@#XXoooooooooo  oo    oo     ooooooXXXXX####XXX#XX###########@@@@@@@$$$$$$$$$$$$@@@@@@@@@@@@@@@@@@$$$$$$$$$$$******========-;;;;;;;;;;;;;;;;;;;;;;;;;;;;;;;;;;;;;;;;;;;;;;;;;;;;",
"ooooooooooooooXX##########XXXX####@@@@@##XXoooooooXX##@@@@@###XXXXXXXXXXXooo                                                                        oo oooooooXX##@@$$$****$$$$$$$$@##Xooo    o           ooooXX##@@$$$$$$$$$$@@@@##XXXXXXooooX##@@@@@@@$@@@@@@#XXXoooXX#@@@@@@##XXXo         oooooo..oX..XXXX.....XX.................XXXXXXXXXXXXXXXXXXXX##########@@@@@@$$$$$**==-;;;;---========**=****$$$@@@$*=*=*=*========****=*@#XXXX++&&&&&&&%++++++++++@@@@+%%%%@@+@&*===*=**============*@+@&&&&&@++++@*=*==*===*=====*====*@#++OOOO++%%%%%%%%%%%%++++++%%%%%%%%%%%%%%%%%%%%%%%%%%%%%%%%%%+++++@@@&&$$***********=====&&*==***********====**********==****=*=*==****===**====*=*&&%%+%%+++%%+++@@@@$$$$$$$******************&*&&*******************=*@+OOOOOOO++++%%+++%%&&&&&&&&&&&&&&&&&&&&&&&&&&&*==**=*=**====****$@%%%%@**==*****=**=*==*=@++++@@@@@+++++OOOOO+++++@@@@@@@+++#@$****=******=*===**=*========*************@#oo. oo   oooooooXXXXXXXXXXXXXXXXXX#XX#$*=**=*=**====***@oo                                                          ..    .   ....  ..   .......O++++OO.....XOXX....OXO....XXX..oooooooXX#@@@@@@@$@@@@@#XXoooooooooooooo    ooo    ooooooXXX#######XXXXXXXXX##########@@@@@@$$$$$$$$$$$$@@@@@@@@@@@@@@@@@@$$$$$$$$$$$******=========;;;;;;;;;;;;;;;;;;;;;;;;;;;;;;;;;;;;;;;;;;;;;;;;;;",
"oooooo  o   ooXX##########XXXX####@@@@@##XXoooooooXX####@@@@##XXXXXXXXXXooo                                                                          ooo  oooooXX##@$$$***$$$$$$$$$@@#Xoooo            o  ooooXX##@@$$$$$$$$$@@@@@##XXXXXXooooXX#@@@$$@@@@@@@@@#XXXoooXX##@@@@@##XXXo       oo..oo....XX....XX....XXXX..X.XX.X..X...XXXXXXXXXXXXXXXXXXXXXX#########@@@@@@$$$$$$*=-;;;;;;;-=======**=*==*=***$$@@$*=*=**======*=****=**@###@@@@@&$&&&@@@@@@@$&&&&&&$&&&&&&&&&$&======*=======*====**@@@&&&&@@++++*=**=*==**====**=*===*@++OOOOO++%%%%%%%%%%%%++++%%%%%&&&&&&&&&&&&&&&&&&&&&&&&&&&&&&&&&&&&&&&&&&&&&&&&&&&&&&&&=&&%%&===******=*======********====*****=====****===*****=***&@+++%++++%++++++++++%+++++++++++++@&&@@%@&&&&&&******==************$@+OOOOOOO++%%%%%%%%%%&&&&&&%%%%&%%%%%%%%%%%%&&&==***=**********=*@@%%%%@**=****==***==****@@+++@@$$$@@@@@@@@@@@@@@$$$$****$@#@@*===*=****======****==******=***********$@XX.o. ooo   oooo.o.oXXXXXXXXooXXXXXXXXX@$******=***==***@#oo o                                                       ...o ....  .... . ...    ......O++++X............OOX.....o...o.ooooooXX#@@@@@@$@@@@@#XXoooooo oooo oo   ooooo    oooooXXX##XXXXXXXXXXXXXXXXX#########@@@@@@@$$$$$$$$$$$$@@@@@@@@@@@@@@@@$$$$$$$$$$$$$$*****=========;;;;;;;;;;;;;;;;;;;;;;;;;;;;;;;;;;;;;;;;;;;;;;;",
"o o         ooXX#########XXXXXXX##@@@@@##XXoooooooXX#####@@###XXXXXXXXooooo                                                                           oo   oooooX##@$$$$$**$*$$$$$$@@#Xoooo            o  ooooXX##@@$$$$$$$$$@@@@@##XXXXXoooooX##@@@$$$$@@@@@@@@XXXooooX##@@@@@@#XXXo      ooo..o.....XX....X.....XX.XXX...XX..XXX..XXXXXXXXXXXXXXXXXXX#XX#########@@@@@@$$$$$==;;;;;;;;;;-====*=*********==*$@@$*===***==*********=**@@@@@@@@&&$$&&&&&$&&&**&&&&&**&&&&&&&&&&====*=**====***====**@%&&&&&@@+++@*=**==*=======*==*==**@#OO+++O+++++%+++++++++++++++%++%%%%%%%%%%%&&&&&&&&&&&&&&&&&&&&&&&&&&&&&&%%%&&&&&&&&&&@@%+++@&*********=======****=*========*===**====**===**=**=*=**@+%++%%%%%%%%+++++++++++++++++++++++++++++@&&&&*=****==************@@++OOOOOO++++%%%%%%%%%&&&&&%%%%&%%%%%%%%%&%%&&==***==**=*=*******++%+++$**=**=*==**====****&&@@@$*************************@@#@@**====***======***====*****************$@#XXoo..o     o ooo.ooXXXXXXXXXoXXXXXXXX#@*=**************@Xoooo                                                  .o ooo..oo....  ....    ..    .......O+++++O...........OX.X....o....ooooooXX#@@@@@@$@@@@@#XXoooooo oooo  o    oooo     ooooXXX##XXXXXXXXXXXXXXXXXX############@@@@@$$$$$*$$$$$$$@@@@@@@@@@@@@@@@@$$$$$$$$$$$*******=======-;;;;;;;;;;;;;;;;;;;;;;;;;;;;;;;;;;;;;;;;;;;;;",
"             oXX########XXXXXXXX#####@###XXooo  oooXX#######XXXXooXooooo                                                                                  oo oooXX#@$$$$$$$$***$$$$@@#Xooo     o           ooooX##@@$@$$@@$$$$$@@@###XXXXoooooXX#@@@$$$@@@@@@@@#XXXo oXX##@@@@###XXo.o      o....XX...X.X....XXX...X.......XXXXXXXXXXXXXXXXXXXXXXXXXXXXXX######@@@@@@@@$$$$**=;;;;;;;;;;;-==**************==*@@@$****====*======****=*@@#@@@@@$$$*******************$$***$&@@$==****====**======*=*@%&&&&&&+++@@*==*==*=========*====*++OO++OO++++++++++++++++++++++++++++++++++++++++%%%%%%+%%%+++++%%%+++%%%%%%%%%%%%%++++%%++++++@&========**==****=**=******=*====****===**===*********@++++++++%%%%%%++++++++++++++++++++++++++%&&&===*****==******=*===*@+OOOOOOOO++++++++++%%&&&&&&&&&&&&%%&&&%&%%%&&*=****=******==**=*@++++++*=*****===****====**&&&@@&$********===***********=*@@@@*=****==******===*=**=*=**=******==***$@#XXXooo.o oooooooooooooXXXXXXXXXXXX#####X@$*****====*==**=$#Xoooo  .o                                                 .oo..o....    . .    ...      .......++++X..........O.........o.     ooXX##@@@@@@@@@@@#XXoo oooooooooo       o    ooooooXXX#XXXXXXXXXXXXXXXXXXXXXXX############@@@@$$$$$**$$$$$$@@@@@@@@@@@@@@@$$$$$$$$$$$$$$******========-;;;;;;;;;;;;;;;;;;;;;;;;;;;;;;;;;;;;;;;;;",
"             ooXX####XXXXXoooXXX########XXoooo  oooXXX######XXXooooooooo                                                                                  oo oooX#@@$$$$$$$****$$$$@@#Xoooo                ooooX##@@$@$$@@$$$$@@@@###XXXXXooooXX#@@@@$$@@@@@@@@#XXoo ooXX#@@@@###XXo.oooooo.....XXX..........XXX..XX.X.....XXXXXXXXXXXXXXXXXXXXXXXXXXXX#######@@@@@@@@$$$$$*=-;;;;;;;;;;-=**$$$$$$$$$$$$$$$$$@#@$****=*=**=*====*=****@#XX###@@@@@$$*********************@@+@@******====**=*======&@%&&&&&%+++@&*=====*===**====*====$++OOOOOOO+OO++++OOOO++++++++++++++++++++++++++++++++++++++++++++++++++%%++++++%%%%++%%%%++++++@@*====**=***==***====*=*****=***===*====**====****=***@++++++%%%%%%%%+%%%%%++%%%%++++++++++++++%%&&====*******=*******==*@+OOOOOOOO++++++++++%%&&&&&&&&&&&&&&&&&&&&%%&&*=************=****@+++++@********==****===***@@@@++@@$***$$*$$$*************@#@$****=**====***===****====********==**@@XXXXXXoo.o.o..oo ooooooooXXXXXXXX###@@@###@*****====****==*@Xoooooo  ..o   o       . o           .                     .....oo...      ....   .      .......OX++++O..............o.....     ooXX##@@@@@@@@@@##XXoo oooo o  o            oooooooXXXXXXXXXXXXXXXXXXXXXXXXXXX##############@@@@$$$$***$$$$$@@@@@@@@@@@@@@@@@$$$$$$$$$$$$$******========-;;;;;;;;;;;;;;;;;;;;;;;;;;;;;;;;;;;;;;;",
"              ooXXXXXXXXooooooXXX######XXXoo    ooooXXXXXXXXXooooooooooooo                                                                                   oooX#@@$$$$$*$****$$$$@@#Xoooo      oooo ooo ooooXX##@@$@$$@@@$$@@@@@####XXXXXXXXX##@@@$$$@$@@@@@##XXoo oooX#@@@@##XXXo.. oooooo..XXXXX.................XXX.XXXXX..XXXXXXXXXXXXXXXXXXXXXXX#######@@@@@@@$$$$$*=;;;;;;;;;;-=*$$$$$$$@@@@@@@@@@@@@@#@$*************==*==*=*@#XXXXX#####@@@@@@@@@@*************@@X#@*=****==*=******===**$&&&&&&++++@&*=====*=========*==*=@++OOOOOOO+++++++++OOO+++++++++++++++++++++++++++++++++++++++++++++++++%%%%+++++++%++++++++++++++@&**==*======*=======*==**==***==*=======*====**====*@++++++++++++++++++++++++++++++++++++@@++%%&&=====*******=*****===$@+++@+@@++@@@@@@@@$$$$******************&&&&*********************$$$$$***==*==********==***@++++++O+@@$@@@@@+#++@@@@@@@@@@@@#@*=*=******==****=******=******==*===**@#XXXXXXoXXXXXXXXX#######@@@@$$$$$$$$*$*$@#@$*==*=*===*=**==$@XXXXXooo..oooooooooooooo....oooooooo....o.ooooo            .o....ooo..  . ..            ..........XX++++X.....OOO......o.o      oooXX#@@@@@@@@@@@#XXoo ooo  oo o              oooooXXXXXXoooooXXXXXXXXXXXXXXXXXX##############@@@@@$$$$***$$$$$$$@@@@@@@@@@@@@@$$$$$$$$$$$$$$$****=========-;;;;;;;;;;;;;;;;;;;;;;;;;;;;;;;;;;;;",
"              ooooXXXXXXoooooooXXX#####XXXoo      ooooXXXXXoooooooooooooooo                                                                     o       oooo oooX#@@$$$$**$$*$$$$$$@@#Xoooo           ooo  oooXX##@@$@$$@@@$@@@@@@########XXXXXX#@@@$$$@@@@@@@##XXoo  ooX##@@@##XXXo.ooooo.XXXX.XXX.................XXXX.XXX.XXXXX.XXXXXXXXXXXXXXXXXXXX######@@@@@@@$$$$$*=;;;;;;;;;-=*$$$$$$$$@@@@@@@@@@@@####@$**=***=********=====*@#XXX################@@@@@@$$*$****@+XX@*******=*******====**$&&&&&@++@@@$*===********===**=*==@++OOOOOOOOOOOO+OOO+O+++++O++++++++++++++++++++++++++++++++++++++++++++++++++++++++++++%%%%++++++@$******==****==*===========**===*=====**=*=**======*@+++++++++++++++%+++++%%%+++++++@@@@@@@@@%%&&=====*****=*==****==**@@&&&$$$&&$****************=********====&&&&*********************=====*====*******==**==***@++++++OO#@@@@@@@#XXXXXXXX####@##@@*=*=******==****************========**@#XXXXXXXXX###@@@@@@@@$$$$**************@@#@**=**=**==*=****@#XXXXXXXoXXoooXXooooooXXX..X.ooooooooooo.oooooooo..ooo      o ....oooo...  ...           ............XX++++X...OOOX....oooo      oooXX##@@@@@@@@@##XXoo ooo                    oooooXXXXXooooooooXXXXXXooXXXXXXXX##X#XXXX########@@@@$$$$$$*$$$$$$$$@@@@@@@@@@@@@@$$$$$$$$$$$$$$$******========;;;;;;;;;;;;;;;;;;;;;;;;;;;;;;;;;;",
"              ooooooooooooooooooXXXXXXXoooo       oooooooooo  oooooooooooooooo  o                               oo    oooo    oo   o    oooo  oooooooooo    ooooX#@@$$$$*$**$$$$$$$@@#Xooo        oo    o   ooXX##@@$@$$$@@@@$$$@@###############@@@@@@@@@@@@@##XXoo  ooX##@@@##XXXXoooXooXXXXX.....XX.............X.X....XXXX..XX...XXXXXXXXXXXXXXXXX#####@@@@@@@@$$$$**=;;;;;;;;-=*$$$$$$$@@@@@@@@@@@@@@#####@$**=*=**********=**==*@#.XXX+++XXXXXXX++OXXXXXXXX##@@@@@@@+XX@**====*********====**@&&&&@++++@$$**====****====***=*==@++OOOOOOOOOOOOOOOOOO+++++O++++++++++++++++++++++++&&&&&&&&&&&&$$$$$$**$$$$$$*********$$$$$**$$@+++@@&&*===*=====**=****=**********==*===*=**====**==*@++&&@@@@$$$$$$$$****$$*$****$$$$$$$$***@@+@&======*************=*$+&&&&&@@@&&&************************==**********************==**=====***====****=*===******@+++++++OO++@@@@@++OO......XX++X#@*=*==***=******==***=*****==**========*@@####@@@@@@$$$$****==============*****$@#@$*****=*=====***$@###XXXXXX#XXX##XXXXXXXXXXXXXXXXXXXXXXXXXXXXXXXXXX.oo.ooo. ... ooo...ooooo o..   . .   . .......o.......XX+++XO.......oooo..o      ooXX##@@@@@@@@@@#XXoooo    oo                 ooooXXXXXooooooooooXXXXooXXXXXXXXXXXXXXXXXXX########@@@@$$$$$$**$$$$$@@@@@@@@@@@@@@@@$$$$$$$$$$$$$$******========;;;;;;;;;;;;;;;;;;;;;;;;;;;;;;;;",
"              ooooooooooooooooooXXXXXXXoo          ooooooooooooooooooooooooooooo ooo.o. ....o  o...oooo.oooo..ooooooooooooooooooooooooooooooooooXooXXXoooo  ooooXX@@$$$$****$$$$$$$@@#Xoo                  oooXX##@@$$$$$@@@$$$$@@@#####@@@@####@@@@@@@@@@@@@@##XXoooooXXX##@###XXXXXoooXXXXXX......X.............XX......XXXX..XX....XXXXXXXXXXXXX#X######@@@@@@$$$$$$*=-;;;;;;;-*$$$$$$$$$$@@@@@@@@@@@@@#####@$****=*=******=***===*@#XX+++++++++OXX++XXXXXXXXXXX#######+OX@**====****=*****==***@&&&&++++@@$***=*==****==*=****==*@++OOOOOO+++++++++OOOO++++++++++++++++++++++++++++++++@@&@@$&&&$******==**********===**********&@++++@@@$*****=================****=*=====*=*=**=*==*$@&&&&&**&**==================*********==$++%&======**=*********==*@++++@@@++++@@@@@@@$$$$$*******************===***==****************===***====**=*=====**=**$@++++++++OO++@@@@@+OO.......OXXX@$==*=****=****===*$$$*******==**====****@#X#####@@@@@@@@@@@@@@$$$$$$**********$@##@******=**===**=*$@@#@@@@@@@@@@@@@@@@@@@#####@@@@#############XXXXXXXXXXXo.. ...  oo..Xooooooo.. ...  ..o.o.ooo..... .......XX+++XO......o..ooo   o  ooXXX##@@@@@@@@@#XXoooo    oo                 oooooXXXoooooooooooXXXXXoXXXXXXXXXXXXXXXXXXX##########@@@@$$$$***$$$$$$@@@@@@@@@@@@@@@@@@@$$$$$$$$$$$$******========;;;;;;;;;;;;;;;;;;;;;;;;;;;;;",
"              oooooo   ooooooooooooooooo            ooo       oooooooooXoooooooo ooooooooooooooo..XXoo.oXXXX....XXXooooXXXXXooXXXoXXooooXXXXXXXXXXXXXXXXooo ooooXX#@$$$$$$***$$$$$$@@#Xoo                   ooXX##@@$$$$$$@@$$$$@@@####@@@@@@###@@@@@@@@@@@@@@##XXoooooXXX#######XXXXXXXXXXXX.................XX.XXX........X...XXXX..XXXXXXXXXXXXX#######@@@@@@@$$$$$*=;;;;;;;-==********$$$$$$$$$$@@@@@@@@@###$****=****======***==*@@++@@+++++++XXXXXXXXXXXXX....OX.OXX+OX@****===*==*=***=*=**$$&&&&+++@@&$*****===*====****=*==$@++OOOO++++++++++++++++++++++++++++++++++++++++++++++++++++++++++@@%@@&&&$&******======****====**&%++++++++@@&&&&&===****==**===***====*=**=****==*=*&+%+%%++%%&&&&&&$****=**=*====*********==$@+@&===*******==******==&@++++++OOOOO+++++++++++%%&&&&&&&&&**===&&&&===**==*********=*****=*************====***=====&@++++++++++++@@@@@@#XXXXXXXXX###@*=******====*===**@@@$******==****=*****$@XXXXXXXXXXXXXXXXXXXXoXXXXXXX##@@@@@#XXX@$*******===***=**@@@##@@@###@@@#################################XXXXXXXXXoo . ..ooooXXX.oooo.....ooo..........oo....   ......XX++++XX.........oo     ooXXX###@@@@@@@@#XXoooo     ooo               oooooXXXooooooooooooXXXXXXXXXXXXXXXXXXXXXXXXXX###########@@@@$$$$$$$$$$$$$$@@@@@@@@@@@@@@@@@@$$$$$$$$$$$$*****========-;;;;;;;;;;;;;;;;;;;;;;;;;;",
"               oooooooooooooooooooooooo                        ooooooXXXoooooo   ooooo..oXXXXXXX.XXXX...XXXX....XXXXooXXXXXXXXXXXXXX.XXXXXXXXXXXXXXXXXXXoo   oooX##@$$$$$$$$*$$$$$$@@#XXoo                  oooX##@@$$$$$$@@$$$$@@#####@@@@@@###@@@@@@@@@@@@####XXoooooXXX#######X#XXXX#XXXXo......XXX........XX..XX........XX..XXXX.XXXXXXXXXXXXXX#######@@@@@@$$$$$*=;;;;;;;=*****$***************$$$$$$$$@@##$**=*====*======*=*==*@@@@@@@@+++++X###X++XXXXOX..OOOOOOOXOOX@*=**========***===**$$&&&%+++@@@*****===**====****=*==$@++++++++++++++++++++++++++++++++++++++++++++++++++++++++++@@++++++++@@@@@@@@@$$$************==**&&&%+++++++++@+@@@@@@@@@@@$**===*==*==****=****==*==&+%%%%++%%%%@@@@@@$$@@$$$****************@@@@&*=*********===**=*=*&@+++++++++++++++++++++++++%&&&&&&&*=====&&&===***==*******=**==****=****=*=*=*=====****===*&@++++++++++++@@@@@@@@#XXX+##XXX#@***==***=======**$@#@@******==****=*****$@XXXXXXXXXXXXXXXXoooooooXXXXXXX######XXX@***=****==***==*@####X##XXX##XXXX#XXXXXXXXXXXXXXX###XXXXXXXXXXXXXXXXXXXXooooo .o.ooo..XXXXoo......oo..o...o oooo...o    .oo....X++@+#X.....o.ooo      ooXX####@@@@@@@#XXooooo     oo              ooooooXXXoooooooooooooXXXXXXXXXXXXXoooXXXXXXXXXX###########@@@@$$$$$$$$$$$$$$$@@@@@@@@@@@@@@@@$$$$$$$$$$$$$*******========;;;;;;;;;;;;;;;;;;;;;;;;",
"              oooooooooooooooooooo                              oooooooXoooooooooooooooo.XXXooXXXXX....XX...XXXXXX......XXXX........XXXX..XXXXXXXXXXXXX.Xo.  oooX##@$$$$$$$****$$$$@@#oooo                   ooX##@@@@$$$$@@@@@@@@@###@@@@@@@@@@@@@@@@##########XXXXoooXXX#########@@@@@#XXX.X.................X.XXX........XXXXXXXXXXXXXXXXXXXXXXX#X#####@@@@@@$$$$*=;;;;;;-=*$$$$$$$$$$$$$***=====*****==*$@X#$******=*=****==******@$$&&&$@@@@@@@@@######XX###XXXXXXXXXXXX@*=*****=**==******=*&&&&@+++@@$$**==*=********=====*=*@+++++++++++++%+%+%+%%++++%%%%++%%%%%%%%%%%%%%%%%%&&&&&&&&&&&&&&&&&&&&&&&&&&&&&&&&&&&&&&%%&&&&&&&&&&&&&&&&&&&&&&&&&&&&&&&&&&&&*===*========****=****==&&&&&&&&&&&&&&&&&&&&&&&&&&&&&&&&&&&&&&&&&@@+$=********==*=****=*=*&+++++++++++++++++++++++++%%%&&&&&&&&&&&&&*===******************************==**=====*===***$@++@@@@@@@@@@@@*$*****$$$$*@@XX#$***===*=*=====**$@##@@*******====********@XXXX...Xoo...ooo....oo oooooooXX#X####@$*******=**===*=$##XXXXXXXXXXXXXXXXXXXXXXXXXXXXXXXXXXXXXXXXXXXXXXXXXXXXXXoooooooooo..ooo.XXoX......oo ...ooo  o oooo        ....XXX+++++X........      ooXXX###@@##@@@#XXooo oo                   oooooooooooooooooooooooXXXXXXXooXoXooXXXXXXXXXXXXXXXX############@@$$$$$$**$$$$$$$@@@@@@@@@@@@@@@@$$$$$$$$$$$$$$$****========-;;;;;;;;;;;;;;;;;;;;;",
"              ooooooooXoXooooooooo                              ooooooXXooooooo o   ooXoXXXXXXXXXXXX..X.XXXXXXXXXXXXXX.X.XXX...XXXXXXXXXXXXXXXXXXXXXXXXXXXoo  ooX##@$$$$$$****$$$$$@@#oooo                   ooX##@@@@$$$$@@@@@@@@#####@@@@@@@@@@@@@####X#######XXXXXXXXXX########@@@@@@#XXX.X...................XXX........XXXXXXXXXXXXXXXXXXXXXX######@@@@@@@$$$$=-;;;;;;=*$$$$$$$$$@@@@@@$$$$*********===$@##$****=====****==****=*$$$&&&$@@$&$$$@@@@@@@@@@@@@###+++++#+++@*=*******===*=****=*&&&&++++@&$*****==***==*=*===***=*@++%%%&&&&&&%%&%&&&%%&&&&&&&&&%&&&&&&&&&&&&&&&&&&&&&&&&&&&&&&&&&&&&&&&&&&&&&&&&&&&&&&&&&&&&&&&&&&&&&&&&&&&&&&&&&&&&&&&&&&&&&&&====*=*=======***===**==&&&&&&&&&&&&&&&&&&&&&&&&&&&&&&&&&&&&&&&&&+@+$=***********=******=*&++++++++++++++++++++++++++%%%&&&&&&&&&&&&====************************=*****==***====*===***$$&&&&$$&$$$$$***************@XX@$****=======*==**@#X##@*******************@#X.XXXoooo..ooooooooo  o.oooooXXXX####@$***=********==*@X#XXXXXXXXXXXXXXXXXXXXXXXXXXXXXXXXXXXXXXXXXXXXXXXXXXXXXXXXXXooooo.XoooooXXXXXXoX.o.o . ..oo oo.  oo         .....XXXX+++XX......       oXXXX######@@@#XXooo oo                   ooooooooooooooooooooooooXXoXXXoooXXXXXXXXXXXXXXXXXXXXX############@@@$$$$$$***$$$$$@@@@@@@@@@@@@@@@@@@@$$$$$$$$$$$$******=======;;;;;;;;;;;;;;;;;;;",
"           ooooXoXoXXXXXXXXXXooooo                              oooooXXXXooooo  oo  ooXX.XXXXXXXXXXXXXXXXXXXXXXXXXXXX.XXXXXXXXXXXXXXXXXXXXXXXXXXXXXXXXXXXXooooooX##@$$$$****$$$$$$$@@#oooo                  oooX##@@$@$$$$$@$$@@@@#####@@@@@@@@@####XXXXXXXX######XXXX######@@@@@@@@@@##XXXX.o......XXX....X......XX....XX..XXXXXXXXXXXXXXXXXXXXX######@@@@@@$$$$$==;;;;;-=$$$$$$$@@@@@@@@@@@@@@@@@@@@@$$*$$@@X#$*****===*****===*===*$$&&&&@@@@&&$**$***********$$$@@@@@@@@##@*******=====*==*=**$$@@@@+@@$*******=**=======*****=*++++++++%%%%++++++%%%%%%%%%%&&%%%&%%%&&&&%&&&&%%%%&&%%%%%%%%%&&&&&&&&&&%&&&&&&%%%%%%%&&%%&&&&&&&&&&&&&&&&&&&&&&&&&&&&&&&%%%%&&====***=======**====**=*&%%%&&%%&&%%%%%%%%%&&&&&&&%&&&&&&&&&&&&%%++@*=*******=***********$%+++++++++++++++++++++++++++%%&&&&&&&&&&=======*==********************==****==****===*===***$$&&&&$$$*******************@@XX@******====*******@#XX#@*************==****@#XXXXXXXoXXXooooooooooooXXXX####@@@@@@$**********===**@@############@@@@@@@@@@@@@@@@@@@@@@@@@@@#@###################XXXXXXXXoooooXXXXXXXXo...o..ooo oo     o      ..ooXXXX..XXX+##XXoo.o.      ooXXX##########XXooo                       oooooooooooooo  oooooXXXXXXXXXXXXXoXXXXXXXXXXXXXXXXXXXXX##XX#######@@@@$$$$*****$$$$$@@@@@@@@@@@@@@@@@@$$$$$$$$$$$$$******=======-;;;;;;;;;;;;;;;;",
"           oooXXXXXXXXXXXXXXooooo                               ooooooXXXoooooo  o  oooo..ooo...XXXX.XXXXXXXXXXXXXX...XXXXXXXXXXXXXXXXXXXXXXXXXXXXXXXXXXXXoo  ooX##@$$$$$$**$$$$$$$@@#oooo                  oooX##@@$$$$$$$$$$$@@@#####@@@$@@@@##XXXXXXXXXXX###############@@@@@@@######XXXX.X......XX....Xo......X...XXXX..XX..XXXXXXXXXXXXXXX#X######@@@@@@$$$*=-;;;;;=$$$$$$$$$$@@@@@@@###########@#@@@@@@#X#@******===****===*===**$@&@+@@@@@@@@@@$$$$********==******$@@@$=*******===========**$@@@@@$********=**==*===***=***@++++OOOO+++++++++++++++++++++++++++++%%%++++++++++++%%%%++++%%%%%%%%%%%%%%%%%%%%%%%%%%%%%%%&&&&&&%%%%%%%%%%%%%%%%+%%%%%%+++++&===**=****===***====**=$%%%%%%%%%%%%%%%%%%%%%%%%%%%%%%%%%%+++%+++++@*****==***==*==******$@+++++++++++++++++++++++++%%&&&&&&&&&&&&===========*=*****************===***==****==**===***$@&&&@$$$$$*$$************$$@#X#$*****==*==******$@#XX#@*******=*****==****@@#XXXXXXXXXoooXXXXXXXXXX##@@@@@@$@@#@$****************@@@@@@@@@@@@@@@@@@@@@@@@@@@@@@@@@@@@@@@@@@@@@@@@@@@@@@@@@@@@@@@@###XXXXoooooXXXXXXXX..oo.oooo oo        o  ..ooXXXXXXX.XXXX###XXoo..      ooXXX#########XXooo                        o oooooooooooooooooXXXXXXXXXXXXXXXXXXXXXXXXXXXXXXXXXXXXXXXX########@@@@@$$$$******$$$$$$@@@@@@@@@@@@@@@$$@@$$$$$$$$$$$******=======;;;;;;;;;;;;;;",
"     o ooooXX#######XXXXXXXXoooo                               oooooooXXXXoooooo     .o.oooo..............XXXX.....XXXXXXXXXXXXXXXXXXXXXXXXXXXXXXXXXXXXXXXo   oXX##@$$$$$$$***$$$$$@@#Xooo                 ooooX###@@@$$$$$$$$@@@@#####@@@@@@@##XXXooooXXXX#####@@@@@@@@##@@@@@@@#####@#XXXXXX.X.........X....X.....XXXXXXXX....XXXXXXXXXXXXXXX#X#####@@@@@@$$$$*=;;;;-=*$$$$$$@@@@@@@@@###@@##################@@******=====****=*====*&&&&&@@%%+++++++@@@@&$$$*******====*$@@@==******============****=***===******====*====**=***@++++++++++++++++++++++++++++++++++++++++++++++++++++++++++++@@@@@@@@@@@@++++@@@@+@@@++++++$====*****$@@@@@@@++++++++++++++++@*==**==**====**=======**@++++++++++++++++++++++++++@@@@@@+@@@@@++++@@***==*****======*=*==$%+++++++&&*********$$$$$********==*&&&&&=======*====*****************======*===****=**====**&@@%%%%%@@@@@@@@@@@@$$*$@@@#XXX@******==***=*=***@#XXXX@*******===****=**=*$@@@#########@@@@@@$$$$$*******===*@#@*=**=*=********$$@@@@@@@@@@@@@@@@@@@@@@@@@@@@@@@@@@@@@@@@@@@@@@@@@@@@@@@@@@@@@@@@@@#XXXXoooooooXXXXXXXXXXo     o .       oo..ooooXXXXXX..ooXXX##XX...o.    ooXXXX########XXoooo                         ooooooooooooooooXX######XXXXXXXXXXXXXXXXXXXXXXXXXXXXXXXXXXX##########@@@@$$$$****$$$$$$$$@@@@@@@@@@@@@@@@@@$$$$$$$$$$$*****=========-;;;;;;;;;;",
"     oooooXXX#########XXXXXoooo                              ooooooooXXXXXXXoooo          .     o....ooo.....o. ....oooooooooooo......o.....ooo...XXXXXXXoo  oooX##@$$$$$$$$**$$$$@@@#Xoo                  ooooX##@@@@$$$$$$$$@@@@######@@@@@###XooooooXXXX##@@@@@@@@@@@@@@@@@@@@###@@@##XXXXX.X...........X.XX......XXXXXXX....XXXXXXXXXXXXXXX#X#####@@@@@@$$$*=;;;;=*$$$*$$$$$@@@@@@@@@@###@####XX###X##XXXXX#@******=====******====&&&&&&@@&@%++++++++++@@@@@@@@$$*****$$@+@*=****======*==**==****=*=========*===========*****$@++++++++++++++++++++++++++++++++++++++++++++%%&&&&&&&&&&@@@&@&&&&&&&@@@&&&&&@&@@&@@@+@++++$====*=*****&&$$@&+@++++@@+++@&&&&*===*===**====**=*=====*$@++++@+++@@@@++++@@@@@@&@@@@&&@@@@@@@@@++++@$****=*****======**==*$&&&&&&&&*============**=====*======*&&&&=======*====******************========********==*=**&@@@@%%%@@@@@@++++@@@@*@@@XXXX#@*=****=******=***@XXXXX@*******===****=****$@$@@@@$$$$*****========******=***@##$====****$$$@@@@@#@#############@##@@@#######@@#######@###########################XXXXXXoooooooooXXXXXXXXXXo    oo.o   ooooooo..ooooXXooo.oooXXX##+XXXooo   ooXXXX########XXoo   o                       oooooooooooooooXX#########XXXXXXXXXXXXXXXXXXXXXXXXXXXXXXXXX#X##########@@@$$$$$***$*$$$$$$@@@@@@@@@@@@@@@@@$$$$$$$$$$$$$******=========;;;;;;;;",
"   oooooXXX############XXXXooo                              ooooooooXXXXXXXXXXooXooo.                           oo..oo.....        . .ooo.ooo oo.o.XXXXXooo  oooX##@$$$$$$$$**$$$$$@@#XX                o    ooX##@@@@$$$$$$@@@@@@######@@@@###XXooooXXX###@@@@@@@@@@@@@@@@@@@@@#####@@##XXX.X.XXXXX....X....XX.XX.X.......XX.XXXXXXXXXXXXXXXXXXX####@@@@@@$$$*=;;;;=*$$$$$$$$$$$$$$$@@@@@@@@###########XX######$****=*=**==*****==*==*&&&&&&&&&%++++++++++++++++++++@@@@@@@++@$**=***====*************=====****======*=*===****=*@++++++++++++++++++++++++++++++++++++++++++++++@@@$$$********************=**************&@@@*======*======**********==***=======****==*===****=*======&@@@@@@@@@@$$**$************************$@++@****=****===**=****=*$@@@@@++&&$*==========******=***=*===*&&&=======****=******************=======*******=**==*=**&@++@%%%%%%%%%++++++@@@@@@+OXX@@***=****=****=**@#XXXXX@$*=****=====****==**$$$@@@@@@@@@@$$$$$$$$$$$$$$$$*$$@@XX@@@@@@@@##XXXXXX###XXXXXXXXXXXXXXXXXXXXXXXXXXXXXXXXXXXXXXXXXXXXXXXXXXXXXXXXXoXXXXXXXXXoooooooooooooXXXXXXXooooo o ..  ..ooooooooooo...o    .oooXXX###XXXoooooooXXXXX######XXooo oo                        oooooooooooooXX##@@@@@@@####XXXXXXXXXXXXXXXoooXXXXXXXXXXXXXXXXXXXX######@@@@$$$$*****$$$$$$@@@@@@@@@@@@@@@@@@$$$$$$$$$$$*******========-;;;;;;",
"ooooooXXXX####@@@@#####XXXooo                             oo   oooXXXXXXX##XXXXXXXXoo  oo                                                .     ooooooX.ooo  ooooX##@$$$$$$$$$*$$$$$@@#XX                 o   ooX###@@@$$$$@@@@@@@@######@@####XXoooXXXXX##@@@@@@######@@@@@@@@##XX###@###XXX.X..XXXXXX..X....XXXXXXX.......XXXXX..XXXXXXXXXXXXXXX####@@@@@$$$*=;;;;=$$$$$$$$$$*$$*******$$$$$@@@@@@@@@@@#####X##$*********=*********==*&&&&&&&&&+++++++++++++++++++++++++@@@@@@@**=***====*********==**=====***=*====**=****===*=*@++++++++++++++++++++++++++++++++++++++++++++++++@@@@@$$$$$**********=*=============****&@+@*======*============================****==**==*****=*=====&@@@@@@@@@@$*******=********==*********=*@++@*=*==****==**********@@++++++++@@@@@@@@@$$$$$$$$*******=**$&&&=======***********************=====********==*===****&@+%@%%%%%%%%%++++++@@@@@@+OXX@****==*=*=****=**@#XXooX@$***===*====*=====*$@@@@#########X##################XXoXXXX##@@@@##XXXXX#XXXXXXXXXXXXXXXXXXXXXXXXXXXXXXXXXXXXXXXXXXXXXXXXXXXXXXXXXXXoooXoooooXXoooooooooooooXXXXoXXoooo .o..  ..o.XXoooooo   .        o..XXX##XXXXo  ooXXXXXX####XXXoo  oo                        oooooooooooooXX#@@$$$$$@@#####XXXXXXXXoXXXXoooXXXXXXXXXXXXXXXXXXX#########@@@@$$$****$*$$$$$$@@@@@@@@@@@@@@@@@@@@$$$$$$$$$*********========;;;",
"ooXXXXXX#######@@######XXXooo                     o     ooooooooXXXXX############XXXXoooo                                                       o    o      ooooX##@$$$$$$$$**$$$$$@##Xo                    oooX###@$$$$$@@@@$$$@@##########XXXXXooXXX##@@@@@@#######@@@@@@@##XXXXXX##@##XXXXXXXXX.....X...X....XX...XXXXXX...XX..XXXXXXXXXX########@@@@@$$$*=;;;-=$$$$$$$@@@@@@@@$$$$***====*************$$@###$*****==**=======**==**$&&&&&&&&++++++++++++++++++++++++++%&&&@@@******=**======*******=****==****======***=*=**=@++++++++++++++++++++++OO+++++++++++++++++++++++++++++++++++%%%%&@@@@&&&&$$$**********$&&%%@&*===****==****==*=**=***============****====**====*==*==*@++%%%%+%%%%%%%%%%&&&&&&&&&&&**&&******==&&@@********====*******=*@++++++++++++++++++++++++++++@@@&$&&&&&%%*=======***===******=*******=*=***====******===*=*****&@+%%%%%+%@@@@@@#+##@@@@@@@#X#$*****==***=*==**$XoooooX#$***===***=*=*=*=**$@@@@@##XXXXXoXXXXXXXXXoX....Xoo.ooooooXXX##@@@@#XXXXXXXXXXXXXXXXXXXXXXXXXXXXXXXXXXXXXXXXXXXXXXXXXXXXXXXXXXXXXXXXXXXXXXXXXXXXoooooooooooooXoo..Xoooooooooooooooooooo                 .o..XX##XXXXooooXXXXX####XXXooo                           ooooooooooooXX##@$$$$$$$$$@@####XXXXXXXoXXXXXXooXXXXXoXXXXXXXXXXXXX###########@@@$$$$$$*****$$$$$@@@@@@@@@@@@@@@@@@$$$$$$$$$$$$$$*****========",
"XXXXX##################XXoooo                   oo      ooooooXXXXX####@#@@@@@@#####XXoooo                                                           o      ooooX##@$$$$*$$$$*$$$$$@##Xo                    oooX###@@$$$@@$@@@@@@@#########XXXXXooXXXX##############@@@@@@##XXXXXXXX#####XXXXXXX......XX...X........XXXXXX..X.XX..XXXXXXXXXX########@@@@$$$*=;;;-=$$$$$$$@@@@@@@@@@@@@@@$$$$$***************$@##@***=**=**=****==**===*$&&&&&&@@+++++++++++++++++++++++++++%@@++@$*****=*********===***==**====***=*====**=**==*@@++++++++++++++++++OOOO++++++++++++++++++++++++++++++++%%%%%%%%%&&@&&&&&&$$$***********&&&&&&*===****==***=====*==*=**======***==****====***===*==*=*$@+++%%%%%%%%%%%%%%%%&&&&&&&&&$$&&********&&@&*=********===*****===*&&&&%&++++++++++++++++++++++++++@@@%%%%&*========*====*=*********$****@$@**=*******=======****&@%+%%%%%%@@@@@@@@@@@@@$**$@@@******==**====***@XoooooX#$***====**=*=***=*$@##@@@@#XXXXXo..ooooXXX.o.X....oo...oooooXXX#@@@@#XXXXXXXXXXXXXXXXXXXXXXXXXXXXXXXXXXXXXXXXXXXXXXXXXXXXXXXXXXXXXXXXXXXXXXXXXXXXXXXXXooooo.oooo..XXXXooooooooooXXXXooo o                 ..oXXX#XXXoooXXXXXXXXXXXXXooo                           oooooooooooooX##@$$$****$$$@@@###XXXXXXXXXXXXXooXXXoooXXXXXXXXXXXXXX#X#########@@@$$$$$$*****$$$$$@@@@@@@@@@@@@@@@@@@@$$$$$$$$$$$$*******=====",
"#####################XXXXXooo            oooooooooooooooooooXXXXX####@@@@@@@@@@@@####XXoooo                                                                  oooX##@$$$$***$$$$$$$$@##ooo                   oooX###@@@$$@$@@@@@@@@####X#XXXXXoXoooXXXXXXXXXXXXXX###@@@@@####XXooXXXX######XXXXXXX....XXX..XX.X........XXXXXX...XXXXXXXXXXXXX######@@@@@@$$$=;;;-*$$$$$@@@@@@@@@@##########@@@@@@$$$$$*******$@##@****=**********=**===*@&&&&&&&@++++@@@@@@@@@@@@@@@@@@@@+++@@@@@+@*==**********======*========********=**==**==*+++++++%%%%%%%%%%&%%%%%%%%%%%%%%%&&&&&&&%%%%%%&&&&&&&&&&&&&&&&&&&:&&:&::::::::::::::::::::::====****====***=====**=*==**=====***====***===****==***===&&&&&&&&&&&&&&&&&&&&&&&&&&&&&&&&&&&&&&&&&&&&&&*=**====****==*=**=*==::::::&&&%++++++++++++++++++++++++%%%%@&======****=*==*==*$$&&@@&&&&@@@@@**==*******===*=**=**$@$@@@$$@$*****************@@@****=*====*=====*#ooo.ooXX$************$$$$$@####@@@@##XXXXX.o..o.X..o.XXX..oo...o..o.oXXX#@@@@###############################@#######@@########@@####@#################@@######XXXooooXoo.oooooXXXXXXooXXXXXXXXooooo               ...ooXXXXXXXooooXXXXXXXXXXooo                            ooooooooooooX##@@$$******$$$$@@#####XXXXXXXXXoXXXXoooooooXXXXoXooXXXXXX#X########@@@$$$$*****$$$$$$$$@@@@@@@@@@@@@@@@@@@$@$$$$$$$$$$********=",
"######################XXXXoooo        oooooooXXXooooooooXXXXXXXX###@@@@@@@@@@@@@@@@@##XXooo                                                          o       oooX##@$$$$$**$$$$$$$$@@#XX                    oooX###@@@@@@@@@@@@@@@##X#XXXXXXXoooooXXXXXXXXXXXXXX##@@@@####XXXXooooXX#######XXXXXXX..XXX...XXXX........XXXXXX..XXXXXXXXXXXXXX######@@@@@$$$=;;;=*$$$$@@@@@@@@@@@@################@@@@@@$$$$$$@@##@$****=****==***=*===**@@&&&&@++++@@&&&&@@&$&&&&&&@@@@@&&&&&$@@@+@@*==********==========**====***************=*$+++%%&&&&&&&&&&&::::::::::::::::::::::::::::::::::::::::::::::::::::::::::::::::::::::::::::=====***============**====**====****====***===****========::::::::::::::::::::::::::::::::&&&&::::&&&&&&****====****==*=**=**$&&&&&&&&&%++++++++++++++++O+++++++%%%%$*====*******======*$@@@@@&&&&@%@@@**==*=========*=*==********============*=====**$$**=*=***========*$@#oooo ooX@@@@@@@@@@$@@@@@@@@#####@@@@#XXXXX......ooooooXXXoo......o..ooXXX##@@@@@@@@@@@@@@@@@@@@@@@@@@@@@@@@@@@@@@@@$$@@@@@@@@@@@@@@@$@@@$$$$@@@@@@@@@@@@@@@@@@@#XXXXoXoooooXXXXXXXXXXXXXXXXXXXooXXooo               oooooXXXXXXoooooXXXXXXXXooo                           ooooooooooooooX##@$$$$******$$$@@@####XXXXXXXXXXXXXoooooooXXXXooooXXXXXXXXXX#######@@@@@$$$****$$$$$$$$$@@@@@@@@@@@@@@@@@@@@@$$$$$$$$$$*******",
"###############X##XXXXXXXXooooo     ooooooXXXXXXXXXXXXXXXXXX#######@@@@@@@@@@@@@@@@@@##Xoooo                                                                 oooX##@$$$*$**$$$$$$$$@##Xoo                   ooooX##@@@@@$$$@@@@@@@##XXXXXooooooXXXXXXXXXXXXXXXXX##@@@@@@##XXXoooooXX#########XXXXXX........XXXX..........X.XXXX.XXXXXXXXXXXXX####@@@@@$$$=;;;=$$$$$@@@@@@@######################XX#XXX#####@@#XX@@**===========***===**$&&&&&%++@@@@&&&&&&**==*&=============*$@++@$*==*************==**=======*********=====*&@+%%%%%%%%%%%%%%%%%%%%%&&&&&&&&&&%%&%%%%%%%&&&&&&&&&&&&&&&&&&&&&&&&&&&&&&&&&&&&&&&&&&&&&&&&&&*=*=***==========****=====********==***========**=======&&&&&&&&&&&&&&&&&&&&&&&&&&&&&&&&&&&&&&%&&&&&%%@**=**==******=****=**@+++++++++++++++++++++++##++#@@@@@++++@&**====*=***====*===*$@@@@&&&&&&%%%@***=*====********===****===================****@*********$$$$$@@@@#Xoooo   ooXXXXX####@@@@@$$$$$@##X#@@$$@@#XXXoXXo..ooooooXXXX....o..oooooXXXX#@@@@@@@$$$$$$$$$$$$$$$$*************************************************$******$$$$@@@##XXXXoXXXXXXXXXXXXXXXXXXXXXXXXXXoooo               ooooooXXXXooooooXXXXXXXooo                            oooooooooooooXX##@@@$$$******$$$$@@######XXXXXXooXXXXXXXoooXoooooooooXXXXXXXXXX######@@@@$$$$$$****$$$$$@@@@@@@@@@@@@@@@@@@@@@$$$$$$$$$$$****",
"##############XXXXXXXXXXooooooo     ooooXXXXXXXXXXXXXXXXX#######@@@@@@@@@@@@@@@@@@@@@##Xoooo                                                    o            oooXX#@$$$$$$$$$$$$$$$@@#XXo                    oooX##@@@@@$$$@@@@@@@##XXXXXoooooXXXXXXXXXooooXXXXX##@@@@@@@#XXooooooXXX##########XXXXX......XXXXX....X....XX.XXXXXXXXXXXXXXXXX#####@@@@@$$=;;;=$$$$$@@@@@@@@###############XXXX######XXXXXX####XXX##@====**$$************$&&&&&%@%@@@@%&&&&&=====================*&@@@**==************=****=====*****=**======*@@@+%%%%%%&&%%%%%%%%%%%%%%%%%%%%%%%%%%%%%%%%%%%%%%%%%%%%%%%%%%%%%%%%%%%%%%%%%%%%%%%%%%%%%%%%%@&*===****=======**=**=======*******==***=======***=*=*=*$&%%%%%%%%%%%%%%%%%%%%%%%%%%%%%%%%%%%+++%++%%++@**===*=**==*=*****=**@+++++++++++++++++++@@@@@@@@@@@@&&%+++@&*=======**==========&@&@&&&&&&&@+%@**************==*===*@@@@@@@@@@@@@@@$$**$$$$$@@@@$@@@@#######X#XoXooo oo    ooooXXX####@@@$$$$$$@##XX#@@$@@#XXXXXXooX..ooooX.XXoo..oooooooooXXXXX##@@@@$$$*******************************************************************$$$$$$@@@##XXXXXXXXX####XXXXXXXXXXXXXXoXoooooooo               ooooooooooooooooXXXXXoo                             oooooooooooooXX####@@$$$$******$$$$@@#####XXXXXXXXXXXXXoooooooooXXoooXXXXXXXXXXX#######@@@@$$$$$*****$$$$$$$@@@@@@@@@@@@@@@@@@@$$@$$$$$$$$$$*",
"########XXXXXXooooooooooooooooo    oooooXXXXX#############@@##@@@@####@@@@@@@@@@@@@@@##Xoooo                                                                 oooXX#@$$$$$$$$$$$$$$@@@#Xo                     oooX###@@$$$$$@$$@@@@##XXXXXooooooXXXXXooooooooXXX##@@@@@@@@#XXXoooXXXXXX##########XXXX....XXXXXX....XXXX......XXXXXXXXXXXXXXXX####@@@@@@$*-;-=$$$@@@@@@@@###########XXXXXX##XXXXXXXXXXXXXXXOO+XXXX++&===&&&%@@@@@@$$$***$@@@@@%%%%+%@&&&&&&&&&&&&&&&&=====********&@++@&****=*==*****===**=======***=*======*$@++++++++%%%%%%%&&&&%%%%&&&&&&&&%%&&%%%&&&&%&&&&&&&&&&&&&@++&&&@@@@@@@@@@@@@@@@@@@@@@@@@@@@@@@@$*=*=*=**=======*=*=**=======****====****====******====*@+++++++++++++++++++++++@@@@@@@@@@@@@@@++++++++$*=====***=====****=**@@@&@@@@@@@@@$$$******************@+++**====================*$$@@&&&@@@%+%@*==**=*====**===*===*@@+++++++++++++@@@@@@@++#@@@@@@@##XXXXXXoooooo.. o      oooooXX#####@@$$$$$@##XX#@@$$$@@XXXXXooXXXXX.o..X...oooXoooooo...XXXXX##@@@@@$$$$$$$$$$$$$$$$$$$$$$$$$$$$$$$$$$$$$$$$$$$$$$$$$$$$$$$$$$$$$$$$$$$$$$@@@@@###XXXXXXX#######XXXXXXXoooXXXXooooXXooo                  o    oo ooooooooXooo                             ooooo     oooooXX####@@@$$$*******$$$@@@#####XXXXXXXXXXXXooooXooXXXoXXXXoooXXXXXXXX######@@@@@$$$*******$$$$$$$@@@@@@@@@@@@@@@@@@@@@$$$$$$$$$",
"########XXXoooooooooooooooooooo    oooooXXX########@@@@@@@@@@@@@@@######@@@@@@@@@@@@@##Xoooo                                                                  ooXX#@@$$$*$$$$$$$$$@@##Xoo                    oooX###@@$$@$$@@@@@@###XXXXXoooooooXXXXooooooooXXX###@@@@@@##XXXoooXXXXXX##########XXXXX...XXXXXXX...XXXXXXXX..XXXXXXXXXXXXXXX#####@@@@$@*-;=*$$$@@@@@@@#############XXXXXXXXXXXXXXXXXXXXXXOOXOXXXX+@===&&&&%@@@@@@@@@@@$@@+++++++++%@&&&&&&&&&%+++@@@@@@@@@@@@@@@@@+++@@@$*****==***====******===***=======*@@+++++++++++++++++++++++++++++++++++++++++++++++%%%%%&&&&&&&&&&&&========**&&&&*****&***$&&&%@@@*==*===**============================****==*******====*&@&&&&&%%%%&&&&&&&&&&&&&@&$$$$$@@@$@$@@&&&&%++++*===******=====***==**$$&&&=*=====*===============*====*@++@*=====*==*=============&&@@&&&&&@@++@*==****************$$@@@@@@@+@+++++@@@@@@@@++++@@@@@@@#XXXXXXXooo.... o       o oooXX####@@@$$$$@##XX##@$$$@@#XXXXXooXXXXXo..X.XXXXXXoXoo......XXXXXX####@@@@$$$$$$$$$$$$$$$$$$$$$$$$$$$$$$$$$$$$$$$$$$$$$$$$$$$@@@@@$$@@@@@@@@@@@@@@###XXXoXXXXXX###XXXXXXXXoXoXXoooooXXXXXooo                         oo oooooooo                             ooo         oooXXXX###@@@$$$$******$$$$@@######XXXXXXXXXoooXXXXXXXooXXXoooXXXXXXXXXXX######@@@@@$$$*******$$$$$@@@@@@@@@@@@@@@@@@@@@@$$$$$$$$",
"#####XXXooooo   ooooooo ooooo     ooooooX#####@@@@@@@@@@@@@@@@@@########@@@@@@@@@@@@###Xoooo                                                                 oooXX#@$$$$$**$$$$$$$@@@#Xo                    o ooX##@@@$@$$@@@@@@@###XXoXoooooooXooXXXooooooXXXXX##@@@@@@###XXXXXXXXXX##@@#######XXXX.XXX.....X.......X.XXX....XXXXXXXXXXXX#####@@@@@@*-;=*$$@@@@@@@###############XXXXXXXXXXXXXXXXXXXXXXXXXXXOO++&=&&&&&%+++++++@@+++++++++++++++%&&&&&&%+++++++++++++++++++++++++%%%%%%$&*****=*=========**=========**$@@++++++++O+++++OO++++++++++++++++++++++++++++++++++++++++++%%%%%%&&&***===================******@@$*=====***========*====**===*============***==***=***&&&&&&&&&&&&&&&&&&&******=*========*********=*@++@**===*****====**====*$@@@@&@@@@&&&&**=**===============@+++&=====***================&&&&@@@@@@@@@@$$$$$$$$$$$@@@@@@@@@%%%%@@@@%%@@@@@@%@@@@@++++#@@@$$@@#XXXX..ooo..oo       oooooooXX#####@@@@@@###XXXX#@$$$$@#XXXoXXXXXX....XXXX...X.oXXXoooooooXXXXXXXXX###@@@@@@@@@@@@@@@@@@@@@@@@@@@@@@@@@@@@@@@@@@@@@@@@@@@@@@@@@@@@@@@@@@@@@@#####XXXooXoooXXXXXXXoooooXXXXXXooooXXXooXooo                            ooooooo                                oo        ooooXXXXX###@@$$$$********$$$$@@#####XXXXXXXooXoXXXXXXXXXXXXXXooXXXXXXXXXX########@@@@$$$$*****$$$$$$@@@@@@@@@@@@@@@@@@@@@@@@@$$",
"####Xooooooo    oo   oo oooooo    ooooXXX###@@@@@@@@@@@@@@@@@@##########@@@@@@@@@@@@##XXoooo                                                                  ooXX#@$$$$$**$$$$$$$@@@#Xo                      ooX##@@@$@$@@@@@@@@###XXoXooooooXXoooXXooooooXoXXX##@@@@@@##XXXXXXXXXXX##@@######XXXXXX.......XX..........XXX...XXXXXXXXXXX######@@@@@*=;=$$@@@@@@@@##########XX####XXXXXXXXXXXXXXXXXXXXXXXXXX++++&&&&++&&+++++++++++++++++++++++++%&&&&&++++++++++++++++++++++++++%%%%%%%@$$$*$@@******=====*=====***$@@@++++++++OO++++++++++++++++++++++++++++++++++++++++++++++++++++++++++@@@@$$$*****==============***@@@**====****======**====**==**=*=========***=*=*****$@+++++++++++++%@@&&&&&&$&$$$$****************=*@@+@**======**=====**===*@++++++++++++@@@@@@@@@@@@@@@@$***@@+++&&***$$@$**==============&&&&$@@@@@@@@@@@$***$$$$@@@@@@@@&@%@%%@@@@%%@@@@@@%%@@@@++++@@@@$$@@@#XXXXoo....oooo   ooo oooooXXX####@@@@####XXXXX#@$$$$@@XXXXXX.XXXX...XoXX...XoXXXXoooooXXXXXXXXXXXX######@@@@@@@@@@@@@@@@@@@@@@@@@@@@@@@@@@@@@@@@@@@@@@@@@@@@@@@@@@@@##########XXXooooooooooXXXXoooooXXXXXXoooXXXXooooooo                          oooooooo                              o oo        oooooXXXXX####@@$$$*********$$@@@@####XXXXXXXoooXXXXooXXXXXXXoooooXXXXXXXXXX########@@@@$$$$*****$$$$$$$@@@@@@@@@@@@@@@@@@@@@@$$",
"XXXXoooooo                oooooooooooXXX###@@@@@@@@$@@@@@@@@####XXXXX###@@@@@@@@@@@###XXooo                                                             o     ooXX#@@$$$$$$$$$$$$$@@@#Xo                      ooX##@@@$@@@@@@@@@####XXoooooooooXooXXXXooXXXXXXXX##@@@@@@##XXXXXXXXXX##@@@#######XXXXX......XXXXXXX......XXX.XXXXXXXXXXXX#######@@@@*===$@@@@@@#############XXXXX#XXXXXXXXXXX#XXXXXXXXXXXXXXXX+++%%%%+%%+++++++++++++++++++++++++%&&&&&&+++++++++++++++++++++++++%%&&%%%&&&&&@+++@@@@@@$******$$$@@@@+++++++++++++++++++++++++++++++++++++++++++++++++++++++++++++++++++++++++++++++++@@@@&&&&$$$*******=&@++&&===*======================**==*=======*=====*$&%%%++++++++++++++++++++++++++++++@+@&@@&&&&$$$$&&+++&*========*=*===**=&&&+++++++++++++++++++++++++++++++++++++++++++++++&&==============&&&&&@&&&&&@@++@&*=**&$$&&&@@@&&@@@@@@@@@@&&%@%%%&%%&&@@@%@@@@@@@$@@@@#XX.oooooooo.o  oooo oooooXXXX#####@@###XXXX###@$$$$@@#XXXXXX.XXoo..X.oX.oXXoXXXXXXXooXXXXooXXXXXXXXXXXXX#################################################################XXXXXXooooooooooooooXXooooXXXXooXXXooooooooXXXooo                         ooooooo                             o o         ooooooooooXX####@@$$$*********$$$@@@######XXXXXXXXXXooXXoXooXoooooXXXXXoXXXXXXXXX#####@@@@$$$$$*****$$$$$$@@@@@@@@@@@@@@@@@@@@@@",
"XXoooooo                 ooooooo..oooXXX##@@@@@@@@$$$$@@@@@###XXXXXXX####@@@@@@@@@##XXXoooo                                                             o     ooXX#@@$$$$$$$$$$$$$@@@#Xo                      ooX###@@@@@@@@@@@@####XXXooooooooXooXXXXooooooXXXX###@@@####XXXXXXXXXX#@####XX####XXXXX......XXXXXXXXX...XXXXXXXXXXXXXXXXX######@@@@*==*$@@@@@@@############XXXXXXXXXXXXXXXXXXXXXXXXXXXXXXXXXXX+++++++++++++++++++++++++++++++++++&&&&&&%+++++++++++++++++++++++++%%&&%%%&&&&&@+++@@@@@@@@@@@@@@@@+++++++++++++++++++++++++++++++++++++++++++++++++++++++++++++++++++++++++++++++++++++++++++@@@@@@@@@@@**&@+++@@$****========================****==********$@++++++++++++++++++++++++++++++++++++++++@@@@@@@@@@+++&$&$$$$$$$$$$$$@@@@@@+++++++++++++++++++++++++++++++O++++++++++++++++%&&===&&========&&&&@@&&&&&&@%++@&**&&$$&&&&@&&&&@@@@@@@@@&&@@%%%&&&&%@@%%@@@@+@@@$$@@@XXXXooooooo.oooooooooooooooXXX#######XXXXX####@@$$$@@#XXXXXX.oXXXXX..XoXo.XXXXXXXXXXXXXXXooXXXXXXXXXXXXXXXXXX###XXXX#####X###XX############XXXXXXX#####X###XX######XXXXXXXXXXXooooooooo oooooooooooXXXooXXXoooooooooXXXoooo                        oooooooo                                        ooooooooooooXX####@@$$$********$$$$@@######XXXXXXXXXXoXXooooooooooooooooXXXXoXXXX#######@@@$$$$$****$***$$$$@@@@@@@@@@@@@@@@@@@@",
"ooo                   oooooooXXoooXXXXX#@@@@@@@$$$$$@@@@@@##XXXXoooXXX###@@@@@@#####XXoooo  o                                                                oooXX#@@$$$$$$$$$$$$$@@@#Xoo                    oooX##@@@@@@@@@@@@@####XXXoooooooooXXXXXXooooXXXX####@@@@##XXXXXXXXXX##@@@#XXXXXX##XXXXXXXXXXXX..XXXX....XXXX..XXXXXXXXXXXX####@@@@@$==$@@@@@@#################XXXXXXXXXXXXXXXXXXXXXXXXXXXXXXXXXX+++++%@@@++++++++++++++++++++++++%&&&&&%++++++++++++++++++++++++++%&&&&&&&&&&&++#+++@@@@@@@@++++++++++++++++++++++++++++++++++++++++++++++++++++++++++++++++++++++++++++++++++++++++++++%%+%%+%%%%+%%%%%%%%%+++++%%%&&&@&&&&==================***===&&&&&&%%++++%+++++++++++++++++++++++++++++++++++++++++++++++%+++++++++++++++++++++++++++++++++++++++++++++++++++++++++O++O+++++++++++%&&&&&&&&&&=====&&&&&&@@@&&&%++@&&****$&&&&&&&&@@@@@@@@@@@@%%@@@@@@@%%&@@@@++++@@$$@@@@XXXXoXoooooooooo  ooooooooXoXXX####XXXXX##@@@@@@@@@@##XXXXXXo.XXXX.XXXXXXXooXXXXXXXXXXoooooXXXXXXXXXXXXXXXXXXXXXXXXXXXXXXXXXXXXXXXXXXXXXXX####XX####XXXXXXXXXXXXXXXXXXXXXXoooooooooooo    ooooooooXXXoooXXoooooo.ooooooooo                        oooooooo                                         ooooooo oooooXX####@@$$**********$$$$@@#####XXXXXXXXooXooooooooooooooooXXXXooXXXXXXX######@@@@$$$$$******$$$$@@@@@@@@@@@@@@@@@@",
"ooooo           o  ooooooXXXXXXXXXXXXXX#@@@@@@@@$$$$@@@@@##XXoooooooXX####@@@@####XXooooooo ooo                                                              oooXX#@@$$$$$$$$$$$$$@@@#Xo                     oooX##@@@@@@@@@@@@@####XXXoooooooooooXXooooooXXX##########XXXXXXXXXXX##@@@#XXXXXX##XXXXXXXXXXXX.XXXXX..X...XX..XXXXXXXXXXXX####@@@@$==$@@@@@############XXXXX##XXXXXXXXXXXXXXXXXXXXXXXXXXXOXXXXXX+++++%++++++++++++++++++++++++++%&&&&&%++++++++++++++++++++++++++%&&&&&&&&&&&%+++++++@@@@@@@+++++++++O++++++++++++++++++++++++++++++++++++++++++++++++++++++++++++%%+%+++++++++++++++%+%%%+++++%%%%%%%%%%%%%+%+++%+++++@@@@@@@@@@$$$$$$$$$$@$$@@@@@&@@+@++++++++%++++%++%%++++++++++++++%%++++++%+++++++++++++++++++++++++++++++++++++++++++++++++++++++++++++++++++++++O++++++++++++++++%&&&&&&&&&======&&&&&&@@@@@@%+++%&&*&*$&&$&&&&&@@&&@@@@@@@@@&%@@@@@@@%&%@@@++++@@@@@@@@#XXXXXoooXooooo   ooooooooooXX#####XXX##@@@$$$@@@@####XXXXXXoXXXXXXXXXXXXXXXXXXXXXXXXXXXXXXXXXXXXXXXXXXXX#XXXX##XXXXXXXXXX##############################################XXXXXXXXoooooo       o ooXXXXooooXoooo.o..oooooooo.                         ooooooooo                                       ooooooooooooooXX###@@@$$**********$$$@@@#####XXXXXXXXoooooXoooooooooooXXoooooXoXXXX#X######@@@$$$$$$******$$$$$@@@@@@@@@@##@@@",
"            oooooooooXXXXXXXXXXXXXX#####@@@@@$$$$$$$@@@@##XXoooooooooX####@@@@####XXoooooooooo                                                               oooXX#@$$$$$*$$$$$$$$@@@#Xo                     oooXX##@@@@@@@@@@@####XXXXooooooooooooooooooXXX##@@@@@@##XXXXXXXXX#####@@##XXXXXXXXXXXXXXXX.X....XXX...XXX.XX.X..XXXXXXXXX#####@@@@==$@@@@#########XXXXXXXXXXXXXXXXXXXXXXXXXXXXXXXXXXXXXXXXXXXXO++++%+++++++++++++++++++++++++++%&&&&&%++++++++++++++++++++++++++%%&&&%%&&&&&@+++X+++++@@@@++++++++++++++++++++++++++++++++++++++++++++++++++++++++++++++++%%+%++++%%%%%+%%%%%%%%%+%%%%%%%%%%%%%%%%%%%%%%%%%%%%%%%%%%%%++++%%%%%%++++++%%%%++%%%%%%%%++++%%%%%%%%%%%%%%%%%%%%%%%%%%++%%%%%%%%%%%%%%%%%%%%%%%%%%%%%%%%+++%++++++++++%%++%++++++++++++++++++++++++++++++++OO++OO++O++++++++++&&=============&&$&&@@@@@@@@@++@&&***&&&$$&&@@@@&&@@@@&&@@&&&@@@@@@@%%@@@@++++@@@$$@@@@#XXXXooooooo     oo o oooooXXXX#X#XX##@@@$$$$@@##XXX#XXXXXXXXXXXXXXXXXXXXXXXXXXXXXXXXXXXXXXXXXXXXXXXXXX#######XX#XXXXXXXXXXXXXX#X##########################@@##############XXXXXXoooo         oooXXXXooooo.oooo  .o    oooo o                        ooo ooooo                                    ooooooo     ooooXXX####@@$$$**********$$$@@######XXXXXXXXXXooooooooooooooooooXXoooXXXXXX######@@@@$$$$$******$$$$$@@@@@@@####@@",
"           ooooooooXXXXXX##############@@@@@@@@$$$$$@@@###XXoooooooooX###@@@@####XXXoooooooooo                                                               oooXX#@$$$$**$$$$$$$$@@@#Xoo                    oooX###@@@@@@@@@@@@###XXXooXooooooooooooooooXXX##@@@@@@##XXXXooXXXX#######XXXXXXXX#XXXXXXXX......XX....XXXXXX.X...XXXXXXX######@@@**$#@@########XXXXXXXXXXXXXXXXXXXXXXXXXXXXXXXXXXXXXXXXXXOXXXX+++++%++++++++++++++++++++++++++%&&&&&%+++++++++++++++++++++++++++%&&&%%%%%%&%@+++++++++++++++++OO++++++++++++++++++++++++++++++++++%%%%%%%%%%%%++++%%%%+%%%%%%%++++%%%%%%%%%%%%%%%%%%%%%%%%%%%%%%%%%%%%%%%%%%%%%%%%%%%++++++%%%%%++++++%%++++%%%%%%%%%%%%%%%%%%%%%%%%%%%%%%%%%%%%%%%+%%%%%%%%%%%%%%%%%%++%+%%%%+++%%+++++++++++++++++++++++++++++++++++++++++++++++++++++OOO++O++++++++++++%&&&===========&$$&&@$$@@@@@@@++@&****&&$$$@@@@@&&&@@@&&@@&&&@@@@@@&%%@@@@@+@+##@@$@@@@@XXXXooo.oo            ooooXXXXXXXX##@@@@$$$$@#XXXXX##XXXXXXXXXXXXXXXXXXXXXXXXXXXXXXXXXXXXXXXXXXXXXXXXXXXXXXXXXXXXXXXXXXXXXXXXXXXXXXXXXXXXXXXXXXXXXXX####XX##XXXXXXXXXXXXoXXoooooooo           ooXXXoooooooooo.    o   oo.ooooo                          oooooo                                    ooooo oo   oooooXXXX##@@$$$$**********$$$@@@#####XXXXXXXXXXXooooooooooooooooXXoXoXXXXXXXX######@@@@$$$$*******$$$$@@@@@@@@@#@#",
"         oooooXXXXXXX########@@@@@@@@@@@@@@$$$$$$$$@@@##XXXoo     oooX####@@@@##XXXoooooooo   o                                                               ooXX#@@$$$$$$$$$$$$$@@@#Xooo                    ooXX##@@@@@@@@@@@@###XXXooooooooooooooooXXXXX#@@@@@@@@#XXXXoooXX#####XXXXXXX#XXXX##XXXXX.X.......XXX.X..X.X..XXXXXXXXXXX####@##@**@@#######XXX#XXXXXXXXXXXXXXXXXXXXXXXXXXXXXXXXXXXXXXXXXXXOOXX+++++++++++++++++++++++++++++++%&&&&&&&%++++++++++++++++++++++++%&&&&&&%%%%&&&+++++XXXOXXXXX++++++++++++++++++++++++++%%%%%%%%%%%%%%%%%%%%%%%%%%%%%%%%%%%%%%%%%%%%%%%%%%%%%%%%%%%%%%%%%%%%%%%%%%%%%%%%%%%%%%%%%%%%%%%%%%%%%%%%%%%%%%%%%%%%%%%%%%%%%%%%%%%%%%%%%%%%%%%%%%%%%%%%%%%%%%%%%%%%%%%%%%%%%%%%%%%%%%%%%%%%%%%%%%%%%%%%%%%%++%%%%++++++++++++++++++++++++++++++++++++OOO++++++++++++++&&&==========&&$$&&&&&&@@@&@+@@%&****&*$$$@&@@@@@@@&&&&@@@&&&&&&&&@@@@@@@@@@@+++@@@@@@@@#XX.oo ooo           oooooXXXXX##@@@@@@@@@@@#XXXXXXXXXXXXXXXXXXXXXXXXXXXXXXXXXXXXXXXXXXXXXXXXXXXXXXXXXXooooooooXXXXooooooooooooooooooooooooooooooooooooooooooooooooooooooooo           o     oooXXXXooooo.o          oo    oooo                          oooo                                  ooooooooo   ooooooooooXX###@@@$$$*********$$$$$@@@####X#XXXXoooooooooooooooXXXXoXXXXXXXXXXXXXX######@@@@$$$$$*******$$$@@@@@@@@@",
"o       oooooXXXXX#########@@@@@@@@@@@@@@@@$$$$$@$@@@@##XXooo     oooX####@@@###XXXoooooooooo                                                                 ooXX#@@$$$$$$$$$$$$$@@@#Xoo                     oooX##@@@@@@@@@@@####XXXooooooooXXoooooXXXXX#@@@@@@@@@#XXXoooXXX####XXXXXXXX#XXXXX##XXXX.........X.XX...XX....XXXXXXXXXX##@##@@$$@@########XXXXXXXXXXXXXXXXXXXXXXXXXXXXXXXXXXXXXXXXXXXXOXXXOX++++@%%%%%@%%@@%%%%%%%%%+++++%%&&&&&&&&&%+++++++++++%&&&&&&&&&&&&&&::&&&&&&&&&%++++XXXXOOOXXOO+++++++++++&&&&&&&&&&&&&&&&&&&&&&&&&&&&&:&&&&&&&&&&&&::::&&&&::&&&&&&::&&&&&&:&&&&&&&:&&&&&&&&&&&&&&&&&&&&&&&:&&&&&&&&&&&&&&&&&&&&&&&&&&&&&&&&&&&&&&&&&&&&&&&&&&&&&&&&&&&&&&&&&&&&:&&&&&&&&&&&&&&&&&&&&&&&&&&&&&&&&&&&&&&&&&&&&&&&&&&&&&&&%%%%%%++++++++++++++++++++++++++O+++++OOO+O+++++++++++%&&=========&&&$$&&&&@&$$&&@%@@+%&***&*$$$$&&@@@@@@&&&&@@&&@&&&&&@@@@@@@@@@&@@++@@@@@@@@#XXooo ooo    o     oooooooXXX###@@@@@@@@@@##XXoXXXXXXXXXXXXXXXXXXXXXXXXXXXXXXXXXXXXXXXXXXXXXXXXXXXXXXXXXXXooooXooooooooooooooooooooooooooooooooooooooooooooooooooooooooooo                  oooXXXXoooo.oo                 ooo                            oo                                  oooooo       oooooooooooXX###@@@$$***********$$$@@@@#####XXXXoXoXoooooooooooXoooooooXXXXXXXXXXXX#####@@@@@$$$$$*******$$$@@@@@@@",
"      ooooXXXXX##########@@@@@@@@@@@@@@@@@@@$$$$@@@@@@##XXoo      oooX####@@@###XXXoooooooo o o                                                                ooX#@@$$$$$$$$$$$$$@@@#Xo                      oooX##@@@@@@@@@@#####XXXoooooXXXXXXXXXXXXX##@@@@@@@@@#XXooXXXX######XXXXXX####XXX####XXXXXX...........XX......XXXXXXXXXX####@@@@@@#####XXXXXXXXXXX###XXXXXXXXXXXXXXXXXXXXXXXXXXX+XXX+XXOXX+++++++@&&&&&&&&&&&&&&&&&&&&&&&&&&&&&&&&&%@@++++@@@@&&&&&&&&&&&&&&&&&&&&&&&&&&&&&%+++++XOOOOO..OOO++++@&&&&&&&&&&&&&&&&&&&&&&&&&&&&&&&&&&&&&&&&&&&&&&&&&&&&&&&&&&&&&&&&&&&&&&&&&&&&&&&&&&&::&&&&::::::::&&::::::::::::::::::::::::::::::::::::::::::::::::::&&:::::::&::&&&&&&&&&&&&&&&&&&&&&&&&&&&&&&&&&&&&&&&&&&&&&&&&&&&&&&&&&&&&&&&&&&&&&&&&&&%+++++++++++++++++++++++++++++++++OOO+++++++++++&&&=========*$$$$&$$@$$$$@@@@@+@&&****&&$$&&@@&&@&@@@@&&&&@@@@@@@@&&&&@&@@&@@@++@@$$$$@@#Xoo.             o o ooooXXXX##@@@@@@@@@@##XXoXXXXXXXXXXXXXXXXXXXXXXXXXXXXXXX########XXXXXXXXXXXXXXXXXXXXXXXXoooooooooooooooooooooooooooooooooooooooooooooooooo        oo                  ooooooooooo.o.                oo                                                                   ooooo        ooooooooooooXX###@@@$$$****=*****$$$@@@@####XXXXXXXXXXooooooooooooooooooooooXoXXXXXXX#####@@@@@$$$$$*******$$$@@@@",
"     ooooXXXXX########@@@@@@@@@@$$@@@@@@$$@@@@@@@@@@@@##XXooo     oooX####@@@###XXooooooooo oo                                                                 ooX#@@$$$$$$$$$$$$$@@@#Xo                      ooXX##@@@@@@@@@######XXXXXXXXXXXXXXXXXXX##@@@@@@@@@@##XXooXXXX#@@@@#XXXXXX####XXX#####XXXX..X.........XX.....X.XXXXXXX####@@@@@@@########XXXXXXXXXXXXXXXXXXXXXXXX+XXXXXX+++XXXX+++XX++++X+++++++++&&&&&&&&&&&&&&&&&&&&&&&&&&&&&&&&&&&&@@@@@@@@@@@@++++@@++%%&&&&&&&&&&&&&&&%+++++XOOO.....OOO+++++++++++++++++++++%%%%%%%%%%%%%%%%%%%%%%%%%%%%%%%%%%%%%%%%%%%%%%%%%%%%%%%%%%%%%%%%++%%%%%%%%%%%%%%%%%%%%%%%%%%%%%%%%%%%%%%%%%%%&&&%%&&&&&&%%%%%%%%&&&&%%%%%%%%%%%%%%%%%%%%%%%%%%%%%%%%%%%%%%%%%%%%%%%%+%+%++%%%%%%%%%%%%%%%%%%%%%%%%%%%%%+%%++++++++++++++++++++++++++++++++++OO+++++++++++++%&&*=&&====*$$$$$$$$$$$$@@@@@+@@&*****&&&$&@@&&&&@@@@&&&&@@@@@@@@&&&&&&@@@@@@@+#@@$**@@@#Xo..  oooo  ooooooo ooooXXXX#######@######XoooooXXXXXXXXXXXXXXXXXXXXXXXX###########XXXXXXXXXXXXXXXXXXXXXXXXooooooooooooooooooooooooooooooooooooooooooooo  oo               o               o oooooooooo                 o                                 oo                                 ooooo       o      oooooooXX###@@@@$$***********$$$@@@@####XXXXXXXXoooooooooooooooooooooooooXXXXXX#######@@@@@$$$$$*******$$@@@",
"    oooXXXXX#########@@@@@@@@@@@$$$@$$$$$$@@@@@@@@@@@###XXoo    oooooX###@@@####XXXooooooo                                                                      XX#@@$$$$$$$$$$$$$@@@#Xo                       ooX##@@@@@@@@@#####XXXXXXXXXXXXXooXXX###@@@@@@@@@@#XXXooooXX##@@@@#XXXXXX#####X######XXXXXX....XXX...........XXXXXXX######@@@@@@@@#############X+####++X###+++++#+++###+++++++++++++++++@++@++++@+@@@@@@@@@&&@@&&&&@@@&&&@@@&&@@@@@@@@@@@@@@@@+@@+@@@@@@+@@@@@@&&&&&&&&&&&&+++++OOOOO.....OOO++++++++++++++++++++++++@@&&++++@@@@&&&&&&&&&&&&&&&&&&&&&&&&+&&&&&&&%%%%%%%%%%%%%%%%%%%%%%%%%%%%%%%+%%%%%%%%+%%+%%%%+++%%%%+%%+++%%%++%%%%%%%%%%++++%%%%%%%+%%%%%%%%%%&&&&%&%%&%%%&&&&%%%%&&&&&&%%%%%%%%%%%%+++++++++++%++++%+++++++++++++++++++++++++++++++++++++++++++++++++++++++++++++++++++@&**&&&&==**$$$$$$$$&&&@$@@@@@@$******&&&&$@&&@@&&@@@@@&&&@@@@@@@@&&&&&&&@@@@+#+@$**$$@@#Xooo..oooooooo oo o oooooooXX##########@#XXooooXXXXXXXXXXXXXXXXXXXXX#################XXXXXXXXXXXXXXXXXXXXooXooooooooooooooooooooooooooooooooooooooo                     ooo               o   oooooo                                                                                         oooo               o oooooXXXX####@@$$************$$$@@@#####XXXXXXXooooooooooooooooooooooooooXXXXXXX######@@@@@$$$*******$$$$",
"    oooXXXX##########@@@@@@@@$$$$$$$$$$$$$@@@@@@@@@@@@##XXooo   oooooX####@@####XXooooooooo                                                                     XX#@@$$$$$$$$$$$$$@@@#Xo                      oooX##@@@@@@@#@#####XXXXXXXXXooooooXXX##@@@@@@@@####XXoooooXX#@@@@@#XXXXXXXXXXXXXX####XXXXXXX...XXXXXXXX.X..XXXXXXXXX########@@@@@@@@@@@@@@@@@@@++@@@@+@+@@+++@@@@@+@@@@@@@@@@@@@@@+++@@@@@@@@@@@+++@@@@++@@@@++++@@+@++++++++++@@@@@@@@@++++++++++++++++++++++++++++++%%%&%++++++OOOOOOOOOOOO++++++++++++++++++++++++++++++++++++++++++++++++++%%++++++++++%%%+++%%%%&&%%%%%%%%%%%%%%%%%%%&%&%%%%&&&&%%&&%%%%%%%%+%%+%%+%%%++%%%%%%%%%%%%%%%%+++++%%%++%++++++%%%++++++++++++++++++++++++++++++++++++++++++++++++++++++++++++++++++++++++++++++++++++++++++%%%%%%%%%%++++++++++++++++++++++++@@$*&&&&*****$$$$$&&&&&@$$@@@@@$****$$$$&&$$@@@@&&$$@@@@&&@@@@@&@@&@&&@@@@@@@@@+@@@$@@@@#Xoooo..oo  o    o   oooooooXXX######@@@@#XXooooXXXXXXXXXXXXXXXXXXXX###################XXX#XXXXXXXXXXXXXXXooXXoooooooooooooooooooooooooooooooooooooooooo    oo                             o    ooXXo                             o                                                           oooo                   oooooXX####@@@$$$************$$$@@#######XXXXXXXoooooooooooooooooooooXXoXXXXXX########@@@$$$$$$*******$",
"    oooXXXX###########@@@@@@@$$$$$$$$$$$$$$@@@@@@@@@@###XXooo   o oooo###@@@@###XXXoooooooo                                                                   ooXX#@@$$$$$$$$$$$$$@@@#Xo                      oooX####@@####@#####XXXXXXXXoooooooooX##@@@@@@@#XXXXooooo ooX##@@@@#XXXXXXXXXXXXXX####XXXXXXXX..XXXXXXXXXXXXXXXXXXXXXXXXX#XXX####@#####+#+@@@@#@#+++++#@#@@@+#++@@++#+##+#++++###+++++++++#+++++++++++++++++++##+#+@@@+++++++++#++++##++++++++++++++++++++++++++++++++++++++++++++++++++++++++++++++++++++++++++++++++++++++++++++++++++++++++++++++++++++++++++++++++++++++++++++++++++++++++++++++++++++++++++++++++++++++++++++++++++++++++++++++++++++++++++++++++++++++++++++++++++++++++++++++++++++++++++++++++++++++++++++++++++++++++++++++++++++%%&&&&&&&&&&&&%%++++++++++++++++++++@@$&**&&&*&&*$$$&&&&&&$$$$&&&&@$&*&&$$$$&&$$$@$$&&@@@@$@&&@@&&&&@@@@@@@@@@@@@@@+@@@@@@#XXXoo o           o       oooooXX###@@@@@@@#XXoooooXXXXXXXXXXXXXXXXX########@@@@@@@@@#########XXXXXXXXXXXXXXXXXXXooooooooooooooooooooooooooooooooooooooooooo ooo      o        oo           o    oooo                      ..                                                                                           oooooooXX####@@$$******=******$$@@@@#####XXXXXXoooooooooooooooooooXXoXooXoXXXXXXX#####@@@@@$$$$******",
"    oooXXXXX##########@@@@@@@@$$$$$$$$$$$$$@@@@@@@@@@###Xoooo   o oooo###@@@####XXXoooooooo    o                                                              ooXX#@@$$$$$$$$$$$$$@@@#Xo                      oooX####@@####@#####XXXXXXoooooooooooXX###@@###XXXoooo   oooXX#@@@@#XXXXXXXXXXXXXX###XXXXXXXXXXXXXXXXXXXXXXX.XX.XXXXXXXXXXXXXX##XXXXXXXXXXXXXXXXXXXX++XXXX##XXXXXXXXX+++XX#+++XXXX+++++++XXX++++++++++++++++++++#+++##+++++#++++++++##++++++++++++++++++++++++++++++++++++++++++++++++++++++++++++++++++++++++++++++++++++++++++++++++++++++++++++++++++++++++++++++++++++++++++++++++++++++++++++++++++++++++++++++++++++++++++++++++++++++++++++++++++++++++++++++++++++++++++++++++++++++++++++++++++++++++++++++++++++++++++++++++++++++++++++++++++%%&&&&&&&&&&&&&&%%%++++++++++++++++++++@@&**&*&&&&&&$$&&&&&&&$$$&&&&&$&&&&$$$$&$$$$$$$&&&&@$$$&&&&&&&&@@@$@@@@@@@@@@@@@+#XX#XXoo....o         oo         ooooX###@@@@@@@##XooooooXXXXXXXXXXXXXXXX##@@@@@@@@@@@@@@@@@########XXXXXXXXXXXXXXXXXXXXoXXXXXooooooooooooooooooooooooooooooooooooooo   oooo        oo      o  ooo    oooo                      . oo                                                                                           oooooXX#####@$$$$****====****$$$@@@#####XXXXXXoooooooooooooooooooooooooooXXXXXXX######@@@@@$$$$****",
"     ooooXXXX##########@@@@@@@@$@@$$$$$$$$$$$@@@@@@@@###Xoooo     oooX###@@@@###XXXoooooooo oo                                                                ooXX#@@$$$$$$$$$$$$$@@##Xo                      oooX###@@@@#@@#####XXooooooooooo  oooooX#####XXXXoXoooooo ooXX#@@@@##XXoXoXXXXXX#####XXXXXXXXXXXX.XXXXXXXXXXX.XX.XXXXXXXXXXXXXXXXX#XXXXXXXXXXXXXXXXXXXXXXXXXXXX+XX++XXXXXXXXXXXX+X##++++++XXXX+++X##+++++++###++++++++##++++++#+++++++#+++#++++++++++++++++++++++++++++++++++++++++++++++++++++++++++++++++++++++++++++++++++++++++++++++++++++++++++++++++++++++++++++++++++++++++++++++++++%%%++++%%%++++++%%%++++%%+++++++++++++++++++++++++++++++++++++++++++++++++++++++++++++++++++++++++++++++++++++++++++++++++++++++++++++++++++++++++++++++++++%&&&&%%%%%&%%%&&%%++++++++++++++++++++@@$*****&*&&&$$$$&&$$$$$&$$$$&&$$$&&&&&$$$$$$&&@@$$$@&&@&$@&&@@@@@&@@@&@@@@@@@@@+++XXXXXo o.o      o               ooooX##@@@@@@@@##Xoo o.XXXXXXXXXXXXXX###@#@@@@@$$$@@@@$@@@@@@@######XXXXXXXXXXXXXXXXXXoooooooooooooooooooooooooooooooooooooooooooo  o                        ooooo     o                                  o                             o                       oooo                           oooooooXX####@@$$$*************$$@@@@####XXXXoooooooooooooooooooooooooXXoXXXXXXXXX#####@@@@@$$$$$",
"     oooooXXXX#########@@@@@@@@@@@$$$$$$$$$$$@@@@@@@@###XXooo     oooX###@@@@###XXXooooooooooo                                                                ooXX#@@$$$$$$$$$$$$$@@##Xo                       oXX####@@##@@#####XXoooooooo      ooooXXXXXXXXXXXXXooooooooXX@@@@@#XXXXXXXXXXX#@@###XXXXXXXXXXXXXXXXXXXX..XXXXXXXXXXXXXXXXXXXXX#XXXXXXXXXXXXXXXXXXXXXXXXXXXXXXXXX++X+XXXXXXXXX+++##+X++++XXXX++++##++++#++###+#++++++##++++++#+++++++#+++X#+++++++++++++++++++++++++++++++++++++++++++++++++++++++++++++++++++++++++++++++++++++++++++++++++++++++++++++++++++++%++++%%%%++++++++++%%+++++++%%%++++%%%+++++++%%+++%%%+++++++%%+++++++++++++%%++++++++%+++++++++++++++++++++++++++++++++++++++++++++++++++++++++++++++++++++++++++++++++++++++++++++++++%%&&&&&&&&&&&&&&&&&&++++++++++++++++++++@$$*****&&&&**$$&&$$$$&&&&$$&&$$&&&&&&$$$$$&&&&@$$&$$&&@$$&@@$&&&&@@&&&&@&@@@@@@@@#XXX.o .oooo  o o                oooX##@@@@@@@@##Xoo.o..XXXXXXXXXXXXX####@@@@@$$$$$$$$$$@@@@@@@######XXXXXXXXXXXXXXXXXXXoXoooXXXoooooooooooooooooooooooooooooooooooooooo   oo           oo  o oooo    oo                        o         .o                            o  ooooo                 ooo                            ooooooooXX###@@$$$******===****$$$@@@####XXXooooooooooooooooooooooooooXXXXXXXXXXXXX#####@@@@$$$$",
"      oooooXXXX#XXX#####@@@@@@@@@@$$$$$$$$$$$@@@@@@@@###XXooo     oooX###@@@@###XXXooooooooooo                                                                ooXX#@@@$$$$$$$$$$$$@@##Xoo                      oXX#########@####XXXoooooo         ooooooXXXXXXXXXXXXooooooXX@@@@@#XXXXXXXXXX#@@@@##XXXXXXXXXXXXXXXXXXX..XXXXXXXXXXOXXXXXXXXXXXXXXXXXXXXXXXXXXXXXXXXXX##XXXXX##XXXX+X++XXXXX+X+++#XXXXX+#XX++++++#+++####+++++++++#++#+++++#+##++##+++#++++++++++++++++++++++++++++++++++++++++++++++++++++++++++++++++++++++++++++++++++++++++++++++++++++++++++++++++++++++++%%++++%%%%%%+%+++++%%%%%++++++%%%%+++%++++++++%%%%++%%%%++++%%%%++%%%%++++%%%%%%++++++%%%%+%+++++++++++++++++++++++++++++++++++++++++++++++++++++++++++++++++++++++++++++++++++++++++++++%&&&&&&&&&&&&&&&&&&++++++++++++++++++++@&&$************$$****$$$$$$$$***$$$$$$$**$$$$$$*$$$$$$$$$$$$$$$$$$$$$$$$$$$$$$$@@@#XXXXoo oo  oooo                 ooXX##@@@@@@@@##XoooooXXXXXXXXXXXX####@@@@@$$$*===**$$$$$$@@@@@#######XXXXXXXXXXXXXXXXXoooXXXXXXXoooooXoXXoooooooooooooooooooooooooooooooooooooooooo  ooo     oooooooo               o        o        oo.                            ooooooooooo                                             ooooooooooXX####@@$$******===****$$$@@@#####XXooXXXXoooooooooooooooooooXoooooXXXXXXXX#####@@@@@@",
"       ooooooXXXXXXX#######@@@@@@@$$$$$$$$$$$@@@@@@@@###XXooo     oooX###@@@@###XXXooooooooooo                                                               oooXX#@@$$$$$$$$$$$$$@@##Xo                        oX#########@####XXoooooo          ooooooXXXX####@##XXoooooXX@@@@@#XXXXXoXXXX#@@@@#XXXXXXXXXXXXXXXXXXXXXXXXXXXXXXXOOXXXXXXXXXXXXXXXXXXXXXXXXXXXXXXXXX####XXXX###X+++#+##+++++++++##X+X#+##+++++++##+#+##++++++++++#++++++++####++##++++++++++#++++++++++++++++++++++++++++++++++++++++++++++++++++++++++++++++++++++++++++++++++++++++++++++++++++++++++++++++%%%%+++%%%%%%%%%%%%%%%%%%%%++++%%%%%%%%%%%%+%++%%%%%%%%%%+%%%%%%%%%%%%%%%%%%%%%%%%%%+++%%%%%%%%++++++%%%%+++%%%%+++++++%%%%++++%%%%+++++++++++++++++++++++++++++++++++++++++++++++++++++++%%%%%%%%%%%%%++%%%+++++++++++++++++++++@&@&$*****************$$**********$****$*****$$$**$$***$**$$$$$$$**$$$$$$$$$$$$$$$@@#XXX.. o.o   oo                oooXX####@@@@@@##Xooo..XXXXXXXXXX#####@@@@@$*==-;;;-==**$$$$$@@@@@#####XXXXXXXXXXXXXXXXXXXXXXXXXXXXXXXXooXXXooooooooooooooooooooooooooooooooooooooooo  ooooo   ooooooo       o        o        o      o  oo.                           ooooooooooooo                                           o oooooooooX#X##@@$$$$*****===*****$$$@@######XXXXXXXoooooooooooooooooooooooooooooXXXXX####@@@@@",
"        oooooooXXXXXX#####@@@@@@@$$$$$$$$$$@@@@@@@@@@@##XXooo     oooX###@@@@###XXooooooooo o                                                                 ooXX#@@$$$$$$$$$$$$$@@##Xo                        oX##############XXXoooooo     oo  oooooXX##@@@@@@@@XXoooooXX#@@@##XXXXXoXXX#@@@@@#XXXXXXXXXXXXXXXXOXXXXXXXXXXXXXXXXXXXXXXXXXXXXXXXXXXXXXXXXXXXXXXXXX+XXXXX++##+#++++++++##++++++#####+++++++++++++###+++##++++++++++++++++++++++++++##++######++++++++++++++++++++++++++++++++++++++++++++++++++++++++++++++++++++++++++++++++++++++++++%+++++%%+%++++%%++++%%+++++%%%%%%%%%%%%%%%%%%%%%%%%%%%%%%%%%%%%%%%%%%%%%%%%%%%%%%%%%%++%%%%%%%%%%%%%%%%%%%%%%%%%%%%+%%++%%%%++++%%%%%+%%++++%%%%++++++++++++%%++++++++++++++++%%++++++++++++++++++++++++++++++++++++++++++++++++++++++++++++++++++++++@@$$*******************************************************************************@@#XXXooo.o                      ooXXXX##@@@@@@@##XXXoXXXXXXXXXX######@@@$$$=;;;;;;;;;;=****$$$@@@@@@##############XXXXXXXXXXXXXXXXXXXXXXXXooXoXXXooooXoooooooooooooooooooooooooooooooooooo.oooooooooooooo  ooo....oooooo..  ..oo          o                           ooooXXXXXXooo                                        ooo  ooooooooooXX####@@@$$$*************$$$@@@#####XXXXXXoooooooooooooooooooooooooooooXXXXXXX#####@",
"        oooooooXXXXXX#####@@@@@@$$$$$$$$$$$@@@@@@@@@@###XXooo     oooX###@@@@###XXooooooooo o                                                                oooXX#@@@$$$$$$$$$$$$@@##Xo                        oX##############XXooooooo          oooXX#@@@@$$$@@@XXXooooXX#@@@#XXXXXXoXXX@@@@@@#XXXXXXXXXXXXXXXXXXXXXXXXOXXXXXXXXXXXXXXXXXXXXX#XX#+XXX####XXX#X###+#+++#++#+++++++@+####+++++++#####++++++++++++##++++++++++++++++++++++++++++++++##++++##++++++++++++++++++++++++++++++++++++++++++++++++++++++++++++++++++++++++++++++++%%%%+%++++++%%++++%%%%+%++%%++++%%++++%%%%%%%%%%%%%%%%%%%%%%%%%%%%%%%%%%%%%%%%%%%%%%%%%%%%%%%%%%%%+%%%%%%%%%%%%%%%%%%%%%%%%%%%%%%%%%%%%%%%%%%%%%%%%%%%%%%%%%%%%%%%%%++++%%%%+%++++++%%%%++%%+++%%%++++++++++++++++++++++++%%++++++++++++++++++++++++++++++++++++++@@$$**===============================*======================*====================*=**@#XXXoo..                      oooXXX###@@@@@####XXXXXXXXXXXXXX####@@@@$$$=;;;;;;;;;;-==***$$$$$@@@###########XXXXXXXXXXXXXXXXXXXXXXXXXXXXXXXXXXXXXXXXXXXXXXXooXoooooXXooooXoooooooooXXoooooooooooooooooooooooooooooooooo  o oo     o    oooo                        oooXXXXXXXXooo                                                 oooooXX#####@@@$$$$*************$$$@@@#####XXXXXoXooooooooooooooooooooooooooooXXXXX######",
"        ooooooXXXXXX####@@@@@@@@$$$$$$$$$$$@$@@@@@@@@###XXoo      oooX###@@@@###XXoooooooo  ooo                                                               ooXX#@@@$$$$$$$$$$$$@@##oo                        oX##############XXooooo oo     o  oooXX#@@@$$*$$@@#XXXooooXX#@@@#XXXXXXXXX#@@*@@@#XXXXXXXXXXXXXXXXXXXXXXXXXXXXXXXXXXXXXX###XXX######++######++++++####++####+#++++##########++++++##++++#+##++++++##++++++++++++++++@@@@++++++++++++++++++++++++++++++++++++++++++++++++++++++++++++++++++++++++++++++++++++++++++++%++%+++%%%%%%%%%+%++%%%%+++%%%%%++%%%%%%%%%%+%%%%%%%%%%%%%%%%%%%%%%%%%%%%%%%%%%%%%%%%%%%%%%%%%%%%%%%%%%%%%%%%%%%%%%%%%%%%%%%%%%%%%%%%%%%%%%%%%%%%%%%%%%%%%%%%%%%%%%%%%%%%%%%%%%%%%%%%%%%%++%%%%%+++%++%%%%%%%+%%%%++%+++++%++++++++%++++++++++++++++++++++++++++++++++++++@@$*=================================================================================*@#XXXXXoo  o...               ooooXX###@@@@@@@@@####XXXXXXXX#######@@@$$$=;;;;;;;;;;;;==******$$$@@@##########################XXXXXXXXXXXXXXXXXXXXXXXXXXXXXXXXXXXXXXXXXXXXXXXXXXXXXXXXXXXXXXooXXXoooooooooooooooooooooooooooooo.   ooooo..oo.                       oooXXXXXXXXXoo                                                 ooooX#########@@@$$$$$************$$$$$@@###XXXXXXXXoooooooooooooooooooooooooooooXXXXXXX#",
"     ooooooooooXXXX#####@@@@@@@@$$$$$$$$$$$@$@@@@@@@@###XXoo      oooo####@@@###XXoooooooo  oooo                                                                oX##@@$$$$$$$$$$$$@@#Xoo                        ooX#############XXooooo o         ooXX#@@@@$$$@@@@#XXXooooXX##@@#XXXXXoo##@@$*@@@##XXXXX###XXXXXXXXX##XX##XXXXXX##############################+++#####++######++################++##++++###@@+++++#+#++++#+@++++@+++@+@@++++++++++++@@++++++++++++++++++++++++++++++++++++++++++++++++++++++++++++++++++++++++++++%%%%+%%%+%%%%%%%%%%%++%%%%++%%%%%%++%%%%%%%%%%%%%%%%%%%%%%%%%%%%%%%%%%%%%%%%%%%%%%%%%%%%%%%%%%%%%%%%%%%%%%%%%%%%%%%%%%%%%%%%%%%%%%%%%%%%%%%%%%%%%%%%%%%%%%%%%%%%%%%%%%%%%%%%%%%%%%%%%%%%%%%%%%%%%%++%%++%%%%%%%%%%%%++%%++++%%%+%%++++++++++++++++++++++++++++++++++++++++++@@**==================================================================================*@XXXXX...oooo..              ooooXX####@@@#@@##@@@@#XXXXXXX#######@@@$$$*-;;;;;;;;;;;;==********$$@@@@@@@@@@@@@@@@@@@#@@##############X####XXXXXXXXXXXXXXXXXXXXXXXXXXXXXXXXXXXXXXXXXXXXXXXXooXXXXXXXXXoooXoooooooooooooooooooo.. oooo...ooo...ooo                  ooXXXXXXXXXXoo                                                 oooXX####@@@@@@@@@$$$$$$************$$$$@#####XXXXXXXooooooooooooooooooooooooooooXXXXXXXX",
"  o oooooooXXXXXX####@@@$$$$$$$$$$$$$$$$$$$$@@@@@@@@####XXoooo    ooooX###@@@###XXooooooooo   oo                                                                oX#@@@$$$$$$$$$$$$@@##ooo                       oX##############XXXoooooooooooooXXXXX###@@@@@@@@@@##XXXXoXXX##@@##XXXXXX##@@$$$@@@@@@@@@@@@@@@@@@@@####@@@###@@@@@@@@@@@@@@@@@@@@@@@@@@@@@@@@@@@@@@@@@@@@@@@@@@@@@@@@@@@@@@@@@@@@@@@@@@@@@@@@@@@@@@@@@@@@@@@@@@@@@@@@@@@@@@@@@@@++++@@@@@@@@++++@@@+@@@@+@@@++++@@+++++++++++++++++++++++++++%%%%%++%+++++++%%%%++++%%%%%%++++%%%%%%%%%%%%%%%%%%%%%%%%%%%%%%&&%%%%%%%%%%%%%%%%%%%%%%%%%%%%%%%%%%%%%%%%%%%%%%%%%%%%%%%%%%%%%%%%%%%%%%%%%%%%%%%%%%%%%%%%%%%%%%%%%%%%%%%%%%%%%%%%%%%%%%%%%%%%%%%%%%%%%%%%%%%%%%%%%%%%++%%%%++%%%%%%%%%%%+++++++%%%%++++%%%%+++++++++++++++++++++++++++++++++++++@@@$***=*********************************************************======***************=*@#XXXXX............o.          ooooX#####@@@@@@@@@@@#XXXXX########@@@@$$$=-;;;;;;;;;;;;=*******=****$$$$$$$$$$$$$$$$$$$$$$@@@@@@@@@@@@@@@@@@@@@@@@@@@@@@@@@@@@@@@##@#######################XXXXXXXXXXXXXXXXXXXXXXXXXXXXXXXXXXo..XXXXooooooooooo                  ooooXXXXXXXXXoo                                           o    ooooX##@@@@$@@@@@####@@@@$$*************$$$$@@@#####XXXXooooooooooooooooooooooooooooXXXXXXX",
"  o oooooXXXXX######@@@@$$$$$$$$$$$$$$$$$$$$@@@@@@@@####XXooo     ooooX###@@####XXooooooooo                                                                     oX#@@@$$$$$$$$$$$$@@##ooo                       oX##############XXXooooooooooXXXX##########@@@@@@@###XXXXXXX##@@###XXXX##@@@$$$@@@@@@@@@@@@@@@@@@@@@@@@@@@@@@@@@@@@@@@@@@@@@@@@@@@@@@@@$@@$$$$$$$$$$$$$$$$$$$$$$********$$$********$$$$$$$$$$@@@@@@@@@$@@@&@@@@@@@@@@@@@@@@@@@@@@@@@@@@@@@@@@@@@@@@@@@@@@@@@@@@@@@@@@@@%%%%%%%@@@@@@%%%%%%@@%%%%&&&%%%%%@@@@%%%%%@@@%%%%%%%%%%%%%%&&%%%%&%%%%%%&%%%%%%&%&&&&&&&&%&%&&&&&&&&&%%%&&&&&&&%&&&&&&&%&&&&&&&&&&&&&&&%&&&&&&&&&%%%%&&&&&&&&%%&&&&&&%%&%%%%%%%%%%%%%%%%%%%%%%%%%%%%%%%%%%%%%%%&%%%%%%%%%%%%%%%%%%%%%%%%%%%%%%%%%%%%%%%%%%%%%%%++++++%%%%%+%+%%%%%%%%++++%%++++++++++%%%+++++++++++++@@@@@@@@@@@@$***@@@@@@@@$@$$@@@@@@@@@@@@@@@@@@@@@@@@@@@@@@@@@@@@@@@@@@@@@@@@@@@@@@@@@@@@@@#XXXXXX...XXoo. . oo         oooooXX######@@@@@@@@@@#XXXXXXX#####@@@@$$$*=;;;;;;;;;;;;-=*$$$********$$$$$$$$******$$$$$$$$$$$$$$$$@@$$$$@@$$$$@@@@@@@@@@@@@@@@@@@@@@@@@@@@@@@@@@@@@@@@@@@@@@@@@@@@@@@@@@@@########XXXXXXXXXXXXoXXoXXooooo.oooooo               ooooooXXXXXXXooo                                           o    oooXX#@@$$$$$$@@@@####@@@$$$$$*************$$@@@@####XXXoooooooooooooooooooooooooooooooXXXX",
"ooooXXXX###########@@@@$$$$$$$$$$$$$$$$$$$$@@@@@@@@@####XXoo      oooXX###@@####XXooooooooo     o                                                             oooX##@@$$$$$$$$$$$$@@##ooo                       oX##################XXXXXXXXXX################@@@@@@###XXX####@@##########@@@@@@@@@@@@@@@@@@@@@@@@@@@@@@@@@@@@@@@@@@@@@@@@@@@@@@@@$$$$**************************=***========*====*=*********************=======*****************************************$$***$******************=***********&&&&$**&&&&&&&$$&&&&&&$$&&&&&&&&&*&&&&&&&&&&&&&&&&&&&&&&&&&&&&&&&&&&&&&&&&&&&&&&&&&&&&&&&&&&&&&&&&&&&&&&&&&&&&&&&&&&&&&&&&&&&&&&&&&&&&&&&&&&&&&&&&&&&&&&&&&&&&&&&&&&&&&&&&&&&&&&&&&&&&&&&&&&&&&&&&&&&&&&&&&&&&&&&&&&%%%%&%&%%%&%%%%%&%%%%%%%%%%%&%%&%%%%%%%%%%%%%%%%%%%&%%%%%&&%&%%%%%%%%%@@%%@@@@@@@@@@@@@@@@@@@@@@@@@@@@@@##@@@@###@@#########@@@@@@@@#@######@@@#################X##X##XXXXXXXXX.XXX.o...oo          ooooXXX#######@@@@@@@@#XXXXXXXX####@@@@$$$$*=;;;;;;;;;;;;=*$*$$$$$$$$$$$$$$$$$$$$$******************$$**********************$$$$****$$$$$$$$$$$$$$$$$$$$@@@@@@@@@@@@@@@@@@@@@@@@@@@@####XXXXXXXXXXXXXXoooo..o..o.          .    ooooooooooooooo                                                 ooooX#@@$$$**$$$$@@@#####@@@$$$$$*************$$$@@@####XXXXoooooooooooooooooooooooooooooooo",
"oooX#######@######@@@@@$$$$$$$$$$$$$$$$$$$$@@@@@@@@@####XXoo      oooXX###@@####XXooooooooo     o                                                             oooX#@@@$$$$$$$$$$$@@@##ooo                       oXX###################XXXXXXXXXXXXXX###X#######@#@#@#######################@@@@##@@@@#@@@@@@@@@@@@#@##########@@@@@@@@@@@@@@@@@@@@@@@@@@@@@@$$$$********************************************************************************************========*===============================================================================================================================================:========:::========::::====::====::=======:::::====::====::=======:&&&:======&&::&&&&&&&&&&&&&&&&&&&&&&&&&&&&&&&&&&&&&&&&&&&&&&&&&&&&&&&&&&&&&&&&&&&&&&&&&&&&&&&&&&&&&&&&&&&&&&&&&&&&&&&&&@@@@@@#####@@@#################XX####XXXXXXXXXXXX#########XXXX#XX##XXXXXXXXXXXXXXXXXXXXXXXXXXXXXXXXXXXXXXo.oo.       ooooXXX###########@@@#XXXXXXXXX#####@@@@$$$$=-;;;;;;;;;;;-=$*$*$$$$$$$$$@@@@@@$$$$$$$$$$$$$$$$$$$$$$$$$$$$$$$$$$$$$$$$$$$$$$$$$$**************$$$$$$$@@@@@@@@@@@@@@@@@@@@@@@@@@@@######X##XXXXXXXXXXXooo....o...     .              ooooooooo                                                   ooooX#@@$$****$$$$@@@#######@@$$$$$************$$$$@@@####XXoooooooooooooooooooooooooooooooo",
"oX####@@@@@@@@@@@@@@@$$$$$$$$$$$$$$$$$$$$$$@@@@@@@@@@###XXoo      oooo####@@####XXoooooooo  oo                                                                o XX##@@$$$$$$$$$$$@@@##oo                        oXX############@@@@#####XX########################@@##########@###########@@@@####@@@#@@@@@@@@@@@@@@@@@#@@##@@@@@@@@#@@@@@@@@@@@@@@@@@@@@@@@$$$$@@$$$$$$@@$$**$$@@$$$$@@@@$$$$$$@@@$**@@@@@@$$@@@$$$**@@@@@$**@@$$**$$$$****$***$***$$$$$$$$*******************************=****==============================;;;;;;;=======;;;;;;;==;;;;;;;;;;;;;;;;;;;;;;;;;;;;;;;;;;;;;;;;;;;;;;;;;;;;;;;;;;;;;;;;;;;;;;;;;;;;;;;;;;;;;;;;;;;;;;;;;;;;;;;;;;;;;;;;;;;;;;;;;;;;;;;;;;;;;;;;;;;;;;;;;::;;;;::;;;;::::;;==::::======::::=:::====::::===:=======================================================&@+++XXX#XXXXXXXXXXXXXXXXXXXXXXXXXXXXX.XXXXXXXXXXX.XX....XXXXXXXXXXX.XXXXXXXX.......XXXXXXXXXXXXXXXX.XoXX.o..o        oooooXXX######XXXXX#XXXXoXXXXXX####@@@@@$$$$=-;;;;;;;;;;;-=****$$$$$$$@@@@@$$@@@@$$@@@@$@$$$$$$$$$$$$$$$$$$$$$$$$$$$$$$$$$$$$$$$$$$$$$$$$$$$$$$$$$@$@@@@@@@@@@@@@@@@@@@@@##@#########XXXXXXXXXXXXXXXXXXXXXX....o.....      .        oooooo o                                                   ooooX#@@$********$$$@@@#######@@@$$$$*************$$$@@@####XXXXoooooooooooooooooooooooooooo",
"XX###@@@@@@@@@@@@@@@@$$$$$$$$$$$$$$$$$$$$$$@@@@@@@@@@###XXooo     oooo####@@####XXooooooo   oo                                                                  XX##@@$$$$$$$$$$$@@@##oo                        ooXX##########@@########XXXXXXX#XXX####X######################@############@##@@@@@@@@@@@@@@@@@@@@@@@@@@@@@@@@@@@@@@@@@@@@@@@@@@@@@@@@@@@@@@@@$$@@@@@@@@@@@@@$@@@@@@$$@@@@@@@@@@@@@@@$@@@@@@@@$@@@@@@@@@@@@@@@@@@@@@@@@@@@@@@@@@@@@@@$@@@@@@$@@$@@@@$@@@@$$$$@$$$$$$$$$$$$$$****$$$***************==**===================================================;;=;;;;==;;;;;;;=;=;;;;;;;;;;;;;;;;;;;;;;;;;;;;;;;;;;;;;;;;;;;;;;;;;;;;;;=;==;;;;;;;;=====::;:=====:=::::::====::::======::::======::::==::::====::::======::::=:::====::::==::=====:===========================================&=====&@++XXXXXXXXXXX..XXX.X.X.OOOOX.XX.XX....X........X..XO..O..XX.X....X................XXXXXXXXXXXXXXXX.XXoX..o.oo .     oooooXXX##XXXXXXXXXXXXXooXXXXXX#####@@@@@$$$*=;;;;;;;;;;;;==***$$$$$$$$$$$$@$@@@@$$$$$$$$$$$$$$$$$$$$$$$$$$@@@@@@@@@@@@$$$$$$$$$$$$$$$$$@$$$$$$@@@@@@@@@@@@@@@@@@@@##################X###XXXXXXXXXXXXXXXXXXXXXXX...XXooooo..oo        o o  o                                                    oooX#@@$$*********$$@@@@######@@@@$$$$************$$$@@@@###XXXXXXXoooooooooooooooooooooooo",
"###@@@@$$$$$$@@@@@@@$$$$$$$$$$$$$$$$$$$$$$$$@@@@@@@@@@##XXooo     o oo###@@@####XXoooooooooooo                                                                  XX##@@$$$$$$$$$$$@@@#Xoo                        ooXX############@@@@@@@@@@######@@@@@#######@@@@@@@@@@@@@@@@@@@@@@@@@@@@@@@@@@@@@@@@@@@@@@@@@@@@@@@@@@@@@@@@@@@@@@@@@@@@@@@@@@@@@$$$$$$$$$$$$$$$@@@@@$@$@@@@@@@@@@@@@@@@@@@@@$$$@@@@@@@$@@@@$***@$@@*@*$@@@@@@@$@@$$$$@@@@@@@@@@@@$@$$$$$$$@@@$$$$$$$$$$$$$$$$$$****$$$$**$********************======================================================================;======;;;;==;=======;;=======;;=====;;=======================;====;;=;======;;;=====================================================================::==========::======::====:=====&&&===&&&&=&&&&&&&=&====&&&&&=&&&&&&&@@+++XXXXXXXXX.................o................oo.XX.......o........oo...o..........XX.X..XXXXXXXXXXXXXXX.ooooo.oo    ooooooXXXXXXXXXXXXXXXXooXXXXXXX####@@@@@$$$**=;;;;;;;;;;;;===**$$$$$$$$$$$$$$$$$$$@$$$$@@$$@@@@$$$$$$$$$$$$$$$$$$$$$$$$$$$$$$$$$$$$$$$@@@@$$$@@@@@@@@@@@@@@@@@@@@@@@@@@@@@@@@@@@@@@@@#########XXXXXXXXXXXXXXXXXXXXXXXXoo..ooo        ooo  o                                                     ooX##@$$$*********$$$$@@@@#######@$$$$$************$$$$@@#####XXXXXXoooooooooooooooooooooo",
"##@@@@$$$$$$$@@@@@@@$$$$$$$$$$$$$$$$$$$$$$$$@@@@@@@@@@##XXooo     o oo####@@####XXoooooooooooo                                                                  XX##@@$$$$$$$$$$@@@@#Xoo                       oooXX###X##########@@@@$$$$$@@@$$$@@@@@@@@@@@$$@@@@@@@@@@@@@$$$$$$$$$$$$$$$$$$$@@$$$$$$$$$$$$$$$$@@$$$$$$$$$$$$$$$$$$$*$$$$*******************************************************************************************************************=============================================;;;;;;;;;;;;;;;;;;;;;;;;;;;;;;;;;;;;;;;;;;;;;;;;;;;;;;;;;;;;;;;;;;;;;;;;;;;;;;;;;;;;;;;;;;;;;;;;;;;;;;;;;;;;;;;;;;;;;;;;;;;;;;;;;;;;;;;;;;;;;;;;;;;;;;;;;;;;;;;;;;;;;;;;;;;;;;;;;;;;;;;;;;;;==;;;;==============================:::=========&&&&&&&&&&&&&=&&&&&&&&&&&&&&&&&&&&&&&&&&&&&&&&&&&&&&&@@@@@++++XOX+OOXXX.............................................................................XXXXXXXXXXXXXXXXXooo..oo    oooooXXXXXXXXXXXXXXXXXXXXXXXXXX#####@@@@@$$$$*=-;;;;;;;;;;;-====***$$$$$$$$$$$$$$$$$$$$$$$$$$$$$$$$$$$$$$$$$**************************************************@$@$@@@@$$@@@@@@@@@@@@@@@@@@@@@@@@@#@@@@@###@#######XXXXXXXXoo.        ooo   ooo                                                  ooXX##@$$$**********$$$@@@@#######@@$$$$*************$$$@@#####XXXXXXooooooooooooooooooooo",
"##@@@@$$$$$$$$@@@@@@@$$$$$$$$$$$$$$$$$$$$$$$@@@@@@@@@###XXoo      ooooX#########XXoooooooooo                                                                    XX##@@$$$$$$$$$$@@@@#Xoo                       oooXXXXXXXX########@@$$$$***********************************=****================*****===**==========***=**=================================================================================================;================;=;;;===;;;;;;;;;;;;;;;;;;;;;;;;;;;;;;;;;;;;;;;;;;;;;;;;;;;;;;;;;;;;;;;;;;;;;;;;;;;;;;;;;;;;;;;;;;;;;;;;;;;;;;;;;;;;;;;;;;;;;;;;;;;;;;;;;;;;;;;;;;;;;;;;;;;;;;;;;;;;;;;;;;;;;;;;;;;;;;;;;;;;;;;;;;;;;;;;;;;;;;;;;;;;;;;;;;;==;;;;;;;=============================&&&=&=&&&&&&&&&&&&&&&&&&&&&&&&&&&&&&&&&&&&&&&&&&&&&&&&&&&&&&&&&%%&&%%%%%%%%%%%+++%%%%%%++++++++++++++++++XXX.X.........................................................  ...................XXXXXXXXXXXXXXXXXX.....oo      ooooooXXXXXXXXXXXXXoooXXXXXXXX####@@@@@$$$$$**=;;;;;;;;;;;;;;;=======================================================================================================***********$$$$$$$$$$$$$@@@@@@@@@@@@@@@@@@@@@@@@@@@XXX...    oo  oooooooo                                               ooooXX##@@@$$***********$$$@@@########@@$$$$$************$$$@@@####XXXXoooooooooooooooooooo",
"##@@@@$$$$$$$$@@@@@@@$$$$$$$$$$$$$$$$$$$$$$$@@@@@@@@@###XXoo      ooooX#########XXoooooooooo                                                                    XX##@@$$$$$$$$$$@@@@##oo                       oooXXXXXXXXX#######@@$$$**********************=================================================================================;;;;;;;;;;;;;;-;;;;;;;;;;;;;;;;;;;;;;;;;;;;;;;;;;;;;;;;;;;;;;;;;;;;;;;;;;;;;;;;;;;;;;;;;;;;;;;;;;;;;;;;;;;;;;;;;;;;;;;;;;;;;;;;;;;;;;;;;;;;;;;;;;;;;;;;;;;;;;;;;;;;;;;;;;;;;;;;;;;;;;;;;;;;;;;;;;;;=========;;==================;;;=======;==================================================================***=====*&&&&****&&&&&&&&&&&&&&&&&&&&&&&&&&&&&&&@&&&&&&@@&&%%&%%@%%%%&&%%++%%%%%%%%%++%%%%%+++++++++++++++++++++++++++++++++++++++++++++++++++++++OX+++XOXXXX............................................................  . ................XXXXXXXXXXXXXXXXXXXX....oo        ooooXXXXXXXXXXXXXXoXXXXXXXXXX###@@@@@@@$$$$$*==;;;;;;;;;;;;;;;;;;;;;;;;;;;;;;;;;;;;;;;;;;;;;;;;;;;;---;;;;------------------=--=---===-======================================*====***********$***$$$**&&$$$$$@@@@@@@@@##XX..o    o   o ooooooo                               o o            ooooX###@@$$$************$$$@@########@@@$$$$$***********$$$$$@@####XXoooXoooXoooooXoooooo",
"##@@$$$$$$$$$$@@@@@@@$$$$$$$$$$$$$$$$$$$$$$@@@@@@@@@@###XXoo      o ooX#########XXooooooo                                                                       XX##@@$$$$$$$$$$$@@@##oo                        ooXXXXXoXXXX#######@@@@@$$$$$$**$****************=====================================--=-==------;;;;;;;;;;;;;;;;;;;;;;;;;;;;;;;;;;;;;;;;;;;;;;;;;;;;;;;;;;;;;;;;;;;;;;;;;;;;;;;;;;;;;;;;;;;;;;;;;;;;;;;;;;;;;;;;;;;;;;;;;;;;;;;;;;;;;;;;;;;===;;;;==;=;====================================================================================*******===============*========******&&&&$**&&&&*$$*&$$&&&&$&&&&&$$&&&&&&@&&&&&@@&&&&&&&&&&&@&&%%@&&@@&%%%@%%@@@%@%%@@%%%%%%%%%%%%%%+++++++%+++++++%+++++++++++++++%++++++++++++++++++++++++++++++++++++++++++++++++++++++++++++++++++++OOOOOOOOOOXX...XX.................. .    ......      ......  ............  ....   .  .....   .........XOOXXXXXXXXXXXXXXX......ooo o  oooXXXoooXXXXXXXXXooXXXXXXXXXX#####@@@@@$$$$$$*==---;;;;;;;;;;;;;;;;;;;;;;;;;;;;;;;;;;;;;;;;;;;;;;--=----=============================================================***********=**********$****$$$$$**$$$$$@$$$$@@@@@@@#XXXoo         oooooo.oo                           oooo            oooooXX###@@$$$$**********$$$$@@@@#######@@$$$$$************$$$$@@####XXXXXoXXXXXXXXXXXXXo",
"@@@@$$$$$$$$$$$@@@@@@$$$$$$$$$$$$$$$$$$$$$$@@@@@@@@@@###XXoo      o ooX#########XXooooooo                                                                       oX##@@$$$$$$$$$$$@@@##oo                        ooXXXXXoXXXXXXXX#####@@@@@@@@@$$$$$$$$$$$$$$$$$$$$*****************=======================================------===---;;;;;;;;;;--;;;=;=;;;;;;;;;;--;;;;--;;;;;;;;;=-;;;;=;=;;;;==;;=;--;;--=============================================*******====*******************************************$$$$$$$$$$$$$$$$$$$$$$$$$@@$$$$$$*$$$$$$$$$$$$$$$$@@@$$$$$$$$$$$$$$$$$$$$$$$$$@@@$@@@@@@@@@@@@@@@@@@@@@@@@@@@@@@@@@@@@@@@@@@@@@@@@@@@@@@@@@++++++@@@@%+++%@@@@@@@++++%+@+++++++++++++++++++++++++++++++++++++++++++++++++++++++++++++++++++++++++++++++++++++++++++OO++OOOOOOOO+OOOOOOOOOOOOOO............................      .....        ....    ........... ....       ....     ......XXXXXXXXXXXXXXXXXXXXXXX.o.oo.o...ooXXXoooooXoooooooooXooXXXXXX#####@@@@@@@$$$$$$$$$*========----==================================****====**==========*==*========****========********************************$$$*$$$$$$$$$$$$$$$$$$$$$$$$$$$@@@@@@@@@@@@@#XXXoo          ooooXooo                         ooooo            ooooooXX###@@@$$************$$$@@@@#######@@@$$$$$***********$$$$@@#####XXXXXXXXXXXXXXXXXX",
"@@@@$$$$$$$$$$$@@@@@@$$$$$$$$$$$$$$$$$$$$$$@@@@@@@@@@###XXooo     o ooX###@@####XXooooooooo                                                                    ooX##@@$$@$$$$$$$$@@@##oo                        ooXXXXXoXXXXXXXXXXX##########@@@#@@@@@@@@@@@@@@@@@$$$$$$$$$$$$$$$$$$$$$$********$****************=*================================================================************************************************************$**$$$$$$$@$@$$$$@@@@@@@@$$@@@@@@@@@@$@@@@@@@@@@@@@@@@@@@@@@@@@@@@@@@@@@@@@@@@@@@@@@@@@@@@@@@@@@@@@@@@@@@@@@@@@@@@@@@@@@@@@@@@@@@@@@@@@@@@@@@@@@@@@@@@@@@@@@@@@@@+@@@@@@@@@+@@++++@@@++++@@+++++++++++++++++++++++++++++++++++++++++++++++++++++++++++++++++++++++++++++++++++++++++++++++++++++++++++++++++O+OOO+++++OOOOOOOOOOOOOOOOOOOOOOOOOOOOOOOOOOOOOOO....................  .... .....      .           .       ...... ...  ......  ....    ......OOOOO+++XXXXXXXXXXXXXXXXXX..oooo ooo.oooooooooooooooooo.XXXXXXXXXX####@@@@@@@$$$$$$$$$$$$$$**********$$$***$$$$$$$$$$$$$$$$$$$$$$$$$$$$$$$$$$$$$$$$$*$$$$$$@@@@@$*$$$$$$$$$$$$$$@@@@@@@@@@@@@@@@@@@@@@@@@@@@@@@@@@@@@@@@@@@@@@@@@@@@@@@@@@@@@@@@@@@@@+++@####XXXooo          ooooooo                        ooooooo            o   ooXXXX###@@$$************$$$$@@########@@@$$$$*************$$$$@@####XXXXXXX########X",
"@@@@$$$$$$$$$$$@@@@@@$$$$$$$$$$$$$$$$$$$$$$@@@@@@@@@@###XXooo     o ooX###@@####XXXoooooooo                                                                     oX##@@@$@@$$$$$@@@@@##oo                        ooXXXXoooooXXXXXXXXXXXX#XXX#####################@@#@@@@@@@@@@@@@@@@@@@@@@@@@@@@@@@@@$$$$@@@@$$$@$$$$$$$$$$$$$$$$$$$$$$$$$$$$$$$$$$$$$$$$$$$$$$$$$$$$$$$$$$$$$$$$$$$$@@@@$$$$@@@@$$$$$$@@$$$$@@@@@@@$@@@@$$$$@@@@@@@@@@@@@@@@@@@@@@@@@@@@@@@@@@@@@@@@@@@@@@@@@@@@@@@@@@@@@@@@@@@@@@@@@@@@@@@@@@@@@@@@@@@@@@@@@@@@@@@@@@@@@@@@@@@@@@@@@@@@@@@@@@@@@@@@@@@@@@@+@@@@@@@@@@++@@@@@@@@@@++@+@@@@++++++++++@@@@++++++++++++++++++++++++++++++++++++++++++++++++++++++++++++++++++++++++++++++++++++++++++++++++++++++++++++++++++++++++++++OOOO+++++OOOOO++++OOOOOOOOOOOOOOOOOOOOOOOOOOOOOO..O...................... .   . .. .....      ..                .     ..      ......  ....    .. ....OOOO++++XXX+XXXXXXXXXXXXXXXXXooooo ooooooooooooooooooo.oXXXXXXXXX#######@@@@@@@$$$$$$$$$$$$$$$$$$$$$$$$$$$$$$$$$$$$$$@@$@@@$@@@@@@@@@@@$@@@@@@@@@@@@@@@@@@@@@@@@@@@@@@@@@@@@@@@@@@@@@@@@@@@####@@@@##@#####@@##############X#X+XXXX######XX#########X##XXXXXXXXoo             o.ooXoo                     oooooooooo              oooooXX##@@@@$$$***********$$$@@@######@@@@$$$$$************$$$@@######XXXX##########",
"@@@@$$$$$$$$$$$@@@@@@$$$$$$$$$$$$$$$$$$$$$$@@@@@@@@@@###XXoo    o ooooX###@@####XXXooooooooo                                                                    XX##@@@@@@$$$$$@@@@@##oo                        oooooooooooooooooooXooXXXXXXXXXXXXXXXXXXXXXXXXXXXXX#################################@@@@##@@@@@@@@@@@@@@@@@@@@@@@@@@@@@@@@@@@@@@@@@@@@@@@@@@@@@@@@@@@@@@@@@@@@@@@@@@@@@@@@@@@@@@@@@@@@@@@@@@@@@@@@@@@@@@@@@@@@@@@@@@@@@@@@@@@@@@@@@@@#@@@@@@@@@@@@@@@@@@@@@########@###############@#############+######++@#+###++###++++++###++++++###+#+++++++++++++++++++++++++++++++++++++++++++++++++++++++++++++++++++++++++++++++++++++++++++++++++++++++++++++++++++++++++++++++++++++++++++++++++++++++++++++++++++++++++++++++OOOO++++++++OOOOOOOOOOOOOOOOOOOOOOOOOOOOOOOOOOOOOOOOOOOOOO...........................       .......                        .  ..            ....  ...   ........OOO+++++++++++XXXXXXXXXXXXXXXXXooo..o.ooooooooooo.oooooXXXXXXXXXXXXX########@@@@@@@@@@@@@@$@@@@@@@$$@@@@@@@@@@@@@@@@@@@@@@@#@@@@######################@########################XXXXXXXXXXXXXXXXXXXXXXXXXXXXXXXXXXX..XXooXXXXoo..XX.oXXXX.........ooo.....        o              oooXXooo                   ooooooooo                ooooooXX###@@@$$$***********$$$$@@@@####@@@@@$$$$$$***********$$@@@########@@@@@@@@#",
"@@@@$$$$$$$$$$$@@@@@@$$$$$$$$$$$$$$$$$$$$$$@@@@@@@@@####XXooo     ooooX###@@####XXXooooooooo                                                                    XX##@@$$@@$$$$$$@@@@##oo                        ooooooooooooooooooooooooXooooooooooooooXXXXXXXXXXXXXXXXXXXXXXXXX###################################@#####################@###########@@@###@@@@@#@@@###@@@@@@@@@@@@@@@@@@@@@@@@#@@@@#@@@@@@@@@@@@@@@@@@@@@@@@@@@#####@@@#####@@@@###################################################################X############+######+++###++++++##+++++++++++++++++++++++++++++++++++++++++++++++++++++++++++++++++++++++++++++++++++++++++++++++++++++++++++++++++++++++++++++++++++++++++++++++++++++++++++++++++++++++++++++++++++OOOO++++++OOOOOOOOOOOOOOOOOOOOOOOOOOOOOOOOOOOOOOOOOOOOOOO.....O....................        .. .                           ..                ...  ...   .... ...OO++++++++++++XXXXXXXXXXXXXXXXXXooo..ooooooo  o..o..o...XXXXXXXXXXXXX#############@@@@@@@@@@@@@@@@@@@####@@@##################################################XX####XXXX#XXXXXXXXXXXXXXXXXXXooXXXXXXooooXXXXXXXXX...ooXo..o.......oooooo.. .ooooooooo...o.ooo         oo          ooXoooo                  oooooooo                  ooooooX####@@@$$$***********$$$$@@@#######@@@$$$$$$***********$$$@@@#####@@@@@@@@@@",
"@@@@$$$$$$$$$$$@@@@@$$$$$$$$$$$$$$$$$$$$$$@@@@@@@@@@####XXoooo     oooX###@#####XXXooooo    o  o                                                                oo##@@@$@$$$$$$@@@@@#Xoo                        oooooooooooooooooo   oo            ooooooooooooooooooooooooooXXXXXooXXXXXXXXXXXXXXXXXXXXXXXXXXXXXXXXXXXXXX###XXXXXXXX##################################################################################################################################X###X####################XX#####X++###+XX#X+++++++XXX++##+++++#####++##++++++++++++++++++++++++++++++++++++++++++++++++++++++++++++++++++++++++++++++++++++++++++++++++++++++++++++++++++++++++++++++++++++++++++++++++++++++++++++OOOO+++++++++O++++++++OOOO++++++++O++++OOO+OOOOOOOOOOOOOOOOOOOOOOOOOOOOOOOOOOOOO.O........O........................      .....     ...                          ...             ..    ........O+%%&&&&%%++++XXXXXXXXXXXXXXXXXXXXXXoo  ooo  ooooooo.oXXXXXXXXXXXXXXXX##########################################################XX##XXXXXXXXXXXXXXXXXXXXXXXXXXXXXXXXXXXXXXXXXXXXXXXoXXXXXXXXoooXXXoo..ooXXo..oo...o.....   .oo...oooo                                             ooooXXoooo                 ooooooooo            o    ooooooXXX###@@@$$$***********$$$$@@@#######@@@@$$$$***********$$$$@@@@@$$$$$$$$$$",
"@@@@$$$$$$$$$$$$@@@@$$$$$$$$$$$$$$$$$$$$$$@@@@@@@@@@####XXooo       ooX###@#####XXooooooo                                                                       oX##@@@$$$$$$$$$@@@@#Xoo                        ooooooooooo ooooo                   oooo oooooooooooooooooooooooooooooooXXXXoXXXXXXXXXXXXXXXXXXXXXXXXXXXXXXXXXXXXXXXXXXXXXXXXXXX######################################################################################################################XX##XX############X#XX#####X####XXXX+#XXXX+XXX+XXX++XX++++++XX++XXXX+++X++++++X+++++++++++++++++++++++++++++++++++++++++++++++++++++++++++++++++++++++++++++++++++++++++++++++++++++++++++++++++++++++++++++++++++++++++++++++++++++++OO+++++++++O++++++++OOOOOO+O+OOOOOOO+++OOOOOOOOOOOOOOOOOOOOOOOOOOOOOOOOOOOOOO...........O........................      ...                                    ..             ...    ........O+%&&&&&&&%+++XX#XXXXXXXXXXXXXXXXXXXo.ooooo oooo..ooooooXXXXXXXXXXXXXXX###############################################XX####XXXXXXXXXXXXXXXXXXXXXXXXXXXXXXXXXXXXXXXXXXXXXXXXXXXXXXXoXXXXXXXooo.oooo...oX....oo.......o      ....                                                   o ooXXoXoo                oooooooooo oo             oooooooXXX###@@@@$$***********$$$$$@@@#######@@@$$$$*************$$$@@@$$$$$$$$$$",
"@@@@$$$$$$$$$$$@@@@@@$$$$$$$$$$$$$$$$$$$$$@@@@@@@@@@####XXooo     ooooX#########XXoooooooo                                                                      oX##@@$$@@$$$$@@@@@@#Xoo                         ooooooooo                                ooo    o o oooooooooooooooooooooooooooXXXXXXXXXXXXXXXXXXXXXXXXXXXXXXXXXXXXXXXXXXXXXXXXXXXXXXXXXXXX####XXXX############X###XXX#####X#######XX##############XXX#####X#####################XX#X#####XXX##XXXXXXXXXXXXXX##XX#XXXXXXXXXXXX#XXXXXXXXXXXXXXXXXXXXXXXXXXXX+XX+XXXX++++++O+XXXX++XXXX++O+++XX++++++++++++++++++++++++++++++++++++++++++++++++++++++++++++++++++++++++++++++++++++++++++++++++++++++++++++++++++++++++++++++++++++++++++++++++++++++++OO+++++OO++OOOOOOOOOOOOOOOOOOOOOOOOOOOOOOOOOOOOOOOOOOOOOOOOOOOOO........O...O...........................    . ..                                               . .  .. ... .......O++%&&&&:&&%+++X##XXXXXXXXXXXXXXXXXXXo..ooo ..oo..o..oooXXXXXXXXXXXXXXXXXX##################################XXXXXXXXXXXXXXXXXXXXXXXXXXXXXXXXXXXXXXXXXXXXXXXXXXXXXXXXXXXXXXXXXXoooXXoooooXoooo...oooo...o......oo....oooo    oo                                                        oooXXXoo                ooooooooooooo                ooooooXX####@@$$$************$$$$@@@@#####@@@@$$$$$**********$$$$$$$$$$$$$$$$",
"@@@$$$$$$$$$$$$@@@@@@$$$$$$$$$$$$$$$$$$$$$@@@@@@@@@@####XXooo     ooooX#########XXooooooo                                                                       oo##@@@$@$$$$$@@@@@@#Xoo                          ooooo                                    o       o  ooooooooooooooooooooooooooXXXXXXXXXXXXXXXXXXXXXXXXXXXXXXXXXXXXXXXXXXXXXXXXXXXXXXXXXXXXXXXXXXXXXXXXXXXXXX##XXXXXXXX####XXXXXXXXXXXXXXXXXXXXXXXXXXXX###XXXXXXX#X###XXXXX###XXXXXXXXX#XXXXXXXXXXXXXXXXXXXXXXXXXXXX#XXXXXXXXXXXXXXXXXXXXXXXXXXXXXXXXXXXXXXXXXXOXXXOOO++OOOXXXX++XXXX++OO+++X++O+++++++++++++++++++++++++++++++++++++++++++++++++++++++++++++++++++++++++++++++++++++++++++++++++++++++++++++++++++++++++++++++++++++++++++++++++++++++OOOO+O+++OOOOOOOOOOOOOOOOOOOOOOOOOOOOOOOOOOOOOOOOOOOOOOOOOOOOOO.O...OO.O..OOO...........................  ....                          .                   ..     .............++++%%&&&&&&%+++++XXXXXXXXXXXXXXXXXXXXo.oo. .ooo....oXXXXXXXXXXXXXXXXXXXXXXXX###XX##############XX#X#XXX#X#XXXXXXXXXXXXXXXXXXXXXXXXXXXXXXXXXXXXXXXXXXXXXXXXXXXXXXooXXXXooXooooooooooooooooooo...o..........ooooooooo                                                         oo          oXXXXoo               ooooooooooooooo  oo         o ooooooXX###@@$$$$************$$$@@@@@######@@$$$$$************$$$$$$$$$$$$$",
"@@@@$$$$$$$$$$$$@@@@@$$$$$$$$$$$$$$$$$$$$$@@@@@@@@@#@###XXXooooo   oooX#########XXoooooooo                                                                      oo##@@$$@@$$$$@@@@@@#Xoo                          oooo                                                ooooooooooooooooooooooooXXoXXXXXXXXXXXXXXXXXXXXXXXXXXXXXXXXXXXXXXXXXXXXXXXXXXXXXXXXXXXXXXXXXXXXXXXXXXXXXXX####XXXX#XXXXXXXXXXXXXXXXXXX#XXXXXXXXXXXXXXXXXXXXXX###XXXXX###XXXXXXXXXX####XXXXXXXXXXXXXXXXXXXXXXXXXXXXXXXXXXXXXXXXXXXXXXXXXXXXXXXXXXXXXXOOXXOOXOXXXXOOOOXXOOOO+XXXX+++OO++OOOO++++++++++++++++++++++++++++++++++++++++++++++++++++++++++++++++++++++++++++++++++++++++++++++++++++++++++++++++++++++++++++++++++++++++++++++++++OOO++++++O++++++++++++OO+++OO+OOOOOOOOOOOOOOOOOOOOOOOOOOOOOOOOOOOOOO..OO....OO.OOOO...............................                       .    .                          .............OO+++%%&&&&&&%+++++#XXXXXXXXXXXXXXXXXXooo.o.. oooXXXXXXXXXXXXXXXXXXXXXXXXXXXXXX#XXXXXX##XXXXXXXXXXXXXXXXXXXXXXXXXXXXXXXXXXXXXXXXXXXXXXXXXXXXXXXXXXXXXXXooXXoXoXXooooXXoooooooooo..oooooooooo.o..oo..........o   o                                                            oo o         oXXXXoo                oooooooooooooo                oooooXXXX##@@@$$$************$$$$@@@######@@@$$$$*************$$$$$$$$$$$",
"@@@@$$$$$$$$$$$$@@@@@$$$$$$$$$$$$$$$$$$$$$@@@@@@@@@#@###XXooooo    oooX#########XXoooooooo                                                                     ooo##@@@$@@$$$$@@@@@@#Xoo                          oooo                                                  oooooooo  ooooooooooooXXooXXXXXXXXXXXXXXXXXXXXXXXXXXXXXXXXXXXXXXXXXXXXXXXXXXXXXXXXXXXXXXXXXXXXXXXXXXXXXXX###XXXXXXXXXXXXXXXXXXXXXXXXXXXXXXXXXXXXXXXXXXXXXXXXX#XXXXXXX#XXXXXXXXXXXXXXXXXXXXXXXXXXXXXXXXXXXXXXXXXXXXXXXXXXXXXXXXXXXXXXOXXXXXXXXX+XXXXXXOOOXXOOXOOOOOOOOOOOOOXXXX++OOO+OOOO+O++O++++++++++++++++++++++++++++++++++++++++++++++++++++++++++++++++++++++++++++++++++++++++++++++++++++++++++++++++++++++++++++++++++++++++++++++O++++++++++++++++++OOOO++OOOO++OOOOOOOOOOOOOOOOOOOOOOOOOOOOOOOOOOOO..OO....OO.OOOO.................................                          .              ...      . ..............OOOO++%%%%&&&%+++++++XXXXXXXXXXXXXXXXXXXoo..ooooXXXXXXXXXXX#####XXXXXXXXXXXXXXXXXXXXXXXXXXXXXXXXXXXXXXXXXXXXXXXXXXXXXXXXXXXXXXXXXXXXXXXXXXXXXXXXoXXXoooooXXoooXooooooXoooooooooo..oooo...ooo   o......  .ooo                                                                 oo o          oXXXXXoo                oooooooooooooooooooo  o      ooooooXX###@@@$$$$***********$$$$@@@@#####@@@$$$$$$***************$$*$$$",
"@@@@@$$$$$$$$$$$@@@@@$$$$$$$$$$$$$$$$$$$$$@@@@@@@@@#####XXoo  o    oooX###@@####XXXooooooo                                                                      oo##@@@$@@$$$@@@@@@@#Xoo                                                                             o      oooo  ooooooooooooXXoooXXXXoXXXXXXXXXXXXXXXXXXXXXXXXXXXXXXXXXXXXXXXXXXXXXXXXXXXXXXXXXXXXXXXXXXXXXXXXXXXXXXXXXXXXXXXXXXXXXXXXXXXXXXXXXXXXXXXXXX##XXXXXXXXXXXXXXXXXXXXXXXXXXXXXXXXXXXXXXXXXXXXXXXXXXXXXXXXXXXXXXXXXXXXXXXXXXXXXXXXOXXXXXXXXX+XXXXXXXOOOOOOXXXXXXXOOOOOOXXXOOOXOOOOOOOOOOOOO+++++++++++++++++++++++++++++++++++++++++++++++++++++++++++++++++++++++++++++++++++++++++++++++++++++++++++++++++++++++++++++++++++++++++++++++++++++++++++++++++++++++OOOO++OO+O+OOOOOOOOOOOOOOOOOOOOOOOOOOOOOOOO.OOO....O........................................ .    ..         .               .... .......o.o........oo....XXXXOX+++++%%&&&%%++++#X#XXXXXXXXXXXXXXXXXX...ooooXXXXXXXXXX########XXXXXXXXXXXXXXXXXXXXXXXXXXXXXXXXXXXXXXXXXXXXXXXXXXXXXXXXXXXXXXXXXXXXXXoXXXXXooooXXXXoooooooooo.Xoo..oooo.oooo...o.o...oo      oo        o                                                                                .oXXXXXoo                 oooooooooooooooooooooo  o     ooooooo####@@$$$$***********$$$$@@@@@####@@@@$$$$$$***************$$$",
"@@@@@$$$$$$$$$$$@@@@@$$$$$$$$$$$$$$$$$$$$$@@@@@@@@@#####XXoo       oooX###@@####XXoooooooo                                                                      oX##@@@$@@$$$@@@@@@@#Xoo                                                                        oo   o     ...oooooooooo.o.ooo.XooooXXXoXXXXXXXXXXXXXXoXXXXXXXXXXXXXXXXXXXXXXXXXXXXXXXXXXXXXXXXXXXXXXXXXXXXXXXXXXXXXXXXXXXXXXXXXXXXXXXXXXXXXXXXXXXXXXXXXXXX##XXXXXXXXXXXXXXXXXXXXXXXXXXXXXXXXXXXXXXXXXXXXXXXXXXXXXXXXXXXXXXXXXXXXXXXXXXXXXXXXOXOXXXXXX+XXXXXXXOXOOOOXXXXXXOXOOOOOXOOOOOXOOOOO++OOOOOO++++++++++++++++++++++++++++++++++++++++++++++++++++++++++++++++++++++++++++++++++++++++++++++++++++++++++++++++++++++++++++++++++++++++++++++++++++++++++++++++++++++++++++++++++++++OOOO+OOOOOOOOOOOOOOOOOOOOOOO.OOO....O.OOOO................................. .      ..  ...........    .   ... .......................X....XXX.XOOOO+++++%%&&%++++####XXXXXXXXXXXXXXXXXX.o....oXXXXXXX###########XXXXXXXXXXXXXXXXXXXXXXXXXXXXXXXXXXXXXXXXXXXXXXXXXXXXXXXXXXXXXXXXXXXXXXXXXXXooooXXXooo.....oXX.oooo..o....oo.... oo   oooo.    o                                                                                           ooXXXooo                   oooooooooooooooooo  oo   oooooooooXX###@@$$$$************$$$@@@@@#####@@@@$$$$$$$***************",
"@@@$$$$$$$$$$$$$$@@@$$$$$$$$$$$$$$$$$$$$$$@@@@@@@@@#####XXooo       ooX#########XXooooooooo                                                                     oo##@@$@@@$$$@@@@@@@#Xoo                                                                        o  o   o oo..oo.oooo..oooooooooo.oo.XXXXooXXXXXXooXXXXXXXXXXXXXXXXXXXXXXXXXXXXXXXXXXXXXXXXXXXXXXXXXXXXXXXXXXXXXXXXXXXXXXXXXXXXXXXXXXXXXXXXXXXXXXXXXXXXXXXXXXXXXXXXXXXXXXXXXXXXXXXXXXXXXXXXXXXXXXXXXXXXXXXXXXXXXXXXXXXXXXXXXXXXXXXXXXXXXXXXXXXXXXXXXXXOXXXXXXXXXOOOOOXXXXOOXOXOOXOOOOOOOOOOOOOOOO++++++++++++++++++++++++++++++++++++++++++++++++++++++++++++++++++++++++++++++++++++++++++++++++++++++++++++++++++++++++++++++++++++++++++++++++++++++++++++++++++++++++++++++++++++++O+OOOOOOOOOOOOOOOOOOOOOOOOOOOOOOOO..OO.................XO.OOX...........XXX.............    ..    .........................oooo.......XXXXXXXXXXXXXXXXXO++O+++%%&&%%+++#X#+XXXXXXXXXXXXXXXXXXXXXXooXXXXXX####@@@@@@@##XXXXXXXXXXXXXXXXXXXXXXXXXXXXXXXXXXXXXXXXXXXXXXXXXXXXXXXXXXXXXXXXXXXXXXXXXXXXooXXXXoo.XX..oXXXoooo.oooo.o....o.o. .    ..    ..                                                                                              oXXXooo                 oooooooooooooo             ooo  ooooXXX###@@$$$$************$$$$@@@#######@@@@$$$$$$************",
"@@@$$$$$$$$$$$$$@@@@$$$$$$$$$$$$$$$$$$$$$$@@@@@@@@######XXoo        ooX#########XXooooooooo                                                                     oo##@@@@@@@$$$@@@@@@#Xoo                                                                                oooooooooooo oo oooooooooooooXXXooXXXXXXooooXoXXoXXoXXXXXXooXXXXXXXXXXXXXXXXXXXXXXXXXXXXXXXXXXXXXXXXXXXXXXXXXXXXXXXXXXXXXXXXXXXXXXXXXXXXXXXXXXXXXXXXXXXXXXXXXXXXXXXXXXXXXX##XXXXXXXXXXXXXXXXXXXXXXXXXXXXXXXXXXXXXXXXXXXXXXXXXXXXXXXXXXXXXXXXOOXXXXXXXXX+OOOOXXX+OOXXOOOOOOOOOOOOOOOOOOO+++++++++++++++++++++++++++++++++++++++++++++++++++++++++++++++++++++++++++++++++++++++++++++++++++++++++++++++++++++++++++++++++++++++++++++++++++++++++++++++++++++++++++++++++++++++++OOOO+OOO++OOOOOOOOOOOOOOOOOOOOOOOOOO...O..............OO.OXXXOOOOOO.XOXXXXXo.............. ..o..............o.o...........XX.X....XXXXXXXXXXXXXXXXXXXO++++++%%%&&%+++###+#X##XXXXXXXXXXXXXXXXXXXoXXXXXX###@@@@@@@@@##XXXXXXXXXXXXXXXXXXXXXXXXXXXXXXXXXXXXXXXXXXXXXXXXXXXXXXXXXXXXXoooXX.XXXXXXXXooXoXXooXXXX.ooooo.ooooooooo.....oo.......  ......                                                                                              ooXXXoo                 oooooooooooooooooo              ooooooXX###@@@$$$$************$$$$@@@#####@@@@@$$$$$$$**********",
"$@@$@$$$$$$$$$$$@@@@$$$$$$$$$$$$$$$$$$$$$$@@@@@@@#######XXoo        ooXX########XXooooooooo                                                                     oo##@@@@@@$$$$@@@@@@#Xoo                                                       o     ooo ooooo        oooooo oo.oo  ... ..ooooooooooXXXXXX..XXXXX.oooXooooXooo..XXXXX..XX.XXXXXXXXXXXXXXXXXXXXXXXXXXXXXXXXXXXXXXXXXXXXXXXXXXXXXXXXXXXXXXXXXXXXXXXXXXXXXXXXXXXXXXXXXXXXXXXXXXXXXX####XXXXXXXXXXXXXXXXXXXXXXXXXXXXXXXXXXXXXXXXXXXXXXXXXXXX+XX+OOXXXXXX+++XOOXXXXXX+X++XX+++OXXOOOOOOOOOOOOOO+O++++++++++++++++++++++++++++++++++++++++++++++++++++++++++++++++++++++++++++++++++++++++++++++++++++++++%%%+%%++++++++++++++++%+++++%%%%++++%%%+%%++++++++++++++++++++++++++++++++++++++++++++++++++++++O+++O+OOOOOOOOOOOOOO..OOOOOOOOO.OOOOOOOOXXX+X###@######@@@@@#XXXXX................oo.....................XXXX.XXXXXXXXXXXXXXXXXXXXXXXXXXXX+O+XO+++%%&&%%+++++#####XXXXXXXXXXXXXXXXXXXXXXXXX####@@@@@@@####XXXXXXXXXXXXXXXXXXXXXXXXXXXXXXXXXXXXXXXXXXXXXXXXXXXXXXXoooXXooXXXXooXoXXXXXXooooXX.X..oooooooooo..ooXo....oooo.............. .....                                                                                          ooXXoooo                oooooooooooooooooooo        ooooooooooXX###@@@$$$*************$$$$@@########@@@@@$$$$$********",
"$@@$@$$$$$$$$$$$@@@@$$$$$$$$$$$$$$$$$$$$$$@@@@@@########XXoo        ooXX########XXooooooooo                                                                     oo##@@@@@@$$$$@@@@@@#Xoo                                                               o ooooooooooo oo.oooo oo ooo  .....ooooo.XX..oXXXX...XXX.....XXXXoooooooooXXX..XXX...XXXXXXXXXXXXXXXXXXXXXXXXXXXXXXXXXXXXXXXXXXXXXXXXXXXXXXXXXXXXXXXXXXXXXXXXXXX#XXXXXXXX######XX##XXXXXX#####XXXXX#XXXXXXXXXXX##X###XXXX###XXXXX#XXXXXXXXXX+XXXX+X++OOOOXXX+++++++++XXXXXX++X+++OOXXOOOOOOOOOOO+++++++++++++++++++++++++++++++++++++++++%+++++++++%%%%%%++++%%%%++++++++++%%%%++++++%%++%%%%++++%%%%%%%%++++%%%%%%%%++++%%%%%%++++%%%%++%%%%++++%%%%%%%%+++++++++++++++++%%%%+++++++++++++++++++++++++++++++++++++++++OO+OOOOOOOOOOOOOOOOOOOOOOOOOOOXXX+@@@@@@@@@@@@$$@@@#XXXX...............................XXX....XXXXXXXXXXXXXXXXXXXXXXXXXXXX##XXXXXXOO++++%%%&&%++##++#####X####XXXXXXXXXXXXXXXXXXXX##########XX#XXXXXXXXXXXXXXXXXXXXXXXXXXXXXXXXXXXXXXXXXXXXXXXXXXXXXXXXXXXXXooooXXXXXXXXXXXXXoooXXXXXXoooo....XXX.o.Xooo..oo...o..........ooo........oo..ooo......                                             .....                          ooooooo                 oooooooooooooooooooooo   o  oooooooooXX###@@@$$$**************$$$@@@@@#####@@@@@$$$$$$******",
"@@@@$$$$$$$$$$$@@@@@@$$$$$$$$$$$$$$$$$$$$$@@@@@@########XXoo        ooXX########XXooooooo                                                                       ooX##@@@@@@@$@@@@@@@#Xoo                                                                ooooooo.ooooooo.Xooooooo o  o..o..oooo..X.......X...XX....XXoXXX...X....XXXXXXXXXXXXXXXXXXXXXXXXXXXXXXXXXXXXXXXXXXXXXXXXXXXXXXXXXXXXXXXXXXXXXXXXXXXXXXXXXXXXXXXX###XXX##########################XXX#####XXXX########XX###########+XX++++++XXXX++++XX++++X+++++++++X++++XX++++++++++OO+++OOOOO+++++++++++++++++++++++++++++++++++++++++++%%++++%+++++%%%%+++++%%%%%+++++++%%%++++%%%%++++%%++++%%+%++%%%%++%%%%%%%%%%%%+%%%%%%+%+%%%%%%%+%%++++%%++++%%%%%%%+%+%%%%++++%%%%%%%%++%%+++%%+++++++++++++++++++++++++++++++++++OOOOOOOOOOOOOOOOOOO+XX+++++++&$*==*$$$@$$$**$$@@#XXXXX....XXXX....XXXX.....XXXXXXXXXXXXXXXXXXXXXXXXXXXXXXXXXXXXXXXXXXXXX#XXXXXXXX+++++%&&&%%++++####XX#######XXXXXXXXXXXXXXXXXX#######XXXXXXXXXXXXXXXXXXXXXXXXXXXXXXXXXXXXXXXXXXXXXXXXXXXXXXXXXXXXXXXXXXXXXXXXXXXXXXXXXXXXXXXXXXXXXXXXXXXXXXXXXXXXXXXXXXXXXXXXXoXXXXX.XXXXooooXXXXooooooooooooooooooooXooooooo.   ooo o                    .oXX.......                      oooooo                 oooooooooooooooooooooo  o  o   ooooooXXXX####@@$$$$************$$$$@@@#######@@@@$$$$$$****",
"@@@@$$$$$$$$$$$@@@@@@$$$$$$$$$$$$$$$$$$$$$@@@@@@@@######XXoo        ooXX########XXoooooo                                                                        ooX##@@@@@$@$@@@@@@@#Xoo                                                                  ooooo.ooooooXXXXXooo..   o...o..oo.X..............XX..X.XX.......o..X...XXXXXXX..X.XXXX.X...XXXXXXXXXXXXXXXXXXXXXXXXXXoXXXXXXXXXXXXXXXXXXXXXXXXXXXX###XXXX#################################################################+#####+++++++##+#++++++++++++++++++++++++++++++++++++++++++++O++++++++++++++++++++++++++++++++%++++%%%%+%++%%%%%%%%%%%%%%%%++++%%%%%%%%%%%%%%%%+%%%%%%%%%++%%%%%%%%%%%%%%%%%%%%%%%%%%%%%%%%%%%%%%%%%%%%%%%%%%%%%%%%%%%%%%%%%%%%%%%%%%%%%%%%%%%%%%%%%%%%%%%%%%%%++%%%%++%%%%+++++++++++++++++++O++OOOOOOOOOOOOO++++++++++@&&=====*$$$$***$$$@@#XXXXXXXXXXXXXXXXXXXXXXXXXXXXXXXXXXXXXXXXXXXXXXXXXXXXXXXXXXXXXXXXXXXXXXXX#X#XXXX+++++%%%&&&%+++++###XX#####XXXXXXXXXXXXXXXXXXXXXX##XXXXXXXXXXXXXXXXXXXXXXXXXXXXXXX############################XXXXXXXXXXXXXXXXXXXXXXXXXXXXXXXXXXXXXXXXXXXXXXXXXXXXXXXXXXXXXXXXXXXXXXXXXXXXXXXXXXXXXXXXXXXXXXXXXXXXXXXXXXXXXXXXXXoooooo.oooo                 oXXXX......                      oooooo                   ooooooooooooooooooooooooo   ooooooooXX####@@$$$$*************$$$$@@@########@@@@$$$$$***",
"@@@@$$$$$$$$$$$@@@@@@@$$$$$$$$$$$$$$$$$$$@@@@@##@@@#####Xoooo       ooXX########Xooooooo                                                                        ooX##@@@@$$$@@@@@@@@#Xoo                                                                        ooooooXXXXXXoo..  o....o...XX......XXXXXXX..XXXX.XXX......XooXXX....X.XX...X.XXXX.......XXXXXXXXXXXXXXXXXXXXXXXXoXXXXXXXXXXXXXXXXXXXXXXXXX########################@@#########@##############@@@@#@####@@@@@@##@@@@@@@#@##@@@@@#@@@@@++++++#+##+#++#+++++++++++++++++++++++++++++++++++++++++++++++++++++++++%%%%%%%%%%%%%%%%%%%%%%%%%%%%%%%%%%%%%%%%%%%%%%%%%%%%%%%%%%%%%%%%%%%%%%%%%%%%%%%%%%%%%%%%%%%%%%%%%%%%%%%%%%%%%%%%%%&&%%%%%%%%%%%%%%%%%%%%%%%%%%%%%%%%%%%%%%%%%%%%%%%%%%%%%%%%%%%%%%%%%%%%%+%%%%++++++++++++++OOOOOOOO+++++@@@$$$&&&=======***$$******$@@#XXXXXXXXXXXXXXXXXXXXXXXXXXXXXXXXXXXXXXXXXXXXXXXXXXXXXXXXXXXXXXXXXXXXXX#XXXXXXXXX++++%%%&&&%%+++#+##+#####XXXXXXXXXXXXXXXXXXXXXXXXXXXXXXXXXXXXXXXXXXXXXXXX###@####@@@##@@@@##@@@@@#@@########@@@@@@@@@###@@##########++##################X+##XX########XX##XXXXXX#XXXXXXXXXXXXXXXXXXXXXXXXXXXXXXXXXXXXXXXXXXXXXXXXXooo.o.oo               oooXXXXXXX....                      oooooo                   oooooooooooooooooooooooo    ooooooooXX#X##@@@$$$*************$$$$$@@@@#####@@@@@@$$$$*",
"@@@@$$$$$$$$$$$@@@@@@@$$$$$$$$$$$$$$$$$$$@@@@@##@@######Xooo        ooXX########Xooooooo                                                                        ooX##@@@@@$$@@@@@@@@#Xoo                                                                            ooXXXXXXXo..oo.........XXX.....XXXXXXXX.XX.X.XXX......Xoo.........XXX.XX.X..XXX.....XXXXXXXXXXXXXXXXXXXXXXXXXXXXXXXXXXXXXXXXXXXXXXXXX##############@@@@@@@@@@@@@@@@@#@@@@@@@@@@@@@@@@@@@@@@@@@@@@@@@@@@@@@@@@@@@@@@@@@@@@@@@@@@@@@@@@@@@@@@@@@@@@@@@&&@@@&&&&&&%+++++++++++++++++++++++++++++++%+%%%%%%%%%%%%%%%%%&&&&%%%%%%%%%%%%%%%%%%%%%%%%%%%%%%%%%&&&&%&&&&%%%%%&&&&&&&%%%%&&&&&&%%%%%%%%%%%%&&%%%%%%%%%&&&&&&&&&&&&&&&&&&&&&&&&&&&&&&&&&&%%&&%%%%%&&&&%%%%%%%%%%%%%%%%%%%%%%%%%%%%%%%%%%%%%%%%%%%%%%%%++++++++++OOOOOO++++@&*============***$$$$*******$@@#XXXXXXXXXXXXXXXXXXXXXXXXXXXXXXXXXXXXXXXXXXXXXXXXXXXXXXXXXXXXXXXXXX#XX##XX++XXOX+++++%%&&&&%+++#++#######XXXXX###XXXXXXXXXXXXXXXXXXXXXXX##XXXXXXXXXXXXX##@@@@@@@@@@@##@@@@##@@@@##@@###@####@@@@@@@@@@@@@@@@####@#@####@@######+++########+#XX#####X#XXXXXXXXXXX##XXXXXXXXXXXXXXXXXXXXXXXXXXXXXXXXXXXXXXXXXXXXXXoo..ooooo                   .XXXXXXXXX...                     oooooo                   ooooooooooooooooooooooo      oooooooXXX####@@$$$***************$$$@@@@@#######@@@$$$$",
"@@@@$$$$$$$$$$$$@@@@@$$$$$$$$$$$@$$$$$$$$$@@@@@#@#######XXoo        oooX#######XXoooooooooo                                                                     ooX##@@@$$$$@@@@@@@##Xoo                                                                    oo       .....o.oooo........OOOOOOOOOOOOOOOOOOOOXOX....X............XX............XXXX..XXXXXXXXXXXXXXXXXXXXXXXXXXXXXXXXXXXXXXXXXXXXXXXXXXX###@@@@@@@@@@@@@@@@@@@@@@@@@@@@@@@@@$$$@@@@$$$@@@@@@@@@$$@@$$$$@@$$@@@@$$@$@$$$$$$$$$$$$$$$$$$$$$$$@&&&&&@@&&&&====&&===&&&&&&&&&&&&+++++++++++++++++%%%%%%%&&%%&&&&&%%%&&&&&&&&&&&&&&&&&&&&&&&&&&&&&&&&&&&&&&&&&&&&&&&&&&&&&&&&&&&&&&&&&&&&&&&&&&&&&&&&&&&&&&&&&&&&&&&&&&&&&&&&&&&&&&&&&&&&&&&&&&&&&&&&&&&&&::&&::::&&::&&:::&&&&&&&::&&::::&&&:::&&&&&&&&&&&&::&&&:::&&&&&&&%%+++++++++++@@&&==========&&&$$$$$@@$$$$$$$$@@@#XXXXXXXXXXXXXXXXXXXXXXXXXXXXXXXXXXXXXXXXXXXXXXXXXXXXXXXXXXXXXXXXX#####XXXXXXXXXX++++%%&&&%%++++#+##+####XXXX##XXXXXXXXXXXXXXXXXXXXXXXX###XXXXXXXXXXXX#@@@@@@@@@@##########################################XXXXXXX###X####X#XXXXXXXXXXXXXXXXXXXXXXXXXXXXXXXXXXXXXXXXXXXXXXXXXXXXXXXXXXXXXXXo.Xooooo......o....                             . ..XXXXXXX..                     oooXXXoo                     ooooooooXXXXooooooooo     ooooooooXXXX###@@@@$$$************$$$$$@@@@######@@@@@$",
"@@@@@$$$$$$$$$$$@@@@@$$$$$$$$$$$@$$$$$$$$@@@@@@#@#######XXoo        oooX#######XXooooooo                                                                        ooX##@@@@@$$@@@@@@@##Xoo                                                                    oooo ooo    oo.....ooo......OOOOOO++OOOOOOOOOOOOXOXX................XXX..........XXOXX..XXXXXXX.XXXXXXXXXXXXXXXXXXXXXXXXXXXXXXXXXXXXXXXXX#####@@@@@@$$*******************************************************************=******================&&&&***&&&===:::;;;:;;:=::::&&&&&+++++++++++++++%%%%&&&&&&&&&&&&&&&&&&:::::::::::::::::::::::::::::::::::::::::::::::::::::::::::::::::::::::::::::::::::::::::::::::::::::::::::::::::::::::::::::::::::::::::::::::::::::::::::::::::::::::::::::::::::::::::::::::::&&&%%++++++++++@@&&=======***@@@@$$$*$$$$$$$$@@@@+#XXXXXXXXXXXXXXXXXXXXXXXXXXXXXXXXXXXXXXXXXXXXXXXXXXXXXXXXXXXXXXXXX###X#XXXXXXXXXXO+++%%%&&&%%+++#####++##XXX####X#XXXXXXXXXXXXXXXXXXXX###XXXXXXXXXXXXX###@@@@@@##############XXXX#XXXXXXXXXXXXXXXXXXXXXXXXXXXXXXXXXXXXXXXXXXXXXXXXXXXXXXXXXXXXXXXXXXXXXXXXXXXXXXXXXXXXXXXXXoooooooooooooo  oo..oo..                                           ..XXXXXX..                      oooXXoooo                    ooooooXXXXXXooooooooo  o  oooooooooXXX####@@$$$$*************$$$$@@@#########@@$",
"@@@@@$$$$$$$$$$$@@@@@$$$$$$$$$$$@@$$$$$@$@@@@@@#########Xooo        oooX#######XXoooooooo                                                                       oo###@@@$$@@@@@@@@@##Xoo                                                            ooooooooooooooooo      ..o....OOOO++++++%%%%%%%%%%+++++++OOO.XXXXXX..XXXXXXXXXXXOOOOOOO+O+++OO+OOOOXXXXX.XXXXXXXXXXXXXXXXXXXXXXXXXXXXXXXXXXXXXX####@@@@@$$******======================================================================================***$$&@@&&&&&&==&&=&==&&=::=::::&&&++++++++++++++%%%&&&&::::::::::::::::::::::::::::::;;::::;;;;;;;;::::;;;;;:::;;:;::::::;;;;::::;;;;;;;;::::::::::;;::::;;::;;::::::::::::;::::::::::::::::::::::::::::::::::::::::::::::::::::::::::::::::::::::::::::::::::::::::::&&&&%%%++++++++++@@&&======*$&@@@@$*===*$$$******@@@@++++++++XXXXXXXXXXXXXXXXXXXXXXXXXXXXXXXXXXXXXXXXXXXXXXXXXX#XXXXXXXXXX###XXXXXXXXO+++%%%&&&&%++++++####+##X######XXXXXXXXXXoXXXXXXXXXXX###XXXXXXXXXXXXX##########XXXXXXXXXXXXXXXXXXXXXXXXXXXXXXXXXXXXXXXXXXXXXXXXXXXXXXXXXXXXXXXXXXXXXXXXooo.....XX.Xooo.........Xo......oooooo...                                                              .........                     oooooXXooo                     ooooooooXXXooooooooooo  oooooooooooXXX####@@$$$$$************$$$$$@@@@#######@",
"@@@@@$$$$$$$$$$@@@@@@$$$$$$$$$$$@@$$$$$$$$@@@@@#########Xooo        oooX########Xoooooooo                                                                       ooX##@@@@@@@@@@@@@@##Xoo                                             o o   ooooooooooXXXXXXXXXXXXoXXo.     ...o..XXO+++%%%%%%&&&&&&&&%%&%%%%++OOOO...XXXXXXXXXXXXXXXOO+++X++++++++++++XXXXXXXX...XXXXXXXXXXXXXXXXXXXXXXXXXXXXXXXXX####@@@@@@$*****************************============================================================**$$@@@@@@@@@@++@@&&&&&&&&&&&&&&&&&&&&&++++++++++++++%&&&&::::::;;;:;;;;;;;;;;::;:;;;;;;;;;;::::;;;;;;:;::::::;;::::;;;;::::::::;;::::::::::::::::::::::::::::::::::::::::::::::::::::::::::::::::::::::::::::::::::::::::::::::::::::::::::::::::::::::::::::::&&&&&&&&&&&%%%%%%%++++++++++@@&&======*$@@$$*======****=====*$@@++#++++XXXXXXXXXXXXXXXXXXXXXXXXXXXXXXXXXXXXXXXXXXXXXXXXXXXXXXXXXXXXXXX###XXXXXX+++++%%%&&&&&%+++######+##X######XX#XXXXXXXXXXXXXXXXXXXXX##XXXXXXXXXXXXXX#######XXXXXXXXXXXXXXXXXXXXXXXXXXXXX.oXXXoXXXXXoooX.XXXXXXXX.X...ooooo....oo..oooo.................o.o.......                                                                                                            oXXXXoo                      ooooooXXXXXooooooooooooo   ooooooooXXX###@@@$$$$************$$$$$@@@@#######",
"@@@@@$$$$$$$$$$@@@@@@@$$$$$$$$$$$$$$$$$$$$@@@@@@########Xooo        oooo#######XXooooo  oo                                                                      ooX##@@@@@@@@@@@@@@##Xoo                        oo o oooooooooooooooooooooooooXXXXXXXXXXXXXXXXXXXXXXXooo     ...OO++%%%&&&&&&&&&&&&&&&&&&&&%+++OO..XXXXXXXXXXX..OOOO.OOOOOO+++++++++++++XXXXXXXX.XXXXXXXXXXXXXXXXXXXXXXXXXXXXXXXX#####@@@@@@@@@@$$$$$$$$$$$$$***********************************************************************$$@@@@@@@###++++#+++++@@++++%&&&&&&&&&&%%+++++++++++++%%&&&:::::::::::::::::::::::::::::::::::::::::::::::::::::::::::::::::::::::::::::::::::::::::::::::::::::::::::::::::::::::::::::::::::::::::::::::::::::::::::::::::::::::::::::::::::&&::::::&&:&&&&&&&&&&&&&&%%%%%%%%%%%%%++++++++++@@@$======**&&*========*$**======*$@@@##++++XX++XXXXXXX+XXXX+X+XXXX+XXXXXXXX++++XXXXXXX#XXXX##XXXXXXXXXX####XXXXXX#++++++%%%&&&&&%+++++############XXX##XXXXXXXXooXXXXXXXXXXXXXXXXXXXXXXXXXXXXXXXXXXXXXXXXXXXXXXXXXXXXXXX...XXXXoo....XXooooooo.XXoooooooo....oooooooo....o...   ............... .......                                                                                                              ooXXXXoo                     oooooXXXXXXoooooooooo    ooooooooooooXX####@@@$$$$$************$$$@@@######",
"@@@@@$$$$$$$$$$@@@@@@@$$$$$$$$$$$$$$$$$$$@@@@@@#########Xooo        oooo#######XXooooo  o                                                                       ooX##@@@@@@@@@@@@@@##Xoo                     ooo      ooooooooooooooooooooooooooXXXXXXXXXXXXXXXXXXXXXooo     ....O++%%%%%&&&&&&&&&&&&&&&&&%%++OO.........................OOOOO+++++%&+++OXXXXXXX..XXXXXXXXXXXXXXXXXXXXXXXXXXXXXXXX########@@@@@@@@@@$$$$$$$$$$$$$$$$$$$$$$$$$$$$$$$$$$$$$$$$$$**$$$$$$$$**$**$***********$******$$@@@@@@@@######++++X+++++++++++++++%%%&%&%%+++++++++++++%%&&&&&&&&&&&&&&&&&&&&::::::::::::::::::::::::::::::::::::::::::::::::::::::::::::::::::::::::::::::::::::::::::::::::::::::::::::::::::::::::::::::::::::::::::::::::::::::::::::::::::::::::::::::::::::::::&&&&&&%%%%%%%%%%++++++++++++@@$*======***==========****======*$@@##+#++XX++XXXXXX++XXXXXXXXXXX+XXXXX+XX#X#+XXXXXX##XXXX###XXXXX#XXX####XXXX###+++++++%%&&&&&&%+++++######++#########XXXXXXXooXXXXXXXXXXXXXXXXXXXXXXXXXXXXXXXXXXXXXX..XXXX..XXXXXX........oooo......oo..oo.oo.oooooooo......oo.............................                                                                                                                       ooooXXXoo                     oooooXXXXXXooooooooooo    oo ooooooooXXX###@@@$$$$$************$$$@@@@####",
"@@@@@$$$$$$$$$$@@@@@@@$$$$$$$$$$$@@$$$$$$@@@@@@#@@#####XXooo        oooo#######Xoooooo                                                                          ooX###@@@@@@@@@@@@###Xoo                                         oooooooooooooooooooooooooooXXXXXXXXXooo     ....O+++++%%%%%%%%%%%%%%%%%%%+++OOO........XX........O.....OOOOOO++++&&&%++OO.XXXX.XXXXXXXXXXXXXXXXXXXXXXXXXXXXXXXXXXX#######@@@@@@@@@@@@@@@@@@@@@@@@@@@@@@@@@@$@@@@@@$@@$$$$@@$$$$$$@$@$$$$$$@@@@@@@@@@@@@@@@@@@@@@@@@@@@#@@##++XXXXXXXX+++++++++++++++++%&&&&%++++++++++++%%&&&&&&&&&&&::::::::::::::::::::::::::::::::::::::::::::::::::::::::::::::::::::::::::::::::::::::::::::::::::::::::::::::::::::::::::::::::::::::::::::::::::::::::::::::::::::::::::::::::::::::::::::::::::::::::&&&%%%%%%%++++++++++++@@*===================****=======*@@@###+##X+++XXX#++++XXXX#####+XXX####XXX####+++X#####XX+####XXX##XXX#XXXXXXX#XXX+++++%%%&&&&&&%++++++#+#+#+#######X#X#XXXXXXXXXXXXXXXXXX###XXXXXXXXXXXXXXXXXXXXXXXXXXXXXX..XXXXXX......X...............XXXo........ooo....................................   .   .                                                                                                                oooXXXXooo                     oooooooXXoXooooooooooo o    ooooooooooXX####@@@$$$*************$$$$@@@##",
"@@@@$$$$$$$$$$$$@@@@@@$$$$$$$$$$$@@$$$@$$@@@@@@#@@#####Xoooo        oooXX######XXooooo                                                                          ooX###@@@@@@@@@@@@###Xoo                                                        ooooooooooooooooooXXXo        ...OO++++++++%%%%%%%%%%%%+++++++OO...X..XXX.........OO..OOOO+++++%%%&&&++OOOXXXXXXXXXXXXXXXXXXXXXXXXXXXXXXXXXXXXXXXXXXXX#######@@@@@@@@@@@@@@@@@@@@@@@@@@@@@@@@@@@@@@@@@@@@@@@@@@@@@@@@@@@@$@@@@@@@@@@@@@@@@@@@@@@@@@@@@#####XXXXXXXXXXXOO+OOOOOOO+++++++%&&&%%+++++++++++%%&&&&&&::::::::::::::::::::::::::::::::::::::::::::::::::::::::::::::::::::::::::::::::::::::::::::::::::::::::::::::::::::::::::::::::::::::::::::::::::::::::::::::::::::::::::::::::::::::::::::::::::::::::::::::::&&%%%%%+++++++++++++@@$====================***=======*$@@@##+##X++++XX#++++XXX##XX###++X####+X#####+++XX####XX+###XXXX#XXXX#XXXXXXX##X++++++%%%&&&&&&&%+++++++###++######X###XXXXXXXXXXXXXXXXXX##XXXXXXXXXXXXXXXXXXXXXX.XXXXXXXX..XXXXXXXXXXXXXX.XXXX.........XX..........ooo....................................        .                                                                                                                ooooooooooo                   oooooooXXXXXooooooooooo     ooo ooooooooX####@@@$$$$$************$$$@@@@",
"@@@@@$$$$$$$$$$@@@@@@@$$$$$$$$$$$$$$$@$$$$@@@@@########XXooo        oooX#######XXooooo                                                                          ooX###@@@@@@@@@@@@###Xoo                                                                      oooooooo       .o.....OOOOOOO+++++++++++++++++OOOO........XXXXXX..O.OXOOOO++%%%&&&&&%&%++OXXXXXXXXXXXXXXXXXXXXXXXXXXXXXXXXXXXXXXXXXXXXX##########@@@@@@@@@@@@@@@@@@@@@@@@@@@@@@@@@@@@@@@@@@@@@@@@@@@@@@@@@@@@@@@@@@@@@@@@@@@@@@@@@@@@@@@##++X+XXXXOOXXXXX.XO.OOOOOOOOO++++++%+++++++++++%%%%%&&&::::::::::::::::::::::::::::::::::::::::::::::::::::::::::::::::::::::::::::::::::::::::::::::::::::::::::::::::::::::::::::::::::::::::::::::::::::::::::::::::::::::::::::::::::::::::::::::::::::::::::::::::::&%%%%+++++++++++++++++@*====================***======**$@@@#+#+X+++##XXX++++XXXXXXXXXXXXXXXX++#XXX++##XX####XXXXXXXXXXXXXX##XXXXXXXX++####+++%%%&&&&&&%%%+++#@#@####++####XXXXXXXXXXXXXXXXXXXXXXXXXXXXXXXXXXXXXXXXXXXXXX...XX...XXXXXXOO..XXXXXXXXXXXXXXXXXXXXXXXXXXXX.X........................OOOOOOOO...............                                                                                                                       oooooooo                     oooooXXXXXooooooooooo  oo    o   ooooooXXX###@@$$$$$************$$$$$",
"@@@@@$$$$$$$$$$@@@@@@@$$$$$$$$$$$$$$$$$$$@@@@@@########XXooo        oooX######XXXooooo                                                                          ooXX##@@@@@@@@@@@@###Xoo                                                                         oooo         .......OOOOOOOOOOO+++++OOO+OOOXXXX.........XXXXX...XOXOOO++%&&&&&&%%%%++XOXXXXXXXXXXXXXXXXXXXXXXXXXXXXXXXXXXXXXXXXXXXX###########@##@@@@##@@@@#@@@@@@@@@@@@@@@@@@@@@@@@@@@@@@@@@@@@@@@@@@@@@@@@@@@@@@@@@@@@@@@@@@@@@@@@@@+++X+XXXXOOXOXX......OOOOOOOO++++++++++++++++++%%%%%&&:::::::::::::::::::::::::::::::::::::::::::::::::::::::::::::::::::::::::::::::::::::::::::::::::::::::::::::::::::::::::::::::::::::::::::::::::::::::::::::::::::::::::::::::::::::::::::::::::::::::::::::::&&&&%%%%%+++++++++++++++++@&====================****======**@@#@##+++++##XXX##++XXXX+#XXXXX#XXXX+##XX++###XX####XXXXXXXX#XXXXX##XXXXXXXXXX##X+++++%%&&&&&&&%%++@########++######XXXXXXXXXXXXXXXXXXXXXXXXXXXXXXXXXXXXXXXXXXXXXXXXXX..XXXX..OO.XXXXXXXXXXXXXXXXXXXX...XXXXX...oo....................OOO++++OOOOO.O.............                                                                                                                      ooooooo                      oooooXXXXXXXXXoooooo oooo   o    oooooooXX###@@@$$$$*************$$$",
"@@@@@$$$$$$$$$$@@@@@@@$$$$$$$$$$$$$$@$$$@@@@@@@########XXoo          oooX#####XXooooo                                                                           ooXX##@@@@@@@@@@@@###Xoo                                                                                      o.o..........OOOOOOOOOOOOOOOXOOXOOXXXXXX....OOXOOOOOOO+O++%&&:::&%%%++++++XXXXXXXXXXXXXXXXXXXXXXXXXXXXXXXXXXXXXXXXXXX################@####@@@@##@@@@@@@@@@@@@@@@@@@@@@@@@@@@@@@@@@@@@@@@@@@@@@@@@@@@@@@@@@@@@@@@@@@@@@@@@+##+X#XXXOOOOOOOO..OOOOOOOO++++++++++++++++++++%%%%&&::::::::::::::::::::::::::::::::::::::::::::::::::::::::::::::::::::::::::::::::::::::::::::::::::::::::::::::::::::::::::::::::::::::::::::::::::::::::::::::::::::::::::::::::::::::::::::::::::::::::::&&&&&&&%%%%%%%++++++++++++++++++@&*===================****=======*$@@@##+X++####XX+X++XXXX++++XX+XXXXX++XXXX####XX#+##XX##XX####XXXXX#XX#XXXXXX+##X#++++%%%&&&::&%%%%%++@#++++##########XXXXXXXXXXXXXXXXXXXXXXXXXXXXXXXXXXXXXXXXXXXXXXXXOOXXOOOOOOOOOOO..XX.......XX........XX....o...o................OOO+%%%%%++OOOOOOXXXX............                                                                                                                   ooooooo                       oooooXXXXXXXooooooooooo  o     oooooooooX####@@$$$$************$$",
"@@@@@$$$$$$$$$$@@@@@@@$$$$$$$$$$$$$$@$@@$@@@@@#########XXoo         ooooX#####XXooooo                                                                           ooXX##@@@@@@@@@@@@##XXoo                                                                                      oooo........OOOOOOOOOOOOOXXXXXXXXOOXXXOOOOOOOOOOOOXXO++++%&&:&&&%%++++++XX.XXXXXXXXXXXXXXXXXXXXXXXXXXXXXXXXXXXXXXXXXX#X#############@@####@@@@@@@@@@@@@@@@@@@@@@@@@@@@@@@@@@@@@@@@@@@@@@@@@@@@@@@@@@@@@@@@@@@@@@@@@@@@@@@@@@###XXX++++OOOOOOOO++++++++++++++++++++++++++%%%%&&::::::::::::::::::::::::::::::::::::::::::::::::::::::::::::::::::::::::::::::::::::::::::::::::::::::::::::::::::::::::::::::::::::::::::::::::::::::::::::::::::::::::::::::::::::::::::::::::&&&:&&&&&&&&&%%%%%%%%%%%++++++++++++++++++@@*====================****=======*@@@##+++X+#++XXX#+XXX++++X#XX++##++++XXX+####XX++XXXX##+####XXXXXXXXX#XXXXXXX##XX++++%%%&&&::&&&%%+++@#++++############XXXXXXXXXXXXXXXXXXXXXXXXXXXXXXXXXXXXXXXXXXXXXXOOXXXOOOOO++OOOOXX.......................o........ ............OO++%&&&&%%++OOXOXXXXXX............   o                                                                                                               ooooo                        oooooXXXXXXXXXoooooooo  oo    ooooooooooXX##@@@@$$$$************",
"@@@@@$$$$$$$$$$@@@@@@@$$$$$$$$$$$$$$$$$$$@@@@@#########Xooo          oooX#####XXooooooo                                                                         ooXX##@@@@@@@@@@@@##XXoo                                                                             o        oooo............XX..XXXXXXXXXXXOOOXXOOOOXXXXOOOOOO++++++%&&&&&&%%%+++++OXO..XXXXXXXXXXXXXXXXXXXXXXXXXXXXXXXXXXXXXXXXXXXX###########@#@@@@@@@@@@@@@@@@@@@@@@@@@@@@@@@@@@@@@@@@@@@@@@@@@@@@@@@@@@@@@@@@@@@@@@@@@@@@@@@@@@@@@@@++++#+++++++++O+++++++++++++++++++++++++++++%%%&&:::::::::::::::::::::::::::::::::::::::::::::::::::::::::::::::::::::::::::::::::::::::::::::::::::::::::::::::::::::::::::::::::::::::::::::::::::::::::::::::::::::&:::::::::&&&&&&&&&&&&&&&&&&&&&&&&&&&&&%%%%%%%%%%%%+++++++++++++++++++@@&====================****=======*$@@@@++++XX++X##XXX++++X#++++++X+++XXXXXXX####XXXXXXXX#+####XXXXXXXXXXXXXXXX####X##++++%%&&&&&&&%%%++++++#########X######XXXXXXXooXXXXXXXXXXXXXXXXXXXXXXXXXXXXXXXXXXXXXOOO+++++%%+++OOO........................ .....   ............OO+%%&&::&&%%+++OOOXXXXXX.................                                                    ..                                                         oo                        oooooXXXXXXXXXoooooooo  o           oooooooX####@@$$$$**********",
"@@@@@$$$$$$$$$$@@@@@@@$$$$$$$$$$$$@$$$$@$$@@@#########XXooo          oooX#####XXooooooo                                                                         oooX##@@@@@@@@@@@###XXoo                                                                             ooooo     ooo..........XXXXOOOOXXXOXXXXXXOOXXOOXXXXXXOOOOOO+++++%&&&&&&&%%%++++XOXX..XXXXXXXXXXXXXXXXXXXXXXXXXXXXXXXXXXXXXXXXXXX#########@@#@@@@@@@@@@@@@@@@@@@@@@@@@@@@@@@@@@@@@@@@@@@@@@@@@@@@@@@@@@@@@@@@@@@@@@@@@@@@@@@@@@@@@@@@@@++++++++++++++++++++++++++++++++++++++++++%%%%&&:::::&&&&&:&:&&&&&&&&::&&&&&&::&&::::&&::::::::::&&&&::&&::::&&::&&&&::&&&&&&&&&&::&&&&&&&&&&::&&&&&&::&&&&&&&&&&::&&&&&&&&&&&&&&&&&&&&&&&&&&&&&&&&&&&&&&&&&&&&&&&&&&&&&&&&&&&&&&&&&&&&&&&&%%&&&&&&&&%%%%%%%%%%%%%%%%%%++++++++++++++++++++++&*====================****=======*@@@@++++XX++X#XXXXX+++XXXX++++#+++X+XXXXXX#XXXXXXXXX+++####XXXXXXXXX##XXXXXX##XX++++++%%%&&&:&&&%%++++++##+#############XXXXXXXoooXXXXXXXXXXXXXXXXXXXXXXXXXXXXXXXXXXXXOOO++++%&&&&%+OOOOO..........................................OO++%%&&&::&&%+OOOOXXXXXX...................                                                  ...o                                                          oooo                      ooooooXXXXXXoooooooo oo         oooooooXX####@@@$$$$*********",
"@@@@@$$$$$$$$$$@@@@@@@$$$$$$$$$$@@$$$$@@$@@@@@########XXooo          oooXX####XXooooo o                                                                         oooX##@@@@@@@@@@@###XXoo                                                                           ooooooo    ooo o....X.....XXX.XXXXXOOXXOXXXXOXXOOOOXXXXXXOOOO++++%&&&&&&&&%++++++XOXOOOOXXXXXXXXXXXXXXXXXXXXXXXXXXXXXXXXXXXXXXXXX########@@@@@@@@@@@@@@@@@@@@@@@@@@@@@@@@@@@@@@@@@@@@@@@@@@@@@@@@@@@@@@@@@@@@@@$@@@@$@@$$$$@$$*=====&@@@@@++++++++++++++++++++++++++++++++++++++++%%%%&:::::&&&&&&&&&&&&&&&&&&&&&&&&&&&&&&&&&&&&&&&&&:&&&&&&&&&&&&&&&&&&&&&&&:&&&&&&&&&&&&&&&&&&&&&&&&&&&&&&&&&&&&&&&&&&&&&&&&&&&&&&&&&&&&&&&&&&&&&&&&&&&&&&&&&&&&&&&&&&&&&&&&&&&&&&&&&&&&&&&&&&&&&%%%%%%&%%%%%%%%%%%%%%%%%%%++++++++++++++++++++++++@&=====================***========$@@@@#####+++++##XXXXXXXXXXXXXXX+X++++X++++#++XXXXXXX#XXXX#XXXXXXXXXXXXXXXXXXXXX+#+#++%%%&&&&:&&&%%%++@###++############XXXXXXXooooXXXXXXXXXXXXXXXXXXXXXXXXXXXXXXX.OXOOOO+++%&&&&&&&%+OOOOXXXX..XX..................................OO++%%%&:::&&%++OOXOOXXXXX..XXXo..oo......... o.                                              ......                                                       oooooo                      ooooooXXXXXXXoooooooo              ooooooX####@@$$$$*******",
"@@@@@$$$$$$$$$$@@@@@@@$$$$$$$$$$@@$$$$@@@@@@@@########XXooo          oooXX####XXooooo oo                                                                        oooX##@@@@@@@@@@@###XXoo                                                                         ooooooooo     oo o....X......XX..XXXXOOXXOXOXOOXXOOOXXXXXXX+++++++%&&&&&&&%%%++++++X+X+OOXOXXOXXXXXXXXXXXXXXXXXXXXXXXXXXXXXXXX#XXXX########@@@@@@@@@@@@@@@@@@@@@@@@@@@@@@@$$$$$@$$$@@@@$$$$@@@@@@$$$$$@@@@$$@@@$$$$@$$$$$$$**===;;;;;=*@@@@@++++++++++++++++++++++++++++++++++++++++%%%%&:::::&&&&%%&&&&&&&&&&&&&&&&&&&&&&&&&&&&&&&&&&&&&&&&&&&&&&&&&&&&&&&&&&&&&&&&&&&&&&&&&&&&&&&&&&&&&&&&&&&&&&&&&&&&&&&&&&&&&&&&&&&&&&&&&&&&&&&&&&%&&&&&&&&&&%%&&&&&&&&&%%%&&&&&&&&&&&&&&&&&&&&%%%%%%%%%%%%%%%%%%%%%%%%%%%%++++++++++++++++++++++++@@*====================*****=====**@@@@#XXX#++++####XXXX+XXXXXXXXXXX++++++++++++XXXXXXXXXXXX#XXXXXX#XXXXXXXXXXXXXX+###++%%%&&&&&&&&&%%++@###++#+##++#####XXX#XXXXXoooXXXXXXXXXXXXXXXXXXXXXXXXXXXXXX..OOOOOO++++%&&&::&&%+OOOOXXXXXXXXX................................OOO+%%%&&::&&&%+++OOOXXXXX..XXXoooo...o.........                                               .o.o.                                                        oooooo                      oooooXXXXXXXXooooooo              ooooooXX####@@$$$$$*****",
"@@@@@@$$$$$$$$$@@@@@@@$$$$$$$$$$$@@@$$$@@@@@@@########XXooo          oooXX####XXoooo  oo                                                                        oooX##@@@@@@@@@@@####Xoo                                                                        ooXXooXXooooo oo....oo...XXXX....XOXXXOOXXXXXXXXXXXOXXOO+OO++++++%%%&&&&&&%%%++++++++OOO+++++++++++++++XXXXXXXXX++XXXXXXXXXXX###X######@@@@@@@@@@@@@@@@@@@@@@@@$$@@@$$$$$$$$$$$$$$$$$$$$$$$$$$$$$$$$$$$$$$$$$$$$$$$$$$$******==;;;;;;;=*@@@@++++++++++++++++++++++++++++++++++++++++%%%%&:::::&&&&%%&&&&&&&&&&&&&&&&&&&&&&&&&&&&&&&&&&&&&&&&&&&&&&&&&&&&&&&&&&&&&&&&&&&&&&&&&&&&&&&&&&&&&&&&&&&&&&&&&&&&&&&&&&&&&&&&&&&&&&&&&&&&&&&&&&&&&&&&&&&&&&&&&&&&&&&&&&&&&&&&&&&&&&&&&&&%%%%%%%%%%%%%%%%%%%%%%%%%%%+++++++++++++++++++++++++++++++@&====================**$$*******$@@++@X++#XXX#XXX+++XXXX+XXXXXX++++XXX++XXX+##++XXXX##XXXXXXXXXXXXXXXXXXXXXXXXXX#+++++%%%%&&&:::&&&%%%++@+#+#+###########XXX#XXXXXXXXXXXXXXXXXXXXXXXXXXX.XXXXXXX...OOOOXXO++++%%&&::&&%+++OXOXXOOO........XX........................OOO+++%%&&:::&%%++++OOXXXXXXX...........o.....o.......                                            ....                                                         ooooooo                    ooooooooXXXXoooooooooo            oooooooXX###@@@@$$$$**",
"@@@@@@$$$$$$$$$@@@@@@@$$$$$$$$$$@@@@$$$@@@@@@#########XXooo          oooXX####XXoooo                                                                            oooX##@@@@@@@@@@@####Xoo                                                                      oooXXXXXXoooo    o.oooo......X......XXXXOOXXXXXXXXXXOOXXOOOOOO++++%%&&&&&&&%%%%+++++++++++++++++++++++++++++++++++++++#X#XXXXXX##########@@@@@@@@@@@@@@@@@@@@@@@@@$@@@$$$$$$$$$$$$$$$$$$$$$$$$$$$$$$$$$$$$$$$$$$$$*$*********==;;;;;;;;;=$@@@@@@++++++++++++++++++++++++++++++++++++++%%%&&:::::&&%%%%&&&&%%%%&&&&&%%%%%%%%&&&&&&&&&&&&&&&&&&&&&&&&&&&&&&&&&&&&&&&&&&&&&&&&&&&&&&&&&&&&&&&&&&&&&&%&&&&&&&&&&&&&&&&&&&&&&&&&&&&&&&%&&&%&&&&&&&&&&&&&&&&&&&%%%&&&&&&&&&&&&&&&&&&&&&%%%%%%%%%%%%%%%%%%%%%%%%%+++++++++++++++++++++++++++++++++@&*====================*$$$$$*$$$@@++++++++XXXXXXXX++XXXX+++XXXXXX+XXXXXXXXX###++XXXX#+XXXXXXXXXXXXXXXXXXXXXXXXXXX##+++%%%%%&&&::&&&%%%++@+###@++#########XXXXXXXXXXXXXXXXX#X#XXXXXXXXXXX..XXXXXX...OOOXOXO++++%%%&&::&&%++++OOOOOXOXO....XX...XX.X................XOOOOO++%%%%&&::&&%+++OOXXX.XXXX..........oo....oo.....                                                                                                           oo  ooo                     ooooooXXXXXoooooooooo            ooooooooX####@@@$$$$$",
"@@@@@@$$$$$$$$@@@@@@@@$$$$$$$$$$@@$$$$$@@@@@@#########XXooo          oooXX##XXXoooooo                                                                           oooX##@@@@@@@@@@#@###Xoo                                                                     oooXXXXXXXXooo      ooooo....XX.....X..XOXOXXOOOOXXOOOOXXXX+X++++++%%&&&&&%&%%++++++++++++++++++%&&%%&&&&&&&&+++++&&&&+@+XXXXXX###########@@@@@@@@@@@@@@@@@$$$$$$$$$$$$$$$$$$$$$$$$$$$$$$$$$$$$$$$$$$$*$$$$$$$$$*************==;;;;;;;;;=*@@@@@@@+++++++++++++++++++++++++++++++++++++%%%%&::::::&&%%%%&&&&&&%&%%%%&&&&&&&&%&%&&&&&&&&&&&&&&&&&%&&&&&%%&%&&&&&&&&&&&&&&&&&&&&&&&&&&&&%%&&&&&&&&&&%%%%&&&&%%%%%&&&&&%%%%&&&&&&&&&&&%&&%%&%&&&%%%&&&&&&&&&&%%%%%%%%&&&&%%%%%%%&%%%%%%%%%%%%%%%%%%%%%%%%%%%%%+++++++++++++++++++++++++++++++++++@$====================*@@@@@@@@@@@++++++++#+XXXXX#+##XX+++XXXXXXXXXXXXXXXXXXXXXXXXXXXXX+XXXXXXXXXXXXXXXXXXXXXXXX##++++++%%%%&&&&&&&&%%++++++#+++++#+####XXXXXXXXXXXXXXXXXXXXXXXXXXXXXXXXXXXXXXXXX.XXOXOOO+++++++%%&&:::&%+++++XXXXXXXXOOOOXXX.XXXX...OX.XX.....OX...OOOO++++%%%&&::&&%%+++X+XXXXXXXXXX.....Xoooo......oo.....o....                                                                                                      ooooo                     oooooXXXXooXoooooooooo           oooooooXXX###@@@$$$",
"@@@@@@$$$$$$$$@@@@@@@@$$$$$$$$$@@@@$$$$@@@@@@#########XXooo           ooXX##XXXoooo o                                                                           oooX##@@@@@@@@@@#@###Xoo                                                                  ooooooXXXXXXXXoo        oooo...XXXX......OXXXOXXOO+OXX+OOOX++XXX+++++%%&&&%%%%%%%++++++++++++%&&&&&&&&&&&&&&&&&&&&&&&&&&&&@++XXXXX##########@@@@@@@@@@@@@@@@@@$$$$$$$$$$$$$$$*$$$$$$$$$$**$$$$$$$$$$**************************==;;;;;;;;;;=*$@@@@@@@+++++++++++++++++++++++++++++++++++++%%%%&:::::&&%%%&%&&&&%%%%%%%%&&%%%%&&%%%%&%%&&&%%%%&&&&&&&&&&%&%%%%%&%%%%&&&&&&&&&&&&%&&&&&&&%%%%&&&&&&&&&&%%%%&&&&%%%%%%&&&&%%%%&&&&&&&&&&%%&&%%%&&&%%%%%%%&%&&%%%%%%%%%%%%%%%%%%%%%&&%%%%%%%%%%%%%%%%%%%%%%%%%%%+++++++++++++++++++++++++++++++++++++@$*===================*$@@@@@@@@@++++++++++#XXXXX+++++X++++XXXXXXXXXXXXXXXXXXXXXXXXXXXXXXXXXXXXXXXXXXXXXXXXXXXXX+#++++++%%%%%&&&:&&&&%%+++#+@@+++++###+XXXXXXXXXXXXXXXXXXXXXXXXXXXXXXXXXXXXXXXXXXXXXXXOOOO++++++%%%&&&:&&%++++OX++XXXXXOOOXXOOXXXXOOOOXXXX..OOO..XXOOO+O++++++%%&&&:&&&%++++OOXXXXXXXXXX..XXXXoo......ooo.......oo    ..                                                                                                 ooooo                     ooooooXXoooXXoooooooooooo          ooooooXX###@@@$$",
"@@@@@@$$$$$$$$@@@@@@@@@$$$$$$$$@$$$$$$$@@@@@@#########XXooo          oooXX##XXXXoooooo                                                                          oooX###@@@@@@@@@@@###Xoo                                                        oooo     ooooooXXXXXXXXXoo          oo......XXXXXXXOOOXXXOOOO+++++XX++++++++++%%&&%%%%%%++++++++++++++&&&&&&&&&&&&::::==&&&&&&&====&@++X#XX#########@@@@@@@@@@@@@@$$$$$$$$$$$$**$***********$$$$****$$$$*****************************===;;;;;;;;;;==*@@@@@@@@@+++++++++++++++++++++++++++++++++++++%%%&&:::::&&&&&&%%%%&%&&&&&%%&%&%&&&&&&&%%&&&%%%%%%%%%%&&&&&%%%%%%%&&%%%&%%&&&&&&&&&&%%&&%%%%%%%%%%%%%&%%&&&%%&&&&&&%%%%%&&&&&&&%%%%%&&&&&&&%&%%%%%&&%&%%%%&&%%%%%%%%%%%%%%%%%%%%%%%%%%%%%%%%%%%%%%%%%%%%%%%%%%+++++++++++++++O++++++++++++++++++++++++@@&===================*@@@++++@+++#+++++##++++++++XX++++XXX++++XXXXX++XXXXXXXXXXXXXXXXXXXXXXXXXXXXXXXXXXXXXXXXXXX++#+++#++%%%&&&:::&&%%%++++@@##++###X#XXX####XXXXXXXXXXXXXXXX###XXXX#XXXXXXXXXXXXXXXXXXXOOOO+O+++%%%&&::&&%++++++OOXXX+++XXXOOOOOOOOOXXXX....OOOOOOOOOO+O++++%%%&&&::&&%+++++XXXXXXXXXXX.XXXXooo.....oo........    . ...                                           oo                                                    ooooooo                     oooooXoXXooooooooooooo              ooooXX####@@",
"@@@@@@$$$$$$$$@@@@@@@@@$$$$$$$$@$@$$$$@$@@@@@#########XXooo          oooXX##XXXXooo o                                                                           oooX####@@@@@@@@@###XXooo      oooooooo                       oo                 ooooooooooooXXXXXXXXXXXo            o......XXXXXXXXOXXXXXOOXOXXX+X++++++++++%&&&%%%%+++++++++++++++++@+&&&&&&&&&&&&&&&&&&&&&&&&&&&&++X+X##########@@@@@@@@@@@@@@$$$$$$$$*$*************************************************=*****====;;;;;;;;;;;=*$*@@@@@@@@@+++++++++++++++++++++++++++++++++++++%%%&:::::&%%&&&&&%%%%%%%%%&%%&&&&&&&&&&&&&&&&&&%%%%%%%%&&&&&&&&&&%%&&&&&&%&&&%%%%&&&&%%&&&&%%&&&&%&&&%%%%&&%%%%%%&&%%%%%%%%%%&&&&%%%%%%%%&&&&&%%%%%&&%%&&%%&&%%%%%%%%%%%%%%%%%%%%%%%%%%%%%%%%%%%%%%%%%%%%%%%%%++++++++++++++++O++++++++++++++++++++++++@@&&==================&@@@++@@@@++@@#++++#++++++++XXX++XXX+++X+++XXXXXXXXXXXXXXXXXXXXXXXXXXXXXXXXXXXXXXXXXXXXXXXX+++##++++%%%%&&&:::&&&%%+++@@#++++#####XX####XXXXXXXXXX.XXXXX####XXXXXXXXXXXXXX..XXXXXXOOXXXO++++++%&&&::&&+++++++OXO++++XXOOOOOOOOOOOOXOOXXOOOOOXOOOOO+O++++%%%%%&:::&&%++++OXXXXX.XXXXXX...ooX......o..o.....o ..........                                        o.                                                      oooooo                     oooooooXXooXXooooooooo            ooooooXXX####",
"@@@@@@$$$$$$$$@@@@@@@@@@$$$$$$$$$$@@@@$$@@@@@#########XXooo          ooooX####XXoooo                                                                              oX####@@@@@@@@@@##XXoooo    oooooooooo              oo    oooooo o  ooooooooooooooooooooooXXXXXXXXXXooo           ooo.......XXXXXXOOXXXXOOOOOXXXX+++++++++%&&&&%%%++++++++++++++++++++++++++++@+@@%@@@+@@@@+@@@@@+++############@@@@@@@@@@@@@$$$$$$$*****************===*****===*===============================;;;;;;;;;;;;;;==***@@@@@@@@@++++++++++++++++++++++++++OO+++++++++%%&&:::::&%&&&&&&&&&%%%%%%&&&%%%%%%%%%%&&&&&%&&&&&&&&&&&&&&&&&&&&&&&&&&&&&&&&%%%%&&%%%%&&&&%%&&&%%%&&&&%&&&&&&&&&&&&&&%&&&&&&&&&&%&&&&&&&&&&&&&&&%&%&&&&&%%%&&&&&&&&&&&&&&&&&&&&&%%&&&%%%&%%%%%&%%%%%%%%%%%%%%%++++++++++++++OO+++++O+++++++++++++++++++%&&==================&&@@@@%&@@@@@@+++++XXX++++XXXX++++XXXX+XX++X+XXXXX++X+XXXXXXXXXXXXXXXXXXXXXXXXXXXXXXXXXXXXXXX+####++++%%&&&&::&&&&%%++++##+++#####++#####XXXXXXXXXXXXXXX####XXXX##XXXXXXXX...XXXXXXXOXOOOO+++++%&&::&&&%+++++OOO+X++XXOOOOXOXXXXOOOOOOOOXXOOOOOOOO+O+O++++%%%%&&::&&%%+++OOOXO..XXXXX.X...X.X.XX.....ooo..ooo...  ......                                      oo                                                       oooooo                      oooooXXXXXXXoooooooo oo              oooooX##",
"@@@@@@$$$$$$$$@@@@@@@@@@$$$$$$$$$@@@@@$$@@@@##########XXooo           oooo####XXoooo                                                                              oX####@@@@@@@@@###XXoooo    oooooooooooooo    ooooooooooooooooooooooooooooooooooooooooooooXXXXXXXXXXooo        oo ooo.o.....XXXXXXXOXXXXXOOOOXXXX+++++++%%&&&&&%%+++++++++++++++++++X+++++++++++++++++++++++++++#X++############@@@@@@@@@@@@$$$$$**********================-------=-----;;;;;;;;;;;;;;;;;;;;;;;;;;;;;;;;;;;;;==$$$$@@@@@+@@@++++++++++++++++++++++++++OOOO+++++++%%&&:::::&%&%&&&&&&&&&&&&&&&&&&&&&&&&&&&&&&&&&&&&&&&&&&&&&&&:&&&&&&&&&&&&&&&&&&&&&&&&&&:::::::::&&&::::&&:::::::::::&&&:::&&&:::&&&::::::::::::::&&&&::::&&&:::::::::::::::::::::::::::::::::::::::::::&&&&&%%%++++++++++++++OO+++O+OO+OO+++O++++++++++++@&==================&&@@@@@&$$@@@@@+++XXXXXX+XXXXX+XXXXXXXXXXXXXXXXXXXXXXXXXXXXXXXXXXXXXXXXXXXXXXXXXXXXXXXXXXXXXX+####+#++%%%&&&&&&&&&&%++++##++#+#####++#####XXXXXXXX..XXXX####XXXX#XXXXXXXXX..XXXXXXXXOOXOO+++++++%&&:&:&%++++++OOOXXXXXOO+OOXXXOXOOOOOOOOXXOOOOOOOO+O++++++++%%%&&&&&&&%++++OOOO.XXXXXXXX....XXXX.........o...... ooo.. .                                                                                                  oooooo                    ooooooXXXXooooooooooooo            oooooooXX",
"@@@@@@$$$$$$$$@@@@@@@@@$$$$$$$$$$$$$$$@@@@@@@########XXXooo           ooXX##XXXooooo                                                                            oooX##@#@@@@@@#######Xoooo   oooooooooooooooooooooooooooooooooooooooooooooooooooooooooooooXXXXXXXXXXXXoo       oooo  ...oo.........XXX.OXXXOXXXXOO++O+++%%%&:::&&%++++OOOOOOO+XXOOOXXOOOXOOOX+XX+#+#++++++++###############+##@@@@@@@@@@@@@@@$$$$$****======;;;;;;;;;;;;;;;;;;;;;;;;;;;;;;;;;;;;;;;;;;;;;;;;;;;;;;;;;;;;;;;;;;==**$$@@@@@@@@++++++++++++++++++++++++++++OOO+++++++%%%&&::::::&&::::::::::::::::::::::::::::::::::::::::::::::::::::::::::::::::::::::::::::::::::::::::::::::::::::::::::::::::::::::::::::::::::::::::::::::::::::::::::::::::::::::::::::::::::::::::::::::::&&%++++++++++++O++++++++++OO+++++O+++++++++++@@*===============&&&&&&&&&&****&@@+@+++++XXXXX+++OO++++XXXXXXXXXXXXXXXXXXXXXXXXXXXXXXXXXXXXXXXXXXXXXXXXXXXXXXXXXX+####++++%%%&&&&:&&&&%%%++++@@####+++##X+###XXXXXXXX.XXXXXXXXX##XX##XXXXXXXX....XXXXOOOXO+X++++++++%%&:::&&%+++++++OOOOOOOXXOOOXOXO+OXXOO+O+++OXO+OOOO++++++++++%%&&&&:&&%%+++O+OXXXX.....X................oo...oo.o.                                                                                                         oooo                       ooooooooooooooooooo                  oooo",
"@@@@@@$$$$$$$$@@@@@@@@@$$$$$$$$$$@$$$@@@@@@@#########XXXooo           oooX##XXXooooo                                                                            oooX######@@@@#######XXoo o   ooooooooooooooooooooooooooooooooooooooooooooooooooooooooooooXXXXXXXXXXXooo       o o   ..ooX....XX...XXXXOXXXOXXX+++++++++%%&&:::&%%++OOOO...O.XXX..O.XX..XX.XXXXXXXXXXXXX++++#XX#X###########@@@@@@@@@@@@@@$$$$$$$***===--;;;;;;;;;;;;;;;;;;;;;;;;;;;;;;;;;;;;;;;;;;;;;;;;;;;;;;;;;;;;;;;;;;;;==$*$$@@@@@@@@@+++++%%%++++++++++++++++++++++O+++++++%%%&&::::::::::::::::::::::::::::::::::::::::::::::::::::::::::::::::::::::::::::::::::::::::::::::::::::::::::::::::::::::::::::::::::::::::::::::::::::::::::::::::::::::::::::::::::::::::::::::::::::::::&%%+++++++OO+O++O++++O+++++OOOO++++++++++++++@@$================&&&&&&@&&===**&@@@+++++XXXX++XXOOX+XXXXXXXXXXXXXXXXXXXXXXOXXXOOXXXXXXXXXXXXXXXXXXXOXXXXXXXXXXXX+####++++%%%%&&&&&&&&&%%++++@@#+##+++####X##XXXXXXXXXXXXXXXXXXXXXXXXXXXXXXXX..X.XX.XOOOOOOOOX++++++%%%&:::&&%++++++OOOOOOXXXOOOOXXOOO+OXOOO+++OXOOOOOO++++O++++++%%&&&:&&&%%++++OOXXXX....XX.....X....X.....o....o... .                                                                                                         oo                        ooooooooooooooooooo                  ooo",
"@@@@@@@$$$$$$$@@@@@@@@@$$$$$$$@@@@@@$@@@@@@@#########XXXoo            oooX#XXXXooooo                                                                             ooX######@@@@@######Xooo      oooooooooooooooooooooooooooooooooXXXXoooooooooooooo    ooooXXX#XXXXXXoooo         o  ...oXXoXXX.....XXXXOXXXXXXO+O+++++%%%&::::&&%%+OOOOO....XXXX.....X..XXXXXXXXXXXXXXXXX#XXXXX#XX###########@@@@@@@@@@@$$$$$$$$***==-;;;;;;;;;;;;;;;;;;;;;;;;;;;;;;;;;;;;;;;;;;;;;;;;;;;;;;;;;;;;;;;;;;;;;;-=**$$@@@@@@@@++++%%%%%%%%%%%%%%++++++OOOO++OO+O++++++%%%&&&::::::::::::::::::::::::::::::::::::::::::::::::::::::::::::::::::::::::::::::::::::::::::::::::::::::::::::::::::::::::::::::::::::::::::::::::::::::::::::::::::::::::::::::::::::::::::::::::::::::&%%%++++++OOOOO+++OOOOOOOO++++O+++OO+++++++++++@@*========&==&===&==*&@@$*=====**@@++++XXX++++XXXXXXXXOXOOXOXXXXXXXXOXXOXOOOOXOOXXXXXOXXXXXXXXXXXXOXOXXXXXXXXXXXXXX##@#+++%%%%&&&&&:&&&%%%++#@++######X#XX###XXXXXXXXXXXXXXXXXXXXXXXXXXXXXXXXX..XX...OXXXOOOO+++++++%%&&::::&%++++++OOOOOOXXOOXXOOOOOOOXOOOO+OOOOOO+OO++++OO++++++%%%&&&&&&%%%+++OXXXXXXXXXXXX...X..XXXX.......o.........                                                                                                         oo  o                     ooooooooooooooooooo                 oo",
"@@@@@@@$$$$$$$@@@@@@@@@$$$$$$$@@@@@@@@@@@@@@@########XXXoo            oooXXXXXXooooo                                                                             ooX#####@@@@@#######Xoo        oooooooooooooooooooooXooooooooXXXXXXXXoo o  ooooooo    oooXX##XXXXXoooo             ..ooXXoXXXX....XXXXXXXXXXXXOX+++++%%&&:::&&&%%++OO.......X.X..X.XXXXXXXXXXXXXXXXXXX#XXXXXXXXXX#########@@@@@@@@@@@@@$$$$$$***===;;;;;;;;;;;;;;;;;;;;;;;;;;;;;;;;;;;;;;;;;;;;;;;;;;;;;;;;;;;;;;;;;;;;;;;;=**$$$@@@@@@@@++%%&&&&&&&&&&&&&%%+++++OOOO++O++O++++++%%%&&&&:::::::::::::::::::::::::::::::::::::::::::::::::::::::::::::::::::::::::::::::::::::::::::::::::::::::::::::::::::::::::::::::::::::::::::::::::::::::::::::::::::::::::::::::::::::::::::::::::::&&%%%++++++++OOO++++OOOOOOOO++++OOO+OOO+++++++++++@$========&&&&&======&&@$$*=====**@++++++X++++XXXXXXXXOOOOXOOXOOOOXOOOXXXXXXXXXXXXXXOXXXXXXXXXXXXXXXOXXXXXXXXXXXXX+###++++%%%%&&&&&&&&&&%%++++++++#######X+#X#XXXXXXXXXX..XXXXXXXXXXXXXXXXXXXXX.XX....XXXXOOOO++++++%%%&&:::&&%+++++++O++OX+OOOOOOOOOOOOOOOOOOOOOOO+OO+OOOOO+++++++%%%&&&&&&&%++++XXXXXXXXXXXX......XXXX..............o...   ..                                                                                                   oooooo                      oooooooooooooooooo                  ",
"@@@@@@@$$$$$$$@@@@@@@@@$$$$$$$@@$$@@@@@@@@@@@########XXXoo            oooXXXXXXXooo                                                                              ooX###@@@@@@@######XXoooo    ooooooooooooooooXXXXXXXXXXXXXXXXXXXXXXXXoo  oooooooo     oooXXXXXXXooooo           o .o.oooXXXXXX.XXXXXXXXOOXXXXO+O+++%%&&&:::&&&%++++OOX.............XXXX..XXXXXXXXXXXXXXXXXXXXXXX###########@@@@@@@@@@@@$$$$***===;;;;;;;;;;;;;;;;;;;;;;;;;;;;;;;;;;;;;;;;;;;;;;;;;;;;;;;;;;;;;;;;;;;;;;;;;=*$$$@@@@@@@@++++%&&&:::::::::::&&%++++++O+OOO+++++++++%%%%&&&&&&:::::::::::::::::::::::::::::::::::::::::::::::::::::::::::::::::::::::::::::::::::::::::::::::::::::::::::::::::::::::::::::::::::::::::::::::::::::::::::::::::::::::::::::::::::::::::&&&&&%%%%%%++++++++++++++++++++OOOOOO++++++OO++++OO++++++@&========&=========&&&&$$*======*&@++#X+++XXOOOXXXOOOXXOOXXOXOXOOOXXOXXXXXXXXXXXXOOXXXXXXXX.XXXX.XXXXXXXXXXXXX+XX++++#+++++%%%&&&&:::&&%%%+++++++######XX#+XXXX#XXXXXXXX.XXXXXXXXXXXXXXXXXXXXXXXXXXXXXXXO.OOO++++++++%&&&::::&%++++++O+OOOOXXOOOOOOXOOXOOXX++O+O+OO++OOOOOOOO++++O+%%%&&&::&&%%++OXXXXXX...XX..X..XXX....X...oo....oooo.. .. .                                                                                                      oooo                      ooooooooooooooooooo                ",
"@@@@@@@$$$$$$$@@@@@@@@@$$$$$$$$@$$@@@@@@@@@@@########XXXoo            oooXXXXXXooooo                                                                             ooX###@@@@@@########Xoooo    oooooooooooooooXXXXXXXXXXXXXXXXXXXXXXXXXoo    oooooo    ooooXXXXXXooooo            . ..oooXXXXXX..X.XXXXXXOOXXXXO+++++%%&&:::&&&%%+++OOO.................X..XXXXXXXXXXXXXXXXXXXXXX###########@@@@@@@@@@@@$$$$***==-;;;;;;;;;;;;;;;;;;;;;;;;;;;;;;;;;;;;;;;;;;;;;;;;;;;;;;;;;;;;;;;;;;;;;;;;;=**$$$@@@@@@@@+@++&&&:::::::::::::&&++++++OOOOO+++++++++%%%%%%%%&&&&&&&&&&&&:::&&&::::::::&&&&:::&::::::::&&&&::::&&&&::::&:::::::&&:&:::&::::&&:::::&&&&&::::&&::&&&&&&&&::::&&&&&&&&&&&&::::&&&&&&&&::&&&&&&::::&&&&&:&&&&&&&&&&::::&&&&&&&&&&&&&&&&&&&&&%%%%%%%%%%%+++++++++++++++++++OOOOOOOO++++OOO++++++++++++@&&=======&&========&&&&$$&*======*@@+#XX+XXXXOOXXXXOOXXX+XOOXOOXXXX++XXXXXXXXOOXXXXXXXXXXXOOOOOXXXXXXXXXXXXXXX+XX+#++##+++%%%%&&&&&&:&&&%%%++++++####+#####XXXX##XXXXXXXXXXXXXXXXXXX#XXXXXXXXXOXXXXXXXXOOXXOOO+++++++%%&&&:::&&%+++++++OOOOOX+O+OOOXXXOOOOO+OOOOOXOOOOOOOOOOOOOO+OO+%%%&&&::&&%%++OXXXOOOXX.XX.X..XXX...............ooo..   ....                                                                                                     ooooooo                    oooooooooooooooooo               ",
"@##@@@@@$$$$$$@@@@@@@@@$@@$$$$$$$$$$@@$@@@@@#########XXooo            oooXXXXXoooooo                                                                              oX####@@@@@@######XXXooo    oo ooooooooooXXXXXXXXXXXXXXXXXXXXXXXXXXooo    oooooo     oooXXXXXXoo              ooo .oooXX......XX....XXXOOOXXO++++%%&&&:&&&&%%+++OOXOXX.XXX.....X....XXXXXXXXXXXXXXXXXXXXXXXXX###########@@@@@@@@@@@@$$$$***==;;;;;;;;;;;;;;;;;;;;;;;;;;;;;;;;;;;;;;;;;;;;;;;;;;;;;;;;;;;;;;;;;;;;;;;;;-=*$$$$@@@@@@@@@+@+%&&&&:::::&&&&&::&&%++++++++O++++++++++%%%%%%%%%%&&&&&&&&&&&&&&&&&&&&&&&&&&&&&&&&&&&&&&&&&&&&&&&&&&&&&&&&&&&&&&&&&&&&&&&&&&&&&&&&&&&&&&&&&&&&&&&&&&&&&&&&&&&&&&&&&&&&&&%%&&&&&&&&&&&&&&&&&&%%&&&&&&&&&&&&&&&&&&%%&&&&&&&&&&&&&&&%%%%%%%&%%%%%%%%%%%%++++++++O++++OOOOOOOOOOOOOOOOOOOOOOO++++O+++++++@&=======&==========&&&&$&*======*$@@#X++XXXX++O+XO++XXXX+X++X+XXXXXX+XXXXXXXOXXXXXXXXXXXOOXOXXXXXXXXXXXXXXXX++++XX+####+++%%%%&&&&::&&&%%%++++++++++++##+##X#+##XXXXXXXX..XXXXXXXXX#XX##XXXXXXXXXXXX....XXXXX+O+OO++++%%&&:::&&%+++++++++++OO+++OOOOO+OOOOOOXX+OOOOOOOO+OOOOOO++OO++%%%%&&&&&&%%+++OOOOO...X..XXXX....XXXX.X.X.............. ... .                                                                                                   ooooooo                     ooooooooooooooooooo            ",
"@@#@@@@@$$$$$$@@@@@@@@@$@@$$$$@@$$$$$@@@@@@@#########XXooo            oooXXXXooooooo                                                                              oX####@@@@@@@@####XXoooo    ooooooooooXXXXXXXXXXXXXXX#XXXXXXXXXXXXXoo     ooooo       ooXXXXoooo             ooo o..ooXX......XX....XXOOOOXO+++++%&&&&&&&%%%++++OO.O..X.XX..XX.X.X.XXXXXXXXXXXXXXXXXXXXXXXXXX##########@@@@@@@@@@@@$$$$***==;;;;;;;;;;;;;;;;;;;;;;;;;;;;;;;;;;;;;;;;;;;;;;;;;;;;;;;;;;;;;;;;;;;;;;;;;;=*$$$$@@@@@@@@@@+++%&&&&&&&&&&%%&&&&&&%++++++++O+++++++++++%%%%%%%%%%%%%%%&&&%%%%&&&&&&%&&&&&&%%&&%%%&&&%%%%%%%&&&&&%%%%%%%%%%%%%&&&&&&&&%%%%%&&%%%%%%%%%%%%%%%%%%%%%%&&&&%%%&&&%%%%%%%%%%%%%&&%%%%%%%&%%&%%%%%%%&%%%%%&%%&&%%%%%%%%%&&&%%%%%%%%%%%%%%%%%%%%%%%%%%%%%%%+++++++OO++O+OOOOOOOOOOOOOOOOOOOOOOO+O+OO++++++++&&======&===========&&&$&**======*$@#+++XXXX+++++O++XXXXOOXXXXXXXXXXXXXXXXXXOXXXXXXXOOOOXXXXXXXXXXXXXXXXXXXX++++XX####++++%%%%%&&&&:&&&&&%++++##++++++##++######XXXXXXXX..XXXXXXXXXXX###XXXXXXXX.XX....OXXXXXXOO++++++%%%&&:::&&%+++++OO++OXX+++OOOOO+OOOOOOX++O+OOXXOO+X++OOOO++OO++%%%%&&&&&&&+++++OOOOX.XXXXXXXX..XXXXXXX................ ...                                                                                                      ooooooo                     ooooooooooooooooooo           ",
"@##@@@@$$$$$$@@@@@@@@@@$@$$$$$@@$$$@@$$@@@@@########XXoooo             ooooXoooooo                                                                               ooX####@@@@@@@@#####Xoooo      oooooooXXXXXXXXXXXXXXX#########XXXXXooo      oooo        oooooooo                o..oooXX..XXXXX..XXXXXXOOOOOO++%%%&&&&&&&%%+++++OOO.......XXX.XXXXX.XXXXXXXXXXXXXXXXXXXXXXXX###########@@@@@@@@@@@@$$$$***==;;;;;;;;;;;;;;;;;;;;;;;;;;;;;;;;;;;;;;;;;;;;;;;;;;;;;;;;;;;;;;;;;;;;;;;;-==**$$@@@@@@@@@@@@@@+%%&&&&%%&&%%%&&&&&&%+++OOO++O+++++++++++++%%%%%%%%%%%%%%%%%%%%%%%%%%%%%%%%%%%%%%%%%%%%%%%%%%%%%%%%%%%%%%%%%%%%%%%%%%%%%%%%%%%%%%%%%%%%%%%%%%%%%%%%%%%%%%%%%%%%%%%%%%%%%%%%%%%%%%%%%%%%%%%%%%%%%%%%%%%%%%%%%%%%%%%%%%%%%%%%%%%%%%%%%%%%%%%%%%%%%%%+++++++++OOO++++OOOOOOOOOOOOOOOOOOOOOOOOO+++OO++++++@&===================&&&&&**=====*$@@+++X++++XXX+++XX+++XXXX+XXXXXXXXXXXOOOXXXX+OOXOXXXXXXXXXXXXXXXXXXXXXXXXXX++XX++####++++%%%%&&&&::&&&&%%++++####+###++++###X##XXXXXXX...XXXXXXXXXX##+++XXXXXO......O.XXXXXX+OO++++++%&&::::&&%+++++O++O+OOOOOOOO++OO++++XOOOOOOOOOXXXXOOOOOOOOO+++++%%&&&&&&&%+++++OOOXOXOXXXX.........XXX..................                                                                                                        ooooXoooo                      ooooooooooooooo  o       ",
"@#@@@@@@$$$$$@@@@@@@@@@@@$$$$$@@@@$@@@@@@@@@########XXoooo             oooooooooo                                                                                ooX####@@@@@@@######XXooo      ooooooXXXXXXXXXXXXX#########XXXXXXXXooo      oooo          oo                     . oo.X....XXXXXXXX.....XOOOO++%%%&&&&&%%%%++++OOO.......XXX.XXXXXX.XXXXXXXXXXXXXXXXXXXXXXXX###########@@@@@@@@@@@$$$****==;;;;;;;;;;;;;;;;;;;;;;;;;;;;;;;;;;;;;;;;;;;;;;;;;;;;;;;;;;;;;;;;;;;;;;;==*$$$$$@@@@@@@@@@@@@@++%%&%&%%%%&%%%%&&&&&%++++OO+++++O+++++++++++%%%%%%%%%%%%%%%%%%%%%%%%%%%%%%%%%%%%%%%%%%%%%%%%%%%%%%%%%%%%%%%%%%%%%%%%%%%%%%%%%%%%%%%%%%%%%%%%%%%%%%%%%%%%%%%%%%%%%%%%%%%%%%%%%%%%%%%%%%%%%%%%%%%%%%%%%%%%%%%%%%%%%%%%%%%%%%%%%%%%%%%%%%%%%%%%%%%%%++++++++++OOO+++OOOOOOOOOOOOOOOOOOOOOOOOOOOO+OO++++++@&*========&=========&&&@&****==*=*@@+++++++++XX+++XX+++XXXXXXXXXXXXXXXXOOOXXX++XXXXXOXXXXXXOOXXXXXXXXXXXXXXXXXXXX+#####+@++%%%%%&&&:::&&&%%%%++########+++###X+##XXXXXXXX...XXXXXXXXXXX++XXXXXXOO.....O.XXXXXXXOO++++++%%&&:::::&%++++O++++OOOOOOOXXXO+O+++XOOOOOOOOOOXXOOOOOOOOOOO++++++%%&&&&&&%%++OOOOXXXXXXX..........XXX....................                                                                                                       ooooooo o                   o oooooooooooooooo oo      ",
"@@@@@@@@$$$$$@@@@@@@@@@@$$$$$$$@@@@@@@@@@@@#######XXXXoooo              oooooooo                                                                                  oX######@@@@#######Xoooo      oooooXXXXXXXXX##############XXXXXXXXooo      oooo                              . o ..oo.......XXXX....OOOOOO++++%%&&&&%%%++++OOOO.O.XXXXXXXXX..XXXXXXXXXXXXXXXXXXXXXXXXXXX#X###########@@@@@@@@@@@@$$****==;;;;;;;;;;;;;;;;;;;;;;;;;;;;;;;;;;;;;;;;;;;;;;;;;;;;;;;;;;;;;;;;;;;;-==**$$$$@@@@@@@@@@@@@@++@@++%%%%%%%%%%%%%&&&&%+++OOOO+++OOO+++++++++++++++%%%%%%%%%%%%%%%%%%%%%%%%%%%%%%%%%%%%%%%%%%%%%%%%%%%%%%%%%%%%%%%%%%%%%%%%%%%%%%%%%%%%%%%%%%%%%%%%%%%%%%%%%%%%%%%%%%%%%%%%%%%%%%%%%%%%%%%%%%%%%%%%%%%%%%%%%%%%%%%%%%%%%%%%%%%%%%%%%%%%%%%%%%%%++%%++++++++++OO+++OOOOOOOOOOOOOOOOOOOOOOOOOOOOOOOOOX+++++@@*=======&&&&========&&&&$*&*****&&++++X++++++X++XXXX+++X+X++XXXXX+++++++XXXXX+XXXXXXXXXXXXXXOXXXXXXXXXXXXXXXXXXX+#+#####++++%%%&&&&&:&&&&%%%+++++#+++#++#+##+X##XXXXXXXXXX..XXXXXXXXXXXX+XXXXXXXOOX.XXXXXXXXOOOX+++++++%%&&:::::&%+++++++++XXXOOOOX+X+OO++XXOOO++O++OOOOOOOOOOOOOO+++++++%%%&&&&&%%%+++XXXXOXXXXX.XXXX....X....................... . ...                                                                                                oooooooo  o                 o   ooooooooooooooooo     ",
"@@@@@@@@$$$$$@@@@@@@@@@@$$$$$$$$@@@@@@@@@@@#######XXXXooo               oooooooo                                                                                  oX######@@@#######XXooooo    oooooXXXXXXXXX#######@@@####XXXXXXXXXooo      ooo                               .oo..............X.....OOXXOOO++%%&&&&&%%++++OOOO.....XXXXXXXXX..XXXXXXXXXXXXXXXXXXXXXXXX##############@@@@@@@@@@@@$$*****=;;;;;;;;;;;;;;;;;;;;;;;;;;;;;;;;;;;;;;;;;;;;;;;;;;;;;;;;;;;;;;-======*$$$$$$$$@@@@@@@@@@@@@++++++++%%%%%%%%%%%%%%%%++++OOOOOO+OOO+O+++++++++++++++%%%%%%%%%%%%%%%%%%%%%%%%%%%%%%%%%%%%%%%%%%%%%%%%%%%%%%%%%%%%%%%%%%%%%%%%%%%%%%%%%%%%%%%%%%%%%%%%%%%%%%%%%%%%%%%%%%%%%%%%%%%%%%%%%%%%%%%%%%%%%%%%%%%%%%%%%%%%%%%%%%%%%%%%%%%%%%%%%%%%%%%%++++++++++++++++O+O+OOOOOOOOOOOOOOOOOOOOOOOOOOOOOOOOOOOX+X++@@$*======&&&&========&&&@$$$$$&&&&@++++X++++X++++XXXX+++X++++++++++X+++++XXXXXXXXOOXXXXXXXXXXXXXXXXXXXXXXXXXX++XX+++++++#++++%%%%&&&&::&&&&%%++++++++++#+####++##XX+XXXXXXX...XXXXXXXXXXXXXXXXXXXXOXXXX.XXXXXXOOO++++++++%%&&::::&&%+++++++++++++XOXX++XO++OXOOOOOOOOOXOOOOOOOOOOOOOO++++++%%%&&&&&%%+++OXXXXXXXXXXXXXX....XXX.................oo.........                                                                                               o  ooooooo                       ooooooooooooooooo    ",
"@##@@@@@@@$$$$@@@@@@@@@@$$$$$$$@$$@@@@@@@@@#########XXXoo               oooooo                                                                                    oX######@@########XXoooo    ooooXXXXXXXXXXX###@@@@@@@##XXXXXXXXXXoooo o   oooo                           o    ooo.....X.XX.....X....OOOOOO+%%&&&&&%%%%++OOXOXOXX....XXXX..XX.XXX.XXXXXXXXXXXXXXXXXX##XXXX#######@@@@@@@@@@@@@$$$$$***==-;;;;;;;;;;;;;;;;;;;;;;;;;;;---;;----;;;;----==--==============***$****$$$$$$@@@@@@@@@@@@@@@@@@+++++++++++++++++%%+++++++OOOOOOOO++++O+++++++++++++++%%%%%%%%%%%%%%%%%%%%%%%%%%%%%%%%%%%%%%%%%%%%%%%%%%%%%%%%%%%%%%%%%%%%%%%%%%%%%%%%%%%%%%%%%%%%%%%%%%%%%%%%%%%%%%%%%%%%%%%%%%%%%%%%%%%%%%%%%%%%%%%%%%%%%%%%%%%%%%%%%%%%%%%%%%%%%%%%%%%%%+++++++++++++++OOOO++OOOOOOOOOOOOOOOOOOOOOOOOOOOOOOOOOOXOX+++++@&=======&&&=========&&@@@&&&&&@@&@@++++++++X++++XXXX++++++++++++++++X+XXXXXXXXXXXXXXXXXXXXX++XXXXXXXXXXXXXXX+++++++++##+#+@++%%%&&&&:&:&&&%%%++++++++###X#++XXXXXXXXXXXXX....XXXXXXXXXX###+XXXXXXOOXX..XXXXOOOXX++++++++%%&&::::&&%++++++++++XX++OX+XOOOOXOOOOOOOOOOOOOOOOOOOOOOOOOOOOO++++%%&&&&&&%%++++OOXXXXXXXXXXX..................................                                                                                                  oooooooooo                      ooooooooooooooo    ",
"@###@@@$@@@$$$@@@@@##@@@$$$$$$@@$$@@@@@@@@@#########XXooo               oooo                                                                                      ooX######@@#######XXooooooooooooXXXXXXXXX###@@@@@@@@##XXXXXXXXXXooooooo  o oo                           oo   oooo..o...........X...OOOOOOO%%%&&&&%%%%++OOOOOOOXXX....X....XXXXXX.XXXXXXXXXXXXXXXXXXX##XX########@@@@@@@@@@@@$$$$$$***==;;;;;;;;;;;;;;;--============**====**======****=***************$$$$$$$$$$$$$@@@@@@@@@@@@####@+@+++++++++++++++++%%+++++++++OOOOOO++++OO++++++++++++++%%%%%%%%%%%%%%%%%%%%%%%%%%%%%%%%%%%%%%%%%%%%%%%%%%%%%%%%%%%%%%%%%%%%%%%%%%%%%%%%%%%%%%%%%%%%%%%%%%%%%%%%%%%%%%%%%%%%%%%%%%%%%%%%%%%%%%%%%%%%%%%%%%%%%%%%%%%%%%%%%%%%%%%%%%++++++%%%%++++++++++++++++OO+O++OOOOOOOOOOOOOOOOOOOOOOOOOOOOOOOOOOOXX+++++@&=======&&&=========&&@@@@@@@@@@@@++++++++XX+++XXXX++++++++X++X++X+++XXXXXXXXXXX+XXXXXXXXXXXXXXXXXXXXXX+XXXX++++X++#++++@+@++%%%%&&&&&&&&&%%%++++++++##XX##+XXXXXXXXXXXXXX...XXXXXXXXXX###+XXXXXXOOXO..XOXOOOXXXX++++++++%%&&::::&&%+++++++++++++OXXXOOXOXXOOOOOOOOOOOXOOOOOOOOOOOOOOOO++++%%%&&&&&&%++O+OOXXOXXXXX..XX..........................oo...... .                                  o                                                          XXoooXoooo o                        oooooooooooooo   ",
"@@#@@@@$@@$$$$@@@@@##@@@$@$$$@@@$$@@@@@@@@@#########XXooo                                                                                                         ooX###############XXooooooooooooXXXXXXX###@@@@@@####X#XXXXXXXXXooooooo   o                                   ......o.o..X.XX.X.XXX.OOOOOO+%%&&&&%%%%+OOOOOXO..XXXX....XX..XXXXXXXXXXXXXXXXXXXXXXXXXX##XXX#######@@@@@@@@@@@@$$$$$***==;;;;;;;;;;;;;;-====*****=***************=******************$***$*$$$$$$$$@@@@@@@@@@@@@@######+@@++++++++++++++++++++++++++++OOOOOOO++++O++++++++++++++++++++++++++++%%++++%%++++%%++++%%%%%%%%%%%%%%%%%%++%%%%%%%%%%%%%%%%%%%%%%%%%%%%%%%%%%%%%%%%%%%%%%%%%+++++%%++++%+%%%+++++%%++++%+++%%%%%%+%+++%%%%%%%+++%%%+%%%%%++++%%++++++++++%++++++++++++++O+OOO++++OOOOOOOOOOOOOOOOOOOOOOOOOOOOOOOOOOXXXX++++@&&===================&@@@++++@@@@++++++++++XX++XXXXX+++X+XXXXXXXX+X++XXXXXX++++XX++++XXXXXXXXXXXXX+XXXX++XXXX++XXXXX###+##@++%%%%&&&&&:&&&&%%+++++#++++#X###+XX#X##++XXXXXX....XXXXXXX#X##++XXXXOXOOX...XXXXOXOXX++++++++%%%%&&:::&&%++++++++++++OO+X++OOXX+++OOOOOO+OXOOOOXXOOOOOOOO++++++++%%%&&&&%%%++O+OXXOOXXX..XXXX....XXX...............oooo... ....  ..                      #==& o=;;=o====X    #===& @==X X=;;;=#  ====@    X==@    X====o o=;;;;=@o#=====# o  o=====               oooooooooooooo ",
"@@@@@@@@@$$$$$@@@@@##@@@@@$$$@@@$@@@@@@@@@@@########XXoooo                                                                                                        ooX###############XXooooooooooooXXXXXX##@@@@@#######XXXXXXXXXXoooooo     o                            oo    ........ooXX.....XXXXXXOOOOO++%&&&&%%%++OOOOOOXO.OXXXX..XX.X..XXXXXX.XXXXXXXXXXXXXXXXXX###X########@@@@@@@@@@@@$$$$****==;;;;;;;;;;;;;-===****************************************$$$$$$$$$$$$$$$$@@@@@@@@@@@@@@#######+@@++++++++++++++++++++++++++++OOOOOOO+O+++++++++++++++++++++++++++++++++++++++++++%%+++%%%%+++++%%%%%%%+++++%%%%%%%%%+%%%%%%%%%%%%%%%%%%%%%%%%%%%%%%%%%%%%%%%+++++%%++++%+%%++++%+%%++++%%%+++%%%%+++%%%+++%%%+++%%%+++++%+++++++++++++++++++++++++++++++O+OOO++OOOOOOOOOOOOOOOOOOOOOOOOOOOOOOOOOOOOOOOOOO+++&&===================&@+++++++@@+++++++++++XX++++XXX+++XXXXXXXXXXXXO+XXXXXX++++OX++++XXXOOOOOXXX+++XXXX++XXXXXXXXXXXX+#+#+#++%%%%%%&&&&&&&&&%+++++++++##X####+X#+X#++XXXXXXX....XXXXXXXXX#+++XXXXOXXXOOOOXXOOOOXX++++++++++%%%&&&::&%+++++++O++++OOXX++++++++OOOOOXXOOO+OOOXXOOOOOOOOOOOO++++%%%%&&&&&%++++OOXXOOXXX.XXXXXX..XXXX..............oooo..... ..    .                     @;;;=;;;;=X;;;;X    &;;;; =;;;@;;;;;;;& =;;;;    &;;;    $;;;; @;;;;;;;;=o=;;;;=oo  @;;;;@                oooooooooooooo",
"@@@@@@@$$$@@@@@@@@##@@@@@$$$$$$@@@@@@@@@@@@########XXXoooo                                                                                                        ooX###############XXooooooooooooXXXX####@@####XXXXXXXXXXXXXoooooo                                      .  .o..ooo.oo.......XX.XX.XOOOO++%%&&&&&%%%+OOOOO........XXXX..XXXX....XXXXXXXXXXXXXXXXXXX#############@@@@@@@@@@@@$$$$$***==;;;;;;;;;;;;;====*****************$$$$****$$$$$$$$$$$$$$$$$$$$$$$$$$@@@@@@@@@@@@@@@@@########+#+++++++++++++++++++++++++++++X+++OOXOO++O++++++++++++++++++++++++++++++++%%%%%++%%%%%+++%%%++++%%+++%%%%%%%%++++%%%+++%%%++++++%%%%%++++%%%++++%%%%%+++%%%%++++%%%%%+++%%%%%++++%%++++%%+++++++%%%%+%%%+++++++++++++++++++++++++++++++++++++++++++++++++++++++O++OOOOOOOOOOOOOOOOOOOOOOOOOOOOOO...OOOOOXXOO++@@&====================&@+++++++@@@+++++++++++++X++OOOO++XXX++OO+XXXXXXX+XXXXX+++XXX+OXXXXXXXXX+XXXXXXXXXXXXXXXXXXXXXX+######@++%%%&&&&&&&&&&%%%%%++++++#XXXXXXXXXXXXXXXXXXXXXX..X.XXXXXXXXX++XX+XXXXXXXXXOOOOOOXXX+++++++++++%%&&&:&&&%+++++++++OOO+XOOOXXXOOOOOOOOOOOOOOOOOOOOOOOOOOOOOOO+++++%%%&&&&&%%++++OOXOXOX.XXXX..X.XXXX............................                        @;;;;;;;;=X;;;;#    &;;;; =;;;;;;;;;;;;@@;;;;X   ;;;;X   =;;;&.;;;;;;;;;;&@;;;;;Xooo=;;;;                  ooooooooooooo",
"@@@@@@@$$$@$@@@@@@###@@@@$$$$$$@@@@@@@@@@@@#########XXoooo                                                                                                        ooX###############XXooooooooooooXXX########XXXXXXXXXXXXXoooooooo                                       .  ooo.oooo......o.....XX.XOOO+++%&&&&%%%%++OOOOO.........XXX..XXXX...XXXXXXXXXXXXXXXXXXXX#############@@@@@@@@@@@$$$$*$**==-;;;;;;;;;;;;-===******$$$$$$$$$$$$$$$$$$$$$$$$$$$$$$$$$$$$$$$$$$$$@@@@@@@@@@@@@@@##########+####+++++++++++++++++++++++++++++++OOOOOOOO++++++++++++++++++++++++++++++++++++++++++++++++%+%++++%%++++%%%%%%++++%%++%%+%++++%++++%%%%%++++%%%++++%%%%+++%%%%%+++%%%%%++++%%+%++++%%++++%%+++++++++++%%%+++++%+++++++++++++++++++++++++++++++++++++++++++++++++++++OOOOOOOOOOOOOOOOOOOOO.OOOOOOOO..O.OOOOXXOO+++@@$==================&&@+++++++@@@++++++++++++OXX++OO+O+XXX+OO+XXXXXXXX++XXXX++XXXX+XXXX+XXXX++XXXXXXXXXXXX+XXXXXXXXX++#####@++%%%%&&&&&&&&&&%%%%++++++##XX+XXXXXXXXXXXXXXXXXXXo...XXXXXXXX++X+++XXXXXXXXOOOOOOXXX+++++++++++%%%&&&:&&&%++++++++++O++OO+O+XOOOOOOOOOOOOOOOOOOOOOOOOOOOOOOOO+++++%%%%&&&&&%%+++OXOXXXXXX..X...XXX.................X...........o                       @;;;;;;;;=X;;;;#    &;;;; =;;;;;;;;;;;;;X;;;;@  X;;;;&  o;;;;X=;;;;;=;;;;;X;;;;;$ooX;;;;=                    ooooooooooo",
"##@@@@@@$$$$$$@@@@###@@@@$$$$$$@$@@@@@@@@@@#####XXXXXXoooooo                                                                                                      ooX###############XXooooooooooX#########XXXXXXXXXXXXXXooo                                              ..oo...oo................OOOOO+%%&&&&&%%+++OOOOOOX...XX..XXXX..X..X..XXXXXXXXXXXXXXXXXXXXX#XX#########@#@@@@@@@@@@$$$*****==;;;;;;;;;;;;-===*****$$$$$$$$$$$$$$$$$$$$$$$$$$$$$$$$$$$$$$$@@@@@@@@@@@@@@@@@@@############XXX+###+++++++++++X+OO+++++++++++++++OOOOOOOOO++OO++++++++++++++++++++++++++++++++++++++++++++++++++++++++++++++++++++++++++++++++++++%%%%+++++%++++++++%%++++++%+++++%%%%++++++%++++++++++++++++++++++++++++++++++++++++++++++++++++++++++++++++++++++++++++++++++++OOOOOOOOOOOOOOOOOOOOOOO.OOOOOOOOOOOOOOOOOXO++++@@$*&&&============&&&+++++++++++++++++++++++OOX+O++++OXXX++XXXXXXOO+++++XXX++XXXXXXXXXXXXXX+++XO+X+XX++X++++XXXXX+++++#++++++++%%%%&&&&::&&&%%%+++++++#++++XXXX+XXXX++XXXXXXX.o..XXXXXXXXX+XX++XXXXXOXXOOOOOOO+O+++++++++++++%%&&&&&&%%+++++++++OOO+++OOOOOOOOO++OOOOOOOOOOOOOOOOOOOOOOOO++++++%%%&&&&&%%%%++OOXOXOOX.XX...XX......X........................o                      @;;;;;;;=@#;;;;#    =;;;; =;;;;;#o@;;;;;X=;;;=  &;;;;;  #;;;; ;;;;=  #;;;;#@;;;;;oo$;;;;# o                   oooooooooo",
"####@@@@@$@@$@@@@####@@@@$$$$$@@$@@@@@@@@@@@####XXXXXXoooooo                                                                                                      ooX###############XoooooooooXX#######X#XXXXooooooooooooo                                                oo.....................XOXO+++%&&&&&%%++OOOOOOXX.X.XXX..XXXX.XXX..XXXXXXXXXXXXXXXXXXXXXXX#XX########@@#@@@@@@@@@$$$$****==;;;;;;;;;;;;-===*****$$$$$$$$$$$$$$$$$$$$$$$$$$$$$$$@$$$$@@@@@@@@@@@@@@@@@@@@@@############XXXXX###+++++++++XXXOXXO+++++++++++++OOOOXOOOOO++OO+++++++++++++++++++++++++++++++++++++++++++++++++++++++++++++++++++++++++++++++++++++++++++++++++++++++++++++++++++++++++++++++++++++++++++++++++++++++++++++++++++++++++++++++++++++++++++++++++++++++++++++++++O+OOOOOOOOOOOOOOOOOOOOOOOOOOOOOOOOOOOOOOXOOOOO++++@@@&&&&&&&=====&&&&&%++++++++++++++++++++++++XXXOOOOOOOXXX+XXXX+OO++++++XXXOOXXXXXXXXXXXXXO+OXXO+++++++X+++XXXXXX++++++++++++++%%%%&&&&&&&&&&%%+++++++#++++XXXX++XXXXXXXXXXXX....XXXXXXXXXXXX++++XXOOXXXXOXOO++++++++++++++++%%%&&&&&&%+++++++++OOO+OOOOOOO++++O++OOOOOOOOOOOOOOOOOOOOOOOO+O++++%%%%&&&&&%%++OOXXXXOOX.......X......XXX....XXXXX..............                     @;;;;;X   X;;;;X    $;;;; =;;;;X   &;;;;@@;;;;  ;;;;;;X =;;;=         ;;;;$ ;;;;;#o;;;;=ooo                     oooooooo",
"##@@@@@@@@$$$@@@@@###@@@@@$$$$@@$@@@@@@@@@@########XXXXXoooo                                                                                                      ooX###########XXXXXooo   ooX##@@####XXXooooo ooooo                                                  ... . ..oo......ooXX......OOOOO+%%&&&&%%%++OOOX.X.XX....XXXXXX...XX.XX..XXXXXXXXXXXXXXXXXXXXXXX##########@@@@@@@@@@$$$$$**===;;;;;;;;;;;;-==*=****$$$$$$$$@$$@$@@@@@@@@@@@@@@@@@@@@@@@@@@@@@@@@@@@@@@@@@@@############XX#XXXX+++##+++++XXXOOOOXX++++++O+++++++OOOOXOOOOO++OOO++++++++++++++++++++++++++++++++++++++++++++++++++++++++++++++++++++++++++++++++++++++++++++++++++++++++++++++++++++++++++++++++++++++++++++++++++++++++++++++++++++++++++++++++++++++++++++++++++++++++++++++++OOOOOOOOOOOOOOOOOOOOO.OO...OOOOOOOOO.OOOXOOOOOOX++++@++@@@@&&@$$$@@@@@@+++++++++++@+++++++++++XOOX+XXXOXOOXXX++XXXX+O++XX++OOXXXXXXXX++XXXX++XXOOOXXXXXX++X+XXXXXXX++++++++++@@++++%%%&&&&&::&&%%%%+++++++#XXXXXX+XXX+XXXXXXXXXXooooXXXXXXXXXXXXXX++XOOOOXXXXXX++++++++++++++++++%%&&&&&&%%+++++++++O++OOOOOO++O++OOOOOOOOOOOOOOOOOOOOOOOOO++OOO++++%%%&&&&&%%+++OOOOXOXXXX..........XX......XX...................                   @;;;;@    #;;;;#    $;;;; =;;;=    o;;;;@ ;;;;Xo;;;;;;& ;;;;#   o&=;;;;;;;$ =;;;;=#;;;;&oooooooo                  oooooo",
"##@@@@@@@@$$$@@@@@###@@@@@@@$@@@$@@@@@@@@@@#######XXXXXXoooo                                                                                                      ooX###########XXXXXooo    oX#@@@###XXXoooo                                                          . .   .ooo..................OO++%&&&&%%%%+OOOO.O...X......XXXXXXXXXXX.XXXXXXXXXXXXXXXXXXXXXXXXXX########@@@@@@@@@@$$$$****==;;;;;;;;;;;;-===******$$$$$$$$$$$@$@@$@@@@@@@@@@@@@@@@@@@@@@@@@@@@@@@@@@@@@@##############XX#XXXX++++#++++XXXXOOOOXO++++++O+++++++OXOOXX++O+++++++++++++++++++++++++++++++++++++++++++++++++++++++++++++++++++++++++++++++++++++++++++++++++++++++++++++++++++++++++++++++++++++++++++++++++++++++++++++++++++++++++++++++++++++++++++++++++++++++++++++++++++++OOOOOOOOOOOOOOOOOOOOOOOOOO..OOOOOOOO..OOOOO.OOOOOX+++++++++++@@@@@@@@@+++++++++++++++++++++++++XOOXX+XX+XX+XXX++X+XX++++XX++++XXXXXXXX++XXXXOOXXOOOXXXXXX+X++++XXXXX++++++++##++++++%%%%&&&&&&&&&%%%++++++++XXXXXX+XXXX+XXXXXXXXXX.ooo.XXXXXXXXXXX+X++OOOOXXXX++++++++++++++++++++%%%&&&&&&%+++++++++O++OOOO+O++++++++OOOOOOOOOOOOOOOOOOOOOOO++OOO++++%%%&&&&&&%++OOOOXOXO.XOX.........X..X...XX.....................                 @;;;;X    +;;;;X    @;;;; =;;;=    o;;;;@ =;;;&@;;;;;;;X;;;;  .;;;;;;;;;;;$ o;;;;;=;;;;XXXooooo                      ooo",
"###@@@@@@@$$@@@@@@####@@@@@@$@@@$@@@@@@@@@@#########XXXXoooo                                                                                                      ooX############XXXoo       oX#@#XXXooo                                                             .  oo. o.oo.ooo............OOO++%%&&&&%%+OOOOXOX..........XXXXXXXXXXX..XXXXXXXXXXXXXXXXXXXXXXXX#########@@@@@@@@@@@$$$****==;;;;;;;;;;;;;====****$$$$$$$@@@@@@@@@@@@@@@@@@@@@@@@@@@@@@@@@@@@@@@@@@@@@################XXXXXXXXX#++++++++OXXXOOOXXX++++++++++++++XXXOXO++OOOO+++++++++++++++++++++++++++++++++++++++++++++++++++++++++++++++++++++++++++++++++++++++++++++++++++++++++++++++++++++++++++++++++++++++++++++++++++++++++++++++++++++++++++++++++++++++++++++++++++++++++++++++++++O++OOOOOOOOOOOOOOOOOOOOOOOOOOOOOO.....OOOX.OOOOOOOO++X+++++++++++++##+++XOOOO+++++%%%++++++++++OO++++OO++++XX+++OXX++++XXXXOOXXO+O+XXX+++XXXO+XOOXXXXXXXX++XX+++XXXX+++++XX####+@++%%%%%&&&&&&&&&%%%%++++++XX++++++XXXXXXXXXXXXXXX......XXXXXXXX+X+XXXXOXXX++++++++++++++++++++++++%%%&&&&&%%+++++++++OOOO+O+OO++OOOO++OOOOO+OOOOOOOOOOOOOOOOOOOOO++++%%%&&&&&&%%++OOXXOOO.XXOOX.........XXX.X......................  .              @;;;;X    +;;;;#    &;;;; =;;;=    .;;;;@ @;;;;;;;=&;;;=;;;&  ;;;;;;;;;;;;=  =;;;;;;;;=oXXXXXooo                        ",
"###@@@@@@@$@@@@@@@####@@@@@@@@@@@@@@@@@@@@@#############oooo                                                                                                      ooX############XXXoo       ooX##XXooo                                                              . .o.   o o..o.....o.o.....OO++%%&&&%%%%+OOOOXOX.X.......XX...XXXX..XXXXXXXXXXXXXXXXXXXXXXXXXX##########@@@@@@@@@@@$$$***==-;;;;;;;;;;;;;===*****$$$$$$$@@@@@@@@@@@@@@@@@@@@@@@@@@@@@@@@@@@@@@@################X#####XXXXXXXXXXX+++++++OXXXOOOXXX++++++++@@@@@+XXX+OO++OOO++++++++++++++++++++++++++++++++++++++++++++++++++++++++++++++++++++++++++++++++++++++++++++++++++++++++++++++++++++++++++++++++++++++++++++++++++++++++++++++++++++++++++++++++++++++++++++++++++++++++++++++++++++O+++OOOOOOOOOOOOOOOOOOOOOOOOOOOOO.....OOOO.OOOOXOOOOXXXX+++++++++++XX++XOOOOO+++++%%%++++++++++++O++++++++OXX+OOOXX++++XXX+++XOO+++XXXX++XXXXXXO++XXXXXXXX+XX++++XXX+XXXXXX##+#+#+++%%%%&&&&&&&&&&%%%+++++++X++++++XXXXXXXXXXXXXXX.......XXXXXXX+XXXXXXXOX+++++++++++++++++++++++++%%%%&&&&&%++++++++++++O+OOO+OOOOOO++OOOOOOOOOOOOOOOOOOOOOOOOOO+O++++%%%%&&&&%%++++XXOOOOXXXXXX........XXXXX.......................  ..            @;;;;X    X;;;;&    =;;;; =;;;=    o;;;;@ o;;;;;;;@ ;;;;;;;+ &;;;;o   ;;;;&  X;;;;;;;;#oXXXXXXXo                        ",
"####@@@@@@$$$@@@@@###@@@@@@@$$$$$$@@@@@@@@@@########XX#XXXoo                                                                                                      oooX#########XXXoooo         ooo                                                                 .       ...o..ooooo..........OO+%%&&&%%++OOOOXXX...X....X..XX...XXXXXX.XXXXX.XXXXXXXXXXXXXXX############@@@@@@@@@@@@$$$***==-;;;;;;;;;;;;====****$$$$$$@@@@@@@@@@@@@@@@@@@@@@@@@@@@@@@@@@@@#@@@@###################XXXXXXXXXXXXXXX+#+++XXXOOO.OOXXXO+++++++@@@@++OXXX+++++++++++++++++++++++++++++++++++++++++++++++++++++++++++++++++++++++++++++++++++++++++++++++++++++++++++++++++++++++++++++++++++++++++++++++++++++++++++++++++++++++++++++++++++++++++++++++++++++++++++++++++++++++++++OOO++OOOOOOOOOOOOOOOO....O.OO.......O..OOOOOOOOOOOOOOOOOOXXXXXXXOOOOXOOOOOOOO++++++%%@++++++++OOOOOOOOOOOOOOOXXXOO++XOOXXX+OOXXOOOOXXOOOXXXOOXXXXXXOO++X+XXXXXX+XXXXXXX++++++++++#+++%%%%&&&&&&&&&&%%%+++++++XXX++XXX+XXXXXXXXXXXX.....o..XXXXX+X++XXXXXX+++++++@++++++++++++++++++++%%%&&&&&%%%++++++++++OOOOOOOOOOOOOOOOOOO++OOOOOOOOOOOOOOOOOOO+++++++%%&&&&&&%%%%++OXXOOOOOOOOXXX...XX....XX.........XX......oo.....             @;;;;X    o;;;;;X  @;;;;; =;;;=    o;;;;@  ;;;;;;;. ;;;;;;;  =;;;=    ;;;;&   =;;;;;;;ooXXXXXXXXXXoo                    ",
"####@@@@@@$$@@@@@####@@@@@@@$$$$@$@@@@@@@@@@########XX#XXXoo                                                                                                       ooX########XXXXooo                                                                             ..       ...  ..oo.o.........OO+%%%&%%%%++OOOO.X....X......XXX....XXXXXX..XXXXXXXXXXXXXXXXXX##########@##@@@@@@@@@@@$$$$**===;;;;;;;;;;;;;===*****$$$$$@@@@@@@@@@@@@@@@@@@@@@@@@@@@@@@@@@@#########################XXXXXXXXXXXXXXXXX##+XXXXOOOOOOOXXO+XX++++++@@++OOXX++++++X+++++++++++++++++++++++++++++++++++++++++++++++++++++++++++++++++++++++++++++++++++++++++++++++++++++++++++++++++++++++++++++++++++++++++++++++++++++++++++++++++++++++++++++++++++++++++++++++++++++++++++++++++++++++OOOOOOOOOOOOOOOOOOOO..O.OO..........OOOOOOOOOOOOOOOOXOXXOOXXOOOOOOOOOOOOOOO+++++%&++++++++++OOOOOOOOOOOO++XXXOO++XOOXXXXOOXXOO++XXOOOOXOOXXXOOXXOO+++OXXXXXX+++XXXXX++++++++#+#+++%%%%%&&&&&&&&&&%%%++++++XXX+XXXXXXXXXXXXXXXXX...o.oo.XXXXXXXX+XXXXXX++++++@@@+++++++++++++++++++%%%%&&&&&%%%++++++++OOO+OOOOOOOOOOOOOOOO++OOOOOOOOOOOOOOOOOOOO++O+++%%%&&&&&&%%%++O+XOO.OOOOXXXX....X...XXX..........X......oo.......           @;;;;X     ;;;;;;==;;;;;; =;;;=    o;;;;@  &;;;;;=  &;;;;;=  =;;;;X o;;;;;&   #;;;;;;@ oXXXXXXXXXXXoo                   ",
"####@@@@@@$$@@@@@#####@@@@@@@@@@@$@@@@@@@@@@########XXXXXooo                                                                                                       ooX########XXXXoo                                                                              ..      .. o  ............O.OO++%%%%%+++OOOO...XXXX.........XX..XX..XXXXXXXXXXXXXXXXXXXXXXX#############@@@@@@@@@@@@$$$***==;;;;;;;;;;;;;===****$$$$$$@@@@@@@@@@@@@@@@@@@#####@#######@@###################XXXXXXXXXXXXXXXXXXXXXXXXX###XXXXXOOOOOOXXX+XX++++++++++++XXXXXX+XX++++++++++++++++++++++++++++++++++++++++++++++++++++++++++++++++++++++++++++++++++++++++++++++++++++++++++++++++++++++++++++++++++++++++++++++++++++++++++++++++++++++++++++++++++++++++++++++++++%%%%%%%%%%%%%%++++++++OOOOOOOOOOOOOOOOOOOOOOOOOOO....OO..OOOO.OOOOOXXOOOXXOOOOOXOOOOOO.OO.XXXOOOO+++++++++++++++++OOO+XOOOOOOOOOOOOO+XOOOXXOOOOXXOO+O+OOOXOXXOOOOOOXXXXXXOXXX+OXX++++XXXXXXXX+X++++#+++++%%%%&&&&&&&&&&%%%%++++XXXXX++X+OXXOXXXXXXXXXX.......XXXXXXXX++++O++++++@%%%@++++++++++++++++++%%%%%&&&&&&%%%+++++++O++++OOOOOO+OOOOOOO++OO++OOOOOOOOOOOOOOOO++O++++%%%&&&&&&%%++++++OOOOXXXXXXO......XX.X..................oo........         @;;;;X     @;;;;;;;;;;;;; =;;;=    o;;;;@  X;;;;;@  X;;;;;#  $;;;;;;;;;;;;&    ;;;;;;o  ooXXXXXXXXXooooo                ",
"####@@@@@@$$@@@@@#####@@@@@@@@@@@@@@@@@@@@@#########XXXXXooo                                                                                                        oX########XXXooo                                                                              oooo   ... ..o............OOOO+%%%%%%+OOOOOO....X...X.......X...XX.XXXXXXXXXXXXXXXXXXXXXX#X############@@@@@@@@@@@@$$$***==-;;;;;;;;;;;;;===****$$$$$$@@@@@@@@@@@@@@@##################################XXXXXXXXXXXXXXXXXXXXXXXXXXXX+###XXXXXOOXOOXXXX+XX++++++++OOXXXXXXXXX+X+X+++++++++++++++++++++++++++++++++++++++++++++++++++++++++++++++++++++++++++++++++++++++++++++++++++++++++++++++++++++++++++++++++++++++++++++++++++++++++++++++++++++++++++++++++++++++++++++++%%%%%%%%&&&&&%%%++++++++OOOOOOOOOOOOOOOOOOOOO.OOOO...OOO.OOOO..O..XXXXOOOOOOOOOO....OO...O.X..XOOOO+++++++++++++++OOOO+OOOOOOOOOOOOOOOXOOOXXO+OOXOOOOOOOO+XXXXOOOOOOOOXXXXXOOOOOXXO+++XXXXXXXXXX+++###++++%%%%%&&&&&&&&&%%%+++++++XX+++XOOXXXXXXXXXXXXXXX.......XXXXXXXXX+O++++++@%&&@@+++++++++++++++++%%%%%&&&&:&&%%%++++++O++++++OOOO+OOOOOOO++++OOOOOOOOOOOOOOOOOOO+++++++%%%&&&&&&&%%++++OOXXXXXXXXOO........XXX.....................ooo...        @;;;;X      =;;;;;;;;;;;; =;;;=     ;;;;@   =;;;;    ;;;;;   o;;;;;;;;;;;;&    &;;;;=   oooXXXXXXXXXXooo                ",
"###@@@@@@@@@@@@@@######@@@@$@@@@@@@@@@@@@@@########X##XXoooo                                                                                                        oXX######XXXXo                                                                                  ooo     ....o...........OO++%%%%%++O.O.O.X.......X.X..........XXX.XXX..XXXXXXXXXXXXXXXX#XX#########@@@@@@@@@@@@@$$$$*====;;;;;;;;;;;;;===*****$$$$@@@@@@@@@@@@@@########################################XXXXXXXXXXXXXXXXXXXXXXXXX++++OX.XXXXXXXXXXXXXXXX+++++OOXXOO+XXXXXXX#++++++++++++++++++++++++++++++++++++++++++++++++++++++++++++++++++++++++++++++++++++++++++++++++++++++++++++++++++++++++++++++++++++++++++++++++++++++++++++++++++++++++++++++++++++++++++++++++%%%%%%%%%&&&&&&&%%%%+++++++OOOOOOOOOOOOO.OOOOOOOOO....OOOOO.......X...OOOOOOOOOXOOO.X.......X.O.OOO+++++++++++++++OOOO++OOOOOOXO+OO+O+XXXXXXOXXXOOOO+OOOOXXXXXOOOOXXOOXXXOOOXX+OXOO+++XXXXXXXXXXXX#####@++%%%%%%&&&&&&&&&%%%++++++XX++++OXXXXXXXXXXXXXXXXX..o....XXXXXXXXOO+O++++%&&&@++++++++++O+++++++++%%%%&&&:::&&%%++++++++++OOOOOO++OOOOO+OOOOOOOOOOOOOOOOOOOOOOOO+OO++++%%%&&&&&&&%%%++++XXXXOOOXOO...............................ooooo.....     @;;;;#       =;;;;;= @;;; =;;;=     ;;;;@   @;;;;    &;;;=    o=;;;;;@ =;;$    =;;;;X   ooooXXXXXXXXXXooo               ",
"####@@@@@@@@@@@@@#####@@@@@$@@@@$@@@@@@@@@@########X##XXoooo                                                                                                        oo#######XXXoo                                                                                ooo...     ...o...........OO++%%%%++OOOO.O.O.........XX.XX......XX..XX..XXXXXXXXXXXXXXXXX#XXXX#######@#@@@@@@@@@@$$$$**===;;;;;;;;;;;;;-===****$$$$@@@@@@@@@@@@@@@##############################XX####XXXXXXXXXXXXXXXXXXXXXXXXXXXX#+#+XXX.XXXX..XXXXXXXXOOXX+++XXXXX++++XXXXX#++++++++++++++++++++++++++++++++++++++++++++++++++++++++++++++++++++++++++++++++++++++++++++++++++++++++++++++++++++++++++++++++++++++++++++++++++++++++++++++++++++++++++++++++++++++++++++++++%%%%%%%%%%&&&&&&&%%%+++++++OOOOOOOOOOOOOO.OOOOOOOO....OO.OO.OO........OOOOOOOOXXO...X.......X.OOX.OO++++++++++++++OOOO++OOOOOOOOOOOOOOXXX+OOO+++OOOOOOOOOXXXXXOOOOXXOOOOOO+OXXO+XXOO++XXXXXXXX++XX+#++##++%%%%%%&&&&&&&&&&%%+++++++++++OOXXXOXXXXXXOXXXXXX........XXXXXXXXOOX++++%&&&@@++++++++++++++++++++%%%&&&&:::&&%++++++++++OO+O+++OOOOOOO+OOOOO+OOOOOO+OOOOOOOOOO+OO+++++%%%&&&:&&&%%++++++XXOOOOOO.OXX.......X.X.................ooo.o......    .XX.X         o@&@X    o  o oo      oo o     ooo      oo        X@&@    oo     ;;;;;      oooXXXXXXXXXXooooo            ",
"@###@@@@@@@@@@@@#######@@@@$@@$@$@@@@@@@@@@###########XXoooo                                                                                                        oX#######XXXoo                                                                              ..o.o...    ....ooo.........O+++%%++OOOO....X.X......X.X..XX........XXXX..XXXXXXXXXXXXXXXXXXXXX#######@@@@@@@@@@@@$$$$**===;;;;;;;;;;;;;;===****$$$$@@@@@@@@@@@@@@@@@###########################XXXX##XXXXXXXXXXXXXXXXXXXXXXXXXXXXXX#++XXXXXX.XX..OOXOXX+++XOXXOO+XXXX+++++XXX+#++##++++++++++++++++++++++++++++++++++++++++++++++++++++++++++++++++@@++++++++++++++++++++++++++++++++++@@++++++++++++++++++++++++++++++++++++++++++++++++++++++++++++++++++++++++++++++++++++%%%++++%++%%%&&&&:&&%%++++++++OOOOOOOOOOOOOO..OOOOOOO..OOO....OOO.OO.....XOOOO.XXXO..O....OOX...OOX.OO+++++++++++++++OOOO+OOOOOOOOXXOOOOOOOOOOOOOXXXXXXX++OOXXXXXXXXXXOOOOOOOOXXXOOO++++++XXXX++++XX++++##++++%%%%%&&&&&&&&&&%%%++++++++OOXXXXOXXXXXOOXXXXXXX........XXXXXXXXXX+++++@&&%@++++++++++++O++++++++%%%%&&&:::&&%%+++++++++++++++OOOO++++++OOO++OOOOOOOOOOOOOOOO++O++++++%%%&&&&:&&%%%++++++OOOOXXO.XX.X....XXXX..XXX.................oo....o   .                                                                             @;;;;@       ooooXXXXXXXXXooooo           ",
"@##@@@@@@@@@@@@@#######@@@@$@@$$$@@@@@@@@@@###########XXoooo                                                                                                        oX#######XXooo                                                                              ..o..o..   .....ooo........O++++%%++OOOO......oX.....X...XX....XXXX.XXXX.XXXXXXXXXXXXXXXXXXXXX########@@@@@@@@@@@@$$$$**===;;;;;;;;;;;;;-===***$$$$$@@@@@@@@@@@@###@#######################X####XXXXXXXXXXXXXXXXXXXXXXXXXXXXXXXXXXXX#++XXXXXX.XX..OOOOXX+++OXXXO++XXXXXX++++++++++####++++#+++@@++++@@++++@+@+++@+++++@+++@@@++++++++@++++++++@@++++@@@@++++@@@@++@@@+++++++++@++++@@+++++++++++@++++++++++@++++++++++++++++++++++++++++++++++++++++++++++++++++++++++++++++++%%%%+++%+%%%%%&&&::&&%%+++++++OOOOOOOOOOOOOOOO.OO.OO....OO....O...O......XOOO..XXXO.......OOOOOO.OX.OO+++++++++++++++OOOOOOOOOOOOOXXOOOOOOOOOOOOOO+XXXXXO+OXXXXOXXXXXX++OOOOOOXXOOOO+++++OXX++++++X++++++##+++%%%%%%&&&&&&&&&&%%+++++++XO+XXXXOXXXXXXXOXXXXXX.o......XXXXXXXXXX+++++@%&&@+++++++++X++O++++++++%%%%%&&::::&&%%+++++++++++++++OO++++OO++++++OOO+OOOOOOOOOOOOOOOO++++%+%%%%&&&:&&&%+++++++OXXXXXO...XO...XXX...XXXX.................o..... .... .                                                                          ;;;;;         ooooXXXXXXXXooooo           ",
"####@@@@@@@@@@@@#######@@@@@@@$@@@@@@@@@@@@#######XXXXXXoooo                                                                                                        oo###XXXXXooooo                                                                            .    .   oo.oo.............OO++++++OO............o......XXXXXX.XX......XXXX.XXXXXXXXXXXXXXX##X#########@@@@@@@@@@$@$$$***==;;;;;;;;;;;;;;===****$$$$$@@@@@@@@@@#####################XXX#####X####XXXXXXXXXXXXXXXXXXXXXXXXXXXXXXXXXXX###XXXXXXXXXX..XXXXOOXXXXXXXX+XXXXXX+X+XX++++#++###+++++++++++++++++++++@++++@@@@++++@@+++++++++++++++++++++@++@@++++++@@+++++@@+++++++++++++++++++++++++++++@@@@++++@@+++++++++@@@++++++++++++++++++++++++++@++++++++++++++++++++++++++++%%%%%%%++++%%%%%&&::&&&%%+++++OO+OOOOOOOOOOOO......................O...O.....OOO.OO........OO..OOO.O...OO++++++++++++OOOOOOOOOOOOOOOOOOOOOOXXOOOXXOOOOOOOOOOOOOOOOOOO++XXXXX+OOXXXXOO++OOOOOO++XX++++XXXX++++++++%%%%%&&&&&&&&&&%%%+++++++OOOOOXXXOXXXOXXXOXXX.......oXXXXXXXXXXX++++@@%%@@+++++++++++OOO+++++++++%%&&&::::&&%%%++++++++++++O++OOOOO++OOOOOOOOOOOOOOOOOOOOO++OOO+++++++%%%&&&:&&&%%%+++OOOOOXOOOOXXOOXXXXXX............................... ..                                                                           X;;;;=              oooooXXXXXXooooo       ",
"####@@@@@@@@@@@@#######@@@@@@@$@@@@@@@@@@@@@#######XXXXXoooo                                                                                                        oXX##XXXXooooo                                                                                  .....ooo .............O++++++OOO............oo....XXXXX...XX......XXXXXXXXXXXXXXXXXXXX##X#########@@@@@@@@@@$$$$***==;;;;;;;;;;;;;;===***$$$$$$@@@@@@@@@@@################X####XXX####XXXXXXXXXXXXXXXXXXXXXXXXXXXXXXXXXXXXXXXXX##XXXXX..XXXX..XXOOOOXOXXOXO+XXXX++++++X+#+++#++#@@++++++++++++@@+++++++@++++@@@@++++@@+@++++++++++++++++++++++@@+++++@@@++++@@@@++++++@@+++++++++@@@++++++++@@++++++@@+@++++++++@+++++++++++++++++++++++++++++++++++++++++++++++++++++++%%%%+%%%+++++%%%%&&:::&&%%%++++OO+OOOOOOOOOOOO..........O......O....OOOOOO..O.OOOO..OO........O.OO......OO++++++++++++OOOOOOOOOOOOOOOOOOOOOOOOOOOOOOOOOOOOOOOOOOOOOOOO++XXXXX+OOOXXXXX++O+OO++++XXXX++XXXX++##+++++%%%%&&&&&&&&&&%%%%+++++XOOOOOXXXXXXXXXXOOXXXX.......oXXXXXOXXXXO+++@+%%%@++++++++++XOO+++++++++++%%&&&::::&&%%++++++++++++OO++OO+OOOOOOOO++OOOO+OOOOOOOO+++OOO+++++++%%%%&&&:&&&%%%+++OOOXXXXXOOX..XXXX.X..................................  .                                                                        =;;;;o               ooooooXXXXooooo       ",
"#####@@@@@@@@@@@#######@@@@@@@@@@@@@@@@@@@#########X##XXoooo                                                                                                        oX###XXXXXoooo                                                                                    . ..... ...........OO++++OOOO.............o.o..X..ooX...XX..XX....XXXXXXXXXXXXXXXXXX##X#########@@@@@@@@@@$$$$**==-;;;;;;;;;;;;;;==****$$$$$$@@@@@@@@@@###############XX######XXXXXXXXXXXXXXXXXXXXXXXXXXXXXXXXXXXXXXXXXXXXXXX#XXXXXXX.XXXX..XXXXOOXXOOOXXOXXXXXXX#+X#+#+++++++@@@+@@@@++++++@@@@++++@@@@+++@@@++++@@@@@@+@++++@@@@@@+@++++++@@++++++@@++++@@@@++++@@@@@@++++++@@@@@@+@+++++@@@@@++@@@@@@++++++@@@@@@@@@@@@++@@@@@@++@@@@++@@@@++++@@@@++++++++++++++@@+%+++%%%%+%%++%%%&&&:::&%%%%++++++OOOOOOOOOOOO....OO..OOOO....O.........OOOO...O....OOO.................OOO++++++++++OOOO+OOOOOOOOOOOOOOOOOOOOOOOOOOOOOOOOOOOOOOOOOOOOOOO+OOXXOOOOOXXXXOXXOO++XXXXXX++++++++###+++++%%%%&&&&&&&&&&%%%%++++++OOXXXXXXXXXXXXXXXXXXX.......o.XXOOOOXX++++++%%@@@+++++++++OO++++++++++++%%%&&&::::&&%%%%++++++++++O+OOOO++OOOOOOOOOOOOOOOOOOOO++OOOO++++O++++%%%%&&&::&&%%%%+++OOOXXXOOOOOXX......XX.XXX........................... .                                                                                              oooooXXoooooooo      ",
"#####@@@@@@@@@@@#######@@@@@@@@@@@@@@@@@@@#########X##XXoooo                                                                                                        oXXX#XXXXooooo                                                                                      oo.. ...........OOO++++OOO..............XXXX.XXXooX...XXXXXX...XXXXXXXXXXXXXXXXXXX###########@@@@@@@@@@@$$****==;;;;;;;;;;;;;;===***$$$$$$@@@@@@@@@@############XXXXXXXX##X#XXXXXXXXXXXXXXXXXXXXXXXXXXXXXXXXXXXXXXXXXXXXXX##+XXXXXXXXXXX...XXXXXXXXOOXOXXXXXXX#+######@#++++@@@@@@@@++++@@@@@@++@+@@@@+++@@@@@@@@@@@@@@@+@@@@@@@+@@@++++++@@@@++++@@@@++@@@@@@@@@@@@@@@@@@@@@@@@@@@@@@@++@@@++++@@@@@@@@++++@@@@@@@@++++++@@@@++++@@@@++@@@@++++@@@@@@+++++++++++++++++++%%%%+%%++%%%&&&:::&&%%%++++++OOOOOOOOOOOOO...OO..OOOO..........................................O....OOO+++++++++O++++OOOOOOOOOOOOOOOOOOOOOOOOOOOOOOXXXOXXXXXXOOOXOO++OOOOOOOOOOXXXOOXXX++OXXXXX+++X++++###+++++%%%%%&&&&&&&&&&%%%++++X+OXXXXXXXOOOOXXXXXOXXXX.......o.XXOXOXXO+++++++@%@++++++++OO+O+++++++++++%%%%&&:::::&&%%%+++++++++O++++OO++OOOOOOO+OOOOOOOOOO++++OOOOOO+++++++%%%%%&&&:&&&&%%+++++OOXXOOOOOOO....XXXXX.XX.................o............                                                                                               oooooooooooooo     ",
"#####@@@@@@@@@@@########@@@@@@@@@@@@@@@@@@@###########XXooo                                                                                                         ooXXXXXXXooo                                                                                  .. .  .. .............OOOOOOOO.................XXX........XXX.XX...XXXXXXXXXXXXXXXXXXXXX#########@@@@@@@@@@@@$$$****=;;;;;;;;;;;;;;-==****$$$$$@@@@@@@###############X####XXXX#XXXXXXXXXXXXXXXXXXXXXXXXXXXXXXXXXXXXXXXXXXXXXXXXXXXXXXX...XXXXX...XXXXXXXXOXXXXX+XXXX##++++##@@+++@@@@@@@+@@@@@@@@@@@@@@@@@@@@@@@@@@@@@@@@@@@@@@@@@@+++@@@@@@@@@@@@@@@@@@@@+@@@@@+++@@@@@@@@@@@@@@@@@@@@@@@@@@@@@@@@@@@@@@@@@@@@@@@@@@@@@@@@@@@@@@@@@@@@@@@@@@@@@@@@@++++++@@@@++++++++@@%%%%@@++++%%+++++%%%&&&:&&&%%%+++++OOOOOOOOOOOOO....OOOOOOOO...............................................OOO++++++++++OO++OOOOOOOOOOOOOOOOOOOOOOOOOOOOOOOOOOOXOOXOXOOOOOOOOOOOOOOOOO+XOO+OOOXXXX+XXXXX++XXXX++++++++%%%%%%&&&&&&&&&&%%%%+++++XXXOOXXXXXXXXXXOXXXXXX........XXXXOOXOX+++++++%@@++++++++++OO++++++++++++%%%&&&:::::&%%%++++++++++++++++++OOOOOOOOOOOOOOOOOO++OOOOOOOO++O++++++%%%&&&&&:&&%%%++++OOOOOO.XXXO...XXXX......XXXXX......................o                                                                                                oooooooooooooo    ",
"#####@@@@@@@@@@#########@@@@@@@@@@@@@@@@@@@###########XXooo                                                                                                         ooXXXXXXXooo                                                                                 ...        ............OOOOOOO....................X.......XXXX.XXXXXXXXXXXXXXXXXXXXXXXXX##########@@@@@@@@@@@$$$****=-;;;;;;;;;;;;;;===****$$$$@@@@@@@@###########X#XXX####XXXXXXXXXXXXXXXXXXXXXXXXXXXXXXXXXXXXXXXXXXXXXXXXXXXXXXXXXXXX..XXXXX....XXXXXXXXXXXXX++X#XX#+#+++@#@@@@#@@@@@@@@@@@@@@@@@@@@@@@@@@@@@@@@@@@@@@@@@@@@@@@@@@@@@@@@@@@@@@@@@@@@@@@@@@@@@@@@@@@@@@@@@@@@@@@@@@@@@@@@@@@@@@@@@@@@@@@@@@@@@@@@@@@@@@@@@@@@@@@@@@@@@@@@@@@@@@@@@@@++@@++@@@@@@++++++@@%%%%@@++++++%++++%%%&&:::&&%%%+++++OOOOOOOOOOOOO....OOOOOOOO...............................................OOO+++++++++++O+OOOOOOOOOOOOOOOOOOOOOOOOOOOOXOOOOOOOOXOOOOOOOOOOOOOOOOOOOOOOOXXOOOOXXXX+OXXX+++XXXX++++#+++%%%%%%&&&&&&&&&&%%%%++++++XXOOOOOOXXXXXOXXXXXXX..........XXXXXXO+++++++++%%+++++++O+OOO+O+++++++++%%%%&&&:::::&%%%++++++++++++++++OOOO++OOOO++++OOOO+++OOOO+OO+O+O++++++%%%%&&&&:&&&%%+++++OOOOOXXXXOOOOXXXX........XX.........................  .    ..                                                                                           ooooooooo    ",
"######@@@@@@@@@#########@@@@@@@@@@@@@@@@@@@#########XXXoooo                                                                                                         ooXXXXXXoooo                                                                                  . .       . ..........OOOOO.....................oX.X....XXXXXXX...XXXXXXXXXXXXXXXXXXX#X#########@@@@@@@@@@@@$$****==;;;;;;;;;;;;;;-==****$$$$$@@@@@@@@########XXXX#XXXXXXXXXXXXXXXXXXXXXXXXXXXXXXXXXXXXXXXXXXXXXXXXXXXXXXXXXXXXXXXXXXX..XXXX....XXXXXXXXXXXXXX####++++#@+++@@@@@@@@@@@@@@@@@@@@@@@@@@@@@@@@@@@@@@@@@@@@@@@@@@@@@@@@@@@@@@@@@@@@@@@@@@@@@@@@@@@@@@@@@@@@@@@@@@@@@@@@@@@@@@@@@@@@@@@@@@@@@@@@@@@@@@@@@@@@@@@@@@@@@@@@@@@@@@@@@@@@@@@@@@@@@@@@@@@@@@@@@@@@@@@&&@@&&@%%%+++++%%%&&&::&&&%%%++++OOOOOOOOOOOOOO..OOO..OOO...............................................OOOO++++++++++OO++O+OOOOOOOOOOOOOOOOOOOOOOOOXOOOOOXOXOOOOOOXOOOOOOOOOOOOOOXXOOXXXO+++O++++XXXX+++XXX+++X##++++%%%%%%&&&&&&&&&%%%++++++OOOOXOXXXXOOOOXOXX.XXXX.........XXXOOOXX++++++%%%%+++++++O+O++O+++++++++%%%%&&&&:::::&&%%+++++++++++++++++++++O+O+++++OOOO++OOOOO+OOOOOO++++++%%%%%&&&::&&&%%%+++++OOOOOOOOOOOOOOOO.X.....................................                                                                                                 o          ",
"######@@@@@@@@@#########@@@@@@@@@@@@@@@@@@@#######XXXXXoooo                                                                                                         oooXXXoooooo                                                                         .        ..         ...........OOOOO.....................oo......XXXXX.X...XXXXXXXXXXXXXXXXXX##X########@@@@@@@@@@@@$$$***==-;;;;;;;;;;;;;;===***$$$$$$@@@@@@@@########XXXXXXXXXXXXXXXXXXXXXXXXXXXXXXXXXXXXXXXXXXXXXXXXXXXXXXXXXXXXXXXXXXXXXXXX..XX.XX...XXXXXXXXXXXXXX####++##@@@+@@@@@@@@@@@@@@@@@@@@@@@@@@@@@@@@@@@@@@@@@@@@@@@@@@@@@@@@@@@@@@@@@@@@@@@@@@@@@@@@@@@@@@@@@@@@@@@@@@@@@@@@@@@@@@@@@@@@@@@@@@@@@@@@@@@@@@@@@@@@@@@@@@@@@@@$@@@@@@@$@@@@@@@@@@@@@@@@@@@@@@@@@@@@@@@@@&@@&@&&@++++++%%%%&&:::&&%%%++++OOOOOOOOOOOOOOO.OOO..O.O...............................................OOOO+++++++++++O++O+OOOOOOOOOOOOOOOOOOOOOOOOXOOOOOXXOOOOOOOXOOOOOOOOXOOOOOXXOOXXX++OOO++++XXXX+++XXX+++XX#++++%%%%%%&&&&&&&&&%%%+++++++OOOXXOOXXXXOOXXX...XXX..........XXOOOX++++++++%%%+++++++O++++OO++++++++%+%%%&%&&::::&&&%%+++++++++++++++++O++++++++++OOOO++OOOOO+OOOO+O++++++%%%%%%%&&:&&&&&%+++++OOOOOOOOOOOOOOOO.XX....................................                                                                                                            ",
"#######@@@@@@@@##########@@@@@@@@@@@@@@@@@#######XXXXXXXooo                                                                                                          oooooooo                                                                                           ..     ........O.....................ooX....ooooXX.X.....X.X..XXXXXXXXXXXXXXXXXX########@@@@@@@@@@@@$$$***==;;;;;;;;;;;;;;;===***$$$$$$@@@@@@@@#######XX##XXXXXXXXXXXXXXXXXXXXXXXXXXXXXXXXXXXXXXXXXXXXXXoooXXXXXoooXXXX.XXXXXXXXXX..XX..XXXXXXXXXXXXXXXX####@@@@@@@@@@@@@@@@@@@@@@@@@@@@@@@@@@@@@@@@@@@@@@@@@@@@@@@@@@@@@@@@@@@@@@@@@@@@@@@@@@@@@@@@@@@@@@@@@@@@@@@@@@@@@@@@@@@@@@$$@@@@@$$$@@@@@$@@@@@@@@@@@@@@@@@@@@$$@@$@@@@@@@@@@@$@@@@@@@@@$$@@@@@@@@@@@@@@@@@@@@@@@@@@&@%+++%+%%%&&&:::&%%%%+++OOOOOOOOOOOOOOOOO......................................................OOOOO+++++++++++++OOOOOOOOOOOOOOOOOOOOOOOOOOOOOOOOOOXOOOOXXXOOOOOOOOOOOOOOOOOOOOXXXXXO+++OOXXXXXXXX+++++++++++++%%%%%&&&&&&&&&%%%%%+++++XOXXOOXXOOOXOOXXXXXXXXX.........XXXXXX+++++++++%++++++++++++OO++++++++++%%%%%%&&:::::&&%%%+++++++++++++++++++++O+++++OO+++OOOOOOOOOOO+++++++++++%%%&&&:::&&%%%%+++++OOOOOOXXXXXXXX..........X...........................                                                                                                            ",
"#######@@@@@@@@##########@@@@@@@@@@@@@@@@@######XXXXXXXXooo                                                                                                          ooooooo                                                                                            ..      ..............................oo..o...ooXX.X.X..XXXX..XXXXXXXXXXXXXXXXXXX#######@@@@@@@@@@@$$$$**==-;;;;;;;;;;;;;;-===***$$$$$@@@@@@@@########XX#XXXXXXXXXXXXXXXXXXXXXXXXXXXXXXXXXXXXXXXXXXXXXXooooXXXXX....XXXXXXXXXXXXXXX.XXX.XXXXXXXXXXXXXXXX###@@@@@@@@@@@@@@@@@@@@@@@@@@@@@@@@@@@@@@@@@@@@@@@@@@@@@@@@@@@@@@@@@@$$$$$$$@@@$$$$$@@@@@@@@$$$$@$$$@@@@@@@@@@@@@@@@@@@@@@@$@@@@$$$$@@$$$$$$@@@@@$$$$$$$@&&@$$$$$$$$@@$@@@$@$$$$$$$$$$$$$$$$$$&$@@@@&&$$@$$&&&&@@@@@&%%%++%+%%%&&&:::&&%%%+++OOOOOOOOOOOOOOOOO........................................................OOO+++++++++++O+OOOOOOOOOOOOOOOOOOOOOOOOOOOOOOOOOOOOOOOXXXOOOOOOOOOOOOOOOOOOOOXXXOOOO+++XXXX++XXX+++++++++++++%%%%%%&&&&&&&&&%%%%%++++XOXXOOXXOOOOOOXXXXOXXXX.........XXXXXXO+++++++++++%++++++++++O+++++++++++%%%%%%&&:::::&&%%%+++++++++++++++++++O+OO++OOOO++O+OOO++OOOOO++++++++++%%%%&&&&::&&&%%%+++O+OOOO..XXXO.XX.O.....................................                                                                                                           ",
"######@@@@@@@@@##########@@@@@@@@@@@@@@@@########XXXXXXoooo                                                                                                           ooooo                                                                                        .           .................................oo.o........XXXX....XXXXXXXXXXXXXXXX#XX#########@@@@@@@@@@@$$$***==;;;;;;;;;;;;;;;===****$$$$@@@@@@@@@########XX#XXXXXXXXXXXXXXXXXXXXXXXXXXXXXXXXXXXXXXXoooXXXXXooooXXXXo..XXXXX.XXXXXXXXXXXX.X.XXXXXXXXXXXXXXX##@@@@@@@@@@@@@@@@@@@@@@@@@@@@@@@@@@@$$$$@@@@$$$$$$$$@@@@@$$$$$$$@@@@$$$$$$$$@@@@$$$$$$$$@@@@$$$$$$$$$$$$$$$$$$$$$$$$$$$$$$$$$$$$$$$$$$$$$$$$$$$$$$$*$$$$$$$$$$$*$$$$$$$$$$$$$$$$$$$$$$***$$$$$$$@@$$$$$$$$$$$$$$$$@@@@@@%@%%%%%&&&::::&%%%++++OOOOOOOOOOOOOOOO........................................................OOOO+++++++++OOOOOOOOOOOOOOOOOOOOOOOOOOOOOOOOOOOOOXOOOXOXOOOOOOOOOOOOOOOOOXOOOOOOOOOOO++XOO+++XXXOXX++++++++++++%%%%%&&&&&&&&%%%%%+++++OOOOOXXXXXXOXXX..O.XXX...........XXXXXOXO+++++++%%%+++++O++++++O++++++++++%%%%%&&::::&&&%%%+++++++++++++++O++++++++OOOO+OOOOO++++OOO+++++++++++%%%%%%&&&:::&&%%%%+++++OOOOOOOOOXX......X.................................                                                                                                          ",
"######@@@@@@@@@##########@@@@@@@@@@@@@@@#########XXXXXXoooo                                                                                                             o                                                                                                      ..................................ooo........XXXXXX...XXXXXXXXXXXXXXXXXX##########@@@@@@@@@@$$***==;;;;;;;;;;;;;;;-==****$$$$@@@@@@@@@########XXX#XXXXXXXXXXXXXXXXXXXXXXXXXXXXXXXXXXXXXXXoooXXXXXo..o..X.ooo.XXXXXXXXXXXXXX..XXXXXXXXXXXXXXXXXX##@@@@@@@@@@@@@@@@@@@@@$$$$$$$$@@@@@@@$$$*@@$@*$$$$$$$$$@@$$$$$$$$$******$*$*$$$*******$$$$*******$$$$$$$*********$$**$$**$*$$$$****$$$$**********$**********************************$$*********$$$$**********$$$$$$$$@@@@%@%%%%%&%&::::&%%%++++OOOOOOOOOOOOOOOO..........................................................OO++++++++++OOOOOOOOOOOOOOOOOOOOOOOOOOOOOOOOOOOOOOOOOOOOOOOOOOOOOOOOOOOOOOOXOOOOO+OOOOOOOO++XXXOXXX+++++++++++%%%%%%&&&&&&&&%%%%++++OOOOOOOOXXXXO.XX..O..XX............XXXXOXOO+++++++%%++++++++++++O+++++++++++%%%%%&&::::&&&%%%+++++++++++++++++++++++OOOO++OOOO++++OOO+++++++++++++%%%%%&&&::&&&%%%++++OOOOOOOOOOXXO.OO.......XXX........................... . . .                                                                                                   ",
"######@@@@@@@@###########@@@@@@@@@@@@@@@@#######XXXXXXoooo                                                                                                                                                                                                        ..          ...............................o....oooo....XX.XXXX..XXXXXXXXXXXXXXXXXXXXX########@@@@@@@@@@$$***===;;;;;;;;;;;;;;-===***$$$$$@@@@@@@@#######XXXXXXXXXXXXXXXXXXXXXXXXXXXXXXXXXXXXXXoXXXXXXooXXXXoooo....ooooXX.XXXXXXXXX.XXXXXXX..XXXXXXXXXXXX###@@@@@@@@@@@@@@$$$@@@@**$$****$***********@$******$*********************************$$****************************************===*********************************===*===*========*****************=======***********$*$$@@@@+%%%%%&::::&%%%++++++OOOOOOOOOO..OO..OOO......................................................OO+++++++++OOOOOOOOOOOOOOOOOOOOOOOOOOOOOOOOOOOOOOOOOOOOOOOOOOOOOOOOOOOOOOOXOO++OXOOOOOOOOXXXX++XX++++X+++++++++%%%%%&&&&&&&%%%%%%++++OOOOOXXXXXO..O.XXX....XX..........XXXXXOO+++++++++++++++++++OOO+OO++++++++%%%%%&&&&:::&&%%%%+++++++++++++++++++OOOOOOOOOOOO+++++OO+++++++++++++++%%%%&&&:::::&%%%%++++OOOOOOOOOX.XOOXXXX...X.X............................  . .                                                                                                   ",
"#######@@@@@@@############@@@@@@@@@@@@@@@@#######XXXXXoooo                                                                                                                                                                                                        ..          ..............................oo......oo....XX.XXXXX.XXXXXXXXXXXXXXXXXXXXX#######@@@@@@@@@@@$$***==;;;;;;;;;;;;;;;-===***$$$$@@@@@@@@@#######XXXXXXXXXXXXXXXXXXXXXXXXXXXXXXXXXXXXXoooXXXXXooXXo.o.oo..oooo.oXXX.XXX.XXXX.X....XX.X.XXXXXXXXXXX##@@@@@@@@@@@@@@@*******************************====********===*====**===***====**===***========****========**==========================================================================================================**$$@@@+%%%%%&&:::&&%%+++++OOOOOOOOOOO..OO...........................................................OO++++++++++OOOOOOOOOOOOOOOOOOOOOOOOOOOOOOOOOOOOOOOOOOOOOOOOOOOOOOOOOOOOOOOOO++XXOOOOOXOOOX+X++XXOOXXXX++++++++%%%%%%&&&&&&&&%%%%++++OOOOXOXXOOOOOOOOXX....XX...........XXXXXOO++++++++++++++++++++OO++++++++++%%%%%%&&&&:::&&&%%%++++++++++++++++++OOO+++++OOOOO++++OOO+++++++O+++++++%%%%%&&&&::&&&%%+++OOOOOOOOOXXOOOO.XXX...X..X.................................                                                                                                  ",
"########@@@@@@###########@@@@@@@@@@@@@@@@@######XXXXXXoooo                                                                                                                                                                                                              ..   ...............................o.......oXX.XXXX...X...XXXXXXXXXXXXXXXXXXXXX######@@@@@@@@@@$$$***==;;;;;;;;;;;;;;;;==****$$$$$@@@@@@@@@########XXXXXXXXXXXXXXXXXXXXooXXooooXXXXXXXXooooXXXooXXXoo.o.ooooooooooX....X..XXXXX....XXX..XXXXXXXXXX##@@@@@@@@@@*@$**==============================;;;;=========;=;========;;;;====;;==;;;;==;;;;;;=;==;;;;;;;===;;;;;;;;;;;;;;;;;;;;;;;;;;;;;;;;;;;;;;;;;;;;;;;;;;;;;;;;;;;;;;;;;;;;;;;;;;;;;;;;;;;;;;;;;;;;;;;;;;;;;;;;;;====*$$@@@%%%%%&&:::&&%%++++++OOOOOOOOOO..OOOO.........................................................OOO++++++++++OOOOOOOOOOOOOOOOOOOOOOOOOOOOOOOOOOOOOOOOOOOOOOOOOOOOOOOOOXOOOXXX+OXXOOOOXXOXXX++++OOX+XXXX+X++++++%%%%%%%&&&&&&&%%%%+++++OOOXXXXOOO..OXXXX..XXXX............XXOOOO+++++++++%+++++++++O++++++++++++++%%%%%&&&:::::&&%%%++++++++++++++++++OO+++++++O++++++OOOO+++OOOO+++++++%%%%%%&&&:::&&%%%%+++++++OOOXOXOOOO.X..O....XXXX...............................   ..                                                                                            ",
"########@@@@@@###########@@@@@@@@@@@@@@@@@######XXXXXXoooo                                                                                                                                                                                                              ..   .......   . . .................oo......oXXX.XXX.....XXXXXXXXXXXXXXXXXXXXXXX#####@@@@@@@@@@@$$$***=-;;;;;;;;;;;;;;;;==***$$$$$@@@@@@@@@@########XXXXXXXXXXXXXXXXXXXooooXooooXXXXXXXXooooXXXXXXXXoo.....oooXooooX.....XX.X.......XX...XXXXXXXXX##@@@@@@@@***====;;;;;;;;;;;;;;;;;;;;;;;;;;;;;;;;;;;;;;;;;;;;;;;;;;;;;;;;;;;;;;;;;;;;;;;;;;;;;;;;;;;;;;;;;;;;;;;;;;;;;;;;;;;;;;;;;;;;;;;;;;;;;;;;;;;;;;;;;;;;;;;;;;;;;;;;;;;;;;;;;;;;;;;;;;;;;;;;;;;;;;;;;;;;;;;;;;;;;;;;;;==*$@@@%%%%%&&::::&%%%+++++OOOOOOOOOO..OOOO......................................................OO.OOOO++++++++OOOOOOOOOOOOOOOOOOOOOOOOOOOOOOOOOOOOOOOOOOOOXOOOOOOOOOOOOOXOOOOXXOOXXOO+OXXOOOXOOO+XOO+XXXX+++#++++%%%%%%%%&&&&&&&%%%%++++OOOOOOXOOX...XXXXX.XXXXX............XXOXO++++++++++%%+++++++O+++++++++++++++%%%%%%&&:::::&&%%+++++++++++++++++OOO+++++++++++++++OO++++OOO++++++++%%%%%%%&&&::&&&&&%++++++++OOOOOOOOOO........XXXX..XXXX............................                                                                                              ",
"#########@@@@@############@@@@@@@@@@@@@#@@#####XXXXXXXooooo                                                                                                                                                                                                                     .    ....    .......oooo.oo.........ooooXX....XXXXX.XXXXXXXXXXXXXXXXX#########@@@@@@@@@$$$$**==;;;;;;;;;;;;;;;;-=***$$$$$$@@@@@@@@########XXXXXXXXXXXXXoXXXXXXXXooooooXXXooXXXXooooXXXXXoooo......oo....ooo...ooXXo.oXXXXXXX...XXXXXXXXXXX##@@@@@@$*==;;;;;;;;;;;;;;;;;;;;;;;;;;;;;;;;;;;;;;;;;;;;;;;;;;;;;;;;;;;;;;;;;;;;;;;;;;;;;;;;;;;;;;;;;;;;;;;;;;;;;;;;;;;;;;;;;;;;;;;;;;;;;;;;;;;;;;;;;;;;;;;;;;;;;;;;;;;;;;;;;;;;;;;;;;;;;;;;;;;;;;;;;;;;;;;;;;;;;;;;;;;;;;;;=*$@@@%%%%%&&:::&&%%%%++++OOOOOOOOOOO...OO.........................................................OOOO+++++OOOOOOOXXOOOOOOOOOOOOOOOOOOOOOXOOOOOOOOOOOOOOOXXXXOOOOOOOOOOOOOOXXOOOOXOOOOXXXXX++OOOOOOOO++X+XX++++++++%%%%%%&&&&&&&&%%%%+++++OOOO.XOXX...OOO......XXX...........XXXXXXOO++++++++++++++++++++++++++++++++%%%%%&&&:::::&&%%%++++++++++++++++OOOOO++OOOOOOOOOOOOOO+++OO++++++++++++%%%%&&&&&::&&&%%%%++++++OOOOO..OOO......XX..................................                                                                                                ",
"##########@@@@############@@@@@@@@@@@@##@@#####XXXXXXXooooo                                                                                                                                                                                                                     .    ....    ...o....o..oooo.........oooXXX..XXX..XXX.XXXXXXXXXXXXXXX########@@@@@@@@@$$$$**==-;;;;;;;;;;;;;;;;=***$$$$$$@@@@@@@@#########XXXXXXXXXXXXooooXXXXXXoooooooXoXoXXoooo.X.Xooooooo.....ooo....ooo..oooXoooooXX.XXX...XXXXXXXXXXX##@@@@@*==;;;;;;;;;;;;;;;;;;;;;;;;;;;;;;;;;;;;;;;;;;;;;;;;;;;;;;;;;;;;;;;;;;;;;;;;;;;;;;;;;;;;;;;;;;;;;;;;;;;;;;;;;;;;;;;;;;;;;;;;;;;;;;;;;;;;;;;;;;;;;;;;;;;;;;;;;;;;;;;;;;;;;;;;;;;;;;;;;;;;;;;;;;;;;;;;;;;;;;;;;;;;;;;;;;;=*@@@&%%&%&&:::&&%%%%++++OOOOOOOOOOO..............................................................OOOOOO++++OOOOOOXOOOOOOOOOOOOOOOOOOOOOOXOOOOOOOOOOOOOOOOOOOOOOOOOOOOOOOOOXOOOOXXOOOOXXOOXOOOOXXOOOO++X++XX+++++++%%%%%%%&&&&&&&%%%%%%+++OOOOOOOXX....OOXX....XXX............XXXXXXOO++++++++++++++++++++++++++++++++%%%%%&&&:::::&&%%%%++++++++++++++OOOOO+++OOOO++OO++OO+++++O+++O++++++++%%%%%&&&&:::&&&%%%++++++++OOO.OOOO.XOO.OX................................... .    . .                                                                                       ",
"##########@@@@@############@@@@@@@@@@@##@@#####XXXXXXXooooooooo                                                                                                                                                                                                                  .    ..    ............o.....oo........XX....XXXXX...XXXXXXXXXXXXXXX########@@@@@@@@$$$$**===;;;;;;;;;;;;;;;;==***$$$$$@@@@@@@@##########XXXXXXXXXXXXXXXXoXooooooXXXXXXooooooooXXoooo..oooo..oo..oooo..oo....oooo....oXoooXX..XXXXXXXXX###@@@@@*=;;;;;;;;;;;;;;;;;;;;;;;;;;;;;;;;;;;;;;;;;;;;;;;;;;;;;;;;;;;;;;;;;;;;;;;;;;;;;;;;;;;;;;;;;;;;;;;;;;;;;;;;;;;;;;;;;;;;;;;;;;;;;;;;;;;;;;;;;;;;;;;;;;;;;;;;;;;;;;;;;;;;;;;;;;;;;;;;;;;;;;;;;;;;;;;;;;;;;;;;;;;;;;;;;;;;;=*@@@@@%%%&&&:::&&%%%++O+OOOOOOOOOO................................................................OOOOOO+++OOOOXOOOOOOOOOOOOOOOOOOOOOOOOOOOOOOOOOOOOOOOOOOOOOOOOOOOOOOOOOOOOOOOXOOOOOOOOOOOOOOXXOXOOXXOOO+XX++++++++%%%%%%&&&&&&&%%%%%%%+OOOOOOOXXX.XXOOXXXXOXXX.............XXXXXXOOO++++++++++++++++++++++++++++++++%%%%%&&&:::::&&%%%++++++++++++++OOOOOO+OOO++++O+++O+++++++O+++++OO+++++%%%%%%&&&::::&&%%%%++++++OOOOOOOO..OOOOXX...................................   ....                                                                                        ",
"##########@@@@#############@@@@@@@@@@@##@@#####XXXXXXXooooooooo                                                                                                                                                                                                                .      ..    ..................oooo......oo....XXXXXX.XX.XXXXXXXXXXXXX########@@@@@@@$$$$**===;;;;;;;;;;;;;;;;;==***$$$$$@@@@@@@@##########XXXXXXXXXXXXXXooXoooooooXXXoooooooooooXXoooo..ooooo.oo..oooo..oo..oooooo....ooooo.X.XXXXXXXXXX##@@@@@*==;;;;;;;;;;;;;;;;;;;;;;;;;;;;;;;;;;;;;;;;;;;;;;;;;;;;;;;;;;;;;;;;;;;;;;;;;;;;;;;;;;;;;;;;;;;;;;;;;;;;;;;;;;;;;;;;;;;;;;;;;;;;;;;;;;;;;;;;;;;;;;;;;;;;;;;;;;;;;;;;;;;;;;;;;;;;;;;;;;;;;;;;;;;;;;;;;;;;;;;;;;;;;;;;;;;;==*@@@@@%%%&&&&:::&%%%++++OOOOOOOOOO................................................................OO..OOOO+OOOOXOOOOOOOOXXOOOOOOOOOOOOOOOOOOOOOOOOOOOOOOOOOOOOOOOOOOOOOOOOOOOOOOOOOOOOOOOOOOOOXXXXOOOX++OOXX++++++++%%%%%%&&&&&&&%%%%%%%+OOOOOOOX...XXXOXXXXOOXXX...............XXXOOOOOO+++++++++++++++++++++++++++++%%%%%%&&&:::::&&%%%+++++++++++++OOOOOO++++++++++++++++++++++++++OO++++++%%%%%%&&&:::&&&%%%++++++OOOOOOOOXXXXOO.X..................................... .....                                                                                       ",
"##########@@@@############@@@@@@@@@@@@@#@######XXXXXXXXoooooooooooooo                                                                                                                                                                                                        .            ....................ooo.oo....o....XXXXXXXXX..XXXXXXXXXXXXX######@@@@@@@@@$$$***==;;;;;;;;;;;;;;;;;==***$$$$$@@@@@@@@######XXXXXXXXXXXXXXXXXXXoooXooooXXooooooooooooooooooooo.oooooooo..o.ooo.oo..oooooo.o...o....XXXXXXXXXXXX##@@@@@*=;;;;;;;;;;;;;;;;;;;;;;;;;;;;;;;;;;;;;;;;;;;;;;;;;;;;;;;;;;;;;;;;;;;;;;;;;;;;;;;;;;;;;;;;;;;;;;;;;;;;;;;;;;;;;;;;;;;;;;;;;;;;;;;;;;;;;;;;;;;;;;;;;;;;;;;;;;;;;;;;;;;;;;;;;;;;;;;;;;;;;;;;;;;;;;;;;;;;;;;;;;;;;;;;;;;;;=*@@@@@@&%%&&&&&::&&%%%++OOOOOOOOO....O..............................................................O..OXOO+O+OOOOOOOOOOOOOOOOOOOOOOOOOOOOOOOOOOOOOOOOOOOOOOOOOOOOOOOOOOO+OOOOOOXOOOOOOOOOOOOOOOXXXXOXXOOOO++++++++++++%%%%%%&&&&&&%%%%%%+++OOOOO..OOXXXXOXXXXXXXXX................OOOOOOOO++++++++++++++++++++++++++++++%%%%%%&&&&&:&&&%%%++++++++++++++++++++++++OO+++++++++++++++++OOOOO++++++%%%%%&&&&&&:&&%%%%+++++++OOOXXOXXOOO..OOO.X.XX..................................                                                                                        ",
"##########@@@@############@@@@@@@@@@@@@@@######XXXXXXXXXXXXXXXXXXoooo                                                                                                                                                                                                        ..          ... ................oooo.......o.....XXX...XXXXXXXXXXXXXXXX#######@@@@@@@@@$$****==;;;;;;;;;;;;;;;;-=***$$$$$@@@@@@@@#######XXXXXXXXXXXXXXXXXXXooooooXooooooooooooooo..oooooooooooooooo..ooooooo...o.oooo.....X...XX.XXXXXXXXXX##@@@@$*==;;;;;;;;;;;;;;;;;;;;;;;;;;;;;;;;;;;;;;;;;;;;;;;;;;;;;;;;;;;;;;;;;;;;;;;;;;;;;;;;;;;;;;;;;;;;;;;;;;;;;;;;;;;;;;;;;;;;;;;;;;;;;;;;;;;;;;;;;;;;;;;;;;;;;;;;;;;;;;;;;;;;;;;;;;;;;;;;;;;;;;;;;;;;;;;;;;;;;;;;;;;;;;;;;;;==*@@@@@@&%%%&&&&::&&%%%%++OOOOOOOO.O..O...............................................................XXXXOO+++OOOOOOOOOOOOOOOOOOOOOOOOOOOOOOOOOOOOOOOOOOOOOOOOOOOOOOOOOOOOOOOOOOOOOOOOOOOOOOOOOOOOXOOOOOOOO++X+++++++++%%%%%%%&&&&&%%%%%%+++OOOOO.OOOO..XOOXX..XXXX...............X.OOOOOOOOO++++++++++++++++++++++++++++%%%%%%&&&::::&&&%%%+++++++++++++++++++++++O+++++++++++++++++++++O+++++++%%%%%%&&&&&:&&&%%%++++++++OOXOOOOOOOOXOOOO........................................  .                                                                                   ",
"#########@@@@@############@@#@@@@@@#@@@@########XXXXXXXXXXXX######XXooo                                                                                                                                                                                                         .       .... ...oo....................Xo............XXXXXXXXXXXXXXXX######@@@@@@@@@$$****==;;;;;;;;;;;;;;;;;==**$$$$$$@@@@@@@@########XXXXXXXXXXXXXXXooooooXXXXXoooooooooo..oooo..o.oooo..o.oooooooooooo..............oXoX.XX.X.XXXXXXX###@@@@$**===;;;;;;;;;;;;;;;;;;;;;;;;;;;;;;;;;;;;;;;;;;;;;;;;;;;;;;;;;;;;;;;;;;;;;;;;;;;;;;;;;;;;;;;;;;;;;;;;;;;;;;;;;;;;;;;;;;;;;;;;;;;;;;;;;;;;;;;;;;;;;;;;;;;;;;;;;;;;;;;;;;;;;;;;;;;;;;;;;;;;;;;;;;;;;;;;;;;;;;;;;;;;;;;==**$@@@@&&&%%%%&&&::&&%%%%++OOOOOOOOOOOOOO...............................................................OXXOO+++OOOOXXXOOOOOOOOOOOOOOOOOOOOOOOOOOOOOOOOOOOOOOOOOOOOOOOOOOOOOOXXOOOOXXOOOOXXXXOOOOOOOOOOOOXXOXO+++++++++++++%%%%%%%&&&%&%%%%+++OOOOO..OOOO..OOOO..XXXXXX..............XXXOOOOOOO++++++++++++++++++++++++++++++%%%%%&&::::::&&%%%+++++++++++++++++++++O++++++++++++++++++++++++++++++%%%%%%%&&&&&::&&&%%%+++++++OOOOOOOOOXXXXOO................X................... .........                                                                                ",
"#########@@@@@############@@###@####@@@@########XXXXXXXXXXX#########Xooo                                                                                                                                                                                                        .      ....   ..oo...................ooXX...........XXXXXXXXXXXXXXXX######@@@@@@@$$$****===;;;;;;;;;;;;;;;;===**$$$$$$@@@@@@@########XXXXXXXXXXXXXXXXoooooXXXXXXoooooo......oooo....ooo........o.oooooo...............XXXXXX..X.XXXXXXX##@@@$$*$***======--;----;;;;;;;;;;;;;;;;;;;;;;;;;;;;;;;;;;;;;;;;;;;;;;;;;;;;;;;;;;;;;;;;;;;;;;;;;;;;;;;;;;;;;;--;;;;-;-;-;;;;;;;;;;;;;----;;;;;;---=----;;;;===-==--;-=-========----========================================*$@@@@@@&&&%%%%%&&:::&%%%%+++OOOOOOOOOOOOO.....O........................................O...........XX...OXXO++++OOOOXXXOOOOOOOOOOOOOOOOOOOOOOOOOOOOOOOOOOOOOOOOOOOOOOOOOOOOOOOOOOOOOXOOOXXXXOOOOOOOOOOOXXXXOOXXO+X+++++++++%%%%%%%%&&%&%%%%++++OOOO..OOOOO.OOOO..XXXXXX...............XXXXXOOOO++++++++++++++++++++++++++++++%%%%%%&&:::::&&&%%%++++++++++++++++++++++++++++++++++++++++++++++++++++%%%%%%%&&&&&&&&&&%%%%+++++XOOXOOOOOXXXXOOO..............XX.................... ........                                                                                ",
"#########@@@@################@@###@@@@@@#######XXXXXXXXXXX###########Xoo                                                                                                                                                                                                        ..   ...   ...... ...........o....o.ooXX....XX..XXXXXXXXXXXXXXXXXXXX######@@@@@@$$$$****==;;;;;;;;;;;;;;;;-==***$$$$@@@@@@@@##########XXXXXXXXXXXXXXXXXooooooooo.ooooooooooooooo..ooo...oo....o....o..oo...ooo..o.o....X..ooXXXX..XXXX##@@@@@$$*******=================================================================================================================================================================================*********========*****==*****$@@@@@@@&&%&%%%&&&::&&&%%%++OOOOOOOOO...O.................................................O..X..OXXXXXXXOXXX+++++OOOOOOXOOOOOOOOOOOOOOOOOOOOOOOOOOOOOOOOOOOOOOOOOOOOOOOOOOOOOOOOOOOOOOOOOOOOOOOOOOOOOOOOOOOOOOXXXOOXXO++++++++%%%%%%%%%%%%%%%%+++++OOOOOOOOX.XXXXXXX..XX....................XOOO+++++++++++++++++++++++++++++++%%%%%&&&&:::::&&%%%+++++++++++++++++++++++++++++++++++++O+++++++++++++++%%%%%%&&&&&::&&&%%%%%+++OOOOOXXOOO..XOO......................................         ...                                                                            ",
"##########@@@###############@@@@###@@@@@#######XXXXXXXXXX#####@@@@####Xo                                                                                                                                                                                                         .  ...... . ...  ...........o......ooXX....XXXXXX....XXXXXXXXXXXXX######@@@@@@@$$$****===;;;;;;;;;;;;;;;;-=***$$$$$@@@@@@@@##########XXXXXXXXXXXXXXXooooXoooooooooo.oooooo.o oo..oo  oo   .o. o ....oo.  .ooo.oo.oX.X.X...oXXXXXXXXXX##@@@@@$$$$$$********=================================================================================================================*==========================================================================***********$$@@@@@@@@&&&%%%%&&&:::&&%%%+++OOOOOOOO...O.................................................OO....OXXXXXXXOXXX+++++XOOOOOXOOOOOOOOOOOOOOOOOOOOOOOOOOOOOOOOOOOOOOOOOOOOOOOOOOOOOOOOOOOOOOOOOOOOOOOOOOOOOOOOOOOOOOOOXXOO++O+++++++%%%%%%%%%%%%%%%%+++++OOOOOOOOO..X...OO.X.XX.........  ........OOOO+++++++++++++++++++++++++++++++%%%%%%%&&::::::&&%%+++++++++++++++++++++++++++++++++++++OO+++++++++++++++%%%%%%&&&&::&&&&%%%%++++O+OOXOOOOOXXOOOO...........O..........................  .   ...                                                                             ",
"###########@##############@@@@@@###@###########XXXXooXXXX#####@@@@@@##XXoo                                                                                                                                                                                                            .. .  . ..   ............o..........oXXXXXXX.....XXXXXXXXXXX#######@@@@@@@$$****===;;;;;;;;;;;;;;;;;==**$$$$$@@@@@@@@########X#XXXXXXXXXXXooXXXXXoX..oooo.oooooooooo..ooooo oo..    oo.   .....o..  ..ooooooooXX.X..XXXXXXXXXXXX##@@@@@@@$@@$$$$$$****************====================================================********==========**=====*********==**==**************==****=*===***==******====*********************************************$$$$$$$$$@@@@@@@@@@@@%%%%%%&&::::&%%%+++OOOOOOOOO..O.................................................XXOXOOXXXXXXXXXXXX+++++XOXOOXXXXOOOOOOOOOOOOOOOOOOOOOOOOOOOOOOOOOOOOOOOOOOOOOOOOOOOOOXXOOOOOOOOOOOOOOOOOOOOOOOOOOOOOOOOOOO++++++++++++%%%%%%%%%%%%%%++++++XXXXXXXXXXO.XOXOOOOOXX.................XXXOO+++++++@@@@@+++++++++++++++++++%%%%%%%&&&&::::&&&%%%+++++++++++++++++++++++++++++++O++O+O++O+++++++++++++%%%%%%&&&&&&&::&&%%+++++++OOOOOOOOOOXOOO..X......O............................  ....                                                                               ",
"###########################@@@@@##@@###########XXXooooXXXX####@@@@@####Xoo                                                                                                                                                                                                           ...  .   ..   .... .......o.........oXXXXXXXX.XX..XXXXXXXXXXX#######@@@@@@@$$****==-;;;;;;;;;;;;;;;;===**$$$$$@@@@@@@#########XXXXXXXXXXXXXoXXXXoooX..oo...oooo.o..o.oo.o  o oo...  ooooo o ....o.o  ..ooooooooX......XXXXXX.XXXX#@@@@@@@@@@@@@$$$$$$$$$$$**$******************************************************************************$$$$$$$$$$$$$$$$$$$$*$$$$$$$$$$$$$*****$$$$$$$$$$$$$$$$$$$$$$$$$$$$$$$$$$$$$$$$$$$$$$$$$$$$$$$$$$$$$$$$$$$$$$$$$$$@@@@@@@@@@@@%%&%%%&&&:::&%%%++++OOOOOOOO..O................................................XXXXXOXXXXXXXXXXXXX+++++XXXOOXXXXOOOOOOOOOOOOOOOOOOOOOOOOOOOOOOOOOOOOOOOOOOOOOOOOOOOOOXOOOOOOOOOOOOOOOOOOOOOOOOOOOOOOOOOOOO++OXX+++++++%%%%%%%%%%%%%%%%++++O+OOXXXXOOOOOOOOOOXXXXOOX..............XXXX++++++++@@@@@%+++++++++++++++++++%%%%%%%&&&::::::&&%%+++++++++++++++++++++++++++++OOO+++++++O++++++++++++++%%%%%%&&&&:&&&&&&%%+++++OOOOOOOOOO.XOOOO.X....O..O............................  ....                                                                              ",
"###########################@@@#@@@@@###########XXXoXooooXX######@@@@###Xooo                                                                                                                                                                                                             . ..    ..............oo...........X.XX.XX..XXXXXXXXXXXXXXX######@@@@@@$$$***===;;;;;;;;;;;;;;;;-==**$$$$@@@@@@@@#######XX###XXXXXXXXXXXooooooXooooo....ooo.oooo.o..o     oo    ....o...       .ooo. ..ooo..o.ooooXX.XXXXXXXXX#@@@@@@@@@@@@@@@@@@@$$$$$$$$$$$$$$$$$$$$$$$$$$$$$$$$$$$$$$$$$$$$$$$$$$$$$$$$$$$$$$$$$$$$$$$$$$$$$$$$$$$$$$$$$$$$$$$$$$$$$$$$$$$$$$$$$$$$$$$$$$$$$$$$$$$$$$$$$$$$$$$$$$$$$$$$$$$$$$$$$$$$$$$$$$$$@@@@@@@@$$@@@@@@@@@@@@@@@@@@@@@@@@@@@@@@@@%%%%%&&:::&&%%+++OOOOOOOOO.................................................OOOXXXXXXXXXXXXX######++++XOOOOOOOXOOOOOOOOOOOOOOOOOOOOOOOOOOOOXOOOOOOOOOOOOOOOOOOOOOXXXOOOOOOOOOOOOOXOOOOOOOOOOOOOOOOOOOOOOOOOOXXX++++++++%%%%%%%%%%%%%%%%++++++####X++X+X+XXXXXXXXXXX.............XXX++++++@@@@@@@@@@@@@++++++++++++++++%%%%%%%&&&::::::&&%%%%+++++++++++++++++++++++++++++++++++++++++++++++++++++%%%%%%&&&&&:&&&&%%%++++OOOOOOOOOOXOOOO.X.XOOOO..................................... .   .                                                                       ",
"###########@###############@####@@@@###########XXXooooooXX######@@@####Xooo                                                                                                                                                                                                              .      ... ..........oo.............XX.XX..XXXXXXXXXXXXXXX#####@@@@@@$$$****==;;;;;;;;;;;;;;;;;==***$$$@@@@@@@@########XXXXXXXXXXXXXXXXoooooooooooooooo..oooooooo...o..oo.o.ooo  .o ..o  oo ...oooo...ooo..ooooooXX..XXXXXXX#@@@@@@@@@@@@@@@@@@@@@@@$$$$$$$$$$$$$$$$$$$$$$$$$$$$$$$$$$$$$$$$$$$$$$$$$$$$$$$$$$$$$$$$$$$$$$$$$$$$$$$$$$$$$$$$$$$$$$$$$$$$$$$$$$$$$$$$$$$$$$$$$$$$$$$$$$$$$$$$$$$$$$$$$$$$@$$$$$@$$$$$$$$@@@@@@@@@@@@@@$$@@@@@@@@@@@@@@@@@@@@@##@@@@@@@@%%%%%%&&&::&&%%++++OOOOOOOO................................................XOOOXXXXXXXX##X##X#####+++#++OOOXXOOOOOOOOOOOOOOOOOOOOOOOOOOOOOOXXOOOOOOOOOOOOOOOOOOOOOXOOOOOOOOOOOOOOXXOOOOOOOOOOOOOOOOOOOOXOOOOXOXX++++++++%%%%%%%%%%%%%%%%+++++@#++++++++++XXXXXXXXXX............XXXX+++++@@@@@@@&@@@@@%@+++++++++++++++%%%%%%%%&&&&:::::&%%%%+++++++++++++++++++++++++++++OO+O+++O++++++++++++++++%%%%%%&&&&&:::&&&%%+++++OOOOOOOOOOXOOOOXXOOOOO.................................... ...                                                                          ",
"#############################@####@###@@######XXXooooooooX#######@######ooo                                                                                                                                                                                                         ..  ....  ....    ........oo......o....X.X...X..XXXXXXXXXXXXXXX######@@@@@$$$***==-;;;;;;;;;;;;;;;;-==**$$$$@@@@@@@@########XXXXXXXXXXXXXXXXooooo...ooooo.oo...ooo o  ... ..  .....o    oo  ..ooo...oo....o.oo....oooo...oXXXXXX##@@@@@@@@@@@@@@@@@@@@@@@@@@@@@@@@@@@$@@@@$$@@@@$$@$@$$$$$@@$$$$@@$$$$$$@$$$$$$$$$$$$$$$$$$$$$$$$$$$$$$$$$$$$$$$$$$$$$$$@@$$$$$$@@@@$$$$$@@$$@@@@@@@$$$@@@@@@@@@@@@@@@@@@@@@@@@@@@@@@@@@@@@@@@@@@@@@@@@@@@@@@@@@@@@@@@@@@@@@@@######@@+++++%%%%%%&&&&&&&%%%+++OOOOOOOOO.............................................XXXOOOXXXXXXX#######@@@@#####+++OOXOOOOOOOOOOOOOOOOOOOOOOOOOOOOOOOXXOOOOOOOOOOXOOOOOOOOOOOOOOOOOOOOOOOOOXXOOOOOOOOOOOOOOOOOOOOOOOOOOOX+XX+++++++++%%%%%%%%%%@%@@@@@@@@@@@@@@###########XXXXXX.........XX+++++++@@@@@@@@@@@@@@@@@@@++++++++++++%%%%%%%&&&&&&::::&&%%%++++++++++++++++O+OO+++++++++++O++++++++++++++++++++%%%%%%%&&&&&:::&&&%%++++++OOOOOOOOOXOOX.XXOO.O..................................    .....                                                                       ",
"###################X##########################XXoooooooooXX#############Xooo                                                                                                                                                                                                       .... ....  ....     ........o...........XXX..XXXXXXXXXXXXXXXXXXX#####@@@@@@$$$***==;;;;;;;;;;;;;;;;;==**$$$$$@@@@@@@######XXXXXXXXXXXXXXXXXXoooooo.o.oooo.ooo  .ooo       ...  .oo        o  . oo....o.. ..oooo...ooooo....XXXXXX##@@@@@@@@@###@##@@@@@@@@@@@@@@@@@@@@@@@@@@@@@@@@$@@@@@@@@@@$$$@@@@@$$@@@@$$$$$$$$$$$$$$$$$$$$$$$$$@@@$$$$$$$$@@$$$@@$$$@@@@$$$$@@@@@@$$@@@@@@@@@@@@@@@@@@@@@@@@@@@@@@@@@@@@@@@@@@@@@@@@@@@@@@@@@@@@@@@@@@@@@@@@@@@@@@@@@@@@########++++++%%%%%%%%&&&&&&&%%+++OOOOOOOO..............................................XXXXOOXXXXXX###@@#@@@@@@#####+++OOOOOOOOOOOOOOOOOOOOOOOOOOOOOOOOOOXXOOOOOXXOOOXXOOOOOOOOOOOOOOOOOOOOOOOOOOOOOOOOXXXOOOOX.XOOOOOOOOOOOO+++++++++++++%%%%%%%%%@&@@@@@@@@@@@@@@@@@@@@######XXXXOXX.......XX+++@++@@@@@@@@@&$$$&&&@@@@@+++++++++++%%%%%%%%%&&&&&::::&&%%%+++++++++++++++OOOO++++++++++++++++++++++++++++++++%%%%%%%%%&&&&::&&&&&%%+++++OOOOOOOOOOOOOOO...O.................................... ........ .                                                                   "
};
