/* XPM */
static const char *final_frame_009[] = {
/* columns rows colors chars-per-pixel */
"1280 720 16 1 ",
"  c #0D0211",
". c #10092E",
"X c #2D0631",
"o c #25021C",
"O c #490639",
"+ c #1B1755",
"@ c #5B135B",
"# c #664A70",
"$ c #901C71",
"% c #A2596F",
"& c #3A3B99",
"* c #AA3590",
"= c #BA4DA1",
"- c #F79796",
"; c #DDB9DB",
": c #6991CE",
/* pixels */
"@@++++X...........XXXXX+++@@@@@++++XXXXXXXO+O@@@@@@@@@@@@@@@@@@@@@@@@@@@@@@@@@OOXXXXOXXXXXXXXXXXXXXXXXOOXXXXOOOXXXXXXXOOXXOOOO@@@@@$************@@@@O@OOOOO@@@@@$$@@@@@OOXXXXooXXXXXXXXXOO@@@@@@$$@@OOXXXXXXXXXXXXXXXXOOO@@@@@@@@@@@@@@@@@OOOO@@OOOOOOOOOOOOOOOOXXXXXoooooooo                                                                                                                  ..                          ........X++++##*=;;;;;;;;;;=====%%%=========%%=========%=================================================================------===-==------------------;;;;;;;;;;;;;;;;;;;;;;;;;;;;;;;;;;;;;;;;;;;;;;;;;;;;;;;;;;;;;;;;;;;;;;;;;;;;;;;;;;;;;;;;;;;;;;;;;;;;;;;;;;;;;;;;;;;;;;;;;;;;;;;;;;;;;;;;;;;;;;;;;;;;;;;;;;;;;;;;;;;;;;;;;;;;;;;;;;;;;;;;;;;;;;;;;;;;;;;;;;;;;;;;;;;;;;;;;;;;;;;;;;;;;;;;;;;;;;;;;;;;;;;;;;;;;;;;;;;;;;;;;;;;;;;;;;;;;;;;::;;;;##@++++.....   .                         .......................XXX..                            oXXooooXoo                                                                              oooooo         o  oooooooXXooXXXXXXXXXXOXXXOO@@@@OOOOOO@@@@OOXXXXXXXXXXXXXXXOOOOXXXXXXX++++&&&&+@+++++++@++&&&&&&&&&&&@@$***==***$$$$$@$@@@$$$$$$**===-;;;;;;;;;;;==**=**=**$$@@@@OOOOOOOXXXXXXXooooo....                                              ",
"@@@++++X.........o..XXXX+++@@@@@@@@+XXXXXXXXOOOOO@@@@@@@@@@@@@@@@@@@@@@@@@@@@@OOOOOOOXXXXXXXXXXXXXXXXXXXOOOOOOOOOOOOOOOOXXOOOO@@@@@$************@@@@OOOOOOO@@@@@$$@@@@@@OXXXXooXXXXXXXXXOO@@@@@@@@@@OOOXXXXXXXXXXXXXXXXXOOO@@@@@@@@@@@@@@@@@@O@@OOOO@OOOOOOOOOOOXXXXXXooooooo                                                                                                                   .                           ........++++@##%=;;;;;;;;;;;;;;;;;;;;;;;;;;;;;;;;;;;;;----;;;;-------==---;;========-----===-=------====--==----====--====--=====-==--==========--===========================================================-================----;;;;;;;;==;;;;;;;;;;====;;;;;;=;==;;;;;;;;;;;;;;;;;;;;;;;;;;;;;;;;;;;;;;;;;;;;;;;;;;;;;;;;;;;;;;;;;;;;;;;;;;;;;;;;;;;;;;;;;;;;;;;;;;;;;;;;;;;;;;;;;;;;;;;;;;;;;;;;;;;;;;;;;;;;;;;;;;;;;;;;;;;;;;;;;;;;;;;;;::;;;;:#@@+++......                            ...XXXXXXX..............XXX.                            o.XXooooooo                                                                             oooooo        oooo oooooXXXXXXXXXXXXXXXXXXXXXOOOOOOOOXOO@@@@OXXXXXXXXXXXXXXXOOOOOXXXXXXX+X+@&&&&++++++++++++&&&&&&&&&&&@@$***=****$$$$$$$@@@@$$$$$**===-;;;;;;;;;;;==*****=***$@@@@OOOOOOOXXXXXXXooooo.... o                                            ",
"@@@@@@@+XXXX.o.......XXXX+++@@@@@+@@@++XXXXXOOOOOO@@@@@@@@@@@@@@@@@@@@@@@@@@@@@@OOOOXXXXXXXXXXXXXXXXXXXXXOOOOOOOOOOOOOOOOOOOOO@@@@@$$***********@@@@OOOOOOO@@@@@$$$@@@@@OXXoXoXXXXXXXXXXOO@@@@@@@@@@OOOOXXXXXXXOXXXXXXXXXOOO@@@@@@@@@@@@@@@@@@@@OOOO@@OOOOOOOOOOXXXXXXoooooooo                                                                                                                  ..                           .......XX++@@#**=;;;;;;;;;;;;;;;;;;;;;;;;;;;;;;;;;;;;;;;;;;;;;;;;;;;;;;;;;;;;;;;;;;;;;;;;;;;;;;;;;;;;;;;;;;;;;;;;;;;;;;;;;;;;;;;;;;;;;;;;;;;;;;;;;;;;;;;;;;;;;;;;;;;;;;;;;;;;;;;;;;;;;;;;;;;;;;;;;;;;;;;;;;;;;;;;;;;;;;;;;;;;;=========================================================================================================;==-==;;====;;====;;====;===;=;;=;;=;==;;;;;;;;;;;;;;;;;;;;;;;;;;;;;;;;;;;;;;;;;;;;;;;;;;;;;;;;;;;;:::;;;;;=#@++X.......                            .X+++++++XXXX...........XX..                            ooXXoooooo                                                                              oooooo        oo o .ooo.XXXXXXXXXXXXXXXXXXXXXXOOOOOOOOOO@@@@OXXXXXXXXXXXXXOOOOOOXXXXXXXXX+@@&&&&@+++++++++++&&&&&&&&&&&&@$********$$$$$$$@@@@$$$$***====;;;;;;;;;;;-=*=*==***$$@@@@@OOOOOOXXXXXXXooooooo.oo .                                           ",
"##@@@@@@+XXX... ....o.XXXXX++++@@+@@@@@OOXXX+OOOOO@@@@@@@@@@@@@@@@@@@@@@@@@@@@@@OOOOOOOXXXXXXXXXXXXXXXXXXOOOOOOOOOOOOOOOOOOOOO@@@@@$$***********@@@OOOOOOOO@@@@@$$$@@@@@OXXoXoXXXXXXXXOOOO@@@@@@@@@@OOOOOOOOOOOOOXOXXXXXXXXOOO@@@@@@@@@@@@@@@@@@@OOOOOOOOOOOOOOOOXXXXXXXXoooooo                                                                                                                  .                           . .....XX++@@@##*==;;;;;;;;;;;;;;;;;;;;;;;;;;;;;;;;;;;;;;;;;;;;;;;;;;;;;;;;;;;;;;;;;;;;;;;;;;;;;;;;;;;;;;;;;;;;;;;;;;;;;;;;;;;;;;;;;;;;;;;;;;;;;;;;;;;;;;;;;;;;;;;;;;;;;;;;;;;;;;;;;;;;;;;;;;;;;;;;;;;;;;;;;;;;;;;;;;;;;;;;;;;;;;;;;;;;;;;;;;;;;;;;;;;;;;;;;;;;;;;;;;;;;;;;;;;;;;;;;;;;;;;;====;;;;=;==========================================================================================================================:===::::::::%;;;;;;#@++++.......                            .XXXXXXXXX..o..       .....                              ooooo                                                                                ooooooo          o    oo.XXXXOOOOOOOXXXXXXXXXXXXXXOOOOOOOO@@@@OXXXXXXXXXXXXOOOOOOXXXXXXXXXX+@@&&&&@+++++++++++&&&&&&&&&&&&$$*******$$$$$$$$@@@@$$$$***====;;;;;;;;;;;-====*==**$$@@@@@OOOOOXXXXXXXXoooooooooo o                                           ",
"$$$&&&@@@@++XXX......o..XXXXX+++@@+@@@@@++XX++++++OO@@@@@@@@@@@@@@@@@@@@@@@@@@@@@@@@OOOOOOXXXXXXXXXXXXXXXXO+OOOOOOOOOOOOOOOOO@@@@@@@$***********@@@@OOOOOOO@@@@@$$@@@@@OOXXXXooXXXXXXOOO@@@@@@@@@@@OOOOOOOOOOOOOOOOOOXXXXXXXXOOO@@@@@@@@@@@@@@@@@@OOOO@OOOOOOOOOOOXXXXXXXXoooooo                                                                                                                  .                         ... ....XXX++@@@@##%==;;;;;;;;;;;;;;;;;;;;;;;;;;;;;;;;;;;;;;;;;;;;;;;;;;;;;;;;;;;;;;;;;;;;;;;;;;;;;;;;;;;;;;;;;;;;;;;;;;;;;;;;;;;;;;;;;;;;;;;;;;;;;;;;;;;;;;;;;;;;;;;;;;;;;;;;;;;;;;;;;;;;;;;;;;;;;;;;;;;;;;;;;;;;;;;;;;;;;;;;;;;;;;;;;;;;;;;;;;;;;;;;;;;;;;;;;;;;;;;;;;;;;;;;;;;;;;;;;;;;;;;;;;;;;;;;;;;;;;;;;;;;;;;;;;;;;;;;;;;;;;;;;;;;;;;;;;;;;;;;;;;;;;;;;;;;;;;;;;;;;;;;;;;;;;;;;;;;;;;;;;;;;;;;;;;;;;;;;;;;;;;;;;;;;;;;;;;;;;;;;;;:==:;;;;;=#@++++...........                        ......  .              ...                               oooo                                                                               ooooooo               .ooooXXO@@@@@@OOOOXXXXXXXXXXXXOOOOOOOOO@@@OXXXXXXXXXXXOOOOOXXXXXXXXXXX++@@&&&&&++++++++++&&&&&&&&&&&&&$$******$$$$$$$$$@@@@$$$$***====;;;;;;;;;;;-=***==****$@@@@@OOOOOXXXXXXXoXooooooooooo                                           ",
"$###&&@@@@@+XXXX..........XXXX+++++@@@@@@@+OOOO+++OOO@@@@@@@@@@@@@@@@@@@@@@@@@@@@@@@@@OOOOXXXXXXXXXXXXXXXXXOOOXXOOOOOOOOOOOOO@@@@@@@$***********@@@@OOOOOOO@@@@@@$@@@@@OOXXXoooXXXXXXOOO@@@@@@@@@@@@OOXOOOOOOOOOOOOOOOOOXXXXXXXOO@@@@@@@@@@@@@@@@@@@OOOOOOOOOOOOOOXXXXXXXXooooooo                                                                                                                 .                        .... ....XXX++@@@@@#$$#%==;;;;;;;;;;;;;;;;;;;;;;;;;;;;;;;;;;;;;;;;;;;;;;;;;;;;;;;;;;;;;;;;;;;;;;;;;;;;;;;;;;;;;;;;;;;;;;;;;;;;;;;;;;;;;;;;;;;;;;;;;;;;;;;;;;;;;;;;;;;;;;;;;;;;;;;;;;;;;;;;;;;;;;;;;;;;;;;;;;;;;;;;;;;;;;;;;;;;;;;;;;;;;;;;;;;;;;;;;;;;;;;;;;;;;;;;;;;;;;;;;;;;;;;;;;;;;;;;;;;;;;;;;;;;;;;;;;;;;;;;;;;;;;;;;;;;;;;;;;;;;;;;;;;;;;;;;;;;;;;;;;;;;;;;;;;;;;;;;;;;;;;;;;;;;;;;;;;;;;;;;;;;;;;;;;;;;;;;;;;;;;;;;;;;;;;;;;;;;;;;;;;;;;;;;##+++++...........                                               ...                               oooooo                                            oo                              oooooooo              oooo.ooXX@@@@@@@@@OOXXXXXXXXXXOOOOOOOOO@@@@OXXXXXXXXXOOOOOOXXXXXXXXXXXX++@@&&&&&++++++@++&&&&&&&&&&&&&&******$@$$$$$$$$@@@@@$$$$***====;;;;;;;;;;;==*=**==***$$@@@@OOOOOXXXXXXXXXooooooooooo                                           ",
"$$$$$$$$@@@@@@OOXX.oo.....XXXXX+X++++@@@@@@@@@@OOOOO@@@@@@@@@@@@@@OOOOOO@@@@@@@@@@@@@@@@@O+XXXXXXXXXXXXXXXXXXXXOOOOOOOOOXXOOO@@@@@@@$***********@@@@OOOOOOO@@@@@@$@@@@@OOXXXXooXXXXXXXOO@@@@@@@@@@@OXXXXXOOO@@@@@OOOOO@OOXXXXXXXOOO@@@@@@@@@@@@@@@@@OOOOOOOOOOOOOOOXXXXXXXXooooooo                                                                                                                                         ...........XX+++@@@@#$$$$**=====;;;;;;;;;;;;;;;;;;;;;;;;;;;;;;;;;;;;;;;;;;;;;;;;;;;;;;;;;;;;;;;;;;;;;;;;;;;;;;;;;;;;;;;;;;;;;;;;;;;;;;;;;;;;;;;;;;;;;;;;;;;;;;;;;;;;;;;;;;;;;;;;;;;;;;;;;;;;;;;;;;;;;;;;;;;;;;;;;;;;;;;;;;;;;;;;;;;;;;;;;;;;;;;;;;;;;;;;;;;;;;;;;;;;;;;;;;;;;;;;;;;;;;;;;;;;;;;;;;;;;;;;;;;;;;;;;;;;;;;;;;;;;;;;;;;;;;;;;;;;;;;;;;;;;;;;;;;;;;;;;;;;;;;;;;;;;;;;;;;;;;;;;;;;;;;;;;;;;;;;;;;;;;;;;;;;;;;;;;;;;;;;;;;;;;;;;;;;;;;;;;:#@++++.........  .                                               ...                              oooooooo                                          oo                               ooooooo      ooo     oooooXXXXXO@@@@@@@@@OOXXXXXXXXOO@@OOOOO@@@@@OXXXXXXXXOOOOOXXXXXXXXXXXXXX+++@&&&&&&+++@@&++++&&&&&&&&&********$$@$@$$$$$$@@@@@$$$$***====;;;;;;;;;;;==*==*==***$$@@@@OOOOOXXXXXXXXoooooo.ooooo                                           ",
"$$*$$$$$#@@@@@@OXXXX.o.......XXXXX++++@@@@@@@@@@@@@@+@@@@@@@@@@@OOOOOXOOOO@@@@@@@@@@@@@@@@O+XXXXXXXXXXXXXXXXXXOOOOOOOOOO+XOOO@@@@@@@$**********$@@@@OOOOOOO@@@@@@$@@@@@OOXXXoooXXXXXXOOO@@@@@@@@@@@OXXXXXXOOO@@@@@OOOO@@@OXXXXXXXOOO@@@@@@@@@@@@@@@@@OOOOOOOOOOOOOOXXXXXXXXoooooooo                                                                                                                                        .............X++O@@@@@#$$###******%%=============;;;;;;;;;;;;;;;;;;;;;;;;;;;;;;;;;;;;;;;;;;;;;;;;;;;;;;;;;;;;;;;;;;;;;;;;;;;;;;;;;;;;;;;;;;;;;;;;;;;;;;;;;;;;;;;;;;;;;;;;;;;;;;;;;;;;;;;;;;;;;;;;;;;;;;;;;;;;;;;;;;;;;;;;;;;;;;;;;;;;;;;;;;;;;;;;;;;;;;;;;;;;;;;;;;;;;;;;;;;;;;;;;;;;;;;;;;;;;;;;;;;;;;;;;;;;;;;;;;;;;;;;;;;;;;;;;;;;;;;;;;;;;;;;;;;;;;;;;;;;;;;;;;;;;;;;;;;;;;;;;;;;;;;;;;;;;;;;;;;;;;;;;;;;;;;;;;;;;;;;;;;;;;;;;;;;;;;;;;;=;;;;;:#@++++........                                                   ..                               oooooXoo                                          oo                              oooXoooo     oooo   o ooooXXXXXXXOO@@@@@@@@@OXXXXXXXOO@@OOOOO@@@@@OXXXXXXXXO@OOOXXXXXXXXXXXXXX+++@&&&&&&&&++++++++&&&&&&&&====***$*$$@@@$$$$$$@@@@@$$$$**=====;;;;;;;;;;;==*=**==***$$@@@@OOOOXXXXXXXXooooooo.ooooo                                           ",
"$$$$$$$$$$$@@@@@@@++XXX.ooo.....XXXXXX++@@@@@@@@@@@@@@@@@@@@@OXXOOXXXXXXOOO@O@@@@@@@@@@@@@@OOXXXXXXXXXXXXXXOOOOOOOOOOOOOXOOOOO@@@@@$$$*********$@@@@@OOOOOOO@@@@@$$@@@@OOXXooooXXXXXXOO+O@@@@@@@@@OOXXXXXXXOOO@@@@@@@OOO@@OOXXXXXXOO@@@@@@@@@@@@@@@@@@@@@OOOOOOOOOOXXXXXXXXoooooooooo                                                                                                                                         .........XXXXX+O@@@@@@@#####$***********************==*******************===============================================================================================================================================================================================================;;==;=;;=;;;;;;;;;;;==;;;;====;=;;;;===;;;;;;;;;;;;;;;;;;;;;;;;;;;;;;;;;;;;;;;;;;;;;;;;;;;;;;;;;;;;;;;;;;;;;;;;;;;;;;;;;;;;;;;;;;;;;;;;;;;;;;;;;===;;;;##@++XX........                                                 ...                                oXXXXXXXoo                                      ooo                             ooooooooo    ooo o    ooooXXO@OOXXXXXXXOOOOOOOXXXXXXXXO@@OOOO@@@@@@OOXXOXXOOOOOOXXXXXXXXXXXXXX+++++@&&&&&&&&&&++++++&&&&&*======******$@@@$$$$$$$@@@@$$$***====-;;;;;;;;;;;==*=====**$$@@@@OOOOOOXXXXXXXXXoooooo....                                            ",
"$$$$$$$$*$$$#@@@@@@+++X..........XXXXXX+O@@@@@@@@@@@@@@@@@OOXXXXOXXXXXXXOOOOO@@@@@@@@@@@@@@@OOXXXXXXXXXXXXXOOOXXOOOOOOOOXOOOOO@@@@@@$$*********$@@@@@OOOOOOO@@@@@$$@@@@OOXXXoooXXXXXXOO+O@@@@@@@@@OOXXoXXXXXOOO@@@@@@@@OOO@@OXXXXXXOO@@@@@@@@@@@@@@O@@@@@OOOOOOOOOOOXXXXXXXoXooooooooo                                                                          oo                                                            ..........XXXX++@@@@@@@@@@@$$$*******************************************===**********************************************==*****************=****=====*=***======*===============================================*============*========*=*===============******=*************************************************#***********####**********************************##********##**======**=****===============================*=========###:;;=#@@+++.........                                                ...o                               oXXXXXXXXoo                                     oo                               oooooooooo    oo     oooXXXO@@@@@OXXXXXXOOOOOXXXXXXXXXO@@OOO@@@@O@@OOOOOOO@@OOXXXXXXXXXXXXXXXX+++++@&&&&&&&&&&++++&&&&&&*======********$$@$$$$$$$@@@@$$$$**====-;;;;;;;;;;;==*=====**$$@@@@OOOOOOXXXXXXXXXoooooo...                                             ",
"@@$$$$***$$$$$#@@@@@@+XXXX..........XXXX+O@@@@@@@@@@@@@@@@OXXXXXXXXXXXXXOOOOOO@@@@@@@@@@@@@@@@OOOXXXXXXXXXXOXXXOXOOOOOOOOOOOOO@@@@@@$$**********@@@@@@OOOOOO@@@@@$$@@@@OOXXXXoooXXXXXXOOO@@@@@@@@@OOXXoooXXXXXOOO@@@@@@@OOO@@OOXXXXXXOO@@@@@@@@@@@@@@@@@@OOOOOOOOOOOXXXXXXXXoooo  oooo                                                                         oooooo         ..                                               ........X.XXX++++@@@@@@@@@@##@#$$$$$$$$$$$$$$****$*******$$******************************************************************************************************************************************************************************************************************=***********************************************************************************************$$*********$**************************##****$#$*$$#$##########:;##@@++X........                                                .....                               oXXXXXXXXoo                                    ooo                               oooooooo o    oo    ooooXXO@@@@@@@OXXXXXXXXXXXXXXXXXXOO@@@@@@@@O@@@OOOOO@@@@OXXXXXXXXXXXXXXXXX+++++@&&&&&&&&&&+++&&&&&&:======**********$$$$$$$$$@$@@$$$$**====-;;;;;;;;;;;==*=====**$$@@@@OOOOOOXXXXXXXXXooooooooo ....                                        ",
"@@@$$$*******$$$@@@@@@+XXXX..........XXXX++@@@@@@@@@@@@@@@@OXXXXXXXXXXXXXXOOOO@@@@@@@@@@@@@@@@@@OOXXXXXXXXXOXXXXXOOOOOOOOOOOOO@@@@@@$$**********@@@@@OOOOOOO@@@@$$$@@@@OOXXXXXoXXXXXXXOOO@@@@@@@@@OOXXooooXXXXXOOO@@@#@@@@OO@@@OOOXXXXOO@@@@@@@@@@@@@@@@@@@OOOOOOOOOXXXXXXXXoooo oooo                                                                       ooooooXXoo       o.o.                                               .........XXXXX++++@@@@@@@@@@@@@@$$@$$$$$$$$$$$*$$*******$$$$$$****$$$$***************$$*$$************************************************************************************************************************************************************************************************$$$****************************************$$$***$$***$$$$$$*$$$$$**$*$$$$$$##$$$$$$$#$$####$$##$$$$##$$$$###$$$$$###$$$##########@##############=#@@++XX........                                                .....                              .oXXOXXOOXoo                                   ooo                               ooooooo   o    oo   oooXXOOO@@@@@@@@OXXXXXXXXXXXXXXXXXO@@@@@@@@OOO@@@@OOO@@@OXXXXXXXXXXXXXXXXXXX++++@&&&&&&&&&&&&&&&&&&::====************$$$$$$$@$@$$@$$$$**=====;;;;;;;;;;;==*==*==**$$$@@@OOOOOOXXXXXXXXXXoooooooo o.                                          ",
"@@@@@$$*$$$***$$$$$@@@@@OOXXXXX.......oXXXXOO@@@@@@@@$@@@@@@OXXXXXXXXXXXXXOO@@@@@@@@@@@@@@@@@@@@@@OOXXXXXXXXXXXXOOOOOOOOOOOOOO@@@@@@$***********@@@@@OOOOOOOO@@@$$$@@@@OOXXXoXXXXXXXXXOOO@@@@@@@@@OOXXooXooXoXXXOOO@@@@@@@@@@@@@@OOXXXXOO@@@@@@@@@@@@@@@@@@@OOOOOOOOOXXXXXXXXooooooo                                                                     oooooooXXXXoooo      .o.                                             ............XXXX++++++@@@@@@@@@@@@@@@@@##############$$#$#######$$####$$$$$$####$$$$$$#$$$#######$##$$$$##$$#$$$$$####$$$$$$$$#$$$$$$$$$$$#$$#$$$$$$$$$$##$$$$$$##$#$$$$$$$$$$$$#$$$$$$$$$$##$$$$$$$$$$$##$$$$$$##$$$$$$$$$$$$$$#$#$$$$$$$####$$$###$$$$####$$$$$$$**********$***$$$$$$$$$$$$$$$$$$$$$$$$$$#$$$$$$######$$$$$$$$$#$$$$##$$###$######$$$$####$$$$###$$@########$@###########@$$##########$$######$$##&#########@@@@#@@@@@@@#@@#@@+++XX.......                                                .....                               .oXOOOOOOXoo                                  oooo                              ooooooo ooooo    oooooooXXOO@@@@@@@@@OXXXXXXXXXXXXXXXXO@@@@@@@@OOOO@@@@@@@@@OXXXXXXXXXXXXXXXXXXXX++@@&&&&&&&&&&&&&&&&&*=====***$$$$*******$$$$$$$@@@@$$$$$$***====;;;;;;;;;;;=====*=***$$@@@@OOOOOOOXXXXXXXXXooooooo                                              ",
"@@@@@@$$$$$$*****$##$#@@@@@++XXX...o..oo..XXOO@@@@@@@@$@@@@@@OXXXXXXXXXXXXOOOOO@@@@@@@@@@@@@@@@@@@@@O+XXXXXXXXOOOOOO+OOOOXXOOO@@@@@@$***********@@@@@@OOOOOOO@@@@$$@@@@@OXXXoXXXXXXXXOOOO@@@@@@@@@OOXXoooooooXXXXOOO@@@@@@@@@@@@@@@OXXXXOO@@@@@@@@@@@@@@@@@@OOOOOOOOOOXXXXXXXoooooooo                                                                   ooooXXXXXXXXXXoo      o..                                           ...............XXXX+++++O+@@@@@@@@@@@@@@@@@@@@@@@@@@@@@@@#@$@@##@#$$####$$$$$$#@##$$$$$$$$$$#$$$$$$$$$$$$$$$$$$$$$$$$$$$$$$$$$$$$$$$$$$$$$$$$$$$$$$$$$$$$$$$$$$$$$$$$$$$$$$$$$$$$$$$$$$$$$$$$$$$$$$$$$$$$$$$$$$$$$$$$$$$$$$$$$$$$$$$$$$$$$$$$$$$$$$$##$$$$####$$$$##$$$$$$$$$$$$$$$$$$$$#$$$&###$$$$$$$&$$$$$$$&$$$$&&&&&&##$#$$$@&&$$$$#&&$&&&&&&&&@@@@##&&@@&&&#@@@@@@@@&&@@@@@@@&@@@@@@@&@@@@@@##@@@@##@@@@@@&&@#@@@@@@@@@@@@@@@@@@@@@@@@@@@@@++++........                                                .....                                ooXOOOOOOXoo                                 oo                                ooooooo  oooo     ooooooXXXO@@@@@@@@@OXXXXXXXXXXXXXXXOOO@@@@@@@OOOO@@@@@@@@@@OXXXXXXXXXXXXOOOXXXX+++@@&&&&&&&&&&&&&&&&*=====*&&$$$$$***==***$$$$$$$@@@@@$$$$***====;;;;;;;;;;;=======***$$@@@@OOOOOOOXXXXXXXXoooooooo    o                                         ",
"OOO@@@@@$$$$$$******$$$$@@@@@++XXXoo......XXXX++@@@@@@@@@@@@@@@OOOXXXXXXOOOOOOOO@@@@@@@@@@@@@@@@@@@@@@OOOXXXXXXXXOOO+OOOOOOOOOO@@@@@$***********@@@@@@OOOOOOO@@@@$@@@@@@OXXXXXXXXXXXXOOOO@@@@@@@@@OOXXoXXXooooooXXOOO@@@@$@@@@@@@@@@@OXXOO@@@@@@@@@@@@@@@@@@@OOOOOOOOOXXXXXXXooooooooo                                                                ..ooooXXXXXXOXXXoo     .oX.o                                         .  ..............XXXXXXX+++++++@@@@@@@@@@@@@@@@@@@@@@@@@@@@@@@@@@@@@@@@@@@@@###@#@#########@@@@####@#@@@@####@@@@####@@####@#@@##@#@@&#@##&#@@@##########@@#&####@@&&####&&##@@&#####&&##@@&&############@@&&####@@&&######&#####&###&&@###&&&&&&#######&&&&&&##@#&&&###########@#@#@@@#&##@@@@######@@@@#@@@#@@@&@@@@@#&@@@@@@@@@@@@@@@@&&@@@@@@##@@@@@@@@@&@@@@@@@@@@@@@@@@@@@@@@@@@@@@@@@@@@@@@@@@@@@@@@@@@@@@@@@@@@++@@+@@@@@@@@@@@@@@@@+@@@++++++.........                                              .....                                 ooXOOOOOOOoo                                 o                                ooooooo   ooo       ooooXXXOO@@@@@@@@OXXXOOXXXXXXXXXXXO@@@@@@@OOOOO@@@@@@@@@@OXXXXXXXXXXXXOOOOOOX+++@@&&&&&&&&&&&&&&$*=====*&&&@@$$$$*******$$$$$$$$@@@@$$$$$***===-;;;;;;;;;;;==*====***$$@@@@OOOOOOOXXXXXXXXXoooooooo    o                                        ",
"XXOO@@@@@@$$$$$*******$$##@@@@++XXXo......XXXXXX+@@@@@@@@@@@@@@@@@OOXXXXOXOO+OOOO@@@@@@@@@@@@@@@@@@@@@@@OOXXXXXOXXX+OOOOOOOOOO@@@@@@$$**********@@@@@@OOOOOOO@@@@$@@@@@@OXXXXXXoXXXXXOOOOO@@@@@@@@@OXXXXXXXXooooXXOOOO@@@@$$@@@@@@@@@@OOOO@@@@$$$$$$$$$@@@@@@@OOOOOOOOOOXXXXXXoooooooo                                                                .ooXoXXXXXXXXXXXoo    ..oX..                                        ..................XXXXXXXX++++++@@@@@@@@@@@@@@@@@@@@@@@@@@@@@@@@@@@@@@@@@@@@@@@@@@@@@@@@@@@@@@@@@@@@@@@@@@@@@@@@@@@@@@@@@@@@@@@@@@@@@@@@@@@@@@@@@@@@@@@@@@@@@@@@@@@@@@@@@@@@@@@@@@@@@@@@@@@@@@@@@@@@@@@@@@@@@@@@@@@@@@@@@@@@@@#@@@@@@@@@@@@@@@@@@@@@@@@@@@@@@@@@@@@&@@@@@@@&@@&&@@@@&&&&&@@@@@@@@@@@@@@@@@&&@@@@@@&&@@@@@@&&&@@@&&&&&&@@@&&&@@@@@@@@@@@&&&@@@&@@&&@@@@&@@@@@@@@@@@@@@@@@@@@@@@@@@@@@@@@@@@@@@@@@@@@@@@@+++@@++@+++++++++@@@@@@+@+++++X.........                                               .....                                 ooXOOOOOOOXoo                                                                ooooooo   ooooo      oooXXXOOO@@@@@@OOOXXOOXXXXXXXXXXXXO@@@@@@OOOOO@@@@@@@@@@@OXXXXXXXXXXXOOO+XOOO++++@&&&&&&&&&&&&&&======*&&@@@@@@$$$*****$$$$$$$$$@@@@$$$$$***===-;;;;;;;;;;;==*====***$$@@@@@OOOOOOXXXXXXXXXoooooooo    o                                        ",
"oXXXXO@@@@@@@@**********$$$#@@@@@@+XXXX.X..XXXXXX++@@@@@@@@@@@@@@@@@@@+X+OOOOOOO@@@@@@@@@@@@@@@@@@@@@@@@OOOXOXXOXOOOOOOOOOOOOO@@@@@@@$**********@@@@@OOOOOOOO@@@@$$@@@@@OOXXXXXXXXXXXXOOO@@@@@@@@@@OXXXXooooooooooXXXOOO@@$**$@@@@@@@@@@@@@@@$$$@$**$$****@@@OOOOOOOOXXXXXXXXooooooooooo                                                             .ooXXXoXXXXOOOOOXX.o    ooX.o                                           .   . ...........XXXXXXXX++++OOO++++OO@@@@@@@@@@@@@@@@@@@@@@@@@@@@@@@@@@@@@@@@@@@@@@@@@@@@@@@@@@@@@@@@@@@@@@@@@@@@@@@@@@@@@@@@@@@@@@@@@@@@@@@@@@@@@@@@@@@@@@@@@@@@@@@@@@@@@@@@@@@@@@@@@@@@@@@@@@@@@@@@@@@@@@@@@@@@@@@@@@@@@@@@@@@@@@@@@@@@@@@@@@@@@@@@@@@@@@@@@@@@@@@@@@@@@@@@##@@@@@#@@@@@@@@@@@@@@@@@@@@@@@@@@@@@@@@@@@@@@@@@@@@@@@@@@@@@@@@@@@@@@@@@@@@@@@@@@@@@@@@@@@@@@@@@@@@@@@@@@@@@@@@@@@@@@@@@@@@@@@@+@@@@+@@++++@@@++++++++++++++++++...............                                             ...                                   ooXO@OOOOOXo                                                                  oooo  ooooooo    ooooXXXXOO@@@@@@@O+XXO+OXXXXX...XXXOO@@@@@@OOOOOO@@@@@@@@@@@OXXXXXXXXXXXXXO@@XXX++@@@&&&::&&&&&&&======*$$@@@@@@@@@@@***$$$$$$$$$$$@@@$$$$$$***===-;;;;;;;;;;;==*====***$$@@@@@OOOOOOXXXXXXXXXXXoooooooo                                           ",
"ooXXXXOO@@@@@@$**********$$###@@@@+++XX.XX....XXXXX+O@@@@@@@@@@@@@@@@@@OO+OOOOOO@@@@@@@@@@@@@@@@@@@@@@@@@@OOOXOXXOOOOOOOOOOOOOO@@@@@@$**********@@@@@@OOOOOOO@@@@@$@@@@@OXXXooXXXXXXXXOOO@@@@@@@@@@OXXXXXXXXXXXoooXXXXOO@@$***@@@@@@@@@@@@@@@@@@$$$$$$$***$@@@OOOOOOOOXXXXXXXXXooooooooo                                                             oooXXXXXXXXOOOOOXXoo    ooXXo                                                ............XXXXXXXXX+++OO++++O@OO@@@@@@@@@@@@@@@@@@@@@@@@@@@@@@@@@@@@@@@@@@@@@@@@@@@@@@@@@@@@@@@@@@@@@@@@@@@@@@@@@@@@@@@@@@@@@@@@@@@@@@@@@@@@@@@@@@@@@@@@@@@@@@@@@@@@@@@@@@@@@@@@@@@@@@@@@@@@@@@@@@@@@@@@@@@@@@@@@@@@@@@@@@@@@@@@@@@@@@@@@@@@@@@@@@@@@@@@@@@@@@@@@@@@@@@@@@@@@@@@@@@@@@@@@@@@@@@@@@@@@@@@@@@@@@@@@@@@@@@@@@@@@@@@@@@@@@@@@@@@@@@@@@@@@@@+@@@@++@+@@@@@@@@@@++@+++@@@@@@@@+@++@@@+++++@++++++++++++++++++++++++++++++++++................                                             ...                                   oXOO@OOOOOXo                                                                  ooo   ooooo      oooXXXOOO@@@@@@@OOXOOO+OXXXXX.XXXXX@@@@@@OOOOOOO@@@@@@@@@@@@OXXXXXXXXXXXXOO@+++++@@@@&&:::&&&&*=::====*$$@@@@@@@@@@@@@@$$$$$$$$$$$$@@@@$$$$$***===-;;;;;;;;;;;==*====***$$@@@@@OOOOOOXXXXXXXXXXXXoo.oooo.                                          ",
"  oooXXXXOO@@@@@$************$$##@@@@+++XXX...XXXXXXXOO@@@@@@@@@@@@@@@@@@@@@@@@@O@@@@@@@@@@@@@@@@@@@@@@@@@@OOOOOXOOOOOOOOOOOOO@@@@@@@@**********@@@@@OOOOOOOO@@@$$$@@@@@OXXXooXXXXXXXXOOO@@@@@@@@@@OXXXXXoXXXXXXoooXXXOOO@@*****@@@@@@@@$@@@@@@@@@@@$$*****$@@@OOOOOOOOXXXXXXXXXoooooooo                                                          . .ooXXXXXXXXXOOOOOXXXo    ooXXo                                           .   .  .............XXXXXXXXX+XX+++++OOOO++++O+@@@@@@++@@@@@@@@@@@@@@@@@@@@@@@@@@@@@@@@@@@@@@@@@@@@@@@@@@@@@@@@@@@@@@@@@@@@@@@@@@@@@@@@@@@@@@@@@@@@@@@@@@@@@@@@@@@@@@@@@@@@@@@@@@@@@@@@@@@@@@@@@@@@@@@@@@@@@@@@@@@@@@@@@@@@@@@@@@@@@@@@@@@@@@@@@@@@@@@@@@@@@@@@@@@@@@@@@@@@@@@@@@@@@@@@@@@@@@@@@@@@@@@@@@@@@@@@@@@@@@@@@@@@@@@@@@@@@@@@++@@++@@@@@@@@++@@@@@@++++@@++++++++++OO++++++++++++++++++++++++++++++++++++++++++++++++++++++++XXXXXX..............                                                ..                                    oXOOOOOOOOXo                                                                       oooooo     ooooXXXOO@@@@@@@OXXXO@@+XXXXXXXXXXXO@@@@@OOOOOO@@@@@@@@OOOO@@OXXXXXXXXXOXXOO@@@++@@@@#&:::&&$*========*$@@@@@@@@@@@@@@@@@@$$$$$$$$$$$@@@$$$$$***===-;;;;;;;;;;;====*==***$$@@@@@OOOOOOXXXXXXXXXXXXXo..oooo                                          ",
"   oooXXXXOO@@@@@$$*$***********##@@@@++XXXX..XXXXXXXXOO@@@@@@@@@@@@@@@@@@@@@@@@OO@@@@@@@@@@@@@@@@@@@@@@@@@@OOOOOOOOOOOOOOOOOO@@@@@@@@**********@@@@@OOOOOOOO@@@$$$$@@@@OXXXXXXXXXXXXOOOO@@@@@@@@@@OXXXXooXXXXXXoooXXXOO@@@$******@@@@@@@$$@@@@@@@@@@@$******@@@@@OOOOOXXXXXXXXXXooooooo                                                          ...oXXXXXXXXXXOOOOOXXXo    ooXXo                                               .    ..............XXXXXXXXX++++++OO++++++OOOOOOO+++O@@OO++++@@@@@@@@++@@@@+@@@@+@@@@@@@@@@@@@@++@@@@@@++@@@@@@@@@@@@@@@@@@@@@@@@@@@@@@@@@@@@@@@@@@@@@@@+@@@@@@@@@@@@@@@@@@@@@@+@@@@@@@@@@@@@@@@@@@@@@@@@@@@@@@@@@@@@@@@@@@@@@@@@@@++++@@@@@@@@@@++++@@@@+++@@@+@@@@@@@@@@@@@@@@@@@++@@@@@@@@++@@++++@@@+++@@@@++++@@@@++++++++@@@@++++++++@@@@++++++++++++++OO+++++++++++++++++++++++++++++++++++++++++++++++X++++++++++++XXXX+++XXXXXXXX........   ..                                                .                                     oXOO@OOOOOXo                                                                      oooooo      ooXXXXOOO@@@@@@OXXOO@+OXXXXXXXXXXX@@@@@@@OOOO@@@@@@@@@@OOOOO@OXXXXXOOXOOXOO@@@@+@@@@&&*&&&&*====:===**$@@@@@@@@@@@@@@@@@@$$$$$$$$$$$@@@@$$$$$***===-;;;;;;;;;;;====*==***$$@@@@@OOOOOOXXXXXXXXXXXXooo.oooo                                          ",
"      ooooXXXO@@@@@@@$************$$#@@@OOXXXXXXXX.XXXXXOO@@@@@@@@@$@@@@@@@@@@@@OOO@@@@@@@@@@@@@@@@@@@@@@@@@OOOOOO+OOOOOOOOOOO@@@@@@@@*********$@@@@@OOOOOOOO@@@$$$$@@@@OXXXXXXXXXXXXXOOO@@@@@@@@@OOXXoXoXXXXXXXXXXXXXXXO@@$******$@@@@@@$$$$@@@@@@@@@$******@@@@@OOOOOXXXXXXXXXXooooooo                                                         ...ooXXOOXXXXXXOOOOOXXXo.  .ooXXoo                                                    ...........XXXX.XXXXXXXXXX+++++++++OOO+OOO++++++O++++OOOO+OOO++++OO@@@@+@@@@@++++@O@O+@@@++++@++++++++@@+++OO@@++OO@@++++++@@@@@@++@@@@++++++@@@+++++@@@@@@@@++++@@@@@@@@@@@@++++@@@@@@@@++++@@@+++++@@@@++@@@@++@@@@++++@@@@@@OO++@@@@@+@+++@@@@++++@@@@@@@@++++@@@+@+@@@@@@+++++@@@@@+@++++OOOO++++OOO++++++O++OOOO++++++++O+++++++++@@+++++++++++++++++++++++++++XXXX++++++++++++++++++++++++++++++XXX++XXX+++++++XXXX.......................                                .             ....               ....                 ooXO@@OOOOOXoo                                                                     oooooo   o  ooXXOOOO@@@@@OOXXX+OOOXX.X..XXXXXO@@$@@@O+++@@@@@@@@@@OOOXO@@OXXXXOOOOXXX+@@@@@@@@&&&&&&&&*===;====*$@@@@@@@@@@@@@@@$$$$****$$$$$$$$@@@$$$$$$***===-;;;;;;;;;;;====*==***$$$@@@@OOOOOOOXXXXXXXXXXXoo.ooooo                                          ",
"      oooXXXXOO@@@@@@$$$***********$##@@@@@O++XXXX...XXXXX+@@@@@@@$$$$$$@@@@@@@@@@@@@@@@@@@@@@@@@@@@@@@@@@@@@OOOOOOOOOOOOOOOOOO@@@@@@$*********$@@@@@@OOOOOOO@@@$$@@@@@@OXXXXXXXXXXXXXOOO@@@@@$@@@OOXXXXXXXXXXXXXXXXXXOOO@@@@*******@@@@@@$$$$@@@@@@@@$*******@@@@@OOOOOOXXXXXXXXooooooo                                                         ...ooXXOOXXXXXXOOOOOXXXo....oXXXoo                                                    .............XX..XXXXXXXXXX++X+++X+OO++++O++++O++++++OOOOOOOO++++OOOOOOOO+OOO++++OOOOOOOO++OO+O++++O+OOOO++OOOO++OOOO++++++OOOOO@++OOOO++++++OO++++++++OO+OOO++++OOOO+OOO+OOO++++OOOO+OOO++++OO++++++++++++@+OO+++@@@++++OOOO+OOO++OOOO++++++O+++++++@@++++++++++++++++++O+++++++OOOO+++O++++OOOO++++++++++++OOOOOOOO+++++++++++++++++++++++++++++++++++X++++++X+++XXXXXX++++++XXXX++++++++++++++XX++++XX+++++X+X+++.XXXX................... .                                 ..            ....                .....                ooXO@@OOOOOXoo                                                                   ooooooo  ooooooXXOOO@@@@@@OOOOOOOOXXXXXXooXXXXX@@@@@@@++@@@@@@@@@@OOOXXXO@@OOXXXXOOOOO++@@@@@@@&&&&&&&*===;;;==**$@@@@@@@@@@@@@$$$********$$$$$$$$@@@$$$$$****===-;;;;;;;;;;;====*==***$$$@@@@OOOOOOOXXXXXXXXXXooooooooo                                          ",
"          ooXXXXOO@@@@@@$************$$$@@@@++XXXXXo.XXXXXXO+@@@@@@@@$$$$$@@@@@@@@@@@@@@@@@@@@@@@@@@@@@@@@@@@OOOO+OOOOOOOOOOOO@@@@@@@$*********$@@@@@@OOOOOOO@@@@@@@@@@@OOXXXXXXXXXXXXOOO@@@@@$@@@OOXXXXXXXXXXXXXXOOOOOOO@@@@@*******@@@@@@$$$$@@@@@@@$$********@@@@OOOOOOXXXXXXXXoooooo                                                           ..XXXOOOXXXXXOOOOOXXXo....oXXXXo                                                    ... .............XXXXXXXXXXXXXX++XXXX++++++++++OXOO++OOOO++OOO+++++++++OO++OOOO++XO++++OOOO+O++OOOO+OOOOO+++OOOX+++OOO+++++++OOOO++++OOO+O+++OOOOOO++OO++++OOOO+++O++++OO++OOOO+++O++++OOO+++OOOOOO++++OO++++OOO+++OOOO++++++++OO++++O+++++++OOOO+++++OOO+++++++++++@++++++OO++++++++++++++++OO++++++X+XX++++++++++++++++++++XX+++++++++++++++++++++++++++XXXXXXX++++XX+X++++XXXXXXXX+X++XX++++++XX+X+++++XX.............................                                     ...             ..                 .....               ooXXO@@OO@@OXoo                                                                  ooooooo    ooooXXOOO@@@@@@OXXXXOOXXXX...o.oXXXXO@@@@@O+++@@@@@@@@@@OOXXXXO@@@OXXXOOOOOO+@@@@@@@##&&&&$*==;;;===*$$$@@@@@@@@@@@$$****======**$$$$$$$@@@$$$$$***====-;;;;;;;;;;;=======****$$@@@@OOOOOOOXXXXXXXXXXooooooooooo                                        ",
"          oooXXXXOO@@@@@$$*************###@@@+++XXX.oXXXXXXX++@@@@@@@@$$$$$$@@@@@@@@@@@@@@@@@@@@@@@@@@@@@@@@OOOOOOOOOOOOOOOOOO@@@@@@@$*********$@@@@@@OOOOOOO@@@@@@@@@@@OOXXXXXXXXXXXXOOO@@@@$$@@@@OXXXXXXXXXXXXXOOOOOOOOOO@@@@$******$@@@@@@@@@@@@@@@$$$*******@@@@@OOOOOOXXXXXXXoXoooo                                                       .   ooXXX@@OXXXXXOOOOOXXXo...ooXXXXo              .                                     . .  ............XXXXXXXXXXXXXXXXXXXX+++X++XXXXXXOXXXXXX+++OOO++O++++++OO++OOOX+++++++XOOOXXX+OOOOOXX+++O++++OOX+++OOO++++++++O++++++OO++O+++OOOOO+++++++++OOO+++++++++OO++OOO+++++++++OOO+++OOOOO++++++O++++OO++++OOO+++++++++OO++++O++++++++OOO++++O+O+++@@@++++@@@@+++++++++++++++++++++++++++++++XXX+++++++++++++++++++++XX++++++XXXX++++X+XXXX++++++X++++XXX++++++++X++XXXXXXXXXXX++XXXXXXXXXXX.X+++X...............................                                     .              ..                     ...              ooXXO@@OO@@OXoo                                                                  oooooooo   oooXXXOOO@@@@@OOXXOOOOXXXX.....oXXXXO@@@@OO+++@@@@@@@@@OOXXXXXO@@@OXXXOOOOO@@@@@@@@####&&*==;;;=;==*$$@@@@@@@@@@$$******========**$$*$$@$@@@$$$$***====-;;;;;;;;;;;=======****$$@@@@OOOOOOOXXXXXXXXXoooooooooooo                                        ",
"              ooXXXXOO@@@@@#************$$$&@@@@++XXXX..X.XXXXXXO@@@@@@@$$$$$$$$@@@@@@@@@@@@@@@@@@@@@@@@@@@@OOOOXOXOXOOOOOOOOOOO@@@@@***********@@@@@@@@OOOOOOO@@@@@@@@OOXXXXXXXXXXXXXOO@@@@@@@@@@@OXXoXXXXXXXXOOOOOOOOO@OOO@@@@@@******@@@@@@@@@@@@@@$$$$$$$$****@@@@OOOOXXXXXXXXXXooooo                                                     .   o.XXXX@@OXXXXXO@@OOXXXoo.oooXXXXXo                                                   .   .................XXXXXXXXXXXXXXXXXXX+XXXX++++XXXXXX++++++XXX++X+++++X+++X+X+++++++XX+OO++++++++++++XX+OOO++++++OOO++++++OOO+++OOO++++OO++++++++++++O+++++OOOO+++++++O++++OOOO+++++++OOO++++++XOO+++OOOOOO+XXX++OO++++OOO+++OO++++XXXX+O++++++XXXXX++++@######@@@@@@@@+++++++XXXXX+++X++++++++XXXXX+++++++XX++++XXXXX+XX+X++++++++XX++XX++++++++++++++++X+++++++++++++XXXXXXXXXX..XXXX..+++++++++++.++..............................    .                                                                   ..  ...            .  ooXXO@@@O@@OXoo                                                                 oooo       oooXOOOOO@@@@OOXXOO+++XX......XXXXXXXXO++++++@@@@&&@@@@OOXXXXXOOO@@OOXXOO++@@@@@@@&$$*$$**==;;;;===**@@@@@@@@$$$$$**=============****$$$@$@$$$$$$$$**===-;;;;;;;;;;;==*==*=***$$@@@@@OOOOOOOOXXXXXXXXoooooooo.                                           ",
"               oooXXXXOO@@@@@*************$#&&@@@@++XX....XXXXXXOO@@@@@@$$$$&$$$$@@@@@@@@@@@@@OO@@@@@@@@@@@OOOOOXXXOX+OOOOOOOOOO@@@@@**********$@@@@@@@@OOOOXOOO@@@@@@@OOOXXXXXXXXXXXXOOO@@@@@@@@@@OXXoXXXXXXXXOOOOOOOOOOOOOO@@@@@$*****$$@@@@@@@@@@@@@$$$$$@@$***$@@@O@OOOOXXXXXXXXXoooo                                                     ..  o.XXXX@@OXXXXXO@OOOOXX.o..ooXXXXXo                                                  ..   .................XXXXXXXX.XXXXXXXXXXXXXXX+++++XXXXX++++++XXX++X++++XX++XXX+++++XX++X++X++XXXX++++X+XX++XO++++++XO++++++XXXX++OOOO+++XOO++++++++++OOOO++++XXXO++++++XX++++XXXO++++++XXOO+X++O+XXX+++OOXOOO+XXXXXOO++++XXXX++XX++++XXXXXXXX++++XXXX+++++@@++++++@+@@@++++++++++XXXX++XXXXXX++++X+XX++++++++X+++++XXXX++++++++++++++X+++XX++++++++++X+XXXXXX+++++XXX++++XXX.......XX.......++.++......................................    .                                                                 ...              ...   .ooXXO@@@O@@OXoo                                                               ooooo       oooXXOOOO@@@@@OOXOOOO+XXX....X.XXXXXXXXO++++++@@@&&&@@@@OOOOXXOO@@@@@OX+++++@@@@@$&&#$$$*==;;;;;==***@@@@@@@@@$$$**==============*****$$$@$$$$$$$$$$**===-;;;;;;;;;;;==*=**=***$$@@@@@OOOOOOOOXXXXXXXXXXoo.ooo..  oo                                      ",
"                 oooXXXXOO@@@@@#$$***********$$$#@@@++++XXXXXXXXXX++@@@@@@@@$&$$$$$$@@@@@@@@@@@OO@@@@@@@@@@OOOOOXOOXOOOOOOOOOOO@@@@@@**********$@@@@@@@@OOXXXXOOOOO@@OOOOOXXXXXXXXXXXXOOO@@@@@@@@@@OXXXXXXXXXXXXOOOOOOOOOOOOO@@@@@@$******$$@$$$@@@@@@@@$$**$@@@$***@@@@OOOOOXXXXXXXXoooo                                                    .....o.XXXX@@@OXXXXOOOOOOXX.oo.ooXXXXXo                                            .    ... ......................XXXXX...X..XXXX++XXXXXX++XX++X+++XXXXXXXXXXXXXX++XXXXXXXXXXXXXXXXXXXXXXXXX+XXXXXX++XXXXXXXXXXXX+X++++XXX+++XX++XXXXXXXXXX++XXXXXXXXXXXX++XX++++++XXXXXX++XX++++++XXXXXXXXXXXXXXXXXX++++XX+XXXXX++XXXX++++XX++XXXXXXXXXX+++X+++++++++++++++++++++++X++++++++XX++++XXXXXX++++++++++++XXXX+++++X++++++++XX++++++XX++XXXXXXXX++X+XXXX..XX.X...X.....................................................................                                                                    .....            .... . .ooXXO@@@@@@OXoo                                                              ooooo       oooXXOOOO@@@@OOOXOXOOXXXXX...X.XXXXXXXXXXOO+X++@@@&*$@@OOOOOOXXOO@@@@@++++@@@@@@@##&&#$&*==;;;;===***@@@@@@@@$$$$**======**========*****$$$@@$$$$$$$$**====;;;;;;;;;;;==*==*=***$$@@@@@OOOOOOXXXXXXXXXXXXoooooooo  oo                                      ",
"                  ooooXXOO@@@@@@$$$************$##@@@@++XXXX..XXXXXOOO@@@@@@@$$$$$$$$$$@@@@@@@OOOO@@@@@@@@OOOOOOXOOOOOOOOOOOOOO@@@@@@**********$@@@@@@OOOOXXXXOOOOOOO@O@@OOXXXXXXXXXXXOOO@@@@@@@@@@OXXXXXXXXXXXXXXOOOOOOOOO@@OOO@@@@@******$$$***$@@@@@@@@$**$@@@@***$@@OOOOOOXXXXXXXXXoo                                                    .....o.XXXO@@@OXXXXOOOOOOXXoo..ooXXXXXo                 .                          ..   ...  .....................XXXXX......XXXXXXXXXXXXXXX+++++X+XXXX++++XXXX++++XXXXXXX+XXXX++++X+++XXXXXXXXXXXXXXXXXXXXXXXXXXXX++++XXXX++XXXXXXXXXXXXXX+XXXXXXXXXXXXXX+XXXXXXX+XXXXXXX+XXXXXXX+XXXXXXXXXXXXXXXXXX++++XXXXXXXXX+XXX+++++XX++++X+XXXXXXXX+++++++++++++++++++++++XXX++++++++++++++XXXXXXX+XX++++++++XXXX++++++++++++++XXX+++XXXX++XXXXXXXX+XXXXXXX........................................................................  .....                                                                   ......       . ......o...ooXXXO@@@@@@OXoo                                                             ooooo        oooXOOOO@@@@OOOXXO+XXXX.......XX.XXXXXXXXOOO+++@@@&*$@@OOXXXXXXOO@@@@@+++@@@@@@@#&&&&$**=;;;;;==**$@@@@@@@@@@$***=======****=======*****$$$@$$$$$$$$$**===-;;;;;;;;;;;==*=**=***$$@@@@@@OOOOOXXXXXXXXXXXXooooooo   oo                                      ",
"                    ooooXXXXOO@@@@@#**************$$@@@@OXXXXXXX.XXXXX+@@@@@@@$$$$$$$$$$&@@@@@@@@OOO@@@@OOOOOOOOXXOOOOOOOOOOOO@@@@@@@@*********$@@@@@OOOOOXXXXXOOOOOO@@@@@OOXXXXXXXXXXOO@@@@@@@@@@@@XXXXXXXXXXXXXXXOOOOOOOOOOOOOO@@@@@******$$$$**$@@@@@@@@@$*$@@@@$***@@OOOOOXXXXXXXXXXo                                                      .o.o.XXXO@@@OXXXOOO@OOOXXoo..ooXXXXXo                 ...                                   .....................................XXXXXXXXXXXXXXXXXXXXXXXXXXXXXXXXXXXXXXXXXXXXXXXXXXXXXXXXXXXXXXXXXXXXXXXXXXXXXXXXXXXX++++++XXXXXXXXXXXXXXXXXXXXXXXXXXXX++XX++XXXXXXXXXX++XX++XXXXXXXXXXXX+++XXXXXX++++++XXX++XXXX++++XX++XXXX++++X+++XXX+++++X+++++X+++++++XX++++XX++++XX++++++++++++XXXX+++++++++XXX+++++++++XXX++++++++.XXX++++++++..++XX..............................................................................    ...                                                                 .........      ..X+++XXX.ooooXXXO@@@@@@OXoo o                                                           ooo         ooXXOOOO@@@@OOXXOOOOXXXo....XX..XXXXXXXXX+OO@@+++&&&$$@@@@OXXXXOOO@@@@@+@@@@@@@@&&&&&$**=;;;;===**$$@@@@@@$$$$$**======****$**=====*****$$$$@@$$$$$$$***===-;;;;;;;;;;-==*=**=***$$@@@@@@OOOOOOXXXXXXXXXXXoooooooo..                                        ",
"                      ooXXXXXOO@@@@@@$$*************##@@@@++XXXXXXXXXXOO@@@@@@$$$$$$$$$$$$$$@@@@@@@@OOO@OOOOOOOOOOOOOOOOOOOOOO@@@@@@@@*********$@@@@OOOOOXXXXXXOOOOOO@@@@@@OXXXXXXXXXXO+@@@@@@@@@@@@XXXXXXXXXXXXXXXXOOOOOOOOOOO@@@@@@@@******$@@***$@@@@@@@@@$*$@@@@@**$@@OOOOXXXXXXXXXXo                                                     ..o.o.XXXO@@@OXXXOO@@@OOOXo..o.XXXOXXo.                 ..                                  ................................XX....X...XXXX..XXXXX+XXXXXX++XX++XXXXXXXXXX++XXXXXX+++XXXXXXX..XXXXXXXXXXXXXXXXXXXXXXXXXXXXX+++XXXXXXXXXXXXXXXXXXXXXXXXXXXX++XX++XXXXXXXXXX++XX++XXXXXXXXXX+X++++XXXXX+++++XXXXX+XXXX++++X+++XXXX++++XXXXXXXX+X+.X+++++++++++++X+++X.XX++++XX++XXXXXXXXX+XXXXXX++XX....XXXX++......XX..++..++.X....++.+....+...............................................++++++++..........................    ..                                                                  .....  .      ...++++XXX...ooXXXO@@@@@@@Xoo o                                                                      ooXXXOO@@@@@OOXXOOOOXXXo....XXXXXXXXXXXXXX+O+@@@++@&&&$@@@@OOXOOOO@@@@@@@@@@@@@@&&&&$$*==;;;;===**$@@@@@@$$$$$**======***$$$$**=====*****$$$@@@$$$$$$$**====-;;;;;;;;;;-==*=**=***$$@@@@@@OOOOOOXXXXXXXXXXooXoooooo..                                        ",
"                        ooooXXXXO@@@@@@$**************$$@@@@++XXXXXXXXXX+++@@@@@@$$$$***$$$$$$@@@@@@@OO@@OOOOOOOOOOOOOOOOOOOOO@@@@@@$**********@@@@@OOOOXXXXXXXOOOOOOO@@@@@@OXXXXXXXXOOO@@@@@@$$@@@@XXXXXXXXXXXXXXXXXXXOOOOO@O@@@O@@@@@@$*****$$$$**$@@@@@@@@@$$$@@@@@$**@@OOOOXXXXXXXXXoo                                                    ..o...XXXO@@@OOXOOO@@@OOOXX...XXXXOXXo.                 ..                            ....  ......................X....XXXXXXXXXXXXX..++XX..XXX+++XX+XX..+X+++XXXX++++XXX+X+++XXXX++...XXX..XXXX..++XXXX++XXXX++++XXXX..XXXXXXXX+XXXXX++++XX+XXXXXX+++XXXXXXX+XXXXX+++XXXXXXX+XXXX++XXXX++.X..XXXX++++++XXXX++++XXX+XXXX++++XXX+X+XXX..+..XXXXXX+++++++++++XX+++..XXX....X+..X.....................XXX..........XX....................++...............................................+++++++++............................  ..                                                                  .....         ...++++XXX.oooXXXX@@@@O@@OXoooo                                                                      ooXOO@@@@@@OOXOO+OOXXXX....XXXXXXXXXXXXXX+++@@@&@&&&&&&@@@@OOOOOOO@@@@@@@@@@@@&##&&***==;;;;===*$@@$@$$@@$$$$**======***$$$$$**=====*****$$$$@@@$$$$$$**====-;;;;;;;;;;-===*******$$@@@@@@OOOOOOOXXXXXXXXoooooooo  ..                                        ",
"                         ooooXXXOOO@@@@@$$*************$##@@@@++XXXXXXXXXX+++@@@@@$$$$$$$$$$$$&$@@@@@@@@@@@OOOOOOOOOOOOOOOOOOO@@@@@@@**********@@@@OOOOOXXXXXXOOOOOOOO@@@@@@OOXXXXXXXOOO@@@@@@$$@@@@XXXXXXXXXXXoXXXXXXXXXOO@@OOOOOO@@@@@@$*****$@$$*$$@@@@@@@@@$*$@@@@@#**#@OOOXXXXXXXXXoo                                                    ..o.o.XXXO@@@OOXOOO@@@OOOXXX.oXXXXOXXo.                                      .....  ....................................XXXXXX.XXX+X...+++.XXX++++XX+XX.X+X+++XXXX++++XXXX++++XXXX+++..XX+.++XXX+++XXX+++++XXX++++XXX+++XXXXXX+++XXX+++++++++XXX++X+++XXX+XX+++XXXX+++XXX+XX+++XXX++XXXX++.....XXX+++++XXX.XXXX++XXXXXXXXX.......XXX..++++XX...X+++++++++X+XXX++..XXX....X+XXX.+........+.....XX..........XX....XX......++...........+++..++++++......++++.............................++++++++............................   .                                                                   .....        .....X++XXX.ooooXXX@@@@@@@OXXoo                                                                       oXXOO@@@@OOOOOO++XXXXXX....XXXXXXXXXXXXXX+++@@&&&&&&&&&@@@@@OOOOO@@@#@@@@@@@@&&&#&**==;;;;;==**$$@@$@$$$$$$**=======**$$$$$$$**=====******$$$@@$$$$$$$$*====-;;;;;;;;;;-====******$$@@@@@@OOOOOOOXXXXXXXXoooooooooo.                                         ",
"                                XXXOO@@@@@$**************$$&@@@@++++XXXXXXXXOO@@@@@@$$$$$$****$$$$$@@@@@@@@@OOOOOOOOOOOOOOOOOO@@@@@@@@********$@@@OOOOOXXXXXXXXXOOOOOO@@@@@@@@OXXXXXOOOO@@@@@$$$@@@@XXXXXXXXXXXXXXXXXXXXXOOOOOOOOOOOO@@@@@@$*****$@$$$$@@@@+OO@@$**@@@@@@**#@OOOXXXXXXXXXo                                               .   .......XXXO@@@OOXOOO@@@OOOXXoXoooXXOOXX.                                             ......... ......................................XXXX..+++++XX.X+++XXXXXXXX+++XXXXXXXXX++++XXXX++++++++++XX++++++++++++++++++++++++++++++X+++++++++++X+X+++++++++XX+++X+XXX++++++XX+++X+XXX++++++XXX+++++++XX++++++++++.XXX++++++++++XXX+++++++++X..+XX+X++++++++.++++++XXX++++XXXX+++++...+++++...+++...+++++++++...+++++++++X++..++++++X++++++++++++++++++++++++++++++++++........................................................ ..                                                                      .....          ..X..X++XXXXXoooXXX@@@O@@@@Xoooo                                                                    .oXOOO@@@@OOOOXOOOXXXXXXX..XXXXXXXXXXXXXXOO++++&&&&&&&&$$@@@@@@@@@@@@$$$@@@@@@@$$$***==;;;===**$@@@$@@$$$$$$**=======**$$$@@@$$**=====******$$$@@@$$$$$***====-;;;;;;;;;;-===*******$$@@@@@OOOOOOOOXXXXXXXXXooXoooooo..o.                                      ",
"                                XXXXOO@@@@@@***************#&&&@@@++XXXXXXXXXOO@@@@@@$$$$$****$$$*$$@@@@@@@@OOOOOOOOO@@OOOOOOO@@@@@@@@********$@@@OOOOOOXXXXXXXXXXOOOO@@@@@@@@OOXXXXOOOO@@@@@@$$@@@@XXXXXXXXXXXXXXXXXXXXXXOOOOOOOOOOOOO@@@@@$*****$$$$@@@@@+OOO@@@$$@@@@@@**#@@OOOXXXXXXXo                                              ..   .....o.XXXO@@@OOXOOO@@@O@OXXXo..XXXOOXX..                                              .... ..  ..................................X................XXXXXXXX+..XXXXXXXXXXXXXX...XX.XXX..XXXXXXXXX+XXXXXXXXXXX+XXXX++XXX.XX++XXXXX+XXXXX...XX++X+++++XXXX+++X+X+X...XXXXX+++X+X+X...X..XXX+XX++++X+XX++X+XX..X.XXX+++..++++XXXX..XX++XXXXX+XXXX++++++++.++++++.X.++XX+XX....++.X.X++++++++++++X+++++++++++X++++++++++++X.++++++++++++++++++++++++++++++++++++++++....................................................... . ...                                                                     .....         ..XX...X+XXXXXoooXXX@@@O@@@@Xoooo                                                                   .oXXOOO@@@OOOXO@O+XXX...XXXX.XXXXXXXXXXXXXXO++++&&&&&&&&&$$@@@@@@@@@@@$$$$@@@&$$*$**==;;;;===**$@@@@@$@$$$$***======**$$$$@@@@$$**=====******$$$$@@$$$$$***====-;;;;;;;;;;-=====*****$@@@@@@OOOOOOOOXXXXXXXXXXoooooooo..o .                                     ",
"                                ooooXXXO@@@@@#***************$##&@@@@++OXXXXXXXO+@@@@@@@$$$*********$$@@@@@@@OOOOOOOOO@@OOOO@@@@@@@@@@*********@@@@@OOOOOXXXXXXXXXXOOOO@@@@@@OOOXXXXOOOO@@@@@@$$@@@@XXXXXXXXXXXXXXXXXXXXXXXXOOXXXOOOOOOOO@@@@@*****$$$$$@@@OXOXOO@@#$$@@@@$**$@@OOOXXXXXXo                                                  ......o.XXOO@@@OOOOOO@@@O@OOXXXXoXXXOOXX.                                                   .... .....................................X...............X.........XX........X.....XX......XXXX......X.XXXX....X.XXXXXXXX..XXXX...X....XXXX..XXXX..X.XX++.XXXXX++XX..XX++.XXXXX++XX..XX......X...XXXXXXXX..XXXX...X........XXX.....XXXX....X...............+++.....XXXX........X...........++++........++++........++++....++++........++++......+.++++.+..++++......................................................... ..                                                                        ........     ..........++XXXXXXXXXXO@@@@@@@@XXoo                                                                    .XXOOO@@OOOOXOO+OXXX....XX...XXXXXXXXXXXXXOO@@++&&&&&&&&**$@@@@@@@@@@###$&&@&&$$***==;;;;===*$$$@@@$$$$$$$**======***$$$@@@@@@@$**=====******$$$$@$$$$$$***====-;;;;;;;;;;-===**=****$$@@@@@@OOOOOOXXXXXXXXXXXoooooooo..                                        ",
"                                oooooXXXO@@@@@@*$***************&&&@@@@O++XXXXXXOOOO@@@@$$$$*********$$$@@@@@OOOOOOOOO@@@OO@@@@@@@@@@**********@@@@@@OOOOXXXXXXXXXXXOO@@@@@@@@OOXXXXOOOO@@@@@@@$@@@@XXXoXXXXXXXoXXXXXXXXXXXXXXXXXXXXXOOOOO@@@@$******$$$@@@@OOOOOO@@@$$@@@@$***@@OOOOOOXXo                                               .......o.o.XXOO@@@OOOXOO@@@OOOOXXXXXXXXOOXX.                                                   .... ..................................................X..........................XXXX..................................................XXXX..XXX...XXXXXX...X.XXX....XXXX...X.XXX....XX............XXXXX......X...XX........X.............................+++..............................................................................................................................................................                                                                        ........    ....++.....++XXXXooXXXXO@@@@@@@@XXooo   oo                                                            ooXXOOO@@@OOOOOOOOXXX.....XX.XXXXXXXXXXXXXXX@@@@++&&&&&&&&***$@@@@@@@@@#$#$$&#$&&**===;;;;==**$@$$@@@$$$$$***=====***$$$$$@@@@@@@@**======*****$$$$@$$$$$$***====-;;;;;;;;;;-=====*****$$@@@@@@OOOOOOXXXXXXXXXXXXoooooooo.                                        ",
"                                     ooXXXXO@@@@@@$*********=*****&&&@@@+++X+XXXXXXO+@@@@@$$$**********$$$@@@@@OOOOOOOO@@@@@@@@@@@@@@@*********$@@@@@@@OOOXXXXXXXXXXXO@@@@@@@@OOXXXOOOOO@@@@@@@@@@@@XXXXXXXXXXXXXXXXXXXXXXXXXXXXXXXXXXOOOOO@@@@@$******$$@@@@OOOOOO@@@$$@@@@$***@@OOOOOXXo                                           ...      oo..o.XXOO@@@@OOXOO@@@OOOOXXXoXXXXO@OX..                                                    ..............................................................X...........................................................................XXXXXX....XX....XX......XXXX....XX......XXXX..............XX......XXX...XXX.XXX.................................++......................................................................................................................................................... ........                                                                   ..           ..........X++XX.XXXXXXXO@@@@@@@@XXooo   ooo                                                          oooXOO@@@@@OOXXOOOXXX.....X..XXXXXXXXXXXXOOX+@@@@@@&&&&&&&===*$@@@@@@@$$$$#$$$$$**===;;;;;==**$@@$$$$$$$$****======*$$$@@@@@@O@@@@@**======****$$$@$$$$$$$$***=====;;;;;;;;;;======*****$$@@@@@@OOOOOOXXXXXXXXXXXXXoooooooo.                                       ",
"                                      ooXXXXOO@@@@@$*******===*****###@@@@@+++XXOXXX++@@@@@$$$***********$$@@@@OOOOOOOOO@@@@@@@@@@@@@@*********@@@@@@@@@OOXXXXXXXXXXXOO@@@@@@@@OXXXXOO@@@@@@@@@@@@@OXXXoXXXXXXXXXXXXXXXXXXXXXXXXXXXXXXXXOOOOO@@@@***=***$@@@@@@OOOOOO@@$#@@@@@$**#@OOOOOXo                                         .  ..   .  .o..ooXXOO@@@@OOOOO@@@@@OOXXXXXXXXO@OXo.                                                     .....  ..........................................................................................................................................................XXXX............XXXX...X....X.X..X.X..............X....................................++...............................................................................................................................................  ........   ...                                                                       ..        .  ..........X+XXXXXXXXXXXO@@@@@@@@XXoooo  ooo                                                          oXXOO@@@@@OXOOOOOXXXX....XX.XXXXXXXXXXXXXXX++@@@@@@&&&@&&====*$@@@@@@@$$$$$&$$&$*===;;;;;==**$$@@$$$$$$$$**======**$$$$@@@@OOOOO@@@**======****$$$@$$$$$$$$$***===-;;;;;;;;;;=======****$$@@@@@@OOOOOOXXXXXXXXXXXXooooooooo.o                                      ",
"                                       ooooXXXOO@@@@@@*****======*****$$@@@@@++O+XXXX++@@@@@@$$*$*********$$@@@@@@@OOOO@@@@@@@$$***@@@@*$*****$@@@@@@@@@@OXXXXXXXXXXXO@@@@@@@@@OOXXXO@@@@@@@@@@@@@@OXXoooXXXXXXXXXXXXXXXXXXXXXXXXXXXXXXXXXOOOOO@@@$******@@@@@@@@@OOOO@@$$$@@@@$**#@@OOOXo                                         .  ..  .....o....XXOO@#@@OOOOO@@@@@OOXXXXXXXX@@OXo.                                                      .. .   ..........................................................................................................................................XX.......XX..............XX.............X.X............................................................+...............................................................................................................................................    ....          .                                                                    .            ...     ..X++XXX..XXXXXO@@@@@@@@XXooooo                                                             oXXXOOO@@OOOXOOOXXXXX.X.XXXXXXXXXXXXXXX+++++++@@@@@@@@@&&=====*$$@@@@@$$$$$$&&$**==;;;;;==***$$$$$$$$$*****======**$$$@@@@@@OOOOO@@@**=====*****$$$$$$$$$$$$$***===-;;;;;;;;;;====*===***$$@@@@@@OOOOOOOXXXXXXXXXXooooooooo.oooo                                    ",
"                                        oooXXXXOOO@@@@@@$***************$#@@@@++++XXXX+O@@@@@@$$$$*********$$@@@@@@@OOO@@@@@@$*******@**@$**$$@@@@@@@@@@@OOXXXXXXXXXXO@@@@@@@@@@@OXOO@@@@@@@@@@@@@OOXXoooXXXXXXXXXXXXXXXXXXXXXXXXXXXXXXXXXXXXOOO@@@******$@@@@@@@@OOOOO@@$$$@@@@$**#@@OOXo                                       ...   .  ... .o....XXOO@#@@OOOOO@@@@@OOXXXXXXXX@@OX..                                                       .      .... ..........................................................................................................................................................................................................................................X+..............................................................................................................................................    ...            ..                                                                            ..        ....X+OXXX..XXXXXO@@@O@@@@XXooooo                                                             oXXOOOOOOOOOO@OXXXXX.XXXXXXXXXXXXXXXXXX+++++++@@@@@@@&&&:=====*$$@@@@@$$$$$&&$*===;;;;;==*$@*@@@$$$$*****======***$$$@@@@@@OOOOOO@@@**=====*****$$$$@$@$$$$$$***===-;;;;;;;;;;===**===***$$@@@@@@OOOOOOOXXXXXXXXXXooXoooooo.oooo.                                   ",
"                                            ooXXXXOO@@@@@$****************$@@@@@@@@++O+OOO@@@@@@@$$********$$$$$$@@@@@@@@@@@@**********@@@@@@@@@@@@@@@@@@@OXXXXXXXXXXOO@@@@@@@@@@OOOO@@@@@O@@@@@@@OXXXooooXXXXXXXXXXXXXXXXXoooXXXXXXXXXXXXXXXXOO@@@$*****$@@@@@@@@@OOOOO@@#$$@@@@$**#@@@Xo                                   .   ..    .  ....oo....XXXO@@@@OOOOO@@@@@@OXXXXXXXX@@OXoo .                                                . ..    .. . ..............................................................................................................................................................................................................................................++................................................................................................................   ....  ..        ............        .    .                                                                          ..                  .XX++OXX..XXXXXO@@@@@@@@Xooooooo oo                                                      ooXXXOO@@OOOXXOOOXXXXXXoXXXXXXXXXXXXXOX+++++@+@+++@&&&&&&&*======*@@@@&@$$&$$$$**==;;;;;;==*$@@$$$$$$$****=======**$$@@@@@OOOOOOOOOO@@@**=====******$$$@@$$$$$$$**====-;;;;;;;;;;-==*==*****$@@@@@@OOOOOOOOXXXXXXXXooooXooooooo..   ..                                 ",
"                                            ooooXXXOO@@@@@@*********===****$&&@@@@@+++O+OOOO@@@@@@$$*********$$$$$@@@@@@@@@@@$*********@@@@@@@@@@@@@@@@@@@@OOOXXXXXXOOO@@@@@@@@@@OO@@@@@@@@O@@@@@OXXXoooooXXXXXoXXXXXXXXXXXoooooXXXXXXXXXXXXXXXO@@@$*****@@@@@@@@@@@OOOO@@@@$$$@@@@$##@@Xo                                  ..   ..    .......oo..X.XXXO@@@@OOOOO@@@@@OOXXXXXXXX@@@Xoo .                                                   . .  .    ..............................................................................................................................................................................................................................................+X...............................................................................................................    .     ..  ..     ...........          .                                                                               .                 ..+++OXX..XXXXXO@@@@@@@OXXooooooo o                                                       XXXOOOOOOOXOOOXXXXXXXXXXXXXXXXXXXXXXXX+++++@@+++@@@&&&&&&===;===*$@@&&$$&&$$**===;;;;;==**$$@@$$$$$$****=======**$$$@@@@@OOOOOOOOOO@@@**=====******$$$@@$$$$$$$**====-;;;;;;;;;;==**====***$@@@@@@OOOOOOOOXXXXXXXXXoooXooooooo..    ..                                ",
"                                              oooooXXXOO@@@@@$*******=====***$$@@@@@@+++++OO++@@@@@$$$$$*****$$$$$$@@@@@@@@@@@*********@@@@@OOOOOO@@@@@@@@@@@@@OXXXOOOO@@@@@@@@@OO@@@@@@@@OOOO@@OOXXXoooooXXXXXoXXXXXXXXXXooooooooXXXXXXXXXXXXOO@@@$*****@@@@@@@@@@@@OOOOO@@@$$$@@@@##@@Xo                                      ..    ........o.o...XXXO@@@@OOOOO@@@@@OOXXXXXXXXO@@Xoo ..                                                  .. ....   ...  ...................................................................................................................................................................................................................................................................................................................................................  .......  ....  ....  . ........  ....  ..                                                                                                        .X++++XX..XXXXXO@@@@@@@@XXoooooooooo                                                    ooXXOOOOOOXXOOOOXX..XXXX.XXXXXXXXX+X+X++++++++++++@@&@&&&&==;;;;==$$$$&&$$&&$**==;;;;;===*$$$$$@$$$$$$***======**$$$@@OOOOOOOOOOOOOOO@@@**=====******$$$@@$$$$$$$**====-;;;;;;;;;;==**====***$@@@@@@OOOOOOOXXXXXXXXXXXXoXoooooooo                                       ",
"                                                ooooXXXO@@@@@@*******======*****##@@@++++++++++@@@@@@$$$$$$****$$$$$$@@@@@@@@@@*******#@@@OOOOOOOOO@@@@@@@@@@@@@OOOOOOO@@@@@@@@OOOO@@@@@@OOOOOOOOOXXXoooooXXXXooXXXXXXXXXXXooooooXXXXXXXXXXXOOO@@@@$****$@@@O@@@@@@@@@@OOO@@@@$$$@@@@@@@OX.                                      .    .........oooX.XXXO@@@@OOOOO@@@@@OOXXXXXXXXO@@Xoo                                                      ......    ..   ................................................................................................................................................................................................................................................................................................................................................... ........ ....   ..   .........    ..   ..      ..                                                                                        . .    ..X++++XX..XXXXXO@@@@@@@@XXooooooooooo                                                   oXXOOOOOOXXXOOOXXX..XXX.XXXXXXXXXXXXXX++++++++++@@@@&@&&&&==:;;===*$$$$&$$&***==;;;;;==**$$$$$$$$$$$$**======**$$$$$@OOOOOOOOOOOOOOOO@@$**======*****$$$@@$$$$$$$***===-;;;;;;;;;;==**=====**$@@@@@@OOOOOOOXXXXXXXXXXXXXXoooooooo                                       ",
"                                                   oooXXXXOO@@@@$$******=====*****$&&@@@@@@+++O@@@@@@@@@$$$*****$$$$$$@@@@@@@@@$$$***#@@@@OXXXXXXXOO@@@@@@@@&@@@@@@@@@@@@@@@@@OOXXOOO@@@@OOOXXXXOOXXXXoooXXXXXoooXXXXXXXXXXooooXooXXXXXXOOOO@@@@@@******$@@@+O@@@@@@@@@@+O@OO@@@$$@@@@@@OX.                                           ... ......ooX.XXOO@@@@@OOOO@@@@@OOXXXXXXXXO@@X.o                                                        ....................................................................................................................................................................................................................................................................................................................................................................................    ..  ....      ....  ..    .                                                                                       ..     ..X++++XX..XXXXO@@@@@@@@@XXooooooo.  oo                                                 oXXO@OOOOXXXOOXXXXo..X.XXXXXXXXXX++++++&&&@+++&&&@@@&&&&&&:::;;;===*&&&&&$$**===;;;;===**$@@$$$$$$*****======**$$$@@@OOOOOOOOOOOOOOOO@@@$**======****$$$$$@$$$$$$****===-;;;;;;;;;;==**====***$$@@@@@@OOOOOOXXXXXXXXXXXXXooooooo.oo                                      ",
"                                                    ooooXXXOOO@@@@$*********===*****&&@@@@@@@@O@@@@@@@@@@$$$$*****$$$$$$@@@@@@@@@@@@@@@@@OXXXXXXXXOO@@@@@@@@&&@@@@@@@@@@@@@@@OOOXXXOOO@@@@OOOXOXOOOXXXXXXXXXXXooXXXXXXooXXXoooXXXXXXXXOOOO@@@@@@@@$*****$@@OXO+@@@@@@@@@@OOOO@@@@#$@@OO@OX.                                     ..   ...........o.X.XXOO@@#@@OOOO@@@@@@OXXXXXXXXO@@X.o                                                        .... ............... ................................................................................................................................................................................................................................X..................................................................................................... ..... ..................    ..  . ..      ....  ....  .                                                                                       ...    .XX++++XXX.XXXXOO@@@@@@@@XXooooooo  oooooo                                              oXOO@@OOOXXOOXXXX.oXX..XXXXXXX+X+X+++@&&&&&@@@@&@@@&&&&&&&:::;;===*&&&&&&$**==;;;;;==***$$$$$$$$$*****=====**$$$$@@@@OOOOOOOOOOOOOOOO@@@$**======*****$$$@@$$$$$$***====-;;;;;;;;;;==**====***$$@@@@@@OOOOOOXOXXXXXXXXXXXXooooooooo                                      ",
"                                                     ooooooXXOOO@@@@@$***********=****&&@@@@@@@@@@@@@@@@@$$$$******$*$$$$$@@@@@@@@@@@@@@@OXXXXXXXX+@@@@@@&&&&&&&@@@@@@@@@@@@OOXXXXXXOOOO@@OOOOOOOOOXXXXXXXXXXXXXXXXXXXXXXXXXXXXXXXXXXOOOOO@@@@@@@@@@****@@@OXXOOO@@@@@@@@@OO+O@@@@$$@@@@OX.                                .    .       .....o....XXXXO@@##@@OOO@@@@@@@OXXXXXXXX@@@X.o                                                         .      ..    ..  . ......................................................................................................................................................................................................................................................................................................................................  ....  ....  ..    .......   ..    ... ..   .     ...                                                                                      ..    ..  ..X+++++XXXXXXXXOO@@@@@@@@XXXooooooooooooooo                                            ooXO@OOOOOOOOXXX.X..XXXXXXXXXXXX+++++@&&&&&&&&&&&&@&&&&&&&::::===****$&$&&$*==;;;;;==**$*$$$$$****$**======**$$$@@@@@OOOOOOOOOOOOOOOOOOO@@**======*****$$$@@$$$$$$***====-;;;;;;;;;;==**==*****$$@@@@@@OOOOOOOXXXXXXXXXXooXooooooooo..                                    ",
"                                                      oooooXXXXOO@@@@@@*********===*****##@@@@@@@@@@@@@@@@$$$***$**$**$*$$$$@@@@@@@@@@@@OOXXXXXXXX++@@@@@&&&&&&$$@@@@@@@@@@@OOXXXXXXOOOO@@@OOOOOOOOOXXXXXXXXXXXXXXXXXXXXXXXXXXXXXXXXXOOOOOOO@@O@@@@@@***@@@O+X+OO+@@@@@@@@@++OO@@@@$$@@@OX.                                ...  .  .    ....o.oo..X.XXO@@##@OOOO@@@@@@@OXXXXXXXX@@@X.o                                                                 .    .   ........................................................................................................................................................................................................................................................................................................................................  .....  ...       . .. ....  ..    ... ..           .                                                                                      ..     .. ..X+++++XXXXXXXXO@@@@@@@@@XXXooooooooooooooo                                            oXX@OOOOXOOOXXoXo..XXXXXXXXXXXXX+++++&&&&&&++&&&&&&&&&&&&&::::=&&&***$$***==;;;;;===***$$*$******$**=====***$$$@@@@OOOOOOOOOOOOOOOOOOOO@@@**======****$$$$$@$$$$$$***====-;;;;;;;;;;===*===****$$@@@@@OOOOOOOOOXXXXXXXXoooXoo.oooooo..                                    ",
"                                                            ooXXXXOO@@@@#*******====******$$@@@@@@@@@@@@@$$$***$*$*$$$$******$$$@@@@@@@OOXXXXXXXXXXO@@@@&&&&&&$$&&$@@@@$$$@@OOXXXXXXXOOO@@@OOO@@@@@OOOXXXOXXXXXXXXXXXXXXXXXXXXXXXXXXXXXXXXXXXXXXOOO@@@@$@@@OOOOOOO@@@@@@@@@@@@@@@@@$##@@XXo.                            .               ..o....o..oXXXOO@#@@OOOO@@@@@@OOXXXXXXXXO@@Xoo                                                              ...   .................................................................................................................................................................................................................................................................................................................................................. ...    ..              ..      . ..                                                                                                        .  .....+++@@+XXXXXXXXO@@@@@@@@@XXXooooooooooooo    o                                         XXO@OOOOOOXXXooo..XXXXXXXXXXXX+X++++&&&&&&++&&&&&&&&&&&:::::&&&&$$$$*****==;;;;;==**$$$$$******$$*======**$$$@@@@@OOOOOOOOOOOOOOOOOOOOO@@@**=====******$$$$$$$$$$$$$**====;;;;;;;;;;===*====***$$@@@@@OOOOOOOOXXXXXXXXXXXXXXoooooooooo                                    ",
"                                                            ooooXXXOO@@@@@@******======****$$@@@@@@@@@@@@$$$*****$$$$$$********$$$@@@@@OOXXXXXXXXXOO@@@@&&&&&&$$&&$$$$$$$$$@@OXXoXXXXOOO@@OOOO@O@OO@OOXXXXXXXXXXXXXXXXXXXXXXXXXXXXXXXXXXXXXXXXXXXXO@@@@@@@@OOOOXOOOO@@O@@@@@@@@@@@@@##@@OXo.                            ..      ..     ...o.oooo..X.XXOO@##@OOOO@@@@@@@OXXXXXXXX@@@Xoo                                                                .   ..........................................................................................................................................................................................................................................................................................................................................  ..... ....    ....            ... ..  . ..    ..    .                                                                                     . .       ......+++@@OXXXXXXXXO@@@@@@@@@XXXoooooooooo oo    oo                                        XXO@@OOOOXXXXo.XXXXXXXXXXXXXXX+++++&&&&&&++++&&&&&&&&&&:::::&&&&$$******==;;;;===**$$$$$*********======**$$$$@@OOOOOOOOOOOOOOOOOOOOOOOO@@@**=====******$$$$$$$$$$$$$**====;;;;;;;;;;===*====***$$@@@@@OOOOOOOOXXXXXXXXXXXXXooooooooooo                                    ",
"                                                             oooooXXXOO@@@@@#*****====**==***$$$@@@@@@@@@$$$$****$$$$$************$$@@@@OOXXXXXXXXOO@@@@@&$$$$$$&&&$$&$&$$$@@OXXXXXXXOOO@@@@OOO@@@@@OXXXXXXXXXXXXXXXXXXXXXXooooXoXXXXXXXXXXXXXXXXXOO@@@@@@@OXXXXOOOOOOOOO@@@@@@@@@@@@$#@@X.. .                                 ............ooooo..XXXXOO@##@OOOO@@@@@@@OXXXXXXXX@@@O.o                                                                ..      ......      ..........................................................  .......  .....................................................................................................................................................................................................................................................  ....    ..  ........    .. .  ..  ..                                                                                                      .....     ......X+++@+XXXXXXXXO@@@@@@@@@XXXXXooooooooo    o                                          oXXO@@@@OXXXX....XXXXXXXXXX+X++++++&&&&&&@+&&&&&&&&&&&&&:::::&&&&&$&&**===;;;;==***@$@@$*********=====**$$$$@@@OOOOOOOOOOOOOOOOOOOOOOOOO@@@**=====*****$$$$$$@@$$$$$***===-;;;;;;;;;;===*====***$@@@@@@OOOOOOOOXXXXXXXXXXXoXoooooooooooo                                   ",
"                                                                oooXXXOO@@@@@$*******======*****$&&@@@@@@$$$$***$$$$$$*************$@@@@OOOXXXXXXXOO@@@@@$$$$$$$&&$$$***$$$@@OXXXXXXXXOO@@@@OO@@@@@@OXXXXXXXXXXXXXXXXXXXXXoooooooXXXXXXXXXXXXXXXXXXO@@@@@@@OXXXXOXX+++++++OO@@@@@@@@@$##@OX. .                                 .... .... ..o.ooo..X.XXOO@$#@@OOO@@@@@@@OXXXXXXXX@@@OXo                                                                         .....       .....................................................         ...    ....................................................................................................................................................................................................................................................   ...     .   .......     ...       .                                                                                                      ....     ........++@++XXXXXXXXO@@@@@@@@@XXXXooooooooooo      o                                       oXXOO@OOXXX....XXXXXXXXXXXXXX++++&&&&&&++@&&&&&&&&&&&&&&:::::&&&&&*&&*===;;;;==****@@@$*********====**$$$$$@@@OOOOOOOOOOOOOOOOOOOOOOOOOO@@@**=====*****$$$$$$$@$$$$$***===-;;;;;;;;;;=*=*====***$@@@@@@OOOOOOOOXXXXXXXXXXXoXooooooooooo                                    ",
"                                                                  ooooXXOOO@@@@@********=======****$$$$$&&&&$$$$$$$$$*****====******$$@@@@OXXXXXXXOO@@@&$$$$$$$$$$&&$*****$$@@XXXXXXXXOOOOO@@@@@@@@OOXXXXXXXXXXXXXXXXXXXXXXoooooXXXXXXXXXXXXXXXXXXXO@@@@@@OXXXXXXXXXXOOOXOOOO@@@#$$@@@$$@@X. .                  ...  ...      ..........oo....oo..X.XXO@@$$@OOOO@@@@@@@OOXXXXXXX@@@O.o                                                                     .    ........  .................................................... .       ... .    ..................................................................... .............................................................................................................................................................................   ..   .    ....  ....    ...                                                                                                               .   ............+++@@@+XXXXXXXO@@@@@@@@OXXXXoooooooooo    oo o                                       .XXXOOXXXXX....XXXXXXXXXXXX++++&&&&&&&++@&&&&&&&&&&&&&&&&::&&&&&&&***==;;;;;==**@@@@@$$*******=====**$$$@@@OOOOOOOOOOOOOOOOOOOOOOOOOOOOOO@@**=====*****$$$$$$@@$$$$$***===-;;;;;;;;;;===*====***$@@@@@@@OOOOOOXOXXXXXXXXXXXXooooooo..                                      ",
"                                                                  ooooXXXXOO@@@@@$*******======******&&&$&$$$$$$$$$$$*****=====******$@@@@@OXXXXXX+O@@@&@&$$&$$$$$$&&&$$**$$@@XXXXXXXXOOOO@@@@@@@@@OOXXXXXXXXXXXXXXXXXXXXXXXXXXXXXXXXXXXXXXXXXXXXXXO@@@@@@OOXXXXXXXXXXXXXXOXXO@@##$$$@$$@@OX .                    .. .. .     ......... o....ooo..X.XXO@@$$@OOOO@@@@@@@OOXXXXXXX@@@OXo                                                                     .    . .. .... .. ... .........................................................      ........................ ..............   .........................    ......................................................................................................................... .............. ...................................    .   .    .... .....    ....      ..  .                                                                                                  ..   .........++++++@@++XXXXXXXO@@@@@@@@@XXXXooooooooooo o oo o                                        oXXXXXXX.X....XXXXXXXXX++++++&&&&&&&&++&&&&&&@@&&&&&&&&&&&&&&&&&**===;;;;;==***@@@$$$*******=====**$$$@@@@OOOOOOOOOOOOOOOOOOOOOOOOOOOOOO@@**======****$$$$$$@@$$$$$***===-;;;;;;;;;;===*====***$@@@@@@@OOOOOXXOOXXXXXXXXXXXXooooooo.                                      ",
"                                                                    oooooXXXOOO@@@@@*******=*======*****$$****$$$$$$$$*****======*****$$@@@@OOO+XXOO@@@@&&&&&&$$&@&&&$&$**$$@@++XXXXXXOOOOOO@@@@@@@OOOXXXXXXXXXXOOOXXXXXXXXXXXXXoXXXXXXXXXXXXXXXXXXO@@@@@@OOOOOOXXXXXXXXXXXXXOOO@@$$$$@@@@XXo.                          ....   ...      ......oX..X.XXO@@$#@OOOO@@@@@@@@OXXXXXXO@@@OXo                                                                      ..        .. ...   . .............................................................  ....................................................................   .........................................................................................................................  ............. ..................................  ....  ...... .    ....   ...    ..        ..                                                                                              ....    ......+++++++@@++XXXXXXXO@@@@@@@@@XXXXoooooooooooo  ooooo  o                                    ooXXXXo....X.XXX.XXXXX++++++&&&&&&&&&&&&&&&&@@&&&&&&&&&&&&&&&&***==;;;;;==****$$@@$$*******====***$$$@@@@OOOOOOOOOOOOOOOOOOOOOOOOOOOOOOO@@**======*****$$$$$$$$$$$$***===-;;;;;;;;;;=*=*====***$$@@@@@@OOOOOOOOOXXXXXXXXXXXXoooooooo                                      ",
"                                                                      oooXXXXOOOO@@@@$********======**********$$$$$$@@$******==*=*******$@@@@@+OXX+O@@@@&&&&&&$$@@@@&@&&$$$$@@@+XXXXXXXOOOOO@@@@@@@OOOXXXXXXXXXXOOOOOXXXXXXXXXXXXXXXXXXXXXXXXXXXXXOO@@@@@@OOOOXOOOOXXXXXXXXXXXOOO@@$$$@@@@XXoo                        ......   ....  . .......XX..X.XXO@@$$@OOO@@@@@@@@@OXXXXXXX@@@OXo                                                                ..  .   .       ......     .................................... ..........................................................................................................................................................................................................................  ...............................................   ....  ......      ....    ..    ...       ..                                                                                              ....   ......++++++++@@++XXXXXXXO@@@@@@@@@XXXXXooooooooooo  oooo o                                      ooooooo...XXXXXXXXXXX++++++&&&&&&&&&&&&::&&&@@&&&&&&&&&::&&&&&**==;;;;;==**$$$*$$@********===***$$$$@@@OOOOOOOOOOOOOXXXXOOOOOOOOOOOOOOOO@@**======*****$$$$$$$$$$$$***===-;;;;;;;;;;=*=*====***$$@@@@@OOOOOOOOOOXXXXXXXXXXXXoooooooo                                      ",
"                                                                        ooooXXXXOOO@@@@$$********=====*********$$$@@@@$$$*****====*******$$@@@@@OOOO@@@@&&&&&&&@@@@@@@@@&&$$$@@@OXXXXXXOO@@@@@@@@@@@OOOXXXXXXXXXOOOOOOOXOXXXXXXXXooXXXXXXXXXXXXXXOO@@@@@@@OOXXXOO+OOOXXXXXXXXXXXX+@@$$@@OXXXoo    . .  .       .                .     ..oooo..ooXXXXXXO@@$$@@OO@@@@@@@@@OOXXXXXO@@@@X.                                                                    .      ..... ....... .  ........++++..+..........................  ........................................................................................... ....   ................................................................................ ... .....  ....................  ...................... .......................    ....        ...   ..    .. .  ..                                         ..                                                                ..........++++++++++@@+XXXXXXXOO@@$@@@@@@XXXXXXoooooooooo  ooo   ooo                                    oooo..XXXX.XXXX.XXXXX+++&&&&&&&&&+&&&::&&&&&&&&&&****===*****==;;;;;;==**$$$$$$********====**$$$$@@OOOOOOOOOOOOXOOOXOOOOOXOOOOOOOOOOO@@@$**======*****$$$$$$$$$$$$**====-;;;;;;;;;;=*=*===****$@@@@@@OOOOOOOOXXXXXXXXXXXooXoooooooooo                                    ",
"                                                                         oooooXXXXOOO@@@$$$******=========*****$$$$@@@@@@$*****======*****$$@@@@@@@@@@@@&&&&&&&&@@&@@@@@&&&$@@@@OOXXXXOO@@@@@@@@@@@OOOOXXXXXXXXXOOOOOOOOOOOXXXXXXXXoXXXXXXXXXXXXOO@@@@@@@@OOXXXOOO@@@@OXOXXXXXXXXXO@@@@@OXX.o.    .    .  .                      .  ....oo....oX..XXXXO@@$$@@OO@@@@@@@@@OOXXXXX+@@#@X.                                                                            ..    ... ..... ......++++++++++++.......................  .. ........................        ........................................................ ....   .........................................................................................   ..................... .............. ....... .......................    ... .  .     .              .                                       ........                                                              ..........+++++++++++@@@XXXXXXXOO@@$@@@@@@XXXXXXXXoooooooooooo    oooo                                  .oooo..XXXXXXXXXXXXXXX+++&&&&&&&&&&&&::&&&&&&&&&&**======***==;;;;;;;==**$$$*$$********====**$$$$@@OOOOOOOOOOOOOXXOOOXOOOOXXOOOOOOOOOOO@@@**======*****$$$$$$$$$$$$**====-;;;;;;;;;;=*=*===****$@@@@@OOOOOOOOOXXXXXXXXXXXoXXooooooo.oo                                    ",
"                                                                           ooooooXXXOOO@@@@@$$******=======*****$$$@@@@@@@@$*******=*=******$$@@@@@@@@@@@&&&&&&&&&&@@@@@@@@@@@@@@@XXOXOO@@@@@@@@@@@@OOOXXXXXXXXXOOOO@OOOOOOOXXXXXXXXXXXXXXXXXXXXOO@@@@@@@@OOOOOOOO@@@@@OXXXXXXXXXX+O@@@@XXX....  .                  .       ..  .. ............XXXXXXXO@@$$@@OO@@@@@@@@@OXXXXXOO@##@Xo.                                                                                 ..      . ......++++++++++++..............  .......       ...... ........... ..... ....................... ...................................... .. . .........................  ........................................................................  ....................... .................  .  ............      ..  ... .   ..                                                      ........          .......                                               .......++++++++++++@@+++XXXXXXO@@$@@@@@@XXXXXooooooooooooooooo                                        oo.o...XXXXXXXXXXXXXXX++&&&&&&&&&&&&:::&&&&&&&&$**===;;==*===;;;;;;==***$$$$*****========**$$$@@@@OOOOOOOOOOOOOOOOOOOXOXOOOXXOOOOOOOOOO@@@**======****$$$$$$@@$$$$$***===-;;;;;;;;;;===*==*=***$@@@@@OOOOOOOOXXXXXXXXXXXXoXoooooooo.                                      ",
"                                                                             oooooXXXOOO@@@@@$*******=========****$$@@@@@@@@@$*********===***$$@@@@@@@@@@&&&&&&$&@&@@@@@@@@@@@@@@@@OOXXOO@@@@@@@@@@@OOOXXXXXXXXXOOOO@@@@OOOOOOXXXXXXXXXXXXXXXXXXOO@@@@@@@@OOOXXOOOO@@@@@OOXXXXXXXXXXO@OOXX........                .       ....      ............XXXXXXO@@$*@@O@@@@@@@@@@OXXXXXXO@##@Xo.                                                                                           ......++++++++...+............  ... .....         .......... ..... .... ..  ........................  ................................................................  .. .......................... ................................... ......    ................. .....................  .  ............  ......  ... ..  ...       ....  ..                                      ..........................                                             . .....+++++++++++++@@@++XXXXXXO@@$@@@@@@OXXXXooooooooooooooooooo                                      oo..oXXXXXXXXXXXXX+X++++&&&&&&&&&&&:::&&&&&&&&&*===;;;==*===;;;;;;==***$$*******=======***$$$$@@@OOOOOOOOOOOOOOOXOXOXXOOOOXXXOOOOOOOOOO@@@**======****$$$$$@@@$$$$$***===-;;;;;;;;;;=*=*====***$$@@@@OOOOOOOOXXXXXXXXXXXXoXXooooooo.                                      ",
"                                                                              oooooooXXOOOO@@@@@*********=======****$@@@@@@@@@@$********==*****$$@@@@@@@@$&&&&$$&&@@@@@@@@@@@@@@@@@@++XOOO@@@@@@@@@OOOXXXXXXXXXXOOO@@@@@OOOXOOOOXXXXXXXXXXXXXXXXOO@@@@@@@@OOOXXXXXOO@@@@@OOXXXXOXXOO@@OOXX..o.....          ...          ...... .. .  ......oo.X.XXXXXO@@$*@@@@@@@$@@@@@OOXXXXOO@##@Xo.                                                                         .      .         .......+++++++++.......++......   .......     .  .... ....   ..  ...... . .. ................................................... ................................................................................................................    ............  .......................... .  ............  ....    ..  ...     .    ...        ...                                 ...   ...   .... ....... .                                          ........+++++++++++++++@@@++XXXXXXO@@#@@@@@@OXXXXXoooooooooooooooooo    o                  oo            ooo..XXXXXXXXXXXXXX++++++&&&&&&&&&&::::&&&&$$$$*===;;===*===;;;;;===***********========**$$$$@@@OOOOOOOOOOOOOXXXXOXXXXOOOXXXXOOOOOOOOOOO@@@**======****$$$$$$$@$$$$$***====;;;;;;;;;;=*=***==***$$@@@@@@OOOOOOXOXXXXXXXXXXoXoooooooooo                                     ",
"                                                                                oooooXXOOOOO@@@@@@$*******=======*****@@@@@@@@@@$$********===***$$$@@@@@@@$$&&$$&&$@@@@@@@@@@@@@@@@@@OOOOO@@@@@@@@@OOOXXXXXXXXXXOO@@@@@@@OOXXXXOOXXXXXXXXXXXXXXXOO@@@@@@@@OOXXXXXXXOO@@@@@OXXOXOXXXOO@OOXXXX.o.oooo     ..  ....     .  ......  .. ........ooo.X..XXXXO@@$*@@@@@@$$@@@@@OOXXXX+@@##@Xo                                                                          .    ...    .... .......++++++++++++..++++++..............    ..  ....  ..... ......  .. . ............................................................................................ ...................................................................... ...    ......... ...............   ......  .... ...............  ....    ..  ...     .    . .        .. .                               .........  . ....                                                  ..........+++++++++++++++@@@++XXXXOOO@@@@@@@@@OXXXXXoooooooooooooooooo    o                  ooo         ooooo.XXXXXXXXXXXXXXX++++++&&&&&&&&&:::::&&&&$$$*===;===**==;;;;;;==************========**$$$@@@@@OOOOOOOOOOOOOXXOXOOXXXXXXXXXXOOOOXOOOOOOO@@**======*****$$$$$$@$$$$$***====;;;;;;;;;-=*=*=**=***$$@@@@@@OOOOOOOOXXXXXXXXXXoXXooooooooo o                                   ",
"                                                                                  oooooXXXXOOO@@@@@@*********=======******@@@@@@@@$******=====****$$@@@@@@$$$&&$$$$@@@@@@@@@@@@@@@@@@++OOO@@@@@@@@@OOXXXXXXXXXXXOO@@@@@@@OOXXXXXXXXXXXXXXXXXXXXXOO@@@@@@@@@OXXXXXXXXO@@@@@OXXX++@@@@@@@@OXXXXo.o.ooooo....        ....      ..  .....oo....o...X..XXXXO@@$*@@@@@$$$@@@@@OOOXX+O@@@#@Xo                                                                         .      ....  ....  ........++++++++++++++++++.................... ...    ............ ............................................................................................................... ..................... ............. .................... ..... ........... ........... ....   ....     ..................   ...  ....    .   ....    ... ....    .                                ........................                                           ........+++++++++++++++++@#@++XXXXOOO@@$@@@@@@OXXXXXooooooooooooooo o ooo oo                 o oooo     oooo...XXXXXXXXXXXXXX+++++++&&&&&&&&&:::::&&&&***==;===****==;;;;;==************========**$$$@@@OOOOOOOOOOOOOOXXXXOXXXXXXXXXOXXXOOOOXOOOOOO@@@$*=======****$$$$$$$$$$$$***===-;;;;;;;;;-=*=********$@@@@@@@OOOOOOOOXXXXXXXXXXXXXoooooooooo.                                   ",
"                                                                                 oooooooXXXXOOOOO@@@@@*******========******@@@@@@@@@**********=****$$@@@@@@$$$$$$$$$&@@@@@@@@@@@@@@@@@OOOO@@@@@@@@@OOOXXXXXXXXXXOO@@@@@@@@OXXXXXXXXXXXXXXXXXXXXXOO@@@@@@@@@OOXXXXXXXO@@@@@@OXXX+@@@@@@@@OOXXXXXXXo.oooo...         ..       .   ....ooo..o.o...X..XXXXO@@$*@@@@@$$$@@@@@@OOXX+O@@@#@XX                                                                    ..   .      ...    ...  ..........++++++++++++++++........................    ........................................................................................................................  .  ...................................  .....  ...  ..................... ............  . ....    ....    ..................  ..... ....                      ..                                      ................................                            .... .........+++++++++++++++++@#@++XXXXOOO@@$@@@@@@OXXXXXXXooooooooooooo   ooooo oo               o oo    o  oooo...XXXXXXX++XXX+++++++++&&&&&&&:::::::&&&&*==;;;=**$**==;;;;==************========***$$$@@@@OOOOOOOOOOOOOOXXXXXXXXXXXXXXOOXXOOOOXOOOOOO@@@$*=======****$$$$$$$$$$$$**====-;;;;;;;;;;=*=********$@@@@@OOOOOOOOOOXXXXXXXXXXXXXooooooooooo   oo                              ",
"                                                                                oooooooooooXXXXXOOOO@@@@$$*******======*****$@@@@@@@@$$$*****====****$$@$$$$@@&&$$$$$@&@@@@@@@@@@O@@@@OO+OO@@@@@@@@OOOXXXXXXXXXXOOO@@@@@@OOXXXXXXXXOOOXXXXXXXXXXXO@@@@@@@@@@OOXXXXXXX@@@@@@OXXX+@@@@@@@@@@@OXXXOXXXXXX....              ..          ..........XXXXXXXXO@@$$@@@@@$$$@@@@@@OOXX+O@@##@XX.                                                            .    .      .  ......    ...  .............................................  ..............................................++....+++++...++++.......+++...+.................... .........................   .......................................................... ......    ....   .....    .............. .....  . ....................  ....          .         ...                  .                        ......++++++++++...................               .   ..        . . ....+++++++++++++++++++@#@++XXXXOXO@@@@@@@@@OXXXXXooooooooooooooooo   o     o             oo oo   oo   o oo.XXXXXXX++++++++++++++&&&&&::::::::::*&#*=;;;==*****==;;;;===**********===-===****$$$@@@@@OOOOOOOOOOOOOOOOOXXXXOOOXXXOOOOOOXXXOOOOOOOOO@@**=========**$$$$$$$$$$$$**====-;;;;;;;;;;===**===***$$@@@@@OOOOOOOXXXXXXXXXXXXXoooooooo..      ..                              ",
"                                                                                  oooooooooXXXXXXOOOO@@@@$$*******=======*****$@@@@@@@@@@*****=*==*****$$$$@@@&&$$$$$$&@@@@@@@@@@OOOOOOO++OO@@@@@@@OOOXXXXXXXXXXOO@@@@@@@@OXXXXXXXXXOOXXXXXXXXXXXO@@@@$$@@@@OOXXXXXXXO@@##@OXXXXO@@@$$$$@@@@+XXXXO@OXXX....     ..    ..            ...o.oo...XXXXXXXXO@@$$@@@@@$$$@@@@@@OOXXOO@@##@XX                                                             .          ..    ....     ...    ..........................................................................................+++++++++++++.++++..++..++++..++..................... ....................................................................................... ....  ......................   ...... ......  ......................  . .... .    ..          ..              .   ..                   .   .......++++++++++..................              ...        .    . ......+++++++++++++++++++@#@++++XXOXO@@$@@@@@@OXXXXoXXoooooooooooooo    oo                  oo oo   o    o o..XXXXXX++XX+X+++++++++&&&::::::::::::##*==;===****==;;;;;==***********==;-===***$$$$@@@@OOOOOOOOOOOOOOOOOOOXXXXOOOXXXXXXXXXXXXOOOOOOOOO@@**=======*=**$$$$$$$$$$$$**====-;;;;;;;;;;===********$$@@@@@OOOOOOOXXXXXXXXXXXXXooooooooo.    o                                 ",
"                                                                                  ooooooooooooXXXXXOOO@@@@@@$$*****=======******$$@@@@@@@@@*******==*****$$$@@@@@@$$$&$$@@@@@@@@@OOO+OOO+OOO@@@@@@@OOOOXXXXXXXXXOO@@@@@@@@OXXXXXXXXXOOOXXXXXXXXXXOO@@@$$$@@@@OOXXXXXXO@@##@@XXXXOO@@$$$$$#@@@+XXX@@@@@XX.....   ..     .      ..    ..oo......XXXXXXXXO@@$$@@@@@@$$@@@@@OOOXXXO@@##@XX.                                                            .         ...      . .   ................................................. ..............................................++++++++++++++......+............................................................................................................................... ....................... .......    ............................ .    .. ...   .... .... ...   .    .   ...                       .    .................................                 .        .. .  . ......++++++++++++++++++@@#@@+++XXOOO@@$@@@@@@OXXXXXoooooooooooooooo  o    o                oooo         .oooXXXXXXX++++++++++&&&&&&&:::::::::::::====;==****===;;;;===**********==;;;==****$$$@@@@OOOOOOOOOOOOOXXOXOXXXXXXXXXXXXXXXXXXXXXXOOOOOOOOO@@**=======*=**$$$$$$$$$$$$**=====;;;;;;;;;;=*=*******$$@@@@@OOOOOOOOOOXXXXXXXXXXXooooooooo.  ooo.                                ",
"                                                                                     oooooooooXXXXXXOOOO@@@@$$*******=======******$@@@@@@@@@@******=====***$$@@@@@&&$&$$@@@@@@@@@O++++O@@@OO@@@@@@@OOOOXXXXXXXXXOO@@@@@@@@OXXXXXXXXX+@@OXXXXXXXXXOO@@@@$$$@@@@OOXXXXXO@@@#@@XXXXOO@@@$$$$$@@@@+XO@@@@@@@XX..o.         .    ..... ....oo......XXXXXXXXO@@$$@@@@@@@$@@@@@OOOOXXO@@##@XX..                                           .........      ..        ....   . ...............................................................................................................+...+................................................................................................................................ .......................................................................      ................             ....  .     .   ....        ...    ...........+..................... ..           .        .  ............++++++++++++++++++&&@@#@@+XXXXOXO@@$@@@@@@OXXXXXooXXooooooooooooo oo              o     ooo     o ...ooo..XXXXXX++++++++++++&&&&&:::::&&&&&&::===;==****==;;;;;===**********==;;===***$$$$@@@@@OOOOOOOOOOXOOXXXXXXXXXXXXXXXXXXXXXXOOXXXOOOOOOOOO@$**=======*=**$$$$$$$$$$$$***====;;;;;;;;;;=*=*******$$@@@@@OOOOOOOOOOXXXXXXXXXXXooooo.ooo.  oo                                  ",
"                                                                                      oooooooooooXXXXXOOOO@@@@@$*******========*****@@@@@@@@@@@$***======****$@@@@@&&&&&@@@@@@@@@+++++OO@@@@@@@@@@@O+XOXXXXXXXXXOO@@@@@@@OOXXXXXXXXX@@@@XXXXXXXXXXO@@@@@@@@@@@@@OOOXXOO@@@@OXXXXXXO@@$$*$$$#@@@+O+@@@@@@@XX.....    .    .    ...............XXX..XXXXO@@**@@@@@@@$@@@@@OOO+XOO@@##@XX.                                   ...... .............      . ..               ................................................................................................................................+.............................................................................................................................................................................++.................................................................  . ....     .................................. ..    .     ....        ..............++++++++++++++++++&&&&#@@+XXXXOX@@@#@@@@@@OXXXXXXoXXooooooooooooooooo                     o.    ..oooooo..XXXXXXX++++++++&&&&&&&:::::&&&&&&&=======****==;;;;;==**********===;;==*=***$$@@@@OOOOOOOOOOOOOXXXXXXXXXXXXXXXXXXXXXXXXXOXXOXOOOOOOO@@@$**=======****$$$$$$$$$$$***====-;;;;;;;;;-=*=*=*****$$@@@@@O@OOOOOOOOXXXXXXXXXXoooooooooooooo                                   ",
"                                                                                       ooooooooooXXXXXXXOO@@@@@@@********========****$@@@@@@@@@@$$***======***$@@@@@@@@$@@@@@@@@@@@+O+OO@@@@@@@@@@@O+XXXXXXXXXXXOO@@@@@@OOXXXXXXXXXXO@@@XXXXXXXXXXOO@@@@@@@@@@@@@OOOXXXOOOOOXXXXXXO@@@##*$$$#@@+O+O@@@@#@@XXX...    .    . .  ................XX..XXXXO@@$*@@@@@@@$@@@@@OOO+X+O@@##@OX.                                              .. ......  .   ...... ..  ..    ...  ..............................................................................................++++++..........++............++.......+........................+...........................................................................................................................................+++...............................................................................................................  ...   ...   ....      . .............+++++++++++++++++++&&&&#@@+++XXOOO@$$@@@@@@OXXXXXooXXooooooooooooooooo                    oo.     ..oooo...XXXXX+++++++++&&&&&&&&:::::&&&&&&*=;;==****===;;;;==***********===;-==**=**$$$@@@@OOOOOOOOOOOOXXXXXXXXXXXXXXXXXXXXXXXXXXXXXXOOOOOOOO@@@$**=========**$$$$$$$$$$$***====-;;;;;;;;;-=*=*==****$$@@@@@OOOOOOOOOOXXXXXXXXXXXooooooooooooo                                   ",
"                                                                                       ooooooooooXXXXXXXXOOOO@@@@@$*******=======*****$@@@@@@@@@@@$****======***$$@@@@@$$$$$@@@@@@@@@@OO+@@@@@@@@@@O+OXXXXXXXXXXXOOOOOOOXXXXXXXXXXXXO@@@XXXXXXXXXXOO@@@@@@@@@@$$@@@OXXXXXXXXXXXXXOOOO@@@$$**$$@@OOO+@@@@#@@OXX... ..    ....   . .......oooo....XXXXXXO@@$*@@@@@@$$@@@@@OO+++++@@##@OXo                                                   . ... ..  .................... .........++++.++++.....................................................+++++.++++++++++++++.++++++++++++++.+.++++..++....+....+....+..+...+...................+++.........................................................................................................................................++...................................................................................................... ...............   ...     ......................+++++++++++++++++++&++&&#@@+++XXOO@@@#@@@@@@OXXXXXXXoooooooooooooooooooo  oooo      o    ooooo o   .ooooo.XXXXXXX++++++++&&&&&&&&&::::&&&&&&*==;==****==;;;;;==***********==;;==*==**$$$@@@@OOOOOOOOOOOOOOOOXXXXXXXXXXXXXXXXXXXXXXXXXXXXXOOOOOOO@@@@**========***$$$$@@$$$$$$**====-;;;;;;;;;;=*=*==****$$@@@@@@OOOOOOOOXXXXXXXXXXXoooooooooooooo                                   ",
"                                                                                         oooooooooXXXXXXXOOOOO@@@@@$*********====******$$@@@@@@@@@@$$***======****$$@@@@$$$$$$$@@@@@@@@+@@@@@@@@@@@OOOXXXXXXXXXXXXOOXXXXXXXXXXO@O@+O@@@@XXXXXXXXXXOO@OOOOOO@@@$$*@@OXXXXXXXXXXXXOOOOO+@@@$***$#@OOXXOO@@##@@OXX..... .  ....     ........ooo....XXXXXXO@@**@@@@@@$$@@@@@@OO+++O@@##@OXo                                                  .   .. .    .............................+++++++++++++++++...+++++++++++++++.+++++++++++++++++++++++++++++++++++++++++++++++++++++++++++++++++++++++++++++++++++++++++++++++..................+++......+++.................................................................................................................................................................................................................................................. .....   ....   ......... .............+++++++++++++++++++&&&&&#@@++XXXOO@@$$@@@@@@OXXXXXXXXXXooooooooooooooooo  oooooo    oo   oooooooo ..oooooXXXXXXXX++++++++&&&&&&&&&&:&&&&&&&===;==****==;;;;==***********===;;==**=**$$$$@@@@OOOOOOOOOOOOXOOOXXXXXXXXXXXXXXXXXXXXXXXXXXXXXOOOOOOO@@@@**=======****$$@@@@@$$$$$**====-;;;;;;;;;-=*=*===***$$@@@@@@OOOOOOOOOXXXXXXXXXXXooooooooooooo                                   ",
"                                                                                      oo  ooooooooXXXXXXXXOOOOOO@@@@@@$$*********=*******$@@@@@@@@@@@@$***=======**$$@@@@@@@$$$$@@@@@@@@@@@@@@@@@@@@O+XXXXXXXXXXOOOOXXXXXXXXXXO@@@@@@@@@O+XXXXXXXXOOO@OOOOXOO@@$**@@OOXXXXXXXXXOOOOOOOOO@@$$**$$@@OOOXX+@@@@@@@+Xoo    ...    .. ...........oX..X.XXXOO@@$*@@@@@@*$@@@@@@OOO+O@@@##@@X..                                                  ..   ..    .. ..........................++++++++++++++++++++++++++++++++++++++++++++++++++++++++++++++++++++++++++++++++++++++++++++++++++++++++++++++++++++++++++++++++++++++++++++++++++++++++++.+++++++++++++....++++++++++++++++++++++++++++++++++++..+.++..+++.+++++....+....................................++...................+...+++++++++..+++.++......+.........................................................................  ............  ..   .........    .  .................+++++++++++&&&++++&&++&&##@@XX++OO@@@@@@@@@@OXXXXXXXooooooooooooooooooo   oo  oooo    oooooo...oooo.oooo..XXXXXXX+++++++&&&&&&&&&&&&&&&&&&===;==***==;;;;===***********==;;;=**==*$$$@@@@@OOOOOOOOOOOOXXXXXXXXXXXXXXXXXXXXXXXXXXXXXXXXXOOOOOOOOOO@@@**==========*$$@$$$$$$$$$**====-;;;;;;;;;-=***====**$$@@@@@@OOOOOOOOOXXXXXXXXXoXoooooooooo..                                    ",
"                                                                                     ooo  ooooooXXXXXXXXXXOOOOOOOO@@@@@$$$********==*****$@@@@@@@@@@@@@$$***======***$$@@@@@@@$$$$$@@@@@@@@@@@@@@@@@O+XXXXXXXXXXOOOXXXXXXXXXXXOO@@@$$@@@+XXXXXXXXXOO@@OOOOXOO@@@$*@@@OXXXXXXXXXOOOOOOOOO@@@$$**$$@@OXXXXOO@@@@@@Xooo  . .    ... ...........XX.XX.XXXOO@@$*@@@@@@$$@@@@@OOOO+O@@@##@@X..                                                  ..    ......     .......................+++++.++..................++++++................++.+.....++++++++++++++++++++++++++++++++++++++++++++++++++++++++++++++++++++++++++++++++++++++++++++++++++.++++++++++++++++++++++++++++++++++++++++++++++++++++++++++++++++++++++++++++++++++++++++++++++++++++++++++++++++++++++++++++++++++..++.+++++++++++++++++++++..++++++++++++....++++++++.+...++++........................... ...  .....................   ..    ............. ..................++++++++++&&&+++++&&&+&&##@+++++OOO@$@@@@@@@OXXXXXXXXXooooooooooooooooo   o     o    oooooooo.ooooooooooXXXXXXX+++++++++&&&&&&&&&&&&&&&&&======***==;;;;==***********===;;==*==**$$$@@@@@OOOOOOOOOOOXXXXXXXXXXXXXXXXXXXXXXXXXXXXXXXXXXXOOOOOOOOOOO@@***======*==*$$@$$$$$$$$$**====-;;;;;;;;;-=***====**$$@@@@@@OOOOOOOOOXXXXXXXXXoooooooooooo..  o                                 ",
"                                                                                       o oooooooXXXXXXXXXXXXOOOOOOOO@@@@@@$$$*************$@@@@@@@@@@@@@@@$***======***$$@@@@$$$$$$$$$@@@@@@@@@@@@@@OOXXXXXXXXXXXOOXXXXXXXXXXXOO@@@$$$@@OXXXXXXXXOOO@OOOOOOO@@@@@@@@@OXXXXXXXXXXOOOOOOOOO@@@$$$*$$@@OXXXXXO@@#@@+X.. ..       ..............XXXX..XXXXO@@#*@@@@@@$$@@@@@OOOO+O@@@##@@X..                                                  ....  . ................................++++..................................................................................++.+............................+++...........................+++++.....+++.....++++........+++.++..++++++++++++++++.++.......++++++....++++....++++++++++++++.+++++++++..................++................................................................................................................... ................  .............. ...................++++++++++&&&+++++&&&+@&##@++XXXOOO@@$@@@@@@OXXXXXXXXXXoooooooooooooooo     ooo o     oooooooooooooooo..XXXXXXO+X+++++++&&&&&&&&&&&&&&&*==;===**===;;;;==***********==;;====***$$$$@@@@OOOOOOOOOOOXXXXXXXXXXXXXXXXXXXXXXXXXXXXXXXXXXXXXXXXOOOOOOO@@@***====***=**$$$$@$$$$$$$***====;;;;;;;;;-=***==****$$@@@@@@OOOOOOOOOXXXXXXXXoXooooooooooo..oo                                  ",
"                                                                                         oooooooXXXXXXOOXXXXXXOOOOOOOO@@@@$$$$***********$$$@@@@@@@@@@@@@@@$****======***$$@@@@@@$$$$$$@@@@@@@@@@@@@@OXXXXXXXXXXXXOXXXXX.XXXXXXO@@@$$$$@OXXXXXXXOOOOOOOO@@@@@@@@@@@@@OXXXXXXXXXX+OOOOOOOOO@@@$$$$$$$@O+XXXXO@@@@+X... .  .    ...o..o.......XXXX..XXXXO@@$*@@@@@@$$@@@@@@O+++O@@@##@@X...                                                 .... ..................................++++++..........................................................................+.....+...............................................................++............................................................................................................................................................................................................................................................... ...................................++++++++++&&&+++++&&&+#&&#@+OXXXOOO@@$@@@@@@OXXXXXXXXXXXoooooooooooooooo  oo  ooo   oooooooXo.oooooooo..XXXXXXXXXX++++++&&&&&&&&&&&&&&===;==***==;;;;===***********==;;==**==*$$$$$@@@OOOOOOOOOOOXXXXXXXXXXXXXXXXXXXXXXXXXXXoXXXXXXXXXXXXXXOOOOOO@@@***====******$$$@@$$$$$$$***====;;;;;;;;;-=****==***$$@@@@@@@OOOOOOOOXXXXXXXXoXooooooooooo..ooo                                 ",
"                                                                                          ooooooXXXXXXXOOXXXXXXXXXXXOOOOO@@@@@$$$$$$$$$$$$$$$$$@@@@@@@@@@@@@@$$***=======***$@@@@@@$$$$$@&@@@@@@@@@+@OXXXXXXXXXXXXXXXXXX.oooXXXO@@@@$$$@OOXXXXXXOOOOOOOOO@@@@@@@@@@@OOOXXXXXXXXOOOOXOOOOOOO@@@$$$$*$#@++XXXO@@@@XX... ......  .....oooo...........XXXXO@@**@@@@@@$$@@@@@@O++OO@@@##@OX.o.                                                 ............................+++++.+++++++++++++..............................................................................................................................................++........++.........................................................................................................................................................................................................................  .  ..........................................................+.+++++++&&&&&&++++&&&&&&&#@+++XXOO@@@#@@@@@@OXXXXXXXXXXXoooooooooooooooooooooo      oooooXXXXX.ooo..oo.XXXXXOOOOXO++++++&&&&&&&&&&&&*==;;==***==;;;;==************=;;-==*==**$$$@@@@@OOOOOOOOOOOOXXXXXXXXXXXXXXXXXXXXXXXXXXXXXXXXXXXXXXXXXXXOOOOO@@@***====******$$$@@$$$$$$***====-;;;;;;;;;-=*********$$@@@@@OOOOOOOOXXXXXXXXXXXXoooooooooooooooo oo                              ",
"                                                                                         oooooooXXXXXXOOOOXXXXXXXXXXOOOOOO@@@@@@@@$$$@@@@@@@@$$@@@@@@@@O@@@@@@@$***========**$$@@@@@@$$$$$$&@@@@@@@@OO+XXXXXXXXXXXXXXXXX.oooXXXXO@@@$$$@@XXXXXXXOO@@OOOOO@@@@@@@@OOOOOXXOOOXXXXXOOXXXOOO++OO@@@$$**$$$@@+XXOOO+OXXo.......    ..  o.oo....o...X.X.XXXXO@@**@@@@@@$$@@@@@OOO+OO@@@##@@Xoo                                                  ..................++++++++++++++++++++++++++++++.............................................................................................................................................++........++..........................................................................................................................................................................................................................................................................................+++++++&&&&&&++++&&&&&&&&@@++XXOO@@@$@@@@@@OXXXXXXXXXooXooooooooooooooooooooooo   ooooXXXXXXXooooo.ooXXXXXXOOOOOO++++++&&&&&&&&&&&&=;;===***==;;;;==***********==;;===*==*$$$$$@@@@OOOOOOOOOOOXXXXXXXXXXXXXXXXXooXXoooXXXXXXXXXXXXXXXXXXXXXOOOOO@@@***====******$$$@@$$$$$$***====-;;;;;;;;;-=*****=***$$@@@@@OOOOOOOOXXXXXXXXXXXXXoooooooooooooo    o                             ",
"                                                                                          oooooooXXXXXOOOOOXXXXXXXXXXXXXXOOOOO@@@@@@@@@@@@@@@@@@@@@@@@@@@OOOO@@@@@***========**$@@@@@@$$$$$$$@@@@@@@OOOOXXXXXXXXXXXXXXXXXXooXXXXOO@@$$$@@OXXXXXXO@@@@OOOO@@@@@@@@OOOXOXXXOOOOXXXXOOXXXXOXOO+O@@@##$$$$$@@@OOOOXXooo...          ................X.XXXOO@@**@@@@@@@$@$$@@OOOOOO@@@##@@XXo                                                  .. ...........++++++++++++++++++++++++++++++++++.............................................................................................................................................++........++..........................................................................................................................................................................................................................................................................................++++++&&&&&&&++++&&&&&&#&@@++++OO@@@#@@@@@@XXXXXXXXooXoXXooooooooooooooooooo ooooooXXXXXXXXXXoooXXo.XXXXXXXOOOO++O++++@&&&&&&&&&&===;==***==;;;;;==**********===;;======*$$$$@@@@@OOOOOOOOOOOOXXXXXXXXXXXXXXXooXXXXooooXXXXXXXXXXXXXXXXXXXOOOOOOO@@***====******$$$$$$$$$$$$**====-;;;;;;;;;;=****===**$$@@@@OOOOOOOOOXXXXXXXXXXXXXoooooooooooo                                    ",
"                                                                                          oooooooXXXXXXOOOOOXXXXXXXXXXXXXXOOOOOOOO@@@@@@@@@@@@@@@@@@@@@@OOOOOO@@@@@***========**$$@@@@@@$$$$$$$@@@@@OOOOXXXXXXXXXXXXXXXXXXooXXXX+O@@$$$@@OXXXXXXO@@@@@OOOO@@@@@@OOXOXXXXXXOO@OOOXXOOXXXOXXXXOO@@@@#$$$$$@@@@+XXXooo. .        . ...............XXXXXXOO@@**@@@@@@$$$$@@@@OOOOO@@@###@X.o                                                  .. ............++++++++++++++++++++++++++++++++........................................................................................................................................................++..........................................................................................................................................................................................................................................................................................++++++&&&&&&&++++&&&&@&#&@+++++OOO@@#@@@@@@XXXXXXXXXXooXXooooooooooooooooooo oo oooXXXXXXXXXXXXoXXXXXXXXXX+OOOO+++++++@&&&&&&&&&:=;===***==;;;;==***********==;;======*$$$$@@@@@OOOOOOOOOOOOOOXXXXXXXXXXXXXXXXooXXXooooXXXXXXXXXXXXXXXXXXOOOOOOOO@$***====******$$$$$$$$$$$$**====-;;;;;;;;;;=****=****$$@@@@OOOOOOOOOXXXXXXXXXXXXXooooooooooo.                                    ",
"                                                                                  oo   ooo ooooooXXXXXOOOOOOOXXXXooXXXXXXXXXXXOOOOOOOOOOOOOOOOOO@@@@@@@OOOOOOOOO@@@@@$**========**$@@@@@@@$$$$$$@@@@@@@OOXXXXXXXXOXXXXXXooooXXXXOO@@@@$@@OXXXXXXO@@@@@@@OO@@@@@@OOXXXXXXXOO@@@@OXXXOXXXXXXXXOO@@@@@$$$$$@@@@@+XXX.............  ....o.....o.XXXX.XXXXOO@@**#@@@@@$$@@@@@@@OOOOO@@###@Xo.                                                  .......++....+.....+...+++..+++.++++..........................................  ...    ...... .........................................................................................................++.............. ................................................++...+...+++.........+....++.........................+....+..+........+...................................................................................................................................................+++++++&&&&&&&++++&&&+@#&#@@++++OO@@@#@@@@@@OXXXXXXXXXXooooooXXoooooooooooooo  .oooXXXXXXXXXXXXXoXooXXXXXXX@@OO++++++@@@@&&&&&&*=====****==;;;===***********=;;;==*===*$$$$@@@@@OOOOOOOOOOOOXXXXXXXXXXXoooXXXXooXXXXooooooXXXXXXXXXXXXXXXXOOOOOOOO@$**======*****$$$$$@@$$$$$$**===-;;;;;;;;;-=****==***$$@@@@@@OOOOOOOOOXXXXXXXXXXXooooooooooo..    o                              ",
" o                                        oooo                               oo   oo  oooooooooooXXXXXOOOOOOOOXXXXoXXXXXXXXXXXXXXOOOOOOOOOOOOOOOOOOOOOOOOOOXXOOOOO@@@@$$**========**$@@@@@@@$$$$$$@@@@@+XXXXXXXXXOXXXXXXoooXXXXXXO@@@@$@@OXXXXXXO@@@@@@@@@@@@@@@@OOXXXXXXXOOOOOOXXOOXXXXXXXXXXOO@@@@$$$$$@@@@+XXX...   ..... . . ..oo.....o....XX.XXXXO@@**#@@@@@$$@@$@@@@OOOO@@@$##@XX.                                                  ......++++....................................................................   .     .....  ................................. .............................. ....  ....... .................+.........+..................................................+++......++.++.....+.++++.......+++.+..++..............................++++..............+.............................................................................................................................................++++++&&&&&&&&++++&&&+++&&@@++++O@@@@#@@@@@@OXXXXXXXXXXXooooXXXoooooooooooooo  ooooXXXXXXXXXXXXXooXoXXXXXX+@@OOO++++@@@@&&&&&&*==;==****=;;;;==***********==;;-=*===**$$$$@@@@@OOOOOOOOOOOOOXXXXXXXXXXXoooXXXXoooXXXoooXoooooXXXXXXXXXXXXXOOOOOOOO@$**======*****$$$$$@@$$$$$***===-;;;;;;;;;-=*********$$@@@@@@OOOOOOOOOXXXXXXXXXXXooooooooooo..                                   ",
"ooo                                     oooooooo    oo  oo    oooo o  o   ooo     oo  ooooooooooXXXXXXXOXXOOOOOXXXXXXXXXXXooooooXoXXXXXXXXXXXXXXXXXXOXXXOXXXXXXXOOOO@@@@$$**=======**$@@@@@@@@$$$$$$@@@@OOXXXXXXOOOXXXXXoo.oXXXXXO@@@@$@@@OXXXXO@@@@@@@@@@@@@@@@@@OOXXXXXXXOXOOOXXOOOXXXXXXXXXOOOO@@@$$$$$@##@@XX...  ...    . ...o........o...XX.XXXO@@@**@@@@@@*$$$$@@@@@O+@@@#$$@@XXX.                             ....                .......++++.....................++............+............................ ..  .. .     .....   .  ....  . ..  ..............   .  .... .......................... .  ...... ...............++.........++.................................................+++++++++++++++++++++++++++++++++++++++++++++++++++++++++++++++++++++++++++++++++++++++++++++++++++++++++++++++++++..++++..++++++++.....+.++.....++.....................................................................................+++++&&&&&&&&++++&&&+&&&&&@+++++@@@##@@@@@@OXXXXXXXXXXXXXoXXXXoooooooooooooo..ooooXXXXXXXXXXXXXXXXXXXXXXXXO@OOO@@@@@@@@@@@&**=====***==;;;;==***********==;;===*==*$$$$@@@@@@OOOOOOOOOOOOXXXXXXXXXoXXXXoooooooooooXoooooooooXXXXXXXXXXXXXXOXXOOOO@@***=====*****$$@$$@$$$$$$***===-;;;;;;;;;-=*********$$@@@@@@OOOOOOOOOOXXXXXXXXooooooooooooo.oo o                                ",
"ooo                                     ooooooooo    o ooo    oooo    oooooooo  oooo oooooooooooXXXXXXXXXXXXOXOOOOXXXXXooooooooooooooXXXoXXXXXXXXXXXXXXXXXXXXXXXXOOOOO@@@@$***=======*$@@@@@@@@@@$$$$$@@@+++XXXXOOOXXXXXXooXXXXXXXO@@@$@@@OXXXXO@@@@$@@@$@@@@OOO@@OOXXXXXXXXXXXXXXO@@OOOXXXXXXOO+OO@@@@#$$$@##@OX.... ....    .................XX.XXXXO@@**@@@@@@*$$$$@@@@@O+@@@#*$@@XX..                             .....         ..    ............+++++++++++++++++++++++++++++++..+............................  ..  .... .    ....                    .........  .            . ..............................    ...............++.........++.................................................++++++++++++++++++++++++++++++++++++++++++++++++++++++++++++++++++++++++++++++++++++++++++++++++++++++++++++++++++++++++++++++++++++++++++++++++++++++..................................................................................+++++&&&&&&&&++++&&&&&&&&&@++@+@@@@##@@@@@@OXXXXXXXXXXXXXXXXXoooooooooooooooooooooXXXXXXXXXXXXXXXXXXXXXXXXO@@O@@@@@@@@@@@&*==;==****==;;;;==**********==;;===*==**$$$$$@@@O@OOOOOOOOOOOOXXXXXXXXXXoooooooooooooooooooooooooooXXooXXXXXXXXXOXXOOO@@@***=====*****$$$$$$$$$$$$***===-;;;;;;;;;-=*********$$@@@@@@OOOOOOOOOOXXXXXXXXXoXXXoooooooo.oooo                                ",
"XXoo                                    oooooooooo  oo  ooooooooo oooooooooo    ooo ooooooooooooXXXXXXXXXXXXXXXXOOXXXXXoooooooooooooooooooooooooXXXXXXXXXXXXXXXXXXXXOOOO@@@@$***======**$@@@@@@@@@$$$$$@@@@OOOOOOOXXXXX.XXXXXXXXXXO@@@$@@@OOXXOO@@@$$$$@@@@@@OOXOOOOXXXXXXOXXXXXXXO@@@OOOOOOXXXOOOOO@@@@##$$$#@@XXX.... .     ..................XXXXXXO@@$*#@@@@@*$$@@@@OO+++@@@@###@XX...                            ...........         .............+++++..++.+++++++++++++++++++...+............................     ... ...      ..        .         ..........         ....     .............................. .....  ...........++.........++..................................................++++++++++++++++++++++++++++++++++++++++++++++++++++++++++++++++++++++++++++++++++++++++++++++++++++++++++++++++++++++++++++++++++++++++++++++++++++++................................... .............................................+++++&&&&&&&&++++&&&&&&&&&&++++&+@&$$@@@@@@OXXXXXXXXXXXXXXXXoooXXoooooooooooooooooXXXXXXXXXXXXXXXXXXXXXXXOO@@@@@@@@@@@@@$*==;==****==;;;==***********==;;==*===*$$$@@@@@@@OOOOOOOOOOOXXXXXXXXXXXXXoooooooooooooooooooooooooooooXXXXXXXXXXXXXXOOOO@@***=====*****$$$$$@$$$$$****===-;;;;;;;;;==***=*****$$@@@@@OOOOOOOOXOXXXXXXXXXXoXXooooooooooooo o                               ",
"XXXo                                    ooooooooooo oo  o  ooo  oooo ooooooo  oo ooooooooooooooXXXXXOXXXXXXXXXXXOOOXXXXXoooooooooooooooooooooooooooooXXXoXoXXXXXXXXXXOOOO@@@@@*****====**$@@@@@@@@@$$$$$$@@@@OOOOOOXXXXXXXXooXXXXXOO@@@@@@@OOXOO@@@$*$$@@@@@@@OXOOOOXXXXXXOXXXXXXXOO@@@@@OOOXXXOXXXO++@@@#$$$$#@@OXX.o.... ..   ..............XXXXXXXXO@@$*#@@@@@$$@$$@@OOO++@@@@#$#@XX...                            .. ......XXXX..     ..........................................................................  ..  ......  ..  .       ....      ....  .......   .   ......   . ............ . ....................   ..........++........+++....................................................++++++++++++++++++++++++++++++++++++++++++++++++++++++++++++++++++++++++++++++++++++++++++++++++++++++++++++++++++++++++++++++++++++++++++++++++++....................................................................................++++&&&&&&&&++++&&&&&&&&&&++@&&@@@$$@@@@@@OXXXXXXXXXXXXXXXoooXXXoooooooooooooooooXXXXXXXOXXXXXXXXXXXXXXXO@@@@@@@@@@@@@$*=====****=;;;;==***********==;======*$$$$$@@@@@OOOOOOOOOOOOXXXXXXXXXXXXXXXooooooooooooooooooooooooooooooXXXXXXXXXXXXOOOO@@***=====*****$$$$$@@$$$$***====-;;;;;;;;;==***=*****$$@@@@@OOOOOOOOOOXXXXXXXXXooXXoooooooooooo  oo                              ",
"XXXo                                     ooooooooooooo                  oooooooo o oooooooooooXXXXOOOXXXXXXXXXXXXXXXXXXXooooooo    oo oo oooooooooooooooooooooXXXXXXXXXOOOO@@@@@$***====***@@@@@@@@@$$***$$@@@@@OOOXXXXXXXoooXXXXXOO@@@@@@@@OOOO@@@$**$@@@@@@@@OOOOOOOXXOXXXXXXXXOOO@@@@@@OOXXXXXXXXOO@@@@$$$$$#@@XX..o....... ....oo.......XXXXXXXXXXO@@$*#@@@@@$$@@@@@@@O+O@@@@###@XX...                             .    ....XX+XX..   ......................................................... .....   ........    .... ..  ...      .......... .  ....    ..........  .......  ..............  ..................................+++........++.............................................................+........++....++++...++.....++........++++...+++++...++++++++++++++++++++++++++++++.++++++..++++++++++..+++++++.............................................................   ..... ......................................+++++&&&&&&&&+++&&&&&&&&&&&&&&&&&&&$$@@@@@@OXXXXXXXXXXXXXXXoooXXooooooooooooooooooXXXXXXXXXXXXXXXXXXXXXXOO@@@@@@@@@@@$**====*****==;;;==**********==;;======*$$$$@@@@@@@OOOOOOOOOOOXXXXXXXXXXooXXXoooooooooooooooooooooooooooooooooXXXXXXXXXXOOOO@@$**=====*****$$$$$@@$$$$****===-;;;;;;;;;-=***=*****$$@@@@@OOOOOOOOOOXXXXXXXXoXXoXooooooooooo   oo                              ",
"XXXX                                     ooooooooooooo                   ooooooo  oooooooooooXXXXXOOOXXXXXXXXXXXXXXXXXXXooooooo   oooooo oo ooooooooooooooooooooXXXXXXXXOOOOO@@@@@****====**$@@@@@@@$$$*$*$$@@@@@OOXXXXXXXXooXXXXXOX@@@@@@@@@OOO@@@@**$@@@@@@@@@OOOOOOOXXXXXXXXXXXOOO@@@@@OXXXXXXXXXOOOO@@@@$$$#@@+XX..............oo.......XXXXXXXXXXO@@**#@@@@@$$@@@@@@@OOO@@@@###@XX...                             ..    .....XXXX.   ......................................................... ......  ........   ..... .. ....      ............  ....    ... ......  ...........................................................+++.......+++............................................................................++++....++....++........++++....++++..++.+++++++++++++++++++++++++++++++++++++....++......+++...+++++.......++++................................ .............   . ...  .......................................+++&&&&&&&&++++&&&&&&&&&&&&&&&&&&$$@@@@@@OXXXXXXXXXXXXXXXoooXXooo..ooooooooooooXXXXXXXXOXXXXXXXXXXXXXXO@@@@@@@@@@@@*==;==****==;;;==***********==;;======*$$$$$@@@@@OOOOOOOOOOOOOXXXXXXXXXoooooooooooooooooooooooooooooooooooooooXXXXXXXXXXOOOO@@$**=====*****$$@$$@@$$$$$***===-;;;;;;;;;-=*********$$@@@@@OOOOOOOOOOXXXXXXXXXXXXXooooooooooo   oo                              ",
"XXXXoo                                   oooooooooooo   o            oooooooooooooooooooXXXXXXXXXXXXOOXXXXXXXooXoXXXXXXoooooo   oooo   o     oooooooooooooooooooooXXXXXXXXXOOOOO@@@@$***==*****@@@@@$$$$$**$##@@@@OOXXXXXXXXXXXXXXXOO@@@@@@@@OOO@@@$$$$$$@@@@@@@OOOOOOOOOOOOXXXXXXOOO@@@@@OXXXXXXXXXOOOOOOO@@####@@+XX....................o.X.XXXXXXXXO@@**@@@@@@@*@$$@@@@OO+@@@####@X....                                  .........X.o..  ........................................ .............   ..... ..........       .....  ...  ....  ..............................    .......................................................+++.......+++............................................................................................................................................................................................................... . ................................. ......................................++++&&&&&&&&++&&&&&&&&&&&&&&&&&&&&$$@@@@@@XXXXXXXXXXXXoooXooooooooooooooooooooooXXXXXXXXOXXXXXXXXXXXXXOOO@@@@@@@@@$*=====****==;;===***********=;;==*===*$$$$@@@@@@OOOOOOOOOOOOXXXXXXXXXXXooooooooooooooooooooooooooooooooooooooXXoXXXXXXXXXOOOO@@$*=====******$$@@@$$$$$$****===-;;;;;;;;;-==********$$@@@@@OOOOOOOOOXXXXXXXXXXXXooXoooooooooo...o.                              ",
"XXXXoo                                   oooooooooooo   o               oooooooooooooooXXXXXXXXXXXXOOOXXXXXoooooooXXXXooooo      oo    o        oooooooooooooooooooooXXXXXXXOOOO@@@@@$******=****$@@@$$$$$#$$##@@@@OXXXXXXXXXXXXXXXOO@@@@@@@@@OO@@@$$$$$@@@@@@OOXXXXO@@@@OOOXXXXXXXXXOO@@OOXXXXXXXXXXOOXOOOO@@@###@@+XX.....o.............o.X.XX..XXXXO@@**@@@@@@@$$$$@@@@O+O@@@####@XX....                             oo.o.........o....   ...................................... .............. ........ . .......      .....   ...  .... ..........................................................................................+++.......+++.................................................................................................................................................................................................................. ..........  ......+++..................................................++++&&&&&&&+++&&&&&&&&&&&&&&&&&&&&$$@@@@@@OXXXXXXXXXXXXXooXXXXXoooooooooooooooooXXXXXXXXOXXXXXXXXXXXXXOO@@@@@@@@@@*=====****==;;===**********==;;=====**$$$$$@@@@@OOOOOOOOOOOOOXXXXXXXXXXoooooooooooooooooooooooooooooooooooooooXXooXXXXXXXXOOOO@@**=====******$$@@@$$$$$$$***===-;;;;;;;;;-==********$$@@@@@OOOOOOOOOXXXXXXXXXXoXooooXoooooooo. ..                               ",
"XXXXoo                                    ooooooooooo   o                ooo ooooooooooXXXXXXXXXXXOOOOOXXXXooooooooooooo oo           oo               oooooooooooooooXXXXXXXXOOOOO@@@@@****=====**$$$$$########@@@@XXXXXXXXXXXXXXXXOOO@@@@@@@@@@@@@$$$$@@@@OOOXXXXXX@@@@@@OOXXXXXXXXXOOOXXXXXXXXXXXXXXXXX++OO@@###@@+XX......................XXXXXXXXO@@**@@@@@@@$$$$@@@@@@@@@@@#*$@OXX... .                           o oooo..o....o.....     ......................................................................    ....... ....................................................................................................++++.......++++...................................................................................................................................................................................................................................++++................................................++++++&&&&&&&&++&&&&&&&&&&&&&::*==*&*$@@@@@@OXXXXXXXXXXXXXXXXXXXXoooooooooooooooooXXXXXXXOOXXXXXXXXXXXXOOO@@@@@@@@**====****==;;;==***********=;;==*===*$$$$@@@@@@@@OOOOOOOOXXXXXXXXXXXXooooooooooooooooooooooooooooooooooooooooooXXoXXXXXXXXXOOO@@@**=====******$$@@@$$$$$$$***===-;;;;;;;;;-==********$$@@@@@OOOOOOOOOOXXXXXXXXXXXoXXoXooooooooo                                  ",
"OOXXoo                                   oooooooooooo                         oooooooooXXXXXXXXXXOOOOOOOXXXooooooooooooo  o           oo                  ooooooooooooXXXXXXXXXOOOOOO@@@@@***======**$$$#&&&##$##@@@OOXXXXXXXXXXXXXXOOOOO@@@@@@@@@@@$$$$@@@@OOXXXXXXXO@@@@@@OOXXXXXXXXXXXXXXXX.XXXXXXXXXXXXXOOO@@@###@@+.............o........XXXXXXXXO@@**@@@@@@@$$$$@@@@@@@@@@##*$@OXX...                           ..ooooooo oo..oo.......   ........................................................................ ....... .........................................................++..........................................+++++......++++.......................................................................................................................................................................................................    ......................++++................... ....      ....................++++++&&&&&&&&+&&&&&&&&&&&&&:::===***$@@@@@@OXXXXXXXXXXXXXXXXXXXooooooooooooooooooXXXXXXXOOXXXXXXXXXXXXOOO@@@@@@@**====****==;;===**********==;;==**=**$$$$$@@@@@OOOOOOOOOOOXXXXXXXXXXXooooooooooooooooooooooooooooooooooooooooooooooXXXXXXXXXOOO@@@$*=====******$$$@@$$$$$$$***===-;;;;;;;;;-==********$$@@@@@OOOOOOOOOOXXXXXXXXXXXooXooooooooooo                                  ",
"OOXXoo                                   ooooXXoooooooo                       oooooooooXXXXXXXXXXXOOOOOOOXXXooo     o  o  o                                ooooooooooXXXooXXXXXXXXXOOOO@@@@$***=====***$$@@@$$$$$$@@@+XXXXXXXXXXXXXOOOOO@@@@@@@@@@@@$$$$@@@@OOXXXXXXXO@@@@@@OXXXXXOOXXXXXXXXXX.XXXXXXXXXXXXXXOOO@@@###@@X.......................XXXXXXO@@**#@@@@@@*$@@@@@@@+@+@@####@OXX                        .... ...oooooooooo.o.ooo.................................................................................................................................................+++..........................................+++++.....+++++.................................................................................................................................................................................. ....  ....    .....   ...........++.+.........+++...... ..................    ......................++++&&&&&&&&&&&&&&&&&&&&&&&**====*****@@@@@@OOXXXXXXXXXXXXXXXXXXoooooooooooooooooXXXXXXXXXOXXXXXXXXXOOOOOO@@@@@@*=====****==;;==***********==;-=*===**$$$@@@@@@@OOOOOOOOOOOXXXXXXXXXooooooooooooooooooooooooooooooooooooooooooooooooooXXXXXXXXOOO@@@**=====******$$@@$$$$$$$****===-;;;;;;;;;==*********$$@@@@@OOOOOOOOOOOXXXXXXXXXXooXoooooooooooo                                 ",
"OOXXoo                                    ooXXXXXoooooo               oooo   ooooooooooXXXXXXXXXXXOOOOOOOOXXooo         oooo                                 oooooooooXooooXXXXXXXOOOOOO@@@@@$**=======*$$$@@$$$$$#@@OXXXXXXXXXXXOOOOO@OOOOOOOOO@@@@$$$$$@@@OOXXXXXXXO@@@@@@@XXXXOOOOXXXXXXXXooXXXXXXXXXXXXXXXOO@@@@###@+X....................XXXXXXXXO@@**@@@@@@#*$@@@@@O@+++@@##*#@OXXo                       .... ...ooo.ooooooo....o........ ....... ................................................................................................................................++++.........................................+++++......++++.......................................................................................................................................................................................  ....    ....     .........++++++++....++++..................... .....   ... ................++++++&&&&&&&&&&&&&&&&&&&&:&****=***#$**@@@@@@OOXXXXXXXXXXXXXXXXXXXoXoXXoooooooooooXXXXXXXXXOXXXXXXXXXOOOOO@@@@@@*====****===;===***********==-=====**$$$$$@@@@O@OOOOOOOOOOXXXXXXXXXXXooooooooooooooooooooooooooooooooooooooooooooooooooXXXXXXXXOOO@@@**=====******$$@$$$$$$$$****===-;;;;;;;;;==***=*****$$@@@@@OOOOOOOOOOOXXXXXXXXXXooXooooooooooooooo                              ",
"OOXXoo                                    ooXXXXooooooo oo            oooo   oooooooooXXXXXXXXXXXXXOOOOOOOXXXoo   o oooooooooooooo                    oo o  ooooooooooooooXXXXXXXXXXXOOOO@@@@@@****=====***$@@$$$$$$@@+XXXXXXXXXXXOOO@@@@OOO+OOOO@@@$$$*$@@@OOOXXXXXXOO@@@@@@OOXO@@@@OOXXXXo.o.....XXXXXXXXXXX+O@@@@#*##@+X.................XXXXXXX.XXO@@**#@@@@@$*$@@@@@O@@@@@@####@OXXoo    .   .          .    .. .  oo.....oo..XXXooooo...          .................................................................................................................................+++..........................................+++++......++++.............................................................................................................................................................................................. ........  ......................++.................. .... . ... ....    ..............++++++&&&&&&&&&&&&&&&&&&&&:&&&****&&@$**$@@@@@OOXXXXXXXXXXXXXXXXXoooooXooooooooooooXXXOXXXXXOXXXXXXXXXOOOO@@@@@**====****==;;===**********=========*$$$$@@@@@OOOOOOOOOOOOOXXXXXXXXXXXXoooooooooooooooooooooooooooooooooooooooooooooooXooXXXXXXOOOOO@@@**=====******$$@$$$$$$$$****===-;;;;;;;;;==*********$$@@@@@@OOOOOOOOOOXXXXXXXXXXooXoXooooooo  o.ooo o                           ",
"OOXXXo                                   ooXXXXXXooooo  o            ooo oo ooooooooooXXXXXXXXXXXXXXOOOO@OOXXXo   ooooooXoooooooooo                    o    oo  ooooooooooXXXXXXXXXXXXOOOOO@@@@@****=======*$$$$$*$$@@+XXXXXXXXXXXXXO@@@@OOO+XXXO@@@$$$$$@@@OOOXXXXXXOO@@@@@@@O+O@@@@OXXXXXoXo.....XXXXXXXXXXX++@@@@$$#@@+X.....o...........XXXXXXX.X+O@@**#@@@@@$$$@@@@@O@@@@@@####@OXXoo  ..     ..            ...    oo........XXXXXXoooo.. .        .................................................................................................................................+++..........................................+++++......++++.................................................................................................................................................................... .............................................................................. ..   . ........    ..............++++++&&&&&&&&&&&&&&&&&&&::&&&&**&&&@#**$@@@@@OOXXXXXXXXXXXXXXXXXoooXXXoooooooooooXXXXOXXXXOXXXXXXXXXXXOOO@@@@**===*****==;;==**********===;==*===*$$$$$@@@@@@OOOOOOOOOOOOXXXXXXXXoooooooooooooooooooooooooooooooooooooooooooooooooooXoXXXXXXXOOOOO@@@**======*****$@@$$$$$$$$****===-;;;;;;;;;==*****=***$$@@@@@@@OOOOOOOOOXXXXXXXXXXoooooooooooo    ooooo                           ",
"OOXXXo                                   ooXXXXXXXooooo                 ooooooooo.ooooXXXXXXXXXXXXXXXOOOOOOXXoo    ooooXXooooXXXooo                          oo o oooooooooXoXXXXXXXXXXXXOOO@@@@@@$***======********@@@+XXXXXXXXXXXXXXOOOOOXXXXXOO@@@@@***@@@OOOXXXXXOO@@@@@@@@@@@@@@OOXXXXXXXXXX..XXXXXXXXXXO@@@@@@####@@XX.........oo......XXXXXXXXXO@@**$@@@@@@$$$$@@@@@@+@@@##*#@OXX.o .. . ..........    ... .ooo.....ooXXXXXXXXXXXXX.o..        ..     ................ .. .........................................................................++++++++......................+++++........................................+++++++....+++++..................................................................................................................................................++++++......................................   .....................................  ...........  .................. ............+++++++&&&&&&&&&&&&&&&&&&::=*&&&##@@@@$**@@@@@@OOXXXXXXXXXXXXXXoXXXXXXXXoXXooooooooXXXXOOOXOOOXXXXXXXXXOOOO@@@$*===****===;;==**********==;-=====*$$$$$@@@@@@OOOOOOOOOOOOXXXXXXXXXXXXXXooooooooooooooooooooooooooooooooooooooooooooooXXXXXXXXXXXXOO@@@@**======*****$$$@$@@$$$$$***===;;;;;;;;;;===***=****$$$@@@@@@OOOOOOOOOXXXXXXXXXXXXXoooooooooo                                   ",
"OOOXXo                                   ooXXXXXXXXooo                 .ooooooo...ooooXXXXXXXXXXXXXXXOO@@@OXXooooooooXXXXXXXXXXXXXoo                     o    o oooooooooooooXXXXXXXXXXXOOOOOO@@@@@@$***=======*****@@@+XXXXXXXXXXXXXXXXXXXXXXXXOO@@@@@@$*@@@OOOXXXOOO@@@@@@OO++@@@@@OOXXXXXXXXXXXXXXXXXXXXXO@@###$$$###@@+X.........oo.......XXXXXXXXO@@**$@@@@@@$$@@@@@@@@+@@@####@OXX.o.     ..........    ... .ooo..oooooXXXXXXXOOOOXX.....       ..      ............................................................................................+.+++++.+.....................++++++.......................................++++++.....+++++..................................................................................................................................................++++++................................... .... ....................................    ........    ......  ....  ..................++++++&&&&&&&&&&&&&&&&&&::=*&@@@@@@@@@**@@@@@@OOXXXXXXXXXXXXXXXXXXXXXXXXXXoooooooXXXXXOOOOOOOXXXXXXXXXOOOO@@**==*****=======**********=========*$$$$$@@@@@OOOOOOOOOOOOXXXXXXXXXXXoooooooooooooooooooooooooooooooooooooooooooooooooooXXXXXXXXXXXXOO@@@@**======*****$$$$$@@$$$$$***===;;;;;;;;;;===***=****$$@@@@@@@OOOOOOOOOXXXXXXXXXXXXXooooooooooo                                  ",
"OOOXXo                                   ooXXXXXXXXooo                 ooooooooo.ooooooXXXXXXXXXXXXXXO@@@@OXXXooooooXXXXXXXXXXXXXXooo                   o       ooooooooooooooXXXXXXXXXXOOOOOO@@@@@@@@$***=====****$@@@OXXXXXXXXXXXXXXXXXXXXXXXXO@@@@@@@@@*#@@OOXXXX+OO@@@@@OOX+@@@@@@OOXXXXXXXXXXXXXX+XXXXX+@@###*$**##@@+X.X........o..XXXXXXXXXXXXX@@@**$@@@@@#$@$$@@@@@@++@@####@+XX.ooo . . ...    .   ....    ooooooooXXXXXXXXXO@@@OXo.o..      ..        . ........... ..................................................................................+....................+..++++++.+.+.+++++..++++......++..++++...++++++++++++.....++++++....+.++++.+..+.++++.+............++........++++++..++++...........................................................................................+++............................................................................      ..........  ..       ....   ..............++++++++&&&&&&&&&&&&&&&:&&****$@@@@@@@@@**@@@@@@OOXXXXXXXXXXXXXXXXXXXXXXXXXXXooooooXXXXXOOOOOOOXXXXXXXXXOO@@$**==**$**=======*********=====**===$$$$@@@@@@@OOOOOOOOOOOOOXXXXXXXXXXoooooooooooooooooooooooooooooooooooooooooooooooooooXXXXXXXXXXXXXOO@@@@**=====*****$$$@$$$$$$$$****===-;;;;;;;;;===***=****$$$@@@@@@OOOOOOOOOXXXXXXXXXXXXooooooooo.oooo                                ",
"OOOXXo                                   ooXXXXXXXXXooo o        o    oooooooooooooooXXXXoooXXXXXXXXXO@@@@OXXXooooooXXXXXXXXXXXXXXXoo                   ooo     ooooooooooooooXXXXXXXXXXOOOOO@@@@@@@@@@$****====**$@@@OOXXXXXXXXXXXXXXXXXXXXXXXXO@@@@@@@@@#$@@@OXXXXOOOO@@@@OXXO@@@@@OXXXXXXXXXXXXXXXOXXXXXXXO@@@#$***##@@XXXX...........XXXXXXXXXXXXXO@@**$@@@@@#$@@@@@@@@@@@@@@#*#@OXX.ooo     ...    ..  ....    ooooooooXXXXXXXXXO@@@@XX.o.. ........    ..   ...........   ...............................................................................+........................++++++..+....+....+++.....+.++++++++...++++++++++++.....++++++.......+++................++....++++......++...+++..++++..........................................................................................................................................................................      ..........   .        ..  .................+++++++&&&&&&&&&:&&&&::&&*&*$@@@@@@@@@@**@@@@@@OXXXXXXXXXXXXXXXXXXXXXXXXXXXXXooooXXXXXX@OOO@OOOXXXXXXOO@@@@**=***$**======**********=====*===**$$$$@@@@OOOOOOOOOOOOOXXXXXXXXXXXooooooooooooooooooooooooooooooooooooooooooooooooooXXXXXXXXXXXXXXXXOO@@@@**=====*****$$$@$$$$$$$$****===-;;;;;;;;;===***=****$$$@@@@@@@OOOOOOOXXXXXXXXXXXXXoooooooooooooo                                ",
"OOOOXo                                   oXXXXXXXXXXooo oo      o     ooooo.ooooooooooXXXXXXoooXooXXXO@@@OOXXXoooooXXXXXXXXXXXXOOXXXoo                           oooooooooooooXXXXXXXXXXXOOOOOOO@@@@@@@@@****====*@@@@OOXXXXXXXXXXXXXXXXXXXXXXXXOO@@@@@@O@@#$$@@OXXXXXXO@@@@@OOO@@@@@OXXXXXXXXXXXXXXXXXXXXXX++@@@$$*****@@++XX..oooo......XX..XXX.XXX+@@@**$@@@@@*$@@@@@@@@+@@@@####@OXX...o      ....  ....oooo oo oooooo..XXXXXXXXXO@@@@XX.o......  ..   .....  .......... . ................................................................................+......................++++++++..+...............+++.....+++++.++..+++++++++......+++++.....++..........................+........................+..........................................................................................+....................................................+...............   ..... ..  ........ ..       ......   . . ...........+++++&&&&&&&&&&&&&:&&&:&&&&***$@@@@OO@@@@**@@@@@@OOOXXXXXXXXXXXXXXXXXXXXXXXXXXooooooXXXXXOOOO@@OOXXXXOOOO@@$**=*****======***********=====**==*$$$$@@@@@@OOOOOOOOOOOXXXXXXXXXXooooooooooooooooooooooooooooooooooooooooooooooooooooXXXXXXXXXXXXXOOOOOOO@@@***====*****$$@@@@$$$$$$****===-;;;;;;;;;===***===**$$@@@@@@@OOOOOOOOXXXXXXXXXXXooooooooooo...ooo                               ",
"OOOXXo                                   oXXXXOOXXXXooo oo     ooo    oooo.ooooooooooXXXXXXXooooooXXXO@@OOXXXXooooXXXXXXXXXXXXXOOOXXoo                            ooooooooooooXXXXXXXXXXXXOOOOOO@@@@@@@@@@****==**@@OOOXXXXXXXXXXXXXXXXXXXXXXXXXXOO@@@@@OO@@$**$@@OXXX++OOO@@OOO@@@@@XXXoXXXXXXXXXXXXXXXXXXX++@@@@@$$$**#@++XXo..oo........X.XXXX.XXX+@@@**$@@@@@*$@@@@@@@@@@+@@####@+XX....oo  o ....  ....ooooo.oooooooo.oXXXXXXXXO@@@@@OX.o  ....  .. . . ...  ....  ...........................................................................+.+++......++++...................+++++++++..++++....+++++.++++++.....+++...+...+++++++++....+++++++..+++++...+..++++++.+..++......++....+++++.++......++....+++.....+.+.....................................................................................................................................................  .......... .......  .       ...... ..................+++++&&&&&&&&&&&&:&&&::&&&&&#*$@@@@@@@@@@**$@@@@@OOOXXXXXXXXXXXXXXXXXXXXXXXXXXXoooooXXXXOOOO@@@OOOXXOOOOO@$*==*****======**$$******======*==**$$$@@@@@@OOOOOOOOOOOXXXXXXXXXXXoooooooooooooooooooooooooooooooooooooooooooooooooooooXXXXXXXXXXXXXOOOOOOO@@@***====*****$$$@@@@$$$$$****===-;;;;;;;;;==****===**$$@@@@@@@OOOOOOOOXXXXXXXXXXXooooXooooooo . .o                               ",
"OOOXXo                                   oXXXOOOXXXXooo   o ooooooo  ooooooooooooooooXXXXXXXooooXoXXXO@@OOXXoooooooXXXXXXXXXXXXOOOXXoo                         o  oo    ooooooXXXXXXXXXXXXXOOOOOOOO@@@@@@@@******$@@OO+XXXXXXXXXXXXXXXXXXXXXXXXXXXXO@@@@@OO@@****$@@@OOOOOO@@@@@@@@@OXXXXXXXXXXXXXXXXXXXX+++@@###@@@@@$*#@@+XX...............XXXX.XXX+O@@**$@@@@@*$$@@@@@@+@+@@@##*#@OXX....oo.ooooo........  ooo..o...ooo.XXXXXXXXXO@@@@@@X.o   .    .... .  .    .... .... ................................+..+++++++.+++++++++++++++++++++++++++++++++++++++++++++++.++++.++++...+.++++++++..++++..++++++++++++++++.+..+++.++..++++++++++....++++++++++++....+...++++++++++++..++++++....++++++++...++++.++++++++..+.++++++++....++++++++........+++.+...........................................................................................................................................    . . ......    ................++++++&&&&&&&&&&&&&&&&:&&&&&$$*$@@@OO@@@@@**$@@@@@OOOOXXXXXXXXXXXXXXXXXXXXooXXXXXXXooXXXXOOOO@@OOOOOOOOO@@**==****=======*$$$$*****========**$$$$@@@@@OOOOOOOOOOOOXXXXXXXXXXooooooooooooooooooooooooooooooooooooooooooooooooooooooXXXXXXXXXXXXXOOOOOOOO@@@**=====******$$@@@@$$$$$****===-;;;;;;;;;===*=*===**$$@@@@@@OOOOOOOOOXXXXXXXXXXXXoXXXoooooo. o  oo                              ",
"OOOXXoo                                 ooXXOOOOXXXXoo      oooooooo.oooooooooooooooXXXXXXXXooooooXXXO@@@@XXoooooooXXXXXXXXXXXOOOOXXoo                       ooo   oo   ooooooXXooXXXXXXXXXXXOOOOOOO@@@@@@@@$***$@@@OOXXXXXXXXXXXXXXXXXXXXXXXXXXXXXXO@OOOOOO@@$****$@@@@OOOO@@@@@@@@OXXX....XXXXXXXXXXXXXXX+@@###@@@@@@@##@OXX...............XXXX.XXX+O@@$*$@@@@@*$$@@@@@@+@++@@##*#@OXX....oo...ooo.........oooo..o.o.ooooXXXXXXXXXO@@@@@@XXo.       ..     ...    ..  .. .  .. .............................++++++++++++++++++++++++++++++++++++++++++++++++++++++++++++++++++++++++++++++++++++++++++++++++++++++++++++++++++++++++++++++....++++++++++++++++++++++++++++++++++++++++++++++++++++.+++++++++++.+++..++++++..+++...++++++++........++++++....++....................................................................................................................................    ...........   ................+++++&&&&&&&&&&&&&&&&:&&&&&&$$*$@@@OOO@@@@**@@@@@@OOOXXXXXXXXXXXXXXXXXXXXXoooXXXXXXooXXXXOOOO@@@OOOOOOO@@*===*****=====***$$$*****========*$$$$$@@@@@OOOOOOOOOOOOXXXXXXXXXooooooooooooooooooooooooooooooooooooooooooooooooooooooooXXXXXXXXXXXXOOOOOOOOO@@@**=====******$@@@@$$$$$$****===-;;;;;;;;;===***===**$$@@@@@@OOOOOOOOOXXXXXXXXXXXXXXXXoooooo.    oo                              ",
"OOOOXX                                  ooXXOOOOOXXXoo        oo.o. ooooooooooooooooXXXXXXXXXXXXXoXXOO@@@@OXXoooooooXXXXXXXXXXOOOOXXoo                     ooooo   ooooooooooooooooXXXXXXXXXXXOOOOO@@@@@@@@@@@@@@@@OOOXXXXXXXXXXXXXXXXXXXXXXXXXXXXXXXO+XXX+OOO@@$****$@@@@OOOO@@@@@@OXX.......XXO@@@@OOO++OO@@##@@@+++@@##@@XX.........XXXXX.XXXXXXXXXO@@$*$@@@@@@$@@@@@@@@+@@@@#**#@OXX............oooooo......o.o.oo.ooooXXXXXXXOOO@@@@@@O... .          .    . ..       ........  ......................................................+...++....+.+...+++..++++++++++++++&+++++++++++++++++++++++++++++++++++++++++++++++++++++++++++++....+++++++++++++++++++++++++++++++++++++++++++++++++++++++++++++++++++++++++++++++++++++++++++++++++++++++++++++++.++++......................................++++............................................................................................   .....    .................+++&&&&&&&&&&&&&&&&&:&&&&@@$$$$@@@OOO@@@@**@@@@@@OOOOXXXXXXXXXXXXXXXXXXXXXXXXXXXXXXoXXXXXOOO@@@OOOOOO@$*==***$**=====**$$$$****=====**=**$$$$@@@@@OOOOOOOOOOOOOXXXXXXXXXooooooooooooooooooooooooooo oooo    ooooo  oooooooooooXooXXXXXXXXXXXXXXXO++OOO@@@**=====*****$$$@@@@$$$$$**=====;;;;;;;;;;===*=====**$$$@@@@@@OOOOOOOOXXXXXXXXXXXXXoXXoooooooo.  o                               ",
"OOOOXXo                                 ooXXOOOOOOXXoo       oooooooooooooo.oooooooooXXXXXXXXoooXXXXOO@@@@OXXoooooooXXXXXXXXXXOOOOXXoo                      oooo  oooooooooooooooooooXXXXXXXXXXOXXOOOOOOOO@@@@@@@@@OOO+XXXXXXXXXXXXXXXXXXXXXXXXXXXXOX+O+OOO+OO@@@@$****$@@@OOO@@@@@@OXXX.....XXX@@@@@OOO++XO@@#*#@@+X+@@@#@@XX..........XX....XXXXXXXXO@@$*$@@@@@@$@$@@@@@@+@@@@##*#@OXX..... ..o...ooo.oooo....oo..oooooXXXXXXXXXOOO@@@@@@O.....      .   .     ...        ........ ....................................................................................+++++&+++++++++++++++++++++++++++++++++++++++++++++++++++++++++++++....++++++++++++++++++++++++++++++++++++++++++++++++++++++++++++&+++++++++++++++++++++++++++++++++++++++++++++++++++++++++...................................+++++.............................................................................................. .....    .................+++&&&&&&&&&&&&&&&&::&&&&$@$$$$@@@OOO@@@@**@@@@@@OOOOXXXXXXXXXXXXXXXXXXXXooXXXXXXXXXXXXXOOOO@@@OOOOO@$****$$$$$*====**$$$$$***========*$$$$@@@@@@OOOOOOOOOOOOXXXXXXXXXXoooooooooooooooooooooooooooooooooo    oooo ooooo..ooooXXoXXXXXXXXXXXXXXXXOO+OOO@@@**=====*****$$$@@@@$$$$$***====;;;;;;;;;;===*=====**$$$@@@@@@OOOOOOOOXXXXXXXXXXXXoXXXoooooooo   oo                              ",
"O@OOXXo                                 ooXXOOOOOOXXoo        oooooooooo  ..oooooooooXXXXXXXXoooXXXX@@@@@@OXXooo..ooXXXXXXXXXXXOOOXXoo                        o     ooooooooooooXooooXXXXXXXXXXXXXXOOOOOOOOOO@@@@@@OOO+++XXXXXXXXXXXXXXXXXXXXXXXXXXOO+@@@OX++OOO@@@#****$@@O@@@@@@@@OOXXXXXXXXXO@@#$#@@@@@@@@#***#@+XO@@@#@@+X...............XXXXXXXXXO@@$*$@@@@@@$$$$@@@@@+++@@#**#@OXXoo....oooo..o...oooooo..ooooo.XXoXXXXOOXXOOOO@@@@@@OXX....     .   .      ..          ...... .....................................................................................+++&&&+++.....+++++++++++++++++++++++++++++++++++++++++++++++++++++...+++++++++++++++++++++++++++++++++++++++++++++++++++++++++++&&++++++++++++++++++++++++++++++++++++++++++++++++++++++++++.................+................++++++....................................................................................... ............. ..................+++&&&&&&&&&&&&&&&&:&&&&&$@$$$$@@@@@@@@@@$$@@@@@@OOOXXXXXXXXXXXXXXXXXXXXXXXXXXXXXXXXXXXXOOOO@@@OO@@$*****$$@@$$*==**$$$$$$***====*==**$$$@@@@@OOOOOOOOOOOOOXXXXXXXXXXXooooooooooooooooooooooooooo  ooooo  o  ooo  oooo...ooooXXXXXXXXXXXXXXXXXOOOOOOOO@@@**=====*****$$$$$@$$$$$$***====;;;;;;;;;;===*=====**$$$@@@@@@@OOOOOOOOXXXXXXXXXXooooXooooooooo  oo                              ",
"@@OOXXo                                 ooXXOO@OOOXXoo        oooooo         oooooooooXXXXXXXoooXXOO@@@@@@@OXooo.oooXXXXXXXXXXXOOOXXoo                         o    ooooooooooooooooooXXXXXXXXXXXXXXXXXXOOOOOOOO@@OO@O++++XXXXXXXXXXXXXXXXXXXXXXXXXOO@@@@OXXXXOOOO@@@$****$@@@@@@@@OXXXXXXXXXXXOO@@$*$@@@@@@@$**=*@@OO@@@@@@XX...oo..........XX.XXXXXXO@@$*$@@@@@@$$*$@@@@@+@@@@#**#@OXXoo.....ooo....oooooooo...o..ooo.oXXXXOOXOOOOO@@@@@@OXX....    .   ..   .  ....        ......  ......  ...........................................................................++++&&+++...+...+++++++++++++++++++++++++++++++++++++++++++++++++++++..+++++++++++++++++++++++++++++++++++++++++++++++++++++++++++&&+++++++++++++++++++++++++++++++++++..++++..++++++++++++++++++.............++++..............++++++...................................................................................... ................................++++&&&&&&&&&&&&&&&&&&&&&&$@$$$$@@@@@O@@@@$$@@@@@@OOOXXXXXXXXXXXXXXXXXXXXXXXXXXXXXXXXXXXXOOO@@@@OO@$***$$@@@@@@$****$$$$$$**=====*==*$$$$@@@@@OOOOOOOOOOOOOXXXXXXXXXXXoooooooooooooooooooooooooo    oo    oo ooo    oo.oooooooXXXXXXXXXXXXXXXXXOOOOOOOO@@@**=====*****$$$$$$$$$$$$***====;;;;;;;;;;===*=====**$$$@@@@@@@OOOOOOOOXXXXXXXXXXoooooooooooooo  ooo                             ",
"@@OOXXo                                 ooXOO@@OOOXXooo        o oo           ooooooooooooooooooXXOO@@@@@@@OXo. ooooXXXXXXXXXXXOOOXXoo                          oooo  oooooooooooooooXoXXXXXXXXXXXXXXXXXXXOOOOOO@@@@OOOOO+XXXXXXXXXXXXXXXXXXXXXXXXXOO@@@@O+XXXXXX+O@@@@$*=**$@@@@@OOXXXXXXXXXXXOO@@$***$@@@@@#**=*#@@O@@@@@OXX..o.........XXXXXXXXXXXXO@@$*$@@@@@**$@@@@@@@@++@@&#*#@+XXoo....oooooo....oo..oooooo.oo...XXXXXOOXXOOOO@@@OO@OXo....  . .    . ...    ...    .        .   ........... ......................................................................+++&&+++++++++++.+.++++++++++++++++++++++++++++++++++++++++++++++++++.++++++++++++++++++++++++++++++++++++++++++++++++++++++++++&&&+++++++++++++++++++++++++++++++++++++++++++++++..++++++++++++.....+....++++++++............++++++++...................................................................................... .    ........................++++++&&&&&&&&&&&&&&&&&&&**$@@$$*$@@@@@@@@@@*$@@@@@@OOXXXXXXXXXXXXXXXXXXXXXXXXXXXXXXXXXXXXXOOO@@@O@@$*=*$@@@@@@@$$*$$$@$$$$$*====*****$$@@@@@OOOOOOOOOOOOXXXXXXXXXXXXXXoooooooooooooooooooooooooo     oooo  oooo    oo.ooooo..XXXXXXXXXXXXXXXXXOOOOOOOO+@@@@**=====*****$$$$$$$$$$$$***====;;;;;;;;;;===***===**$$$@@@@@@@OOOOOOOOXXXXXXXXXXXXXoXoooooo.oo. o                               ",
"@@@OXXo                                 ooXOOO@OOOXXoo           o               oooooooooooooooXXOO@@@@@@@OXoo ooooXXXXXXXXXXXOOOXXoo                          oooo  ooooooooooooooXXXXXXXXXXXXXXXXXXOOXOOOOOOO@@@@@+OOOOOXXXXXXXXXXXXXXXXXXXXXXXOOO@@@@OXXXXXXXXOOO@@@@**==*$@@@XXXXXXXXXXXXXO@@@@@***$@@@@@#***$@@@@##@@OXX..o......X..XXXXXXXXXXX+O@@$*$@@@@@#*$@@@@@@@+++@@##*#@OXXoo....oooo......oo..oooo.o.oooo.XXXXXOOXXXOOO@@@OO@OXX..... ....   .. ..  . ....   .        .   ......................................................++..++........+.++..........+++&&&+++++++++++.++++++++++++++++++++++++++++++++++++++++++++++++++++++++++++++++++++++++++++++++++++++++++++++++++++++&+++&&&&&&&++++++++++++++++++++++++++++++++...+++++++.........++++++++++++..........++++++............++++++.+...................................................................................... .     .......................++++++&&&&&&&&&&&&&&&&&&&&*$@@$$**@@@@@O@@@@**@@@@@@OOXXXXXXXXXXXXXXXXXXXXXXXXXXXXXXXXXXXXXXOOOOO@@$***$@@@@@@@$$$$$@$$$$$**====****$$$$@@@@OOOOOOOOOOOOXXXXXXXXXXXoXooooooooooooooooooooooooooooo    oooo  oooo .oooooooXoo..XXXXXXXXXXXXXXXXXOOOOOOOO+@@@@**=====******$$$$$$$$$$****====;;;;;;;;;;===***===**$$$@@@@@@@OOOOOOOOOXXXXXXXXXXXXooooooo..oo                                  ",
"OO@OXX                                  oXXOOO@OOOXXooo       oo oo               ooooooooooooooXXOO@@$$@@@OXXoooooXXXXXXXXXXXOOOOXXoo                       o ooo    ooooooooooooooXXXXXXXXXXXXXXXXXOOOOOOOOOOO@@@@@+OOOOO+OXXXXXXXXXXX.XXXXXXXXOOOOO@O++XXXXXXXXXXX+O+@@$*==**$@@OXXXXXXXXXXXO@@@@@@$**$@@@@$$**$@@@####@OXX...........XXXXXXXXXXXX++@@$*$@@@@@#$@@@@@@@@+@@@@##*#@+XXoo...o........o..o....ooX...oXooXXXXXOOXXXXXO@@@OO@@XX..........   .    ......    .... .......  .......... ................................+++++++++++++++++++++++++++++........+++++&&&+++++++++++++++++++++++++++++++++++++++++++++++++++++++++++++++++++++++++++++++++++++++++++++++++++++++++++++++++&&&+&&&&&&&&++++++++++++++++++++++++++++++++.................+.++++++++.+++..........+++++.+...........++++++.+..........................................................................................  ......  . ..............++++++&&&&&&&&&&&&&&&&&&&&*$$@@$**@@OOOO@@@@**@@@@@@OOXXXXXXXXXXXXXXXXXXXXXXXXXXXXXXXXXXXXXXOOOO@@***$@@@@@@@@$$$$@@@@$$$**====***$$@@@@@@@OOOOOOOOOOOOXXXXXXXXooooooooooooooooooooooooooooo    oo     oooo o oooooooooo.XXX.XXXXXXXXXXXXXXXXXXXXOOOOOOO@@@@**====*******$$@$$$$$$$****===-;;;;;;;;;;-==***===**$$$@@@@@@@OOOOOOOOOOXXXXXXXXXXXoooooooo oo  o                               ",
"@@@OXX                                  oXXOO@@@OOXXooo       oo                  ooooooooooooooXXOO@@$$$@@OXXoooooXXXXXXXXXXXOOOOXXoo                       oooooo   ooooooooooooooXXXXXXXXXXXXXXXXOOOOOO@@@@OO@@@@+++OOO++++XXXXXXXXXXXXXXXXXXOOOOOOOO+XXXXXXXXXXXXOOOO@@@$*****#@OXXXXXXXXXXXOO@@@@@@$$$@@@$$**$@@@@@#@@XXX......o....X.X.XXXXXXXXX+@@$*$@@@@@#$@@@@@@@@+@@@@##*#@+XXoo..........oo..XX......XXXXXXo..XXXXOOXXXXXX@@@OO@@XX..........   .    ......    ............   .........  ......................+++++++++++++++++++++++++++++++++++++++++...+++++++&&&+++++++++++++++++++++++++++++++++++++++++++++++++++++++++++++++++++++++++++++++++++++++++++++++++++++++++++++++++&&+++++++&&&++++++++++++++++++++++++++++++++.............++++..++++++++++++....+.....+++++.++..........++++++++..................................................................................................   ...............++++++&&&&&&&&&&&&&&&&&&&**$$@@$**@@OOOO@@@@**@@@@@OOXXXXXXXXXXXXXXXXXXXXXXXXXXXXXXXXXXXXXXXOOO@$***$@@@@@@@$$$$@@@@@$$$**====***$$@@@@@@OOOOOOOOOOOOOXXXXXXXXooooooooooooooooooooooooooo oo    oo      oo  oooooooooooo.XXX.XXXXXXXXXXXXXXXXXXXXOO+OOOO@@@@***===*******$$@$$$$$$$****===-;;;;;;;;;;-==***===**$$$@@@@@@OOOOOOOOOOOXXXXXXXXXXXoooooooo.ooooo                               ",
"@@OOXXo                                 oXOOO@@@OOXXoo        ooo                 oooooooooooooooXOO@@$$$@@OXXoooooXXXXXXXXXXXOOOOXXooo            o       oooo oooo  ooooooooooooooooooXXXXXXXXXXOOOOOO@@@@@@@@@@++++OOOO++++++XXXXXXXXXXXXXXXXO@@@@@+OXXXXXXXXXXXXOOOOOOO@@@$**==*$@OOXXXXXXXXXOO@@@@@@@@@@@@@#$#$@@@@@@++X......X....XX..XXXXXXXXX+O@@**$@@@@@@$**@@@@@@@@@@@##*#@+XXXX....o......XXX..o..Xoooo..XooXXXXXXOOOXXXXO@@@@@@@XX........     ...  ..   ...   ...    . ....   ....... .............++++++++++++++++++++++++++++++++++++++++++++++++......+++++++&&&&&&&+++++++++++++++++++++++++++++++++++++++++++++++++++++++++++++++++++++++++++++++++++++++++++++++++++++++++++++&&++++++++&&+++++++++++++++++++++++++++++++++++..+++++.........++++&++++++++++.++.....+++++....++......++++++++..................++++++++++.....++++++++.............................................................................++++&&&&&&&&&&&&&&&&&&$$*$$@@$*$@@OO@@@@@$**@@@@@@OOXXOXOXXXXXXXXXXXXXXXXXXXXXXXXXXXXXXXOOO@@$**$@@OOOO@$$$$$@@@@@$$$*===****$$@@@@@@OOOOOOOOOOOOOXXXXXXXXoooooooooooooooooooooooooooooooo    oooo  oo        o.oooo..XXXXXXXXXXXXXXXXXXOOOOXOO+OOOOOO@@@@***===*****$$$$@$$$$$$$****===-;;;;;;;;;;-==*=====**$$$$@@@@@OOOOOOOOOXXXXXXXXXXXXXXoooooooo..oo o                              ",
"@@OOXXoo                                oXOOO@@@OOXXoo        oo                  ooooooooooooooXXOO@@$$$$@OXXoooooXXXXXXXXXXXOOOOXXoooo           o      ooooo ooooooooooooooooooooooooXXXXXXXXXOOOOO@@@@@@@@@@@@++++OOOO+++++XXXXXXXXXXXXXXXXXO@@@@OOOXXXXXXXXXXXXXO+O+OO@@@@@#*==*$@@OOXXXXXXXXXO@@@@@@@@@@@@@$$#$@@@@@+XXX.X...X....XX...XXXXXXX++O@@**$@@@@@@**$@@@@@@@@@@@##*#@+XXXX..........XXXX.o...Xoooo..XXoXXXXXXO@OXXXXO@@@@@@@XX........  . ....   .  ....   ...    ....   . ....................++++........+++++++++++++++++++++++++++++++++++++.....+++++++&&&&+++++++++++++++++++++++++++++++++++++++++++++++++++++++++++++++++++++++++++++++++++++++++++++++++++++++++++++++++&&+++++++++++++++++++++++++++++++++++++++++++++..+++.....+.....++++&+++++++++++++.....++++++...........++++++++..............++++++++++++++++++++++++++++..........................................................................++++++&&&&&&&&&&&&&&&&&&$$*$$@@$*$@@OO@@@@@@*$@@@@@@OOOXOXOXXXXXXXXXXXXXXXXXXXXXXXXXXXXXXXOOO@$*$$@@OOOO@$$$$$@@@@$$$$*===***$$$@@@@OOOOOOOOOOOOOOXXXXXXXXXXooooooooooooooooooooooo o oo   o    oooo ooo      o.ooooo...XXXXXXXXXXXXXXXXXXXXXX+O+O++O@@@@@@@***===**$$$$$$$$$$$$$$$****===-;;;;;;;;;;-=**=====**$$$@@@@@@OOOOOOOOXXXXXXXXXXXXXXooooooooo..   o                              ",
"@@OOXXoo                                XXOO@@@@OOXXoo         ooo                oooooXoooooooXXXOO@@$$$$@@XXooooooXXXXXXXXXOOOOOXXXooo o        oooooooooooooooooo  ooooooooooooooooXXXXXXXXOOOO@@@@@@@@@@@@@@@@@@+OOO@+++++OXXXXXXXXXXXXXOO++++@+++XXXXXXXXXXXXXXXOOO+OOO@@@@@$**==*$@@OXXXXXOOOO@@@@O@@@@@OO@@#*$@@@OXXXXX.X..XX....XX...XXXXXXXX+O@@**$@@@@@@*@*@@@@@@@++@@##*#@+XXXX............X.oooo.XXoX..XXXXXXXXXXO@OXXXXO@@@@@@@XX......... .   ...      ...    ...  ...      ....................++++................................+++++++++++++...++++++++++&&&&+++++++++++++++++++++++++++++++++++++++++++++++++++++++++++++++++++++++++++++++++++++++++++++++++++++++++++++++++&&+++++++++++++++++++++++++++++++++++++++++++++++++++++.++....+++++&+++++++++..++.....+++++..........++++++++++........+..+++++++++++++++++++++&&&+++++++....................................... ..... ............................++++++&&&&&&&&&&&&++&&&&#&*$$$$**$@@@O@@@@@@*$@@@@@@OOOOOXXXXXXXXXXXXXXXXXXXXXXXXXXXXXXXOOOO$$*$@@OOOO@@$$$$@@@@$$$$*====***$$@@@@OOOOOOOOOOOOOXXXXXXXXXXXXXoooooooooooooooooooooo o      o     oo    oo o .oo.o.ooo...XoXXXXXXXXXXXXXXXX+++OOO@@@@@@@@@@@@****===**$$$$$$$@$$$$$$$****===-;;;;;;;;;;-==***===**$$$@@@@@@OOOOOOOOXXXXXXXXXXXXXXooooooooo.o                                  ",
"@@@OXXoo                                XXOO@@@@OOXXoo         ooo               oooXXXXXXXoXXXXXXOO@@$$$$@@XXoooooXXXXXXXXXXOOOOOOXXooooo       oooooooooooooooooooooooooooooooXooooXXXXXXXXXOOO@@@@@@@@@@@@@@@@@@@@OOO@+++++OOXXXXXXXXXXOO@@++++++XXXXXXXXXXXXXXXXXXOOOXXOOOOO@@@@$****@@OOOXXXXXOOO@@OO@@@@@@@@$$$@@@OXX.X......XXX..XX...XXXXXXXXOO@@**$@@@@@@*@*@@@@@@@++@###*#@+XXXX.................X..XXXXXXXXXXXXXXXO@OXXXXO@@@@@@@XX..........    .. .     ...    ..    ..    ......................++++.....................................++++++++...++++++++++&&&&++++++++++++++++++++++++++++++++++++++++++++++++++++++++++++++++++++&++++++++++++++++++++++++++++++++++++++++++++&&++++++++&++++++++++++++++++++++++++++++++++++++++++++++++++++++++&++++++++...+.+.+..++++++..++....+++++++++++............++++++++++++&&&&&&&&++++++++++....................................... ... . .  .........................++++++&&&&&&&&&&&&+++&&&&$*$$@$**$@@@@@@@@@@**@@@@@@OOOOOXXXXXXXXXXXXXXXXXXXXXXXXXXXXXXXOO@@**$@OOO@@@@$$$$@@@@$$$$*===****$$@@@@OOOOOOOOOOOOXXXXXXXXXXoooooooooooooooooooooooooooo           oooo    oooooooo..oooo..XXXXXXXXXXXXXXXXXX++++@@@@##$$$$@@@$*****===**$$$$$$$$$$$$$$$***====-;;;;;;;;;;-==*=====**$$$@@@@@@OOOOOOOOXXXXXXXXXXXXXXoXoooooooo.                                  ",
"@@@OXXoo                               ooXOO@@@@OOXXoo      oooooo              oooXXXXXXXXXXXXXXXOO@@@$@@@OXXoooooXXXXOXXXXXOOO@@OOXXooooo      oooooooXXXXooooooooooooooXXXXooXXooXXXXXXXXXXOO@@@@@@@@@@@@@@@@@@@@@OO+@O++++OOXXXXXXXXXOOO@@@++XOXXXXXXXXXXXXXXXXXXXXXOOOOOOOO@O@@@@**=*#@@XXXXXXXOOOOO@@@@@@@@@$*$@@@OXX.......o.XX..XXXX.XXXXXXXX+O@@**$@@@@@@*@$@@@@@++++@###*#@OX.X...............XXXX.XXX.....XXXXXXXXO@OOXXOO@@@@@@@OX..................  ..    ...    .     . . .....................++++..............................................++++.+++++++&&&&++++++++++++++++++++++++++++++++++++++++++++++++++++++++++++++++++++&+++++++++++++++++++++++++++++++++++++++++++&&&++++++++&&+++++++++++++++++++++++++++++++++++++++++++++++++++++++&&++++++++..++..++++++++...+....+.+.+++++++++++++++++++++++++++++++++++++++++++++++++............+++...........................................................+++++++&&&&&&&&&&&&+++&&&&&*$$@@***@@@O@@@@@@*$@@@@@@OOOXXXXXXXXXXXXXXXXXXXXXXXXXXXXXXXOO@@$*$$@OOOOO@$$$$$@@@@$$$$*===***$$@O@@OOOOOOOOOOOXXXXXXXXXXXXXooooooooooooooooooooooooooooo  o   oooooo        oooooo.oo.oo..XXXXXXXXXXXXXXXXX++O@@@$*****$$@@@*******==***$$$$$$$$$$$$$$$***====-;;;;;;;;;;-========***$$@@@@@@@OOOOOOOOOXXXXXXXXXXXXXXXoooooooo. oo                              ",
"@@@OXXoo                                oXOO@@@@OOXXoo        oo oo             ooXXXXOOOXXXXXXXXXOO@@@@@@@OXXooooooXXXXXXXXXOOO@@OOXXoooooo    oooXXXXXXXXXXXXXXXXXXXXXXXXXXXXXXXXXXXXXXXXXXOOO@@@@@@@@@@@@@@@@@@@@@@O+@O+O++OO++XXXXXXXOOO@@@OXXXXXXXXXXXXXXXXXXO+XXXXXXXOOOOOOO@@@@@@***#@@OXXXXXOOOOOO@@@@@@@$***$@@OXXXX......XXXXXXX.X.XXXXXXX++O@@**$@@@@@@$@$@@@@@++++@@##*#@OXXX...............X..X.XXX..XXXXXXXXXXXO@OXXXOO@@@@@@@OXX................. ...    ....   .     .... ....................++++..............................................++++.+++++++&&&&+++++++++++++++&&&&&&&&&&&&&&&&&&&&&&&&&&&&&&&&&&&&&&&++++++++++++++&&&&&&&&&&&&&&&&&&&&&&&&&&&&&&&&&&&&&&&&&&&&&&&++++++++&&+++++++++++++++&&&&++&&&&&&+&&+++++++++++++++++++++++++&&++++++++..++..+++++++++.......++.+++++++++++++++++++++++++++++++++++++++++++++++++............++++...........................................................+++++++&&&&&&&&&&&+++@&&&&&**@@@**#@@OO@@@@@@*$@@@@@@OOOXXXXXXXXXXXXXXXXXXXXXXXXXXXXXXXO@$**$@@OOOOO@$$$$@@@@@$$$**===**$$$@@OOOOOOOOOOOOOOXXXXXXXXXXoooooooooooooooooooooooooooooooooooo  oo ooo      oooo.oo.oo..X..XXXXXXXXXXXXXXXXX+O@@@#****$$@@$$$********==**$$$$$$$$$$$$$$$****====;;;;;;;;;;;=========**$$$@@@@@@@OOOOOOOOXXXXXXXXXXXXXXXXooooo.ooo oo .                            ",
"@@@OXXoo                                oXOO@@@@OOXXoo           o              ooXXXOOOOOOXXXXXXXOO@@@@@@OXXooo ooooXXXXXXXXOOO@@@OXXXoooooooooooXXXXXXXXXXXOXXXXXXXXXXXXOOOXXXXXXXXXXXXXXXOOO@@@@@@@@@@@@@@@@@@@@@@@++@@OO+OOOOOOXXXXX+O@@@@OOXXXXXXXXXXXXXXXXXXXXXXXXOOOOOOOO@@@@@@@@@#***#@OOOXOXOOOOOOO@@@@$**==*$@@OXXX...ooXX.XXX.....XXXXXXX++O@@**@@@@@@@**$@@@@@++@@@@&#*#@OXX............XXXX.....XXX.XXXXXXXXXXXXO@OXXXOO@@@@@@@OXX...............    ....  ..    ..    .... .....................++++....................................................++++++&&&&+++++++++++++&&&&&&&::::::::::::::::::::::::::::::::::&&&&+++++++&&&&&&&&:::::::::::::::::::::::::::::::::::::::&&&&&&&&&&&&&&&&&&&&&&&&&&&&&&&&&&&&&&&&&&&&&&&&&&&&&&&&&&++++++++++&&+++++++++.++..++++++++........++++++&&+++++++++++++++++++++++++++++++++++++++++++++++++++++++++++............................................................+++++++&&&&&&&&&&&&++@&&&****$@@***@@OOOO@@@@**@@@@@@OOOXXXOOXXXXXXXXXXXXXXXXXXXXXXXXOO@$**$@@OOO@@$$$$$@@@@@$$***==***$$@@@OOOOOOOOOOOOOXXXXXXooXXoXooooooooooooooooooooo       o ooooooo oo  oo  oooooooooooooo...XXXXXXXXXXXXXXXXXOO@@@$****$@@@$*******=****==**$$$$$$$$$$$$$$$****====;;;;;;;;;;;==*======***$$@@@@@@@OOOOOOXXXXXXXXXXXXXoXXoXoooooooo  oo                              ",
"@@@OXXo                                 XXOO@@@@OOXX.o          ooo             ooXXOOOOOOOXXXXXXXOOO@@@@OXXoo   .ooooXXXXXXXOOO@@@OXXXXooooooooooXXXXXXXOOOOOOOOOXXXXXXXO@@@OXXXXXXXXXXXXXXOOO@@@@@@@@@@@@@@@@@@@@@@@++@@OO++OOO++OXXX++O@@@@OXXXXXXXXXXXXXXXXXXXXXXXXXX+OOXXO@@@@@@@@@@@@$*=*#@OOOOOOOOXOO@@@@@$*===*$@@+XX...o......XX....XXXXXXX++O@@**$@@@@@@$*$@@@@@@+@@@@&#*#@@XX...........XXXXX......XX.XXXXXXXXXXXXO@OXXXXO@@@@@@@OX.X....... ......    ....  ..       .  .... .....................+++++...................................................++++++&&&&++++++++++++&&&&&&&&&&&&&&&&&&&&&&&&&&&&&&&&&&&&&&&&&&&&&&+++++++&&&&&&&&&&&&&&&&&&&&&&&&&&&&&&&&&&&&&&&&&&&&&&&&&&&&&&&&&&&&&&&&&&&&&&&&&&&&&&&&&&&&&&&&&&&&&&&&&&&&&&&&&&+++++++++&&+++++++++.++..++++++++....++++++++++&&&&&&&&&&&&&&&&&&&&&&&&&&&&&&+++++++++++++++++++++++++++++++..+++++++.++++..............................................+++++++&&&&&&&&&&&&++@&&&$**$@@@**#@@OOOO@@@@**@@@@@@OOOXOXOOXXXXXXXXXXXXXXXXXXXXXXXX@@$*$$@@OOO@@$$$$$@@@@$$$$**=****$$@@OOOOOOOOXOOOXXXXXXXXoooooooooooooooooooooooooooo         o  ooo  oo ooo  oooooooooooooo.XXXXXXXXXXXXXXXXXXXO@@#****$@@@@$***===*******===**$$$$*****$$$$$****====;;;;;;;;;;;====*=*==**$$$$@@@@@@OOOOOOOXXXXXXXXXXXXoXXoXoooooooo                                  ",
"@@OOXXo                                oXXOO@@@@OOXXoo           oo             ooXXOOOOOOXXXXXXXXXXXXXXXXXo        ooooXXXXXXOO@@@OOOXXoooooooooXXXOOOOOOO@@@@@@@OOOOOOO@@@@@OOXXXXXXXXXXXOOO@@@@@@@@@@@@@@@@@@@@@@@@++@OOO@O++OOXXXOOO+O@@@@+OXXXXXXXXXXXXXXXXXXXXXXXXXXXXXXOOOO@@@@@@@@@@@***#@@OOXXXXOOO@@@@@@***===*$@XXX.X....XXXX...XXXXXXXXXX+O@@$*$@@@@@@$#@@@@@@@+++@@&#**#@XXXX...XX..XXXXXX....X...XXXXXXXXXXXXXXO@OXXXXO@@@@@@@XXX..............   .....         ...... .    ....................+++++...........................................++...+++++++++&&&&++++++++++++&&&+++++++++++++++++++++++++++++++++++++++++++++++++++++++++++&&&&&&&&&&&&&+&&&&&&&&&&++++++++++++++++++++++++++++++++++++++++++++++++++++++++++++++++++++++++&&&++++++&&&++++++++++++.+++++++++++++++++++++++&&++++++++++++++++++++++++++++++++++++++++++++++++++++++++++++..........................................................++++++++&&&&&&&&&&&&+&@&#&$$**$@@**$@@OOOO@@@@$$@@@@@@OOOXXXXOXXXXXXXXXXXXXXXXXXXXOOO@$$*$$@OOOO@$$$$$@@@@@$$$$*==**$$$@@@OOOOOOOOOOOOXXXXXXXXoooooooooooooooooooooooooooooooooooooo o    oooo  ooooooo..ooooo..oXXXXXXXXXXXXXXXXXXXO@@$**=**@@@@*****==*********===**$$**====*$$$$$$***====-;;;;;;;;;;;==****==**$$$@@@@@@@OOOOOOOOOXXXXXXXXXXXXoooooooooo.  o                               ",
"@@OOXX o                               oXXOO@@@@OOOXoo          oo              ooXXOOOOOOXXXXoooooXoXXXXooo         ooooXXXXXOO@@@OOOXXXXooooXXXXXOOOOOOO@@@@@@@@@OOOOO@@@@@@OOXXXXXXXXXXOOO@@@@@@@@@@@@@@@@@@@@@@@@@+@@@@O@O+++++XOOOO+++@@@OOXXXXXXX.XXXXo...oXXXXXXXXXXXXXXXXOOO@@@@$@@@@@@@@@OOOXXXOOOOO@@@@@@@**===*#@XXXX....XXXX...XXXXXXXXXX+O@@$*$@@@@@@$@@@@@@@@+++@@&#**#@++X....XXXXX.XXX.....X....XXXXXXXXXXXXXO@OXXXOO@@@@@@@+X.X.............. .......        ................................+++++...........................................++++.+++++++++&&&&++++++++++++&&&+++++++++++++++++++++++++++++++++++++++++++++++++++++++++++++++++++++++++++++++++++++++++++++++++++++++++++++++++++++++++++++++++++++++++++++++++++++++++++&&&++++++&&&++++++++++++..+++++++++++++++++++++&&+++++++++++++++++++++++++++++++++++++++++++++++++++++.++.++++..........................................................++++++++&&&&&&&&&&&&++@&#&$$**$@@@*$@@OOOO@@@@$$@@@@@@OOOOXXXXXXXXXXXXXXXXXXXXXXXOOO@$*$$@@@OOO@$$$$$@@@@@$$******$$$$@@OOOOOOOOOOOXXXXXXXXXXXooooooooooooooooooooooooo oooo    oo        oooo  oooooooo.ooooo..XXXXXX.XXXXXXXXXX+O@@#******@@@@***=*==**********===**$**=====*$$$$$$***====-;;;;;;;;;;;==****==**$$$@@@@@@@OOOOOOOOOXXXXXXXXXXXXooooooooooo  o                               ",
"@@OOXXoo                                XXOO@@@@@OOXoo         o o              ooXXOOOOOOXXoooooooooooooo           oooooXXXOOO@@@@OOXXXXXXoXXXXXOOOOOOOOO@@@@@@@@OOOOO@@@@@@OOXXXXXOOOOO@@@@@@@@@@@@@@@@@@@@@@@@@@@@@@@@@O@@++O++O+XOOOOO@@@O+OXOXXXXXXXX.....ooooXXXXXXXXXXXXXXXOOO@@@@@@@@OO@OOOOOOXOO@@@@@@@@@@@$$*==#@+XXX......XXXXXXXXXXXXXXX+O@@$*$@@@@@@*@$$@@@@@++++@&#*#@+++.......X..XXXXXXXX.X..XXXXXXXXXXXXXXXO@OOXXXO@@@@@@@XXX........................... . ...  ............................++++............................................++++++++++++++&&&&++++++++++++&&+++++++++++++++++++++++++++++++++++++++++++++++++++++++++++++++++++++++++++++++++++++++++++++++++++++++++++++++++++++++++++++++++++++++++++++++++++++++++++++&&++++++&&&++++++++++++++++++++++++++..+..++++&&++++.++++++++++++....+++++.++++++++++++.................+++++..........................................................++++++++&&&&&&&&&&&+++@&&&&$**$$****@@OO@@@@@@*$@@@@@@OOOXXXXXXXXXXXXXXXXXXXXXXOOOO@$*$$@@OOOO@$$$$@@@@@$$$******$$$@@OOOOOOOOOOOOXXXXXXXXXXooooooooooooooooooooooo oooo    o             oo    ooooooooo..o.o..XXXXXXXXXXXXXXXXO@@$**=***@@@@@**********$$$$$$**===****======**$$$$$***====;;;;;;;;;;;-==**====***$$$@@@@@@OOOOOOOOXXOXXXXXXXXXoooooo..oooooo                                ",
"@@OOXXoo                                XXOO@@@@@OOXoo        ooooo             ooXXOOOOOOXXoo                       oooXXXXOOO@@@@@@OOXXXXXXXXXXOOOOOOOOOOO@@@@@@@OOOO@@@@@@@OOXXXXOOOO@@@@@@@@@@@@@@@@@@@@@@@@@@@@@@@@@@@@@@+++O+O++OOOOO@@@OOOOOOXXXXXX.....o..ooo.oo..XXXXXXXXXXOOOO@@@@@@OOOOOOOO@OOO@@$**$$@@@@@@$**##@XXX......XXXXXXXXXXXXXXXXO@@$*$@@@@@@*$*$@@@@@@++@@&#*#@+++.......X..XXXXX.XXXXXXXXXXXXXXXXXXXXX@@@OOOOO@@@@@@OXX..............................     .............................++++...........................................+++++++++++++++&&&&++++++++++++&&++++++++++++++++++++++++++++++++++++++++++++++++++++++++++++++++++++++++++++++++++++++++++++++++++++++++++++++++++++++++++++++++++++++++++++++++++++...++++++&&+++++++&&++++++++++++++++++++++++++....++++&&+++++.+...++++++++............++++.+++...................++++...........................................................++++++++&&&&&&&&&&&&++@&&&&***$@$**$@@@O@@@@@@*$@@@@@@OOOXXXXXOXXXXXXXXXXXXXXXXOO@@$*$@@O@@O@@$$$$@@@@@$$*****$$$$$$@OOOOOOOOOOXXXXXXXXXXXXooooooooooooooooooooooo   o                    oo   ooooooooooooo..XXXXXXXXXXXXXXXX+@@#*==**$@@@@@@$********$$$@@@@$**===***=======**$$$$$***====;;;;;;;;;;;-==**====**$$$@@@@@@@OOOOOOOOXXXXXXXXXXXXoooooooooooooo                                ",
"@@OOXXoo                                XXOO@@@@@@XXoo        ooooo             ooXXOOOOOOXXoo                       oooXXXXOO@@@@@@@OOXXXXXXXXXXOOOOOOOOOOOOOOOOOOOO@@@@@@@@@OO@O@@@@@@@@@@@@@@@@@@@@@@@@@@@@@@@@@@@@@@@@@@++++O++++XXOO+O@@@OOOOOOXXXXXXXXXooo..oo..oo...XXXXXXXXOOO@@@@@@@@OOOOOO@@@@@@@@$****@@@@@@@@###@OXX........XXXXXXXXXXXXX+O@@**@@@@@@@$$*$@@@@++@@@@&#*#@+XXXX.....X..XXXX.XXX...XXXXXXXXXXXXXXXO@@@OOXOO@@@@@@OXX...............................................................+++++................................................++++++++++&&&&+++++++++++&&&+++++++++++++++++++++++++++++++++++++++++++++++++++++++++++++++++++++++++++++++++++++++++++++++++++++++++++++++++++++++++++++++++++++++++++++++++++++++++++++&&&++++++&&++++++++++++++++++++++++++..++++++&&+++++...................................................++++.............................................................+++++++&&&&&&&&&&@+@+&&&&&**$$@$**$@@OO@OO@@@*$@@@@@@OOXXOOOOOOOXXXXXXXXXXOOOOO@$*$$@@@OOO@$$$$@@@@@@$$****$$$$$$@OOOOOOOOXXXXXXXXXXXXXXXoooooooooooooooooooo  oo   ooo    oooo         o    oooooooooooooo..XXXXXXXXXXXXXXO@@$*===**$@@@@@@@@@$$**@@@@@@@@@@@**===***========*$$$$****====;;;;;;;;;;;-==**====***$$$@@@@@@OOOOOOOOXXXXXXXXXXXXoooooooooo..o   .                             ",
"@@OOXXoo                                XXOO@@@@@OXXoo        ooooo             ooXXOO@@OOXXoo                      oooXXXOOO@@@@@@@@OOXXXXXXXXXXOOOOOOOOOXXXXXXXOOO@@@@@@@@@@@O@@@@@@@@@@@@@@@@@@@@@@@@@@@@@@@@@@@@@@@@@@@+@@++@@+++XOOXOO@@@OOOOOOXXOOXXXXXXXXooXX..oo....XXXXXOOO@@@@@####@@OOOO@@@@@@@@@@$***#@@@OO@@@@@+XXX........X.XXXXXXXXXXX++@@**$@@@@@@$$**@@@@++@@@@&&*#@+XXXX....XX..XXXX..XX..XXXXXXXXXXXXXXXXO@@@OOOO@@@@@@@O+X...............................................................++++++............................................+..++++++++++&&&&+++++++++++&&&+++++++++++++++++++++++++++++++++++++++++++++++++++++++++++++++++++++++++++++++++++++++++++++++++++++++++++++++++++++++++++++++++++++++++++++++++++++++++++++&&&++++++&&+++++++++++++++++++++++++++.+++++&&&++++++..................................................+++..............................................................+++++++&&&&&&&&&&@+@+&&&&&**$$@$**@@@OO@OO@@@*$@@@@@@OOOXOOOXOOXXXXXXXXXXOOOO@@$$$@@@OOOO@$$$$@@@@@@$$***$$$$$$@@OOOOOOOOOXXXXXXXXXXXXXooooooooooooooooooooooo oo  o oo    oooo        oo    oooooooo..oooXXXXXXXXXXXXXXXOO@@**=***$$@@@@@@@@@@@@@@@@@@@@@@@@@**===***========*$$$$****====;;;;;;;;;;;-==*=====***$$$@@@@@@OOOOOOOOXXXXXXXXXXXXoooooooooo..o                                 ",
"@@@OXXoo                                XXOO@@@@@OXXoo        ooooo             ooXXO@@@@OXXoo                      ooXXOO@@@@@@@@@@@OXXXoooXXXXXXOOOOOOXXXXXXXXXXOO@@@@@@@@@@@@@@@@@@@@@@@@@@@@@@@@@@@@@@@@@@@@@@@@@@@@@@@+@@@@@@++OOOO++OO@@O+X+OOOOXXXXXXXXXXXXXXX.oooooXXXXXXOO@@@###****$$@@@OO@@@@##@@@@##$##@@OOO@@++XXXX....XX.X......XXXXXXX++@@**@@@@@@@$$$$@@++++@@@&&&##@+XXXX....XX.XXXX...XXXXXXXXXXXXXXXXXXXXO@@@OOOO@@@@@@@++................................................................++++++.........................................++.+.+++++++++++&&&&+++++++++++&&&++++++++++++++++++++++++++++++++++++++++++++++++++++++++++++++++++++++++++++++++++++++++++++++++++++++++++++++++++++++++++++++++++++++++++...+++...++++++++++&&&+++++&&&++++++++++++++++++++++++++++++++&&&+++++.+..............++...................................................................................................+++++++&&&&&&&&&&@@@@&&&&***$$@$**$@@OO@@@@@$**@@@@@@OOOOOOXXXXXXXXXOXXXXXOO@@$$$@@OOOO@@$$$$@@@@@$$****$$$$$@OOOOOOOXXXXXXXXXXXXXXXXoooooooooooooooooooooooooo  oooooo    ooooo     oooo ooooooooo..o.oXXXXXXXXXXXXXXXXO@@**=***$$$*$@@@@@@@@@@@@@@@OOOOOO@@@$*==****=======**$$******===-;;;;;;;;;;;;==**=====**$$$@@@@@@OOOOOOOOXXXXXXXXXXXXXooooooooo..                                  ",
"@@@OXXoo                                XXOO@@@@@OXXoo       ooooooo            ooXXOO@@@OXXoo                      ooXXOO@@@@@@@@@@OOXXoooooXXXXXOOOXXXXXXXXXXXXXXOO@@@@@@@@@@@@@@@#$@@@@@@@$@@@@@@@@@@@@@@@@@@@@@@@@@@@@@@@@@@@@OOOOOO++OOO@O+++++OOXXXXXXXXXXXXXXX.oooooXXXXXXOO@@@@@@$$$****#@@OO@@@###@@@@@@@@@@@@+@@++XXXX..o.XXXX...X..XXXXXX++O@@**@@@@@@@$$$$@@@+++@@@&&&##@+XXXX....XX.XXX....XXXXXXXXXXXXXXXXXXXXO@@@@OOO@@@$@@@XX................................................................++++++.........................................+.+..+++++++++++&&&&+++++++++++&&&++++++++++++++++++++++++++++++++++++++++++++++++++++++++++++++++++++++++++++++++++++++++++++++++++++++++++++++++++++++++++++++++++++++++++...+++..+..++++++++&&&+++++&&&+++++++++++++++++++++++++++++&&&&&&+++.+++...................................................................................................................+++++++&&&&&&&&&&@@@@&&&&&**$$@@$*@@@@O@@@@@@*$@@@@@@OOOOOOXXXXXXXXOOXXXXOO@@$$@@@OOOO@@$$$$$@@@@$$****$$$$@@OOOOOOXOXXXXXXXXXXXXXXooooooooooooooooooooooooooo    o  oo     ooooo  ooooooooooooooo..ooooXXXXXXXXXXXXXOO@@#*=***$$$$****@@@@@@OO@OOOOOO@OOOO@@@$**=****=======**$$******===-;;;;;;;;;;;-==*=====***$$$@@@@@@OOOOOOOOXXXXXXXXXXXXoooooooooo..                                  ",
"@@@OXXoo                               ooXOO@@@@@OXXoo        oo oo            ooXXOOO@@OOXXoo                      oXXOOO@@@@@@@@@OOXXooooooooXXXXXXXXXXXXXXXXXXXXXOO@@@@@@@@@@@@@@$**$@@@@@@@@@@@@@@@@@@@@@@@@@@@@@@@@@@@@@@@@@+OOO++X+OO@@@O+XXOOOO+XXXXXXXXXXXXXoo....oXXXXXXXXOOO@@@@@@@$****@@@+@@@#*#@@@@O@@@@@@@@++XXXXX.....XXXXXXXXXXX.XXX+++@@**@@@@@@@$$$$@@++++++@@&###@@++XX...XXXXX..XXXXXXXXXXXXXXXXXXXXXXXXO@@@@+O@@@@$@@@O+...............................        .........................++++++..........................................+++++++++++++++&&&&++++++++++++&&+++++++++++++++++++++++++++++++++++++++++++++++++++++++++++++++++++++++++++++++++++++++++++++++++++++++++++++++++++++++++++++++++++++++++++++++++++++++++++++&&++++++&&&++++++++++++++++++&+++&&&&&&&&&&&+++++....++.+.+....++.......................................................................................................+++++++&&&&&&&&&&&&@@&&&&$**$$@@**@@@@O@O@@@@*$@@@@@@OOOXXXOOOXXXXXXXXXOOO@$$$@OOOOOO@$$$$@@@@@$$$***$$$$$$@OOOOOOOXXXXXXXooooooooooooooooooooooo    ooo   oooooo ooo    oo  oooo  o oooooooo.ooooooo..ooXXXXXXXXXXXO@@$*==***@@******@@@@@@OOOOOOOOOOOOOOO@@@$**=****=======*$$$*****====-;;;;;;;;;;;;===*====***$$@@@@@@OOOOOOOOOXXXXXXXXXXoooooooooooooo  oo                              ",
"@@OOXXo                                ooXOO@@@@@OXXoo        ooooo o          ooXXOO@@@@OXXoo                      oXXO@@@@@@@@@@OOXXoooooo ooooXXXXXXXXXXXXXXXXXXXXOOO@@@@@@@@@@@@$***@@@@@@@$@@@@@@@@@@@@@@@@@@@@@@@@@@@@@@@@@++OOOOOOOO@@@OOXXOOO+O+XXXX.XX.oooooo..o.oooXXXXXXXXOOO@@@@@@$****$@@O+@@###@@@OOOO@@@@@+XXXX.X.....XXXXXXXXXX..XXX+++@@**@@@@@@$$$$$@@++++++@#&####+++XX....XXX....XXXXXXXXXXXXXXXXXXXXXXXO@@@@OO@@@@$@@@O+...............................        .........................++++++............................................+++++++++++++&&&&++++++++++++&&+++++++++++++++++++++++++++++++++++++++++++++++++++++++++++++++++++++++++++++++++++++++++++++++++++++++++++++++++++++++++++++++++++++++++++++++++++++++++++++&&++++++&&&++++++++++++++++++&&&&&&&&&&&&++++++++........................................................................................................................++++++&&&&&&&&&&&&@@@&&&***$$@@@*@@@OO@O@@@@*$@@@@@@OOOXXXOOOXXXXXXOXOO@@$$@@OOOOOO@$$$$@@@@@$$$***$$$$$$$@OOOOOOOOXXXXooooooooooooooooooooooooo  o ooo   o oooo  oo    oooooo    o ooooooo.oooo.ooo..XXXXXXXXXXXX+@$**=***$$*******$@@@@OOOOOOOOOOOOOOOOO@@@$**=****=======*$$$******===-;;;;;;;;;;;;===*====***$$$@@@@@@OOOOOOOOXXXXXXXXXXooooooooooooo.  oo                              ",
"@@@OXXoo                               oXXOO@@@@@@OXoo        ooooooo         ooXXXOOO@@@OXXoo                     ooXOO@@@@@OOOOOXXooo ooo   ooooXXXXXXXXXXXXXXXXXXXXOOOOOOOOO@@@@@@***$@@@@@@@@@@@@@@@@@@@@@@@@@@@@@@@@@@@@@@@@@++@+OOOOO@@@@@OOOO+@+OXXXXX......ooo..ooooooXXXXXXXXXXXOOOO@@@$***$@@@O@@##$@@OO+@@@@@++X.XX........XXXXXXX.XXXXXXX+O@@**$@@@@@$$$$$@@@@++++@&&###@+++XX.....XXX...XXXXXXXXXXXXXXXXXXXXXXXO@@@@OO@@@@$@@@++................................. ...  .........................+++++++.....................................+.......++...++++++&&&+++++XX+++++@###@XXXX++++################%%%%%%%%%%%%%%%%%==-----=-====:%&&&&&&==%%%%%%%%%%%%%%%%%%%%%%%%%%%%%%%%%%%%%%%%%%%%%%###################@@@@@###+++++XXXX+++++++++&&++++++&&&++++++++++++++++++&&&&+++++++++++++++++.++......................................................................................++++.........................+++++++&&&&&&&&&&&&+@@&&&#**$$@$**@@@OOOOO@@@*$@@@@@@OOOOXXXOOXXXXXXXOO@@$@@OOOOO@@@$$$$@@@@@$$$**$$$$$$$$$@@OOOOOOOOXXXXXXXoXooooooooooooooooooooo  ooo       oo            oo     ooooooooooo.ooooX.XXXXXXXXXXOO@$*===**$$$********@@@@@OOOOOOOOOOOOOOOOOO@@$**=****=======**$$******===-;;;;;;;;;;;;==****===**$$$@@@@@@@OOOOOOOXXXXXXXXXXoooooooooooooo    o                             ",
"@@@OXXoo                               oXXOO@@@@@@OXoo        ooooooo         ooXXXOO@@@@OXXoo                     oXXOO@@@@OOOXXXXooo oo       oooooXXXXXXXOXXXXXXXXXXXOOOOOOO@@@@@@***$@@@@@@@@@@@@@@@@@@@@@@@@@@@@@@@@@@@@@@@@@@+OOOO++O@@@@@@OO@@@@@@OXXX......oo.ooooXoXXXXXXXXXXXXXXOOOO@@@@$***$@@O@@$$$@@@O@@@@@OXX.X.X.......XXXXXXXXXXXXXXX+@@@**$@@@@@$$$$$@@@@++@+@&&###@+++XX......XX....XX..XXXXXXXXXXXXXXXXXXO@@@@O@@@@@$#@@O+..................................... ..........................++++++++......................................+.+..+++++++++++&&::&########::::::::%%%=::::;::=;===:;;;;;;;;;;;;;;;;;;;;;;;;;;;;;;;-;;;;;;::&:&&:;;-;;;-----;-----;--------;;;;----;;;;;;;;----;-;;;;;;;;-----=========%%%%%%::::#%########&&&&&&&+++&&&&++++++++++++++++++&&&++++++++++++++++++.........................................................................................++++++......................++++++++&&&&&&&&&&&&+@&&&&&**$$@$**@@@OOOOO@@@*$@@@@@@OOOOXXOOOXXXXXOOO@@$@@OOOOOO@@$$$$@@@@@$$$$$$$$$$$$$$$$@OOOOOOOOOXXXXXXXXXoooooooooooooooooooo  ooo       o  oo        ooo    ooooooooooo.ooooXXXXXXXXXXXXO@@#*==***$********$@@@@@@OOOOOOOOOOOOOOOOOOOO@$**=****=======**$$*****====-;;;;;;;;;;;;==***=*=***$$$@@@@@@@@OOOOOOXXXXXXXXXXXooooooooooooo    oo                            ",
"@@@OXXoo                              ooXXOO@@@@@@OXoo         oooooo          ooXXOO@@@@OXXoo                     oXXOO@@@@OOXXoooo            ooooooXXXOOOOOOOXXXXXXXXXXOOOOOO@@@@@@$$**$@@@@@@@@@@@@@@@@@@@@@@@@@@@@@@@@@@@@@@@@@@OO+OO@@@@@@@@O@@@@#@@@XXXoo........oXXXXoXXoooXXXXXXXXXXOOO@@@$***$@@@@$$*$@@@@@@@OXXX.X.............XXXXXXXXXXX+O@@$*$@@@@@#$$$$@@@@++++@&&###@+XXX.......XXXX..XX...XXXXXXXXXXXXXXXXXO@@@@OO@@@@$$#@++.........................................   ..................+.+++++........... o.oo......................++..X#%%%%%%%=--------------------------;;;;;;;;;;;;;---;;;;;---------------------------------=%&&&&&:--------------------------------------------------------------------------%%####%%%===;;;;==-;-======-=%%%%%%%%%####@@@@#####@OOXXX+..XXXo.............................................................................................+++++++++.....................+++++++&&&&&&&&&&&&++&&&&&&$@@@$*$@@@OO@@@@@@$$@@@@@@OOOOOOXXOOXXXOOO@@$$@@OOOOO@$$$$@@@@@@$$*$$$$@@@$$$$$$$$@OOOOOOOOOOXXXXXXXoooooooooooooooooooooo          ooooo      ooo    oo..ooooooooooooXXXXXXXXXXXX@@@**==************$$@@@@@OOOOOOOOOOOOOOOOOOOOOO@$**=****=======*********====-;;;;;;;;;;;;==***=*==**$$$@@@@@@@@OOOOOOOXOXXXXXXXXoooooo.oooooo   o                              ",
"@@OOXX                                 oXXOO@@@@@@OXXo     o  ooooooo          ooXOOO@@@@OXXoo                     oXXOO@@@@OXXXooooo           ooooooXXXOOO@@@OOOXXXXXOOOOOOOOO@@@@@@@@**$@@@@@@@@@@@OOOOO@@@@@@@@@@@@@@@@@@@@@@@@@@O++OO@@O@@@@@@@@@####@@XXXoXXX.o...XXXXooXXoooXXXXXXXXXXOXOOO@@@$***$@@@$***$@@@@@OXXXX......X.......XXXXXXXXXXX+O@@$*$@@@@@#$$$$@@@@++++&&&&##@+XXXX......XXXX..XX..X.XXXXXXXXXXXXXXXXO@@@@OO@@@@$#@@++.................................. ........ ....................++++++........XXXX+@+#++....................+.+#:;---------------------------------%%%%##%%%%%=------------------------------------------=#+&&&&:-----------------------------------------------------------------------------=%@XXXXOO@####%=-;---;;;;;----------------==;::::%%%%#########++++++++.................................................... ................................++++++++++...................+++++&&&&&&&&&&&&&&++&&&&&&$@@@@*$@@@OO@@@@@@*$@@@@@@OOOOOOXXOOXXXOO@@$$$@@OOOO@$$$$@@@@@$$$*$$$$@@@@@$$$$$$$@@OOOOOOOOOOXXXXXXXoooooooooooooooooooooooo      ooooooo     ooo   .ooo.oooooooooXXXXXXXXXXXXXOO@$*==**$*********$$@@@@@OOOOOOOOOOOOXXXOOOOOOOOO@$**==***=======**$*******===-;;;;;;;;;;;;===**=*==**$$$@@@@@@O@OOOOOOOXOXXXXXXXXXooooooooo.oo                                  ",
"@@OOXX                                ooXXOO@@@@@@OXXo     o .ooooooo          ooXXO@@@@@OOXoo                     oXXOO@@@@OXXo           o    oo ooooXOO@@@@@OOOXXOOOOOOOOOOOO@@@@@@@@@$**@@@@@@@@OOOOOOO@@@@@@@@@@@@@@@@@@@@@@@@@@O@+OOO+O+@@@@O@@@@#*##@OXXXXXXXoo....XXoooooXXXXXXXXXXXXXXXXOO@@@#$***$$$****$@@@@OXXXX......X.XX..X...XXXXXXXXX+O@@**$@@@@@#$$*$@@@@++++@&&&##@+XXXXXX.X..X.....XXXXXXXXXXXXXXXXXXXXXXO@@@@@O@@@@@$@@++X.......................................... .......oooooXXXOOOO@@##%%%%%%%%%%%%%-----%#X....................+.+%-----------------------------------#+++++&&&&&&&&&&&&&#####:::::::;;;;;;;;;;;;;;;;-----;;:#++++#:--------------------------------------------------------------------------------%#X...++++++&&&&&&###:===---------------------------------------%%+....................oooooooooXXXOOOOOOOoooooooooooo    ................  ..............++++++++...................+++++&&&&&&&&&&&&&&++&&&&**$@@@@$$@@@OO@@@@@@*$@@@@@@OOOOOOXXOOOOOOO@$$$$@@OO@@$$$$@@@@$$$**$$$@@@OO@@$$$$$$$@@@OOOOOOOOOXXXXXXXXXooooooooooooooooooooooooooooooooooooo  ooooooooooooooooooooooXXXXXXXXXOO@@$====************$@@@@@@OOOOOXOOOOOOXXXXXXXXOOOOO@$**==***=======*$$*******===-;;;;;;;;;;;;===****==**$$$@@@@@@OOOOOOOOOOXXXXXXXXXXooooooooo.oo                                  ",
"@@@OXX                                ooXXOO@@@@@@OXXo     o  oooooooo         ooXOO@@@@@OOXoo                     oXXOO@@@@OXXooo        oooo  oo ooooXOO@@@@@OOOXOOOOO@@@@@@OO@@@@@@@@@@$**@@@@@@@OOOOOOOO@@@@@@@@@@@@@@@@@@@@@@@@@@@+OO++++@O++OOO@@@$$#@OXXXXXXooo.....XoXX..XXXXXXXXXXXXXXXXXOO@@@@$$***$$*****$@@@XXX.......XXXXXX....XXXXXXXXX+O@@**$@@@@@@$$$$@@@@@+++@&&&##@++XXXXXXX..X....XXXXXXXXXXXXXXXXXXXXXXXO@@@@@OO@@@$$@@++X............................+.................. .+##%%%%%%%===----------------------%#.....................+.#------------------------------------++++++&&&&&&&++++++++++++@+@@@##########%%%%%%%%------#+++++#:---------------------------------------------------------------------------------%#@...++++++&&++++++#####%%%%%%----------------------------------#..............X+++####%%%%%%=-----------==----=%%##@XX..... ..     ....    ..............++++++++.................+++++&&&&&&&&&&+&&&++&&&&*&$@$@@@#@@@OO@@O@@@*$@@@@@@OOOOOOXXOOOOOO@@$**$$@@@@$$$$@@@@$$$**$$$@@OOOOO@@$$$$$$@@@OOOOOOOOOOXXXXXXXXXXoooooooooooooooooooooooo oooooooooo ooooooooooooooooooooooXXXXXXXXXOO@$*===**$*********@@@@@@OOOOOOOOXXOXOOOOXXXXXXXOOOOO@$**==***=======*$$*******===;;;;;;;;;;;;;===****==**$$$@@@@@@OOOOOOOOOXXXXXXXXXXXoooooooooooo                                  ",
"@@OOXXoo                              ooXXOO@@@@@OOXoo o    oooooooo.         ooXXOOO@@@@@OXoo                    ooXXO@@@@@OOXoo        ooo o . oo oooXOO@@@@OOOXXXOOO@@@@@@@@@OOOOOOO@@@@@@@@@@@@@@OOOXOO@@@@@@@@@@@@@@@@@@@@@@@@OOOOO@@@@+++@@+OOOO+@@@@@@OXXXXXXXX..XXXXXXooooooXXXXXXXXXXXXXXXOOO@@@@$**********$#@XX.o..X...XX...XXXXXXXX.+XXXXOO@@$*$@@@@@@$$$$&@@@@+++&&&&##@+XXXX.XXXX.XXX.XXXXXXXXX.XXXXXXXXXXXXXXX@@@@@O@@@@$@@@+++X+...........XXX..ooooooooXXOOOOOO@@####%%%#....X%----------------------------------%+.....................+O%-----------------------------------%++++&&&&&&&&&&&&&&&+++++++++++++++++++++++++&&&&&&&&&&++++++%------------------------------------------------------------------------------------%@X++++++&&&&++++&&&&+++++++++######:::;:;;;;------------------#X.+..ooXO@@#%%%----------------------------------------%%%%%#@OXoooo    ..................++++++++..........++...++++++++&&&&&&&&&&&&+&&&&&*#$@$@$$$@@@OOOO@@@@$$@@@@@@OOOOOOOOOOXXOO@@$**$$@@@$$$$@@$$$$$$$$$$@OOOOOOO@@$$$$$$$$@@OOOOOOOOOXXXXXXoooooooooooooooooooooooooooooooooooooooooooooooooooooooooooXXXXXXXXXXO@@$*==***********$$@@@@@OOOOOOOOOXXOOOOXXXXXXXXOOOOOOO@@$*===***=======*$$******====;;;;;;;;;;;;;===****==**$$$@@@@@@@OOOOOOOOXOXXXXXXXXXooooooo.oo.                                   ",
"@@OOXXoo                              ooXXOO@@@@@OOXooo     oooooooo.        oooXXOOO@@@@@OXoo                    ooXXO@@@@@@OXoo       ooooooooooooooXXOO@@@@OOXXXXOOO@@@@@@@@@OOOOOOOOO@@@@@@@@@@@@@OOOOO@@@@$***$@@@@@@@@@@@@@@@@O+OOO@@@@@@@++OOO++++O@OXXXOXXXXXXXXXoXXXX.ooooooXoXXXXXXXXXXXXXXOOO@@@$*********$$@OXX...X...XX..XXXXXXXXXXXXXXXXO@@$*$@@@@@@$**$&@@@@+++&&&&##@+XXXXXXXXXXXXXXXXXX.X..XXXXXXXXXXXXXXXXX@@@@@O@@@@@#@@++...+..+..X...XX+@@@@####%%%%%==-------------#.+..#=---------------------------------%#X......................@=-----------------------------------%++++&&&&&&&&&&&&:&&+++++++++++++++++++++++++++++++++++++++++%-------------------------------------------------------------------------------------=#++++++&&&&+++++&&&++++++++++++++++@######%%%----------------%X.+++#%=--;;;--------------------------------------------------=%%##+X.   .....  ........++++++++++..............+++++++&&&&&&&&&&&&&@@&&#&***$@@$$$@@@OOOO@@@@$$@@@@@@OOOOOOOOXOXOOO@$$**$$@@@@$@@@$$$$$$$$$$$@OOOOOOO@@$$$$$$$$@@@OOOOOOOOXXXXXXXooXoooooooooooooooooooooooooooooooXooooooooooooo.oooooooXXXXXXXXXXXO@$*==**$********$@@@@@@OOOOOOXOOOXXXXOOOXXXXXXXXOOOOOOOO@$**=****=======*$$******====;;;;;;;;;;;;;===****==***$$@@@@@@@OOOOOOOXXOXXXXXXXXXooooooo.ooo                                   ",
"@@@OXXoo                               oXXO@@@@@@OOXooo   oooooooo.ooo       oooXXOO@@@@@@OXoo                    ooXXO@@@@@@OXoo      o.oooooooooooooXXOO@@@@OOXXXXXOOO@@@@@@OOOXXXXOOOOOO@@@@@@@@@@@@@OOO@@@@$****$@@@@@@@@@@@@@@@+++++@@@@OOO++OOXOX+XXOXXXXXOOO@OXXXXXXXXXXXXoXX.ooXXXXXXXXXXXXXXXXO+O@@@#$$**$$$@@@OXXX....XXXX...XXXXXXXXXXXXXX+O@@**$@@@@@@$**$&@@@+++++&&&###+++XXXXX++X.+XXX.XX+XXXXXXXXXXXXXXXXXXXOO@@@@OO@@@@@@@OOOOOOO@@$%%%%%%%----------------------------%O++++%---------------------------------;%++++++++++++.........+.X%-----------------------------------=#++++&&&:&&&&&&&&::&&++++++++++++++++++++++++++++++++++++++++%--------------------------------------------------------------------------------------%#+++++&&&&++++&&&&++++++++++++++++&&&&&++++++#####::=-;;----:@++.+%;--------------------------------------------------------------%%@OOOXXXX..... . ....++++++++++....+..+++..++++++&&&&&&&&&&&&&&@@&&**&**$$@$$$@@@OOOO@@@@$@@@@@@@OOOOOOOOXOOOOO@@***$$@@@$@@$$$$$$$$$$$$$@OOOOOOO@@$$$$$$$@@@@@OOOOOOOOXXXXXXXooXoooooooooooooooooooooooooooooXXoooooooooooooooooooooXXXXXXXOOO@$**==**********$@@@@@@OOOOOOOXXXXOOXXXXXXXXXXXXXXOOOOOOO@@$**=****=======$$$******====;;;;;;;;;;;;;===****==**$$$@@@@@@@OOOOOOOXXOXXXXXXXXXooooooooooo   oo                              ",
"@@@OXXoo                               oXXO@@@@@@@OXooo   ooooooooo.oo       oooXXOO@@@@@@OXoo                    ooXXO@@@@@@OXXoo     o ooooooXooooooXXOO@@@@OXXXXXXXOOOOOO@@OOXXXXOOOOOOOO@@@@@@@@@@@@@@@@@@@@$******$@@@@@@@@@@@@@OOOO@@@OOOO@@OOOOXXXXXXXXXXOO@@@@OXXXXXXXXXXXXXooXXXXXXoXXXXXXXXXXXOOOO@@@@$*$@@@@@OXXX....XXXX.XXXXXXXXXXXXXXXXXO@@**$@@@@@@$**$&@@@@++&+@&&###+++XXX+XXX.+++++++X+XXXXXXXXXO@@@#######$%**####$$$**%%%===----------------------------------------#X++X#----------------------------------=@+++++++++....+.....+++.+%-----------------------------------%O++++&&&:&&&&&&&&::&++++++++++++++++++++++++++++++++++++++++#----------------------------------------------------------------------------------------=#++++&&&&++++&&&&++++++++++++++++&&&&&+++++++.XXXX@@@##%%%%:+++++#-------------------------------------------------------------------==%%####+++X......+.+++++++++.........++++++++&&&&&&&&&&&&&&@@&&*&&**$$@$$$@@@OOOO@@@@$@@@@@@@OOOOOOOXOXXOOO@@***$$$$$$@$$$$$$$$$@@@$$@OOOOOOO@@$$$$$$$@@@@@OOOOOOOOOXXXXXXXooXooooooooooooooooooooooooooooXXXXooooooooooooooooXXXXXXXXXO@@@$*==***********$@@@@OOOOOOOOOOXXXXXXXXXXXXXXXXXXXXOOOOOO@@@$**=****======*$$$******====;;;;;;;;;;;;;===***===***$$@@@@@@@OOOOOOOXXOOXXXXXXXXooooooooooo   ooo                             ",
"@@@OXX                                 oXXO@@@@@@@OOoo     oooooooooooo       ooXXOO@@@@@@OXoo                    ooXXO@@@@@@OXXoo    .o .ooooXXooooooXXOO@@@@OXXXXXXXXXOOOOOOOOOOOOOO@@@@@@@@O@@@@@@@@@@@@@@@@@@@*******$@@@@@@@@@@@@@OO+O@OO@@OOOOOOOXXXOOXXXXXXO@@@OOOOOO@OOXXXooooXXooXXXX.oXXXXXXXXXXXO+O@@@$@@@O@@XXXX...XX..XXXXXXXXXX++XXXXX+++@@**$@@@@@##$*$#@@@&&+@@@&&###@++X....X+XXXXXXXXXOOO@#%%%-----------------------------------------------------------------------%++++@%----------------------------------:+&&&&&&++++++++.....+..X#------------------------------------#+++++&&&&&&&&+&&&::&++++++++++++++++++++++++++++++++++++++++#-----------------------------------------------------------------------------------------%+.++&&&&++++&&&&&+++++++++++++++&&&&++++++++++++++++++++++++++++O%---------------------------------------------------------------------%%%%%%%%%%%%%%##@@OOXXOOXXXXX........++++++&&&&&&&&&&&&&+@+&&&&&&&&@@@*#@@@@@OO@@@@$$@@@@@@OOOOOOXXXXXOOO@@$$$$$@@@@@@$$$$$@@@OO@@@@OOOOOOO@@$$$$$$$@@O@@OOOOOOOOOOOXXXXXXXoXXXoooooooooooooooooooooooooXXXXoooooooooooooXXXXXXXXXXOO@$*===**********@@@@@@OOOOOOXXXXXXXXXXXXXXXXXXXXXXXXXOOOOOOO@@@$**=****======*$$$******===-;;;;;;;;;;;;;===**====***$$@@@@@@@OOOOOOOOOXXXXXXXXXXooooooooooo   oo                              ",
"@@@OXXo                                oXXO@@@@@@@OOoo    oooooooooooo        ooXXOO@@@@@@OXXoo                   ooXXO@@@@@@OXXoo    oo..ooooXXooo.ooXXO@@@@@OOXXXXXXXXXOOOOOOOOOO@@@@@@@@@@@@O@@@@@@@$$$$$$@@@@@@@$*****$$@@@@@@@@@@@@++OOOO@@OOOOOOOOXOOOXXXXXXXOO@OOOO@@@@OXXX..oo.oo...XXooXXXXXXXXXXXXXOO@@@@@@OOOXXXXX....X.XXXXXXXXX++XXXXXX+++@@**$@@@@@#$$**#@@@+&@@@@&&###@++++++XXXXXXXX@##%%%-------------------------------------------------------------------%%%%%%%%%%@++++#-----------------------------------#&&&&&&&&++++++.....+...X%-----------------------------------%#+++++++&&&&&&&&&&::&+++++++++++++++++++++++++++++++++++++++O%------------------------------------------------------------------------------------------#+++&&&&++++&&&&&+++++++++++++++&&&&++++++++++++++.......+.+++++O%------------------------------------------------------------------------%%OO@#%%%-------%%%%####@OXXXX....+.++++&&&&&&&&&&&&&&++&&&&&&&&$@@*#@@@O@OOO@@@$$@@@@@@OOOOOOXXXXOOOOO@@$@@@@@@@@$$$$$@@OOOO@@@@OOOOOOO@@$$$$$$$@OO@@OOOOOOOOOOOOXXXXXoXXoXooooooooooooooooooooooooXXXXXoooooooooooooXXXXXXXXOO@@*===***********@@@@@@OOOOOOOOOXXXXXXXXXXXXXXXXXXXXXOOOOOOOOO@@@$**==**=======*$$$*****====-;;;;;;;;;;;;;===**====**$$$@@@@@@@OOOOOOOOOXXXXXXXXXXoooooooooooo  oo                              ",
"@@@OXXoo                               oXXO@@@@@@@OOXo      ooooooooooo      oooXXOO@@@@@@OXXooo                  ooXXO@@@@@@OXXooo   .o.o.ooXXXXXo.oXXXO@@@@@OOXXXXXXXXXOOOOO@@@@@@@@@@@@@@@@@@@OO@@@@#$*******$@@@@@$******$@@@@@@@@@@@@@@+++@+OOOOOXXXOOOOXXXXXXXOOOOO@@@@@OXX.o.oooooo..XXXXXXXXXXXXXXXXXXXO@@@@@OOXXXXXXX.X..XX++@@@@@@@+XX+XXX+++@@**$@@@@@#$$*$@@@@++@@&&&&###+++XXXXXXXOO@%%--------------------------------------%#@@O+OO++++++++XXXX+++X++++++++++++++X.+++++.++++%----------------------------------%&&&&&&&&&&+++++++.++...+#------------------------------------%++++++++&&&&&&++&&:&&+++++++++++++++++++++++++++++++++++++++#=------------------------------------------------------------------------------------------#O++&&&&++&&&&&&&&++++++++++++++&&&&++++++++++++++++++++++++++++X#--------------------------------------------------------------------------%#XoXXX@##%%------------%%%%%%@OOOOOOO++&&&&&&&&&&&&&&&&&&**&&$$@*#@@OOOOO@@@@$$@@@@@@OOOOOXXXOOOOOOOOOOOOOOOOO@@@@@OOOOOOOO@@@OOOOOOO@@$$$$$$$@OO@@@OOOOOOOOOOOOXXXXoXoXoooooooooooooooooooooooooXXXXXoooooooooooooXXXXXXO@@@**==**********$$@@OOOOOOOOXXXXXXXXXXXXXXXXXXXXXXXXXOOOOOOOOOOO@@@$**==***=====**$$$$****====-;;;;;;;;;;;;;===**====**$$$@@@@@@@OOOOOOXOOXXXXXXXXXXoooooooooooo  o                               ",
"@@@OXXoo                              ooXXO@@@@@@@OOXo      .ooooooooo       oooXXOO@@@@@@OXXooo                  ooXXO@@@@@@OXXooo   oo.ooooXXXXXooooXXO@@@@@OOXXXXXXXXXXOOO@@@@@@@@@@@@@@@@@@@@@@@@@@@$***====**$$@@@@*******$@@@@@@@@@@@@@@@O+OOOOXXXXXOOOXXXXXXXXXXOO@@@@@XXX...oooooo...oXXXXXXXXXXXXXXXXXXO@OOOOXXXXXXXXXX.XXX+@#########@@@+X+++@@**$@@@@@#$$*$#@@@++@@&&&&###@++XXXO@@#%=----------------------------------------%@OXX.Xoo......................+++++...........+++#-----------------------------------#++++&&&&&&&++++++++++.++%------------------------------------%++++++&&&&&&&&&&:::::&&&&&&&&&####&&&&&&&###&&&&&&#&&&&+++++#;------------------------------------------------------------------------------------------%@++&&&&++&&&&&&&&++++++++++++++&&&&&+++++++++++++++++++++++++++X#---------------------------------------------------------------------------%#O..  ooooO@##%%---------------%%%%%:#:&::&&&&&&&&&&&&**=**&$$$*#@@@O@O@O@@@$$@@@@@@OOOOOXXXOOXXOOOOOOOOOOOXOOOOOOOOOOXXOO@@@@OOOXOO@@$$$$$$$@OO@@@@OOOOOOOOOOOOXXXXoXXoooooooooooooooooooooooooXXXXXXooooooooooXXXXXXX@@@**==***********@@@@@OOOOXOOOXXXXXXXXXXXXXXXXXXXXXXXXOOOOOOOOOOOOO@@$**==***=====*$*$$$****====-;;;;;;;;;;;;;===***===**$$$@@@@@@@OOOOOOXXOXXXXXXXXXXoooooooooooo .                                ",
"@@@@XXoo                               oXXO@@@@@@@OXXo    ooooooooooooo      oooXXOO@@@@@@OOXo                    ooXXO@@@@@@OXX.oo  ..ooooXXXXXXXXoXXXX@@@@@@OOOXXXXXOOOOOO@@@@@@@@@@@@@@@@@@@@@@@@@@@@@$**=======**$@@@@$******$@@@@@@++@@@OOO@@OXOXXXXXOOOOOOXXXXXXOOO@@@@OXXoooo..oooooo...XXXXXXXXXXXXXXXXXOXXXXX+XXX....XXXXXXXX+@@@@###***$#@@@@@@#**@@@@@@***$@@@@@@@@&&&&###@OOO@%%--------------------------------------------=#@X+...+...++.............+++++++++++++........++@%----------------------------------#+++++++&&&&&&++++++.....#-------------------------------------=%%%%%%%%%%%%------------------------------------------:&&&++%-------------------------------------------------------------------------------------------%#@@####++++@####@++++++++++++++&&&+++++++++++++++++....+++++++++&%----------------------------------------------------------------------------%Oo.........++++##%%%----------------------%%%%###@####=**$$@$$#@@@O@@@@@@@$$@@@@@@OOOOOOXXXXXOOOOOOOXXXXXOXXXXXXXXXXXXXO@@@OOOOOOO@@$$$$$$@$@@OOOOOOOOOOOOOXXXXXXXXXXXooooooooooooooooooooooXXXXXXXooooXXoXXXXXXXOOO@@**==**********$$@@@@OOOOOOXXOOXXXXXXXXXXXXXXXXXXXXXXOOOOXOOOOOOOOOO@@$**=****=====**$$$******===;;;;;;;;;;;;;;-===**===**$$$@@@@@@OOOOOOOOOOXXXXXXXXoXXXoooooooooooo                                ",
"@@@@XXoo                               oXXO@@@@@@@OOXo    ooooooooooooo      oooXXOO@@@@@@OOXo                    ooXXO@@@@@@OXXooo  ..ooooXXXXXXXXXXXXX@@@@@@@OOOOOOO@@@@OO@@@@@@@@@@@@@@@@@@@@@O@@@@@@@@$**=======**$$@@@@*******$@@@@@@++@@@@OOOOOOXXXXOOOOOOOXXXXOOOO@@@OOXXoooo...o.oooo...XXXXXXXXXXXXXOOOOXXXXXXXXXXXXXXXXXXXXXX+OOO@@@@@@###@@@@@###@@@@@$$**$#@####&&&&&&######=----------------------------------------------=$@OXX....+.+++++..+...++++.+++++++++++++........++#-----------------------------------#X+++++++&&&&&+++++++.++X#--------------------------------------------------------------------------------------------:&&&&:=--------------------------------------------------------------------------------------------===;;;:%%:::::=:%:%##########&&&::&&+++++++++++++++++++++++++++++%-----------------------------------------------------------------------------#X..........+++XXXXOO#%%%--------------;-;----;;=========**$$##@@@@@O@@@@@$$@@@@@@@OOOXOXXXXXXXXXXOXXXXXXXXXXXXXXXXXXXOO@@@OOOOOOO@@$$$$$$$$@@@OOOOOOOOOOOOOXXXXXXXXXXoooooXXoooooooooooooooXXXXXXXXooooXXXXoXXXXO@@**=***********$$@@@@OOOOOOOXOOXXXXXXXXXXXXXXXXXXXXXXXXXXOOOOXXOOOOO@@@@$**=****=====**$$$$***=*===;;;;;;;;;;;;;;-===**===**$$$@@@@@@OOOOOOOOOOXXXXXXXXXoXooooooooooooo                                ",
"@@@@XXoo                              ooXXO@@@@@@@OXXo    ooooooXXooooo      oooXXOO@@@@@@OOoo                    ooXXO@@@@@@OXXoo    ooo.XXXXXXXXXXXXXX@@@@@@@OOOO@@@@@@@@@@@@@@$$$$$@@@@@@OOOOOOOOO@@@@@@#***======***$@@@@********$@@@@@@@@@OOOOOOOOXXXOOOXXXOOXXOOOO@@@@OXXXoooo.ooo..oooo......XXXXXXXXOOOOOOXXXXXXXXX.+.X+XXXXXXXXO+++++@@@@@@@@@@@$$@@@@@@$%%%=====-==#####%%%%-------------------------------------------------%#@XX++++......++++......+..+++++++++++++........X+%----------------------------------%+.++++++++&&&&&&+++++++.@%------------------------------------=%======-----------------------------------------------%&+&&#:----------------------------------------------------------------------------------------------::;:;;:;----------------------------=%%%%%%%%%%%#####@@@@@+X++++%------------------------------------------------------------------------------%Xo......+++++++.......++###%%==;;;;;-----------------==**$%*%%$@@OOOOO@$$@@@@@@OOOOOOOOXXXXXXXXXXXXXXXXXXXXXXXXXXXXXOO@@@OOOOOOOO@$$$$$$@@@@@@@@O@OOOOOOOOOOXXXXXXXXXoooooXXooooooooooooooXXXXXXXXXXoXXXXXXXOO@@**************$$@@@OOOOOOOOXXXXXXXXXXXXXXXXXXXXXXXXXXXXOOOOOXXXXOOOO@@@@@$**=****=====**$$$****=====;;;;;;;;;;;;;;-===**===**$$$@@@@@@OO@OOOOOXXXXXXXXXXXooooooooooooo  oo                              ",
"@@@@XXoo                              ooXXO@@@@@@@OXXo    ooooooXXXoooo.     oooXXOO@@@@@@OOXo                    ooXXO@@@@@@OXXXo    ooo.XXXOOOXXXXXXXX@@@@@@@OOO@@@@$$@@@@@@@@@$$*$$@@@@@OOOOXOXXOOOO@@@@@@$*****====****@@@@@$******$@@@@@@@+@@OOOOOOXXOOOXXXOOOOOOOOOOOOOXXXo.oooooo..ooooo..oo...XXXXXXOOOOXXXXXXXXXXXXXXXXXXX+++XX+O++++@O++@@@@@@$$***====--------=%#####%==---------------------------------------------------%@#@XX.+++.++++++++...+++++..+++++++++++++........X#-----------------------------------%+.++++++++&&&&&&++++++++#;------------------------------------#@@@@@####%%%%%%%%=------------------------------------%&+&&+:--------------------------------------------------------------------------------------------=%@@#######%%=------------------------------------;--;;----=#@++++#-------------------------------------------------------------------------------#X..+....++++++++........oXXO@##%%==------------------=$$$$=---==%%$$$$$$$@@@@@@OOOXXXOOXXXXXXXXXXXXXXXXXXXXXoXXXXXXXO@@@OOOOOOOO@$$$$$$@@@@@@@@@@OOOOOOOOOXXXXXXXXXXXXXXXXXXXooXoooooooooXXXXOXXXXXXXXXXXXO@@***************$@@@@OOOOOOXXXXXXXXXXXXXXXXXXXXXXXXXXXOOOOOXXXXXXXOOO@@@@@@@$*===***=====*$*$$****=====;;;;;;;;;;;;;;-===**===**$$$@@@@@@@O@OOOOOXXXXXXXXXXXooooooooooooo  o                               ",
"@@@@XXoo                              ooXOO@@@@@@@OXXo.   ooooooXXXXoooo      ooXXOO@@@@@@OOXXo                   ooXXO@@@@@@OXXXoo  ooooXXXO@@@OOXXXXXO@@@@@@@OO@@@@$$$*$@@@@@@@$**$$$@@@OOXXXXXXXXXXOOOO@@@@@@*****===****$@@@@$******$@@@@@@@@@OX+XXOXXOOXXXXOOOOXXOOOO@OXXXXoooXXXoo..oooooooooo.oXXXXXXOOXXXXXXXXXXXXXXXXXXXXXXXXXXXOOOOOOO@@@@@$%%%=-------------=%##@@##%----------------------------------------------------=%@@@@+X.+++........++........++++X++++@+X..........O%----------------------------------=@++++++++++&&&&&&++++++.+%------------------------------------%&+++++++++++++&&&&&&&&&&&&&&:::::::::;;;;;;;---;;;---;;%++&+#%---------------------------------------------------------------------------------------------%++&&&&+&+&&&&&&&##%=====--;-------------------------------%O++++#--------------------------------------------------------------------------------%Xo+..+++++++++...+....++++++++&&&&&:::==------------=$$$$=-------------%%%%$$@OOOOOOOOXXOOXXXXXXXXXXXXXXXXXoXXXXXoXO@@@OOOOOOOO@$$$$$$@@@@@@@@@@OOOOOOOOOOOOXXXXXXXXXXXXXXooooXXooooooooXXXOOXXXXXXXXXOO@@**==**$$*****$$@@@@@OOOOXXXXXXXXXXXXXXXXXXXXXXXXXXXXXOOOOXXXXXXXXOOO@@@@@@@@@$*===***=====*$$$$*****====;;;;;;;;;;;;;;-====**==**$$$@@@@@@@@@OOOOOXXXXXXXXXXXXXoooooooooo   o                               ",
"@@@@XXoo                              ooXOO@@@@@@@OXXo.   ooooooXXoooooo      ooXXOO@@@@@@OOXXo                 o ooXXO@@@@@@OXXXoo  ooo.XXXO@@@@OXXXXXO@@@@@@OOOO@@@$****$@@@@@$$***$$@@@OOXXXXXXXXXXXXOOOO@@@@@@*****====***$@@@@@*******@@@@@O@O+OX+XXXOOXXXXXOOXXXOOOXOOXXXXXXXXXXXooooooooooooooooX.XXXOOXXXXXXXXXXXXXXXX.X..XXXXXXO@@@##%%====------------------=%#@@##==;----------------------------------------------------%@@@@@@X......+.....+++++.+++++++++@######@+O@+.....#-----------------------------------%X+.++++++++&&&&&&&+++++.#------------------------------------;%&++++++++++++++++++++++++++++++@+@@#########%%%%%==---%#++++#:-------------------------------------%%%%%%%%%%%%%%%%---------------------------------------;%++&&&&+++++&&++++++@@@@@#%%%%-----------------------------%@++++#=--------------------------------------------------------------------------------#X...+++++&+++...+++++.+..++++&&&&&&&&@##%%%==------=%$@$=-------------------=%%$#@@OOOOXXXXXXXXXXXXooXXXXooXXXXXXXO@@@OOOOXOOO@$$$$$$$@@@OO@@@@OOOOOOOOOOOOXXXXXXXXXXXXXXXXXXXXXooooooXXXXOOOXXXXXXXO@@$*==**$$******$@@@@@@OOOOOXXXXXXXXXXXXXXXXXXXXXXXXXXXXOOOXXXXXXXOOOO@@@@@@@@@@@$**==***=====*$$$$*****====;;;;;;;;;;;;;;-====**===*$$$@@@@@@@@O@OOOOXXXXXXXXXXXXXooooooooooo                                  ",
"@@@@XXoo                              ooXOO@@@@@@@OXXX     oooooooooXooo     oooXXO@@@@@@@OOXXo                 o ooXXO@@@@@@OXXooo  ooooXXOO@@@@OOXXXXO@@@@@@OOOOO@@@$*****@@@@@$***$$@@@OOXXXXXXXXXXXXXOOOOO@@@@@@@****====****$@@@@*******@@@@@@OOXXXXXOOOOXXOOOXXOOOOOOOOXXXXXXXXXXXXoooooo.ooooooo.XXXOOOOXXXXXXXXXXXXXXXXOOO@##%%%==--------;----;----------====#@@@#%=------------------------------------------------------%@@@@@@OXXXooXXXXXXOOOO@@###%%%%%-------------=#@X.X+%-----------------------------------#.++++++++++++&&&&&&+++++#------------------------------------:#&&&+++++++++++++++++&&&&&&&&++++++++++++++++++++&&&&&&&+&+++#=-------------------------------------%&++++++&++++++&#=--------------------------------------%++&&&&&+&+&&&&+++++++++++++++&&:&####%%%=------------------$++++@=--------------------------------------------------------------------------------%@X.++++++&&++.+++++..++++++++&&&&&&&&&&++@@@##*===;==$@@*--------------------------%%%%%$@OOOOXoooXoXXXXoooooXXXXXO@@@OOOOXOO@@$$$$$$$@@OO@@@@@OOOOOOOOOOOOXXXXXXXXXXXXXXXXXXXXXooooooXXXXOOOXXXXXO@@**=***********$$@@@OOOOXXXXXXXXXXXXXXXXXXXXXXXXXXXXXXOOOXXXXXXXOOOOOO@@@@@@@@@@@@$**=****=====*$$$$****=====;;;;;;;;;;;;;;-====**==**$$$@@@@@@@@OOOOOOOXOXXXXXXXXXXooooooooooo  o                               ",
"@@@@XXoo                              ooXOO@@@@@@@OXXo    .oooooooooXooo o   oooXXO@@@@@@@@OXXo                 o ooXXO@@@@@@OXXoo.  oo.oXXOO@@@@@OXXXXO@@@@@@OOXXOO@@$$****@@@@@$***$$@@@OOOXXXXXXXXXXXXOOOOOOOOO@@@@@****====****$@@@@$*****$@@@@OOOXXXOOOOOXXOOXXXOOOOXXOOXXXXXXXXXXXXoooo..ooooo....XXXOO@OXXXXXXOO@@@###%%%==-------==%%%%%%%%%%%%%%%%%%%$@$$$$$#@@#=-;------------------------------------------------------%@@@#####@####%%%%%==--;;;---------------------=#X..X#-----------------------------------%+++++++++++++&&&&&&&++++#:------------------------------------:#&&&+++++++++++++++++++&&&++++++++++++++++++++++++++++++++++&%--------------------------------------#+++++++++++++++#%-------------------------------------=#&+&&&&++++&&&&&+++++++++++++++&&#+++OOOO@#%%%%%------------%++++@%---------------------------------------------------------------------------------%+.+++++&&&++++.....+++++++++&&&&&&&&&&&+@+@@####*==*#@@%----------------------------------%%%#@OOXXXXXXooXXXXXXXXO@@@OOOOXOO@@$$$$$$$@@@@@@@@@OOOOOOOOOOOOXXXXXXXXXXXXXXXXXXXXXXXXoooXXXXOOOOOXXO@#*=***@*******$$@@@@OOOOOXXXXXXXXXXXXXXXXXXXXXXXXXXXOOOOOXXXXXXOOOOOOOOOOO@@@@@@@@@$*===***====*$$$$$****=====;;;;;;;;;;;;;;-=====*==**$$$@@@@@@@@OOOOOOOXOOXXXXXXXXXooooooooooo  o                               ",
"@@@@OXoo                              ooXOO@@@@@@@OXXo     .ooooooXXooo    oooooXXOO@@@@@@@OXXo                   ooXXO@@@@@@OXXX.o  .o.XXXXO@@@@@OOXXXO@@@@@@OOXXXO@@@@$$$$@@@@@$*****$@@OOOOXXXXXXXXXXXXXXXXXOOXXOO@@@@***======***$@@@@$$****#@@@@OO+OOXXXXXXXXXOOOOOOOOOOXXXXXXXXXXXXXXooo..........XXXOO@@@OOO@###%%%%%%%%%###@@@@@OOOOOOOO++++@@@@&&&&&&&+&@&&#$$*----------------------------------------------------------%%====-----------------------------------------#+..+O%----------------------------------;#&&&&&&&&&&&&&&&&&&&&&&++#-------------------------------------&&&&&&+++++++++++++++++++++++++++++++++++++++++++++++++&+&+++&%-------------------------------------:#++++++++++++++&&#:------------------------------------=#&&&&&&&+++&&&&&&&&&+&&&&++&&&&&&&&++++++++++++++##::::===;:%+++++&;;--------------------------------------------------------------------------------%OXXXX++##++....++++++++++++&&&&&&&&&&&&++++&&&&&#**#$#*=----------------------------------------%%$@OOooXoooXXXXO@@@OOOOXOO@@$$$$$$@@@@@@@@@@OOOOOOOOOOOOXXXXXXXXXXXXXXXXXXXXXXXXXoXXXXOOOOO@@@**=***@$******$@@@@@OOOOXXXXXXXXXXXXXXXXXXXXXXXXXXXXOOOOXXXXXXXOOOOOOO++@@@@@@@@@@@@@***==***====**$$$$*****====;;;;;;;;;;;;;;;====**===*$$$$@@@@@@@@OOOOOXXOOXXXXXXXXooooooooooooo o                               ",
"@@@@OXoo                              ooXXO@@@@@@@OOXo     .ooooooXXooo    oooooXXOO@@@@@@@OXXo                   ooXXO@@@@@@OXXXoo. .o.XXXXO@@@@@@OXXXO@@@@@@OOXXXOO@@@@@@@@@@@@$*****$@@OOOOXXXXXXXXXXXXXXXXXOXXXOO@@@@@$***======***$@@@@$****$@@@@OOOOXXXXXXXXOOOOOO@OOOOXXXXXXXXXXXXXXoooo....oo.o..XXOO@OOOOOOO@@@OOOOOOOXXXXXXXXXXXXXXXXXO+++@@@@&&&&&&&&&&&&*==;--------------------------------------------------------------------------------------------------------%o...+#-----------------------------------%#++++++++++++++&&&&&:&&++%------------------------------------%&#&&&&++++++++++++++++++++&&&+++++++&&++&+&&&&&&&++++++++&&&+&%-------------------------------------%@+++++++++++++++&+#------------------------------------=#&&&&&&&+++&&&&&&&&&&&&&&&&&&&&&&&&++++++++++++++++###@@O@###+++++&=;---------------------------------------------------------------------------------%%######&++XX.++++++.++++++&&&&&&&&&&&&&++&&&&&&&**$$@*%---------------------------------------------%%#@OOooooXO@@@OOOXXOO@@$$$$$$@@@@@@@@@@OOOOOOOOOOOOXXOOOXXXXXXXXXXXXXXXXXXXXXXXXXOOOO@@**************$$@@@@@OOOOOXXXXXXXXXXXXXXXXXXXXXXXXXXXXOOXXXXXXOOOOOOOOO+++@@@@@@@@@@@@@***==***=====*$$$$****=====;;;;;;;;;;;;;;-===***===*$$$$@@@@@@@@OOOOOOXOXXXXXXXXXooooooooooooo o                               ",
"@@@@OXoo                              ooXXO@@@@@@@OXXo     .ooooooXXXoo    o oooXXO@@@@@@@@OXX                    ooXXO@@@@@@OXXXoooooooXXXO@@@@@@@OXXOO@@@@@@OOXXOOO@@@@@@@@@@@@@$***$$@@OOOXOOXXXXXXXXXXXXXXXXXXXXOOOO@@@@@***======***$@@@@******@@@@@OOOOOOOXXXXOOOO@OOOOOXXXXXXXXXXXXXoooXX.o..o..XoXXO@@OXXXXXXXX...XXXXXXXXXXXXXX++++++++++++++++&&&&&&&&&&##%-------------------------------------------------------------------------------------------------;;-;;;;;=%+...XO%-----------------------------------#X++++++++++++++++&&&::&&&------------------------------------;%&&&&&&++++++++++++++++++++&&&&++++&&&&&&&&&&&&&&&&+&&&&&&&&&+&--------------------------------------:+++&&&&++&&&+&&&&+#------------------------------------=#&&&&&&&&&&&&&&&&&&&&&&&&&&&&&&&&&&&&&&&&&&+++++++&&&&+++++++++++&&#:===;-------------------------------------------------------------------------------;;;===%%%%%%##@@@OOOOOXO+&&&&&&&&&&&&#++@&&&&&***$$#@%--------------------------------------------------%%$@OOO@@@OOOOOOO@@$$$$$$@@@O@@@@@OOOOOOOOOOOOOOXOXOXXXXXXXXXXXXXXXXXXXXXXXOOOO@@@*****$@******$$@@@@OOOOOOXXXXXXXXXXXXXXXXXXXXXXXXXXXXXXOXXXXXXOOO++OOOO+++@+@@@@@@@@@@@@**===**======**$$*****=====;;;;;;;;;;;;;;;=====*==**$$$$@@@@@@@@OOOOOXXOXXXXXXXXXoXoooo.ooooo                                  ",
"@@@@OXoo                              ooXXO@@@@@@@OXXo     .ooooooXXXooo   o oooXXO@@@@@@@@OXX                    ooXXO@@@@@@OXXXoooooooXXXO@@@@@@@OXXXO@@@@@@OOOOOOO@@@@@@@@@@@@@@$$$$@@@OOOOOOXXXXXXXXXXXXXXXXXXXXXOOOO@@@@@@***=======***$@@@@@***#@@@@OOOXX+OXOXXOOOOOOOOXXXXXXXXXXXXXXXooXXo..oo..XoXXO@@OXXXXXX.....XXXXXXXXXXXXXX+++++++++++++++&&&&&&&&&&&#=------------------------------------------------------------%%%$$$%%%%$@@@@@@@@@@###$$#$@@@@@#$$$######%%#@X....X#-----------------------------------%@.++++++++++++++++&&&&::&:-------------------------------------%&+&&&&&&&&&&&&&&&&&&&&&&&&&&&&&&&&&&&&&&&&&&&&&&&&&&&&&&&&&&&:--------------------------------------:&&&&&&&&&&&&&&&&&+#------------------------------------%#&&&&&&&&&&&&&&&&&&&&&&&&&&&&&&&&&&&+&&&&&&++++&&+&&&&+++++++++++&&&+@#####%%%%%%%%%------------------------------------------------------------------%%%%=-;;-----------==%%%###&&&&&&&&&+&&&&&&&&&&&&**$$$@$=-----------------------------------------------------=%$@@@OOOOXOO@@$$$$$$@@@@@@OOOOOOOOOOOOOOOOOXOOOXXXXXXXXXXXXXXXXXXXXXXXOO@@$*****$$*******$$@@@OOOOOOXXXXXXXXXXXXXXXXXXXXXXXXXXXXXXXXXXXXXXOOX++OOO+++@@@@@@@@@@@@@@@@**===**======**$$*****=====;;;;;;;;;;;;;;;=====*=***$$$$@@@@@@@@OOOOOXXXXXXXXXXXXoXoooooooooo                                  ",
"@@@@OXoo                              ooXOO@@@@@@@OXXo    oooooooXXXXooo     oooXXO@@@@@@@@OXXoo             o  o ooXXO@@@@@@OXXooooooooXXXO@@@@@@@OXXOO@@@@@@@@OOO@@OOO@@@O@@@@@@@@@@@@@@@OXXXXXXXXXXXXXXXXXXXXXXXXXXOOOOOO@@@@@**========**$@@@@@@$$$*@@@@OOOOOOOOXXOOOXXXOXXXXXXXXXXXXXXX..XX.o.oo.XXXXXO@@@OXXXX...............XX..+XXX+++++++++++++&&&&&&&&@*=-----------------------------------------------------------=##@@@@@####@X..............++++++....+++++++&&++++...O%-----------------------------------%+.+...++.+++++++++++&&&:::------------------------------------%#++&&&&::::::::::::::::::::::::::::::::::::::::::::::::::::::::--------------------------------------:::::::::&&&&&&&&&#:------------------------------------:#&&&&&&&&&&&&::&&&&&&&&&&&&&:&&&&&&&&&&&&&&&&&&&&&&&&&&&+++++++++&&&&++++++++++++++++++@@#######%%%%%==;;---------------------------------------------%++++&#:===-------------------===%%%%%#$@@@@#**===****#$=---------------------------------------------------------%%$OOOOOO@@$$$$$$@@@@OOOO@@OOOOOOOOOOOOOOXOXXXXXXXXXXXXXXXXXXXXXXOOO@$*****@$*******@@@@@OOOOOXXXXXXXXXXXXXXXXXXXoXXXXXXXXXXXXXXXXXXXXXOO++++++++++++@@@@@@@@@@@@@**====*======**$*****=====-;;;;;;;;;;;;;;-=====**=**$$$$@@@@@@@@OOOOOXXXXXXXXXXXXXXooooooooooo                                 ",
"@@@@OXoo                              ooXOO@@@@@@@OXXo    oooooooXXXXXoo.    oooXXO@@@@@@@@OXXoo  o           ooo ooXXO@@@@@@OXXXooooo..XXXO@@@@@@@OXOOO@@@@@@@@OO@@@OOOO@O@@@O@@@@@@@@@@@@OXXXXXXXXXXXXXXXXXXXXXXXXXXXXOOOOOO@@@@#**=======***$@@@@@@**$@@@@OOOOOOOXOOOOXOXOXXXXXXXXXXXXXXX..XX.o..o.XoXXXO@@@@+XX...........++XXXXX...XX++++++++++++++&&&&&&&&==-----------------------------------------------------------%#@@@@@@@####OXXXX.........++++++++++++++++++&&&++++...#------------------------------------#..++........++++++++&&&&::------------------------------------%#++&&&&&&&:::::::::::::::::::::::::::::::::::::::::::;:::::::::--------------------------------------::::::::::::::::::::------------------------------------::::::::::::::::::::::::::::::::::::&&&&&&&&&&&&&&&&&&&&&+++++++++&&&+&+++++++++++++++++++++++XXXXXXXXO@#####%%%%%==-----------------------------------%++++++@@@O@##%%-------------------------=========****$@%------------------------------------------------------------%$OOO@@@$$$$$$@@@OOOOO@OOOOOOOOOOOOOOOXXXXXXXXXXXXXXXXXXXXXXXXO@@****$$$$******$@@@@OOOOOOOXXXXXXXXXXXXXXXXXXXXXXXXXXXXXXXXXXXXXOOXXOOX+++++++++@+@@@@@@@@@@@@@**===========*******=======;;;;;;;;;;;;;;-====**==**$$$$@@@@@@@@OOOOOXXOXXXXXXXXXXooooo.oooooo                                 ",
"@@@@OXoo                              ooXX@@@@@@@@OXXX    ooooooXXXXXXoo.   ooooXXO@@@@@@@@OXXoo              ooooooXXO@@@@@@OXXXoo  o.XXXXO@@@@@@@OOOO@@@@@@@@OOOOOO@OOOO@@@@@@@@@@@@@@@@@OXXXXXXXXXXXXXXXXXXXXXXXXXXXXXOOOOOO@@@@@$**========**$@@@@@@**$@@@@OOOOOOOOOOOOXOXXXXXXXXXXXXXXooXXXXXoo..XoXXXO@@@@OXXXXXXX...X..XX..XXX+++XXXX++++++++++++&&&&&&*=-------------------------------------------------------------%@@@@@@@@&###@++++...++.+++++++++++++++++++++&&&+++++XX%-----------------------------------%X...+..++++.+++++++++++&&=;--------------------------------------%=:==-===-------;;--------------------==-----------;;:&&&&&&#:-------------------------------------%&&&&&&&&&&&&&::&&&%:----------------------------------;;::::::::::&&&&&&&&&&&&&&&&&&&&&&&&&&&&&&&&&&&&&&&&&&&&&+++++++++++&&&++++++++++++++++++++++++++++++++++++&++++..++++#----------------------------------%#X++&&&&+++.++++###%%=---;-----------------------=***$@$--------------------------------------------------------------%%@O@@$$$$$$@@@@@@@@@@OOOOOOOOOOOOOOOOXXOOOOXXXXOXXXXOXOOO@@@$***$$@$*******@@@@@OOOOOXXXXXXXXXXXXXXXXooXXXXXXXXXXXXXXXXXXXXXXXXX+OOOO++++@@@@+@@@@@@@@@@@@@***===========*******=======;;;;;;;;;;;;;;-====*===**$$$$$@@@@@@OOOOOOOOOOXXXXXXXXoooooooooooooo                                ",
"@@@@OXoo                              ooXX@@@@@@@@OXXX    oooooooXXXXXooo   ooooXXO@@@@@@@@OXXoo              oooooXXXO@@@@@@OXXXo   ooXXXXO@@@@@@@OOOO@@@@@@@OOOOOOOOOOOO@@@@@@@@@@@@@@@@@OXXXXXXXXXXXXXXXXXXXXXXXXXXXXXXXXOOO@@@@@@@***========**$@@@@@***@@@@@@OOO@@O@OOXOOXXXXXXXXXXXXXooX..XXXoooXXXXXO@@@@@XXXXX....X.XXXX++XXX+++XX+++++++++++++@&&&&&&=;------------------------------------------------------------%@@@@@@@@@@@#@++++..++++++++++++++++++++++++++&&&+++++X@------------------------------------#o...+.+++...+++++++++++&:-;------------------------------------;;;;;;;;;;;;;;;;;;;;;;;;;;;;;;;;;;;;;;;;;;------;--;;;;#++&&+&#;-------------------------------------%&+&&&&&&&&&&&&&&+&#:----------------------------------=%&&&&&:::::::::::::::::::::::::::&&&&&&&&&&&&&&&&&&&&&&&&++++++++++&&&+++++++++++++++++++++++++++++++++++&&+++.....XX#-----------------------------------#+++&&&&++.......+XXO@##%%%=----------------------=**$@$----------------------------------------------------------------=%$$$$$$$$@@OO@@@@@@OOOOOOOOOOOOOOOOXXOOOOXXOOOOOOOOOOO@@#***$@@$*******$@@@@OOOOOOXXXXXXXXXXXXXXXXXoXXXXXXXXXXXXXXXXXXXXXXXXX++OOOO++@@@@+@+@@@@@@@@@@@@@***==========***=**=*=======;;;;;;;;;;;;;;-====*===**$$$$@@@@@@@OOOOOOOOOOXXXXXXXXoooooooooooooo                                ",
"@@@@OXoo                              oXXXO@@@@@@@OOXXoo    oo..oooXXooo    ooooXXO@@@@@@@@OXXoooo             oooooXXO@@@@@@OXXXoo  ooXXXOO@@@@@@@OXXO@@@@@@@OOXXXXXXOOO@@@@@OO@@@@@@@@@@@OXXXXXXXXXXXXooooXXXXXXXXXXXXXXXOOOOOOOOO@@@@$**=======**$@@@@@***$@@@@@O@@OOOOOOOOOXXXOXXXXXXXXXXXXXXXXX.XXXXXXO@@@@OXXX.....XXX+XXX.XXXXXXXOOOOOOOO@@$$%%##&&&@#=-------------------------------------------------------------%#@@@@@@@@@&&&&++++++++...+++.++++++++++++++++++&&+++++O#-----------------------------------%+......+......+++++++++++:--------------------------------------==------;;;;------------------------------------------;=+++&+&%-------------------------------------=#+++++++++++++&+++#=---------------------------------;-##++++++&&&&###:::;;;;;;;;;;----------------------%%%%%%%%%####@@@#######@@@@@@@++++++++++++++++&+++++++++++++++....++#=----------------------------------#O+++&&&++......++++++++++&&::::::;;;-------------=%$*@@%------------------------------------------------------------------%$$$$$$@@@O@@@@OOOOOOOOOOOOOOOOOXXXOXXOXOXXXOOOOOO@@*****$@@$*****$$@@@@OOOOOXXXXXXXXXXXXXXXXXXXXXXXXXXXXXXXXXXXXXXXXXXOXXXX++O++++@@@@+@@@@@&&&#$#$@@$***=========================;;;;;;;;;;;;;;;====*===***$$$$@@@@@@@OOOOOOOOOXXXXXXXXXooooooooooo                                  ",
"@@@@OXoo                              oXXXO@@@@@@@OOXX o    oo..oooooooo    ooooXXO@@@@@@@@OXXo o              .ooooXXO@@@@@@@XXXoo oooXXXOO@@@@@@@OOXO@@@@@@@OOXXXXXXXXOO@@@@OOOO@@@@@@@@OOOXXXXXXXXXXXooooXXXXXXXXXXXXXXXXXXOOOOOOO@@@@@***=======**$@@@@@@$$@@@@@@@@@OOOOOOOXXXOXXXXXXXXXXXXXXXXXX.oX.XX+@@@@OXXX...X.....XXX++XXXX@@@@##%%====----=#&&&#=-------------------------------------------------------------%#@O+@#@@@@@&&&&++++++++...+++++++++++++++++++++&&&+++++@%-----------------------------------%..............++++++++++#:-------------------------------------%@@@#######%%%%%===------------------------------------;%+++&+#--------------------------------------=#++++++++++++++++&:-----------------------------------%#++++++++++++++++@###%%%%===---------------------;;;;;----;;;;;;;;;;;;;=========:#++++++++++++++++++++++++++++++....++#=----------------------------------#O++&&&&+++++...+++++++++++&&&&&&&##%==-----------=*$$@@%--------------------------------------------------------------------*$$$$OOOO@@O@OOOOOOOOOOOOOOOOXXXXOOXOXXXXXOOOO@@*****$$@@$*****$$@@@@OOOOOXXXXXXXXXXoXXXXXXXXXXXXXXXXXXXXXXXXXXXXXXXXXXXX+++O++++@@@@++@@@@&###$$@@@$$**=======;;;;;;;===========;;;;;;;;;;;;;;;====**==***$$$@@@@@@@@@OOOOOOXXXXXXXXXXXooooooooooo                                  ",
"@@@@XXoo                              oXXXO@@@@@@@OOXX     ooooooooooooo.. oooooXXO@@@@@@@@OXXo               oooooXXXO@@@@@@@XXooooooXXXXOO@@@@@@@OOXO@@@@@@@OOXXXXXXXXXOOOOOOXXXOO@@@@@@@@OOOXXXXXXXXXoooooXXXXXXXXXXXXXXXXXXXOOOO@OO@@@@@#**=======**$@@@@@@@*@@@@@@O@OOOXXXXXOOXXXXXXXXXXXXXXXXXX.XXXXOO@@@@OXXXXXooXOOOOOO@@@$%%%%%--------------#@@@#=---------------------------------------==%%%######@@@@@########+++@@@@@@@@####@X++.+XX....+X.XXXXXXXXXXXXXXXXO##++++++#-----------------------------------=O..............++++++++++#;------------------------------------%@++++++++++++++++####&&&&####%=====;;-;;;--------------;#+++++#--------------------------------------=#+O++++++++XXOO##%-----------------------------------=#+++++++++++++++++++++++++#&###%%%===--------------------------------------------=#+++++++++++++++++++++++++&+++.....++#=----------------------------------#O++&&&&++++++.+++++++++++&&&&&&&&++++####======--==*$@@%---------------------------------------------------------------------=%$@@@@@O@OOOOOOOOOOOOOOOOOOOXXXXXXXOOOOOO@@@$****$$@$$****$*$@@@OOOOOOXXXXXXXXXXXoXoXXXXXXXXXXXXXXXXXXXXXXXXXXXXXXXXXX+X+XX+++@++++@+@@@###$$$@@@@$***======-;;;;;;;;==========;;;;;;;;;;;;;;;====***=**$$$$@@@@@@@@OOOOOOOXXXXXXXXXXoooooooooooo                                  ",
"@@@@XXoo                              oXXXO@@@@@@@OOXX     ooooooooooooo   oooooXXO@@@@@@@@OXXoo        o     ooooooXXO@@@@@@@XXoooooo.XXXOO@@@@@@@OOXO@@@@@@@OOXXXXXXXXXXXXXXXXXXXXXOOO@@@@@@@OOOXXXXXXXXooXXXXXXXXXXXXXXXXXXXXXXOOOOO@@@@@@@$**=======***@@@@@@@$$@@@@@OOOOXXXXOOXXXXXXXXXXXXXXXXXXXXXXXO@@@@@OOXXXXXOO@##%%=----------------------%@O@#=;---------------------------------=%%%$@@OOOOOOOOOOOOOOOOOOOOXX++++@@#@@@@#####@X........XXX+XO@@@@#######%%%==::&+++++%-----------------------------------%O..............+++.++++++%;------------------------------------%O++++++++++++++++++++++++++++@@@######%%%%%==-----------#+++++%---------------------------------------%#############%=-;;---------------------------------%#@++++++++++++++++++++++++++++@@@@@@##$%%%%%%%%------------------------------------#+++++++++++++++++++++++++&++++....++#=----------------------------------#O+++&&&++++++.+++.+++++++&&&&&&&&&+++++++@#*==*====*$@@$-----------------------------------------------------------------------%$OOOOOOOOOOOOOOOOOOOOOOOOOOXXXXXXXXOOO@@$*****$$$******$$@@@OOOOOXXXXXXXXXXXXoXoooXXXXXXXXXXXXXXXXXXXXXXXXXXXXXXXXX++OOX+++@@+@@@@@@@@@@@@@@@@@@$***======;;;;;;;;;==========;;;;;;;;;;;;;;;====**==**$$$$@@@@@@@@OOOOOOOXXXXXXXXXXooooooooooo                                   ",
"@@@@OXoo                              ooXXO@@@@@@@OXXX     o.oooooooooo.   o.oooXXO@@@@@@@@OXXo oo      o     ooooooXXO@@@@@@OXXoooo.o.XXXO@@@@@@@@OXXXO@@@@@@OOXXXXXXXX.XXXXXXXXXXXXXXXXOO@@@@@@@OOXXXXXXXXXXXXXXXXXXXXXXXXXXXXXOOOOOOOOO@@@@@@@***======**$@@@@@$*$#@@@@@OOXXXXXXXXXXXXXXXXXXXXXXXXXXXXXOO@@@@@@@$%%%%----------------------------#@++@=------------------------------;-%#@@@@+++++++++++++++++++++++++++OOO@@@@@@@@@@@@@OOOO@#%%%%%%%------------------;=&+++X@------------------------------------#o.............++++++++++&--------------------------------------#+++++++++++++++++++++++++++++++++++++++++++###&&###%%%=&+++++@%------------------------------------------------------------------------------------------;#++++++++++++++++++++++++++++++++++++++++++++++#&###%=====-;------------------------#+++++++++++++++++++++++++++++....+++@=----------------------------------#X+++&&&++++++..++++++++++&&&&&&&&&&&&&&&&&&&:=#******@@@=-----------------------------------------------------------------------%$@O@OOOOOOOOOOOOOOOOOOOOOOXXXXOOOOO@@**=**$$$$******$$@@@OOOOOXXXXXXXXXXXXXXooooooXXXXXXXXXXXXXXXXXXXXXXXXXXXXXXXX++OOOO++++++@@@@@@@@@@@@@@@@@$**=======;;;;;;;;;-========-;;;;;;;;;;;;;;;===***===*$$$$$@@@@@@@@OOOOOXOOXXXXXXXXoooooooooooooo                                ",
"@@@@OXoo                              oXXXO@@@@@@@OOXooo   ooooooooooooo    .oooXXO@@@@@@@@OXXoooo      oo    ooooooXXO@@@@@@@XXoooooo.XXXO@@@@@@@@OXXO@@@@@@@OOXXXXXXXXXXXXXXXXXXXXXXXXXXXO@@@@@@@@OOXXXXXXXXXXXXXXXXXXXXXXXXXXXXOXXOOOOOO@@@@@@@@$**======**@@@@@@**$#@@@OOOXXXXXXXXXXXXXXXXXXXXXXXXXXXO@#$%%===-------------------------------%%%@O@#=-------------------------------%#OOOO++++++++++++++++++++++++++++++@@####$*%=====--------------------------------;#&++++#-----------------------------------%@o..............+++++++++#-------------------------------------%#X++++++++++++++++++++++++++++++++++++++++++++++++O@O@@@++++++@=------------------------------------------------------------------------------------------%#+++++++++++++++++++++++++++++++++++++++++++++++++++OO@@##%%%%%%%-------------------#+.++++..++++..++++++++++++++.....+++@%----------------------------------#O+++++++++...++++++++++++&&&&&&&&&&&+&&&&&&&&:&**$*$$@@@=------------------------------------------------------------------------=$OO@@OOOOOOOOOOOOOOOOOOOOOOOOOOOO@@*****$$$******$@@@@@OOOOOOXXXXXXXXXXXXXXXXXoXXXXXXXXXXXXXXXXXXXXXXXXXXXX+XXX+++++OOOO++++@@@@@@@@@@@@@@@@@@$**=======;;;;;;;;;-========-;;;;;;;;;;;;;;;===****=**$$$$@@@@@@@@@OOOOOOOOXXXXXXXXoooooooooooooo                                ",
"@@@@OXoo                              oXXXO@@@@@@@OXXooo    ooooooXoXooo    .oooXXO@@@@@@@@OXXoooooo    oooo  ooooXXXXO@@@@@@@XXooooo..XXXO@@@@@@@@OXXO@@@@@@@OOXXXXXXXXXXoooooooooooooXXXXXO@@@@@@@@@OOXXXXXXXXXXXXXXXXXXXXXXXXXXXXXXXXOOOOOOOOO@@@@**======***@@@@@$**$@@@@OOOXXXXXXXXXOOXXXXOXOO@@#%%%%----------------=%%%%%%%%##############@+O++@%------------------------------=%@++++++++@@+O+@@OOOOXOOOOO@@#$%%%%%%%---------------------------------------------:#&&&+#=-----------------------------------%+.................+.++++#%-------------------------------------%++++++++++++++++++++++++++++++++++++++++++++++++++++++++++++++#=-----------------------------------------------------------------------------------------%&++++++++++++++++++++++++++++++++++++++++++++++++++++++++++&&&+++++####::::==-------;#+.++.....+.......+++++++++++.....+++O%----------------------------------%%#####@OXXXXXXXXX....++++&&&&&&&&&&&+++++&&&&:::&****@@@%-------------------------------------------------------------------------=$@@OOOOOOOOOOOOOOOOOOOOOOOOOO@@@*****$$*******@@@@@@@@OOOOXXXXXXXXoXXoooXXXXXXXXXXXXXXXXXXXXXXXXXXXXXXXXXX+XXXXXXX+++XXO+++@@@+@@@@@@@@@@@@@@#**=======;;;;;;;;;;========-;;;;;;;;;;;;;;;===****==*$$$$@@@@@@@@@OOOOOOOOXXXXXXXXooooooooooo                                   ",
"@@@@OXoo                              oXXXO@@@@@@@OXXo      .oooooXXXo.o....ooooXXO@@@@@@@@OXXoooooo    oooo  ooooXXXO@@@@@@@@XXo.oo.o.XXXOO@@@@@@@OXXO@@@@@@@OOXXXXXXXXXXXoXXXooooooooXoXXXXO@@@@@@@@@@OOOOXXXXXXXXXXXXXXXXXXXXXXXXXXXXOOOOOOOOO@@@@@@*****==***@@@@@@$***#@@@OXXXXXXXXXOOOO@@####%%%%%%%%%%%%%%$@@@OOOOOOOOOOXOOOOXXXXXXXXXXXX+X++X@%------------------------------=#@+++++++++++@@@@@@####%%===--------------------------------------------------------#@&&&+%------------------------------------@....................++++#--------------------------------------$++++++++++++++++++++++++++++++++++++++++++++++++++++++++++++++#-----------------------------------------------------------------------------------------%#++++++++++++++++++++++++++++++++++++++++++++++++++++++++++++&&++++++++++#######%%%--=#++++.......+.+++++++++++++++++++++++@%------------------------------------;=;;;;=%%%%######+++++++&&&&&&&&&&&+&&&&&&&&:::&***$@OO$---------------------------------------------------------------------------%@@OOOOOOOOOOOOOOOOOOOOOOOO@@*******$*****$$$@@@@@@@@OOOOXXXXXXXoooooooXXXXXXXXXXXXXXXXXXXXXXXXXXXXXXXXXX++XXXXXX++XXXXX+O++++++++@@@@@@@@@@$**=======;;;;;;;;;;========-;;;;;;;;;;;;;;;====*******$$$@@@@@@@@@OOOOOOXXXXXXXXXXXoXooooooooo                                  ",
"@@@@OXoo                              ooXXO@@@@@@@OXXXoo    oooooooXoo.o.. .ooooXXO@@@@@@@@OXXooo             .oo.XXXX@@@@@@@@OXXooooooXXXOO@@@@@@@OOOO@@@@@@@OOXOOOOOXXXXXXXXXXXoooooooooXXXXOO@@@@@@@@@@@@@OOXXXXXXXXXXXXXXXXXXXXXXXXXXXXOOOOOOOO@@@@@@@****=*=**@@@@@@@@#**@@@OOOXXXXXOOOO@@@@@OOOOOOOO@@@@@@@OXXXX.XXX.XX.XXXX.+++.++X+++++++++X@%----------------------------;-:#@+++++++@@@@@##%%%%====------------------------;;;-;--------------;---------------;=&&&&+#------------------------------------%X...............+++.+++.+%-------------------------------------:#+++++++++++++++++&+&&&&&&&&&&&++++++&&+++&&&&&&&&&&&&++++&&&++%;--------------------------------------------------------------------------------------::&+++++++++++++++++++++++++++++++++++++++++++++++++++++++++&++&&&++++++++++&&&&++++++++++++++++XXXOOOOO@@@@####%%%%%%%%%%%%%%%----------------------------------%%%%=;;;;--------------%%%%#########@@@@@@@##&&#=*#****@@O#----------------------------------------------------------------------------%OOOOOOOOOOOOOOOOOOOOOO@@@$*****$$$*****$$@@@@@O@@@@@OOOXXXXXXXXoooXooXXXXXXXXXXXXXXXXXXXXXXXXXXXXXXXXXX+XXXXXXXXXXXXX+OOO+++++@@@+@@@@@@@@$**=======;;;;;;;;;;========-;;;;;;;;;;;;;;;====*******$$$@@@@@@@@OOOOOOOXXXXXXXXXXXXoooo.oooo                                   ",
"@@@@OX.o                              ooXXO@@@@@@@OXXooo    ooooooXXoooo... ooooXXO@@@@@@@@OXXooo.           ..oo.XXXO@@@@@@@@XXX.oooooXXXOO@@@@@@@OOOO@@@@@@@OOXOOOOOOXXXXXXXXXXooo....XoXXXXXXXOO@@@@@@@@@@@++OOXXXXXXXXXXXXXXXXXXXXXXXXXXOOOOOOOOOO@@@@@@*****=***@@@@@@@****@@@OOXXXXOOXXXXOXXXXXXXXXO@@@@@@@OXX.XX.XXXX.XX.XX...+..XXX+++++++++%------------------------------=#@+++++++++@@@@@@###@@#@@$@$@@@@$$$$$$@@@$$%$$$$%%%%%%%$%%%%%%%%%%%%%%%%%%%%%%%%%%%%%#+&&&#:------------------------------------#o...............+++++++.+%-------------------------------------:+&&&&&&+++++++++&&&&&&&&&&&&&&&&&&&&&&&&&&&&&&&&&&&&&&&&&&&&&&&=;-------------------------------------------------------------------------------------%##&&&&&&&&+&&&&+&&&&&&&&&&&&+&&&&&+++++++&&+&&&&&&&&&++++++&&&&&&&&+++++++++&&&&+++++++++++++++&%%%%======------------------------------------------------------%@XXO@##%%%-----------------;;;;;;::====#######&********@@X@=----------------------------------------------------------------------------%@OOOOOOOOOOOOOOOOOOO@@******$@@$$$**$$@@@@@@@@@@@@@@OXXXXXXXXooooXoXXXXXXXXXXXXXXXXXXXXXXXXXXXXX++XXX++++XXXXXXXXXXX++++OO++@@@@+@@@@@@@@$**=======;;;;;;;;;;========-;;;;;;;;;;;;;;;====*******$$$@@@@@@@@@OOOOOOXXXXXXXXXXXXoooooooooo                                  ",
"@@@@OXXo                              ooXXO@@@@@@@OXXX      ooooooXXXoooo oo.oooXXO@@@@@@@@OXXooo.     o     .oo..XXXO@@@@@@@@OXXoooo.XXXXOO@@@@@@@@OOO@@@@@@@OOXOOOOOOOXXXXXXOXXXXXXXXXXXoXXXXXXXOOOO@@@@@@@@@@OOOOOXXXXXXXXXXXXXXXXXXXXXXXXXOOOOOOOO@@OO@@@@$***==***@@@@@@##**#@@OXXXO@OXXXOXXXXXXXXX++@@@@@@@XXX.............X..++++.+++++++++X#=-----------------------------==&@++++++++++++++O@++++++++++O+++++@@@++++@@@@@@@@@@@#@++XX.X.........+++.+++++++++++++&&&&#=-----------------------------------%+.++..............+++.++X#--------------------------------------&&&&&&&&&&+++++++&::::::::::::::::::::::::::::::::::::::::::::::;---------------------------------------------------------------------------------;;::::&&&:::&:::::&&&&&&&&&&&&&&&&&&&&&&&&&&&&&&&&&&&&&&&&&&&&&&&&&&&&&&++++++++++&&&&&&&&&&&&&&++&+##----------------------------------------------------------------%O++++++++++###%%%----------------------------=====%%%*$@@O@%-----------------------------------------------------------------------------%OOOOOXXXXOOOOOOO@@@$*****$$@@@@@@@@@@@@@@@@@@@@@@@@OOXXXXXXXXXXXXXXXXXXXXoXXXXXXXXXXXXXXXO+XXXX++O+++++OOXX++++XXXOO+OOOO+++@@@@@@@@@@@@$**=======;;;;;;;;;;========-;;;;;;;;;;;;;;;====*******$$$@@@@@@@OOOOOOOOXXXXXXXXXXXXXooXoooooo                                  ",
"@@@@OXXo                              ooXXO@@@@@@@OXXo      oooooXXXXoooooooooooXXO@@@@@@@@OXXooo.      o   .ooo..XXXO@@@@@@@@OXXooooooXXXOO@@@@@@@@OOO@@@@@@@OOXXOOOOOOOOOOOOOOXXXXXXXXXXXXXXXXXXXXXOO@@@@#$#@@@@OOOOOOXXXXXXXXXXXXXXXXXXXXXXXXXXXXOOOOOOO@@@@@#***===**@@@@@@@$#@@@@OO@@@OXOOOOXXXXXX+X+@@@@@@@OXX............++++++.+...XX.X+++#=------------------------------=#&&++++++++++++++O+++++++++++++++++++@+@+@@@#@@+@@@@@##@++....................+++.+..++&&&&=;-----------------------------------%X..................+++++X%-------------------------------------%&+&&&&&&&+++++++&&:::::&&:::::::::::::::::::::::::::::::::::::::;----------------------------------------------------------------------------------=%#&&:&&&&&&&&&&&&&:&&&&&&&&:::::::::::::::::::::&&&&&&&&&&&&&&&&&&&&&&++++++++++&&&&&&&&&&&&&&&&&+#:----------------------------------------------------------------#X+++++++++.XXXXXO@@%%%%------------------------------==@@OO%-------------------------------%%%%%%-----------------------------------------%@OOOOOOOOOOOOO@@$*****$$$$$$$@@@@@@@@@@@@@@@OOOOO@OOOOOXXXXXXXXXXXXXooooXXXXXXXXXXXXX++@@@@+++++@@@@++OO+O++++OXOO+++OOO+++@@@@@@@@@@@@$$*=======;;;;;;;;;;========-;;;;;;;;;;;;;;;====*******$$$@@@@@@@@OOOOOOOOXXXXXXXXXXXXXoooooooo                                  ",
"@@@@OXX.                              ooXXO@@@@@@@OXXo    oooooooXXXXooooo.oooooXXO@@@@@@@@OXXooooo     oooooooo..XXXO@@@@@@@@OXXX.oo.XXXXO@@@@@@@@@OOO@@@@@@@OOXXXXOOOOOO@@@@@@OOOXXXXXXXXXXXXXXXXXXXOOO@@@@#$##@@@@@OOXXXXXXXXXXXXXXXXXXXXXXXXXXXOOOOOOOOOOO@@@@***====**@@@@@@@@@@@@O@@@OX+O@OX+XXXXX++@@@@@@@OXX.........XXX.....XX.++++++++X@%-----------------------------:=::&&++++++@@++++++++++++++++++++++++++++++++@#&@+@@@@&#@++....+.++++....+++++++++++++++++&+&=-----------------------------------=@..++....................#--------------------------------------%OOO@@@@@++++@@@@@########################%####%%####%%##&&&&&&##-------------------------------------------------------------------------------=%#&&&&&&&&&&&&&++&&&&&&&+++++++++&&&&&&#&&&&&&&&&&&&++++++++&&&&&&++&+&&&&++++++++++&&&&&&&&&&&&&&&&+++#---------------------------------------------------------------%++++++&&&&+++++.++++++++####::;;;;;;-------------------=$@OO%------------------------------%@XXXOO@@#$%%%=----------------------------------%OOOOOOOOOOO@@$*****$$$$$$$$@@@@O@@@@@@@@@@OOOOOOOOOOOOOOXXXXXXXXXXXooXXooXXXXXXXXX++@@@@@@@@@@@@@@@@@OO++++OOOOXOOO++++@@@@@@@@@@@@@@@$**=======;;;;;;;;;;========-;;;;;;;;;;;;;;;====*******$$$$@@@@@@@@OOOOOOOOXXXXXXXXXXXooooooooooooo                              ",
"@@@@OOX.                              ooXXO@@@@@@@OXXo o  ooooo.oXXXXooooooo.oooXXO@@@@@@@@OXXooooo     ooooooo.ooXXXO@@@@@@@@OXXX.ooooXXXO@@@@@@@@@OOO@@@@@@@OOXXXXXXXXOOO@@@@@@@@OOOOXXXXXXXXXXXXXXXXXOOO@@@@@$$@@@@@OOOOXXXXXXXXXXXXXXXXXXXXXXXXXXXXXOOOOOOOO@@@@***=====*@@@@@@@@@@O@@@O+++@OXXXXXXX++@@@@@@@+.X........XXXX++.X.XXXX+++++++O%------------------------------=#&:&&++++++++++++++++++++++++O+++++++++++++++@#&@@+@@@@&#++.......+.+..+++++++++++++++++++&&:------------------------------------#o.....................+.+%---------------------------------------%=======::::%==:==:=::::::==::====:;::;=;;-;----====;-:%&+&&++#:------------------------------------------------------------------------------=%#+++++++++++&&+&&&&&&&&&#:##&&##&&&&#####++++++++++++++++++++++++++++++&&&++++++++++&&&&&&&&+++++++++++#--------------------------------------------------------------%#++++++&&&&++++.+++++++++++++###%====--------------------$@OO@=------------------------------#OXXXXXXooOOOO@@%%%-----------------------------%@OOOOOOOO@@@*****$$$*$$$@@@@@@@@@@@@@@@@OOOOOOOOOOOOOOOOXXXXXXXXXXooXXoooooXXXXXX++@@@@@+@@@@@@@@+@@@OO+++++OOOO+OOO++++@+@+@@@@@@@@@@$**=======;;;;;;;;;;========;;;;;;;;;;;;;;;;====*******$$$$@@@@@@@@OOOOOOOOXXXXXXXXXooooooooooooooo                              ",
"@@@@@OXX                              ooXXO@@@@@@@OXXooo  oooo..ooXXXooooooo.oooXXO@@@@@@@@OXXoooooo     .oooo..X.XXXO@@@@@@@@OXXXoo...XXXO@@@@@@@@@OOO@@@@@@@OXXXXXXXXXXXXXOO@@@@@@@@@@OOOOOOXXXXXXXXXXXXOOO@@@@#$$@@@@@@OOXXXXXXXXXXXXXXXXXXXXXXXXXXOOOOOOOOOO@@@@@@**======*@@@@@@@@@@@@O+++@OXXXXXXXXO@@@@@@@OXXXXXXXoXXXXXOOOO@@@#%%%#@OXX@%------------------------------=&&:&&@@@+++@++++++++@++@+@@@++++++++++++++++++@&&@++@@@&&@++..+++.+++++++..+++++++++++++++++#=-----------------------------------%+o.......................+%----------------------------------------------------------------------------------------------=++++++#=-------------------------------------------------------------------------------%%##@+++++++++++++######%==--;;----====-==%%%%%%%%%%#############@@@@++####@+++++++++&&&++++++++++++++++#-------------------------------------------------------------%#X++++++&&&++++++.++++++++++++&&&&&&&&##====--------------%@OOO=------------------------------%OXXXXXXXXXXXXXXXO@$%----------------------------%@OOOO@@@$****$$$****$$@@@@@@@@O@@@@@@OOOOOOOO@@OOOOOOOOOXXXXXXoooooXooXXXXXXXX++++@@@@+++@@@+@+++++O++X+++++++++OOO+++@@@++@@@@@@@@@$$**=======;;;;;;;;;;========;;;;;;;;;;;;;;;;====****=**$$$$@@@@@@@@OOOOOOOOOXXXXXXXXXooooooo.ooo oo                              ",
"@@@@@OXX                              ooXXO@@@@@@@OXXooo  oooo..ooXXoooooooo.oooXXO@@@@@@@@OXXoooooo     .oooo..o.XXXO@@@@@@@@OXXX.....XXXO@@@@@@@@OOOO@@@@@@@OXXXXXXXXXXXXXXXOOO@@@@@@@@@@@@@@@OOXXXXXXXXXXOOO@@@@$$$#@@@@@OXX+XXXXXXXXXXXXXXXXOOXXXXXXOOOOOOOOOO@@@@@@**=====*$@@@@OO@@@@XOO@@@OX++XXX+@@#@@@@@@XX.XXXXXX@@##%%%=-----;;%@XX@#-------------------------------%&&:&&@@+++++++++++++++++++@@++++++++++++@+++++@##@@@@@@@&@+++.....+..+.+..+++++++++++++++++&#:-----------------------------------%Xo......................X#-----------------------------------------------------------------------------------------------=++++++%;--------------------------------------------------------------------------------;-:%##++++++++++.++++++@###%%%=---;;;;;;;;;;;;;;;;;;;;;;;;;;;;;;=;::::::::::::####&&&&&&&&&&+++++++++++#------------------------------------------------------------%#Xo++++++&&&+++++++++++++++++++&&&&&&&&@@@@#$%%==----------*@OOO%------------------------------%OXXXXXXXXXXXXXXXXXOO%=---------------------------%@OO@@$***$$$$$*****$$@@@@@@@@O@@OOOOOOOOOOO@@@OOOOOOOOXXXXXXXoooooooo.XXXXXOO@@+@@@@@+++@++++++++++++X+++++++++@@O++@@@+++@@@@@@@@@$$**=======;;;;;;;;;;========-;;;;;;;;;;;;;;;-===***==**$$$$@@@@@@@@OOOOOOOOOXXXXXXXXXoooooooooo  oo                              ",
"@@@@OXX.                              ooXXO@@@@@@@OXXo..  .oo...oXoXXXXoooo..oooXXO@@@@@@@@OXXoooo o   o .ooo.o.XXXXOO@@@@@@@@OXX.oo..XXXXO@@@@@@@@@OOO@@@$@@@OXXXXXXXXXXXXXXXXXXXOOOO@@@@@@@@@@@@@OOOXXXXXXXXOOOO@@@#$$$$@@@@O@OOXXXXXXXXXXXXXOOOOOOOOOOOOOOOOOOOO@@@@@@@**=====**@@@@@@@@OXX@@OOXXXXXXOO@@$$$@OOOOO@$%%%%---------------#+X+@%------------------------------;#&&&&&&+++++++++++++++++++++++++++++++++++++++++#@@+@@@+&&@++++++....++....++XXXXX+XX++++++++%------------------------------------#...............++....+++X%--------------------------------------%%%%%%=======-----;;;;-----------------------------------%+++++#%---------------------------------------------------------------------------------------%%OX++++++..+++++++++++++++#####%==;;;--------------------------------------------------%%%O++++@%----------------------------------------------------------%#+++++++++++&&+++++++++.+++++++++&&&&&&&&&&&&&&&&&#*=======--=@OOO%------------------------------%OXXXoXXXXXXXXXXXXXXXO$%---------------------------%$$****$@@$$$$$**$$$@@@@@@@@@@@@OOXXXXXXXOO@@@@OOOOOOXXXXXXXXXXoooXXXXXXX+@@@@@@##@@@+++++++++++OOO++OO++++++@@@+++@@@@+@@@@@@@@@@@$$*=======-;;;;;;;;;;========;;;;;;;;;;;;;;;;-===****=**$$$$@@@@@@@@OOOOOOOOOXXXXXXXXoXoXooooooo..  o                             ",
"@@@@OXX.                              ooXXO@@@@@@@OXXX.   .ooo..oXoXXXXooooo..oXXXO@@@@@@@@OXXooo.oo     oooo..XXXXXOO@@@@@@@@OXXooo..XXXXO@@@@@@@@@OOO@@@@@@@OOOOOXXXXXXXXXXXXXXXXXXOOOO@@@@@@#@@@@@@OOXXXXXXXXOOOO@@@@$#$#@@@@OOOOOXXXXXXXXXXXXOO@@@@@@@OOOOOOOOO@@@@@@@@$**====*#@OO@@@@OXOOO@OXXXXOO@@$%%%%==------------------------#XXO@%-------------------------------=#&&&&&&+++++++@+++++++++++++++++++++++++++++++@@##@@@@@@&&&++++++++++.+..+++++++++++@+++++++#------------------------------------%@...............+++...+.+@%-------------------------------------%@OXOOOO@@@@@@@@@@$%%%%%%%%%%==---------------------------%+++++#------------------------------------------------------------------------------------------%#+++++++...+++++...++++++++++O@@@##%%%%=-----------------------------------------------=#++++@%--------------------------------------------------------%%@X+.+++++++++&&+++..++++++++++++++&&&&&&&&&&&&&&++@&##****$$==*$OOO$-------------------------------@XXoXXXXXoXooXXXXXXXX@%----------------------------=%**$@@@@$$$$$$$$$$@@@@@@@@@@@@OOXXXXXXXOOOOOOOXXOOOXXXXXXXXXXoooXXXXXXXX+@@@@@@@@++O++O++++++XOOO++OO++++@@@@++++@@@@++@@@@@@@@@@$$*=======-;;;;;;;;;;========-;;;;;;;;;;;;;;;-===****=**$$$$@@@@@@@@@OOOOOOOOXXXXXXXXXXXXooooooo..  o                             ",
"@@@@OXX.                              ooXXO@@@@@@@OXXX.   oooo..oooXXXXooooooooXXXO@@@@@@@@OXXooo.      ..ooo.ooXXXXXO@@@@@@@@OXXo.o..XXXXO@@@@@@@@@OOO@@@@@@@@OOOOOOXXXXXXXXX..XXXXXXXXXOOO@@@@@@@#@@@@OOXXXXXXXXXOO@@@@$$$$$@@@@@OOOOOXXXXXXXXXXOO@@@@@@@@@@@@@@@@@@@@@@@@$***===*@@@@@@@OOO@@OO@@@$%%%=------------------------------%OOO@%------------------------------;-&&&&&&&&@+++++++++++++++++++++++++@@@@+++OOOOOO@@@@@@@@@@@#@@OOOOOOOOOO@@@###%%%%%%%%%%#++++@=------------------------------------#X.......................+%--------------------------------------#++++..++++++++++++++++++++++++######%%%:====;;-----------#+++++#-------------------------------------------------------------------------------------------%#O++++++.+...++...+++++++++++++++++++++#####%%%==--------------------------------------@++++@%------------------------------------------------------=%#O....+++.++++++++++..++++.+++++++++&&&&&&&&&&&&&&+&&&&&&&&&@$**#@+OO@%------------------------------$XoXXXXXXXooooXXXXXXXO@%----------------------------%$@@@@@$$$@@@@@@@@@$@@@@@@@@@@OOXXXXXXXXOOOOXXXXXXXXXXXXXXXXXXXXXXXXX+XOX+@@@@O++++OOOOOOXX++++OX++++++++@@@@+++++@@@@+@@@@@@@@@@$$*=======-;;;;;;;;;;========-;;;;;;;;;;;;;;;-====***=**$$$$@@@@@@@@@OOOOOOOOXXXXXXXXoXXoooooooo..                                ",
"@@@@OXXo                              ooXXO@@@@@@@OXXX.    oooo.oooXXXXoooooooooXXO@@@@@@@@OXXoo..       oooo.ooXXXXXO@@@@@@@@OXXoooo..XXXO@@@@@@@@@OOO@@@@@@@@OOOO@OOOXXXXX...oXXXXXXXXXXXXXOO@@@@@@@@@@@OOXXXXXXXXOOO@@@@@$$$$$$@@@OOOOOXXXXXXXXXXOOOOOOOOOOOOOOOOOOOO@@@@@@$$****@@@@@@@@@@$$%%%==----------------------------------%@X+X#--------------------------------=&&&&&&&&@@+++++++++++++@++++@+@++++@@@+++@@@@@@@@@########%%%##%%%%%%%==--------------=#++++#;------------------------------------#X++.....................+%-------------------------------------%@+++...++++++.....++++++++++++++X++++++@@@@@@####%%%%%---%@++++O%--------------------------------------------------------------------------------------------=%+++++.+...++++..+..+++++++++++++++++++++XXOOO@@@#%%%%%%------------------------------@++++@:------------------------------------------------------%%#@+++++++++++++&++++..++++++++++++++&&&&&&&&&&&&&&&&&&&&&&&&@@$$@@OXO@%------------------------------%OoXXXXoXXoooooXXXXXXO@@=---------------------------%@@@@@$$$@OOOO@@@@@@@@@@@@@@@@OXXXXXXXXXXXOXXXXXXXXXXXXXXXXXXXXXXXXX++XXX++OOOO++++OO@@OOOX++++OO++OO+++@@@+++++++@@@+++@@@@@@@@#$$*=======-;;;;;;;;;;========;;;;;;;;;;;;;;;;-====***=**$$$$@@@@@@@@@OOOOOOOXXXXXXXXXXXXooooooooo                                 ",
"@@@@OXXo                              ooXXO@@@@@@@OXXoo    ooooooooXXXXoooooooooXXO@@@@@@@@OXXooooo      .ooo..oXXXXOO@@@@@@@@OXXX..o.XXXXO@@@@@@@@OOOO@@@@@@@OOOOOOOOOOOXXXXXXXXXXXXXXXXXXXXXXOO@@@@@@@@@@@OOXXXXXXXXXOO@@@@@$$$$$@@@@@@OOOXXXXXXXXOXXXXXXOOOOOOOOOXXXOOO@@@@@@@@$$$$##*====----------------------===%%%%%%=%%%%%%%%##@@OO#%-------------------------------=*&&&&&&&&@+@@@@++++@OOOOOOOOOOOOOO@@@@@@#$$%%%%%%%%===---------------------------------%O++++%;-----------------------------------%+.......................X#--------------------------------------%@+++++++++.++++++++++++++++++++++++++++++++++++++++++#&##&+++++@%----------------------------------------------------------------------------------------------%@.++.++....++.++++++++++++++++++++++++++++++++++++++++####:::::=;----;;-------------#++++#:------------------------------------------------------%%%%%%%%%#####@@@#@OXXXXoooXXXXX++++++&&&&&&&&&&&&&&++&&&&&&&&&&$$@@++XO%------------------------------%OoXXXXooooooooXXXXXXOOO%----------------------------%@$$$$@@@@OOOO@@@@@@@@@@@@@@@OOXXXXXXXXXXOXXXXXXXXXXXXXXXXXXXooXXXXO@@OXX+++OXXX+OO@@@OOOOXOO+OO+++++++++++++++@+++++@@@@@@@@@@@@$*=======-;;;;;;;;;;========;;;;;;;;;;;;;;;;-====******$$$$@@@@@@@OOOOOOOOXXXXXXXXXXXXXoooooooooooo                              ",
"@@@OOXXo                              ooXXO@@@@@@@OXXoo   .oo.ooooXXXXXXo..oooXoXXO@@@@@@@@OXXooooo      oooo..oXXXXOO@@@@@@@@OXXXo.ooXXXOO@@@@@@@@OOOO@@@@@@OOXXXOOOOOOOOOXXXXXXXXXXXXXXXXXXXXXOOOO@@@@@@@@@@OOXXXXXXXXOOO@@@@@@$$$$$@@@@OOOOXXXXXXXXXXXXOOXOXOXXXXXXXXOO@@@@@@@@@$*===========%%%$$@$@$$$$$$$$$@@OOOOOOOOOOOOOOOOOOOOO@O@%--------------------------------=*&&&&&&&&+++++++@@@@@@@@@####%%%%%====-------------------------------------------------@X+++#-;-----------------------------------%+.+...................++X#--------------------------------------#X++++++++++++++..++++++++++++++++++++++++++++++++++++++++++++++@=----------------------------------------------------------------------------------------------;%#+++++....++...+.++++++++++++++++++++++++++++++++++++++++#&&#####%%%==-------------#++++@:-------------------------------------------------------%###%%%=%----=====%%%######@@++++++++&&&&&&&&&&&&&&&&&&&&&&&&&&$$@@@OXO%------------------------------%@oXoXXooXoooooXXoXXXO@O@=---------------------------=$$$$@@@OOOOO@@@@@@@@@@@@@@@@OOXXXXXXXXXXOXXXXXXXXXXXOOXXXXXXXXXXXX+@@+XXX++XXXXOOO@@@OO+OX+O++++@++++++++++++@++++++@@@@@@@@@@@$**=======-;;;;;;;;;;========;;;;;;;;;;;;;;;;-====***=**$$$$@@@@@@OOOOOOOOOXXXXXXXXXXXXXoooooooooooo                              ",
"@OOOOXX.                              ooXXO@@@@@@@OXXo..  .ooo.ooXoXXXXXo..ooooXXXO@@@@@@@@OXXooooo    o.oooo..XXXXXOO@@@@@@@@OXXXXo.XXXXO@@@@@@@@@OOOO@@@@@@OXXXXXOXOOXXOOOOOOOOOOOOOOOOOXXXXXXXXOOOOOO@@@@#@@@OOOXXXXXXXXOOO@@@@@$$$$$@@@@@OOOOOXXXXXXXXXXXXXXOOOOOOOOOO@@@@@@@@@@@@@@@@@@@OO@@OOXXXXXO@@@@@@@@@OXXX++XXXX++++++X+XXXXOO%---------------------------------::&&&&&&&&#@@@####%=%%====-------------------------------------------------------------%+.++O#------------------------------------%#+.+...................++O%--------------------------------------#X++++++++++++++++++++++++++++++++++++++++++++++++++++++++++++++$=------------------------------------------------------------------------------------------------%O+.+.++..+++++..+++++++++++++++++++++++++++++++++++++++&&&&&++++++++&&&###%%%=---=#+++++:--------------------------------------------------------%@OO+@###%%=-;;;-----------%%%%%%%######&&&&+++##+++&&&&*&*#$$$*@@@OOO$-------------------------------#oooXXXXXXXXXoXXooXXO@OO%----------------------------%$@@@@@OOOOOO@@@@@@@$@@@@@@@@OOXXXXXXOOOOOOOXXXOOXOOOOOXXXXXXXXXXX+@@++OX++XXXX++@@@@++++OOO+++@+++@@@@++++@@@+++++@@@@@@@@@&&&$$**=======;;;;;;;;;;========;;;;;;;;;;;;;;;;-====******$$$@@@@@@@@OOOOOOOOXXXXXXXXXXXXXooooooo.o oo..                            ",
"@@OOOXXo.                             ooXXO@@@@@@@OXXX..  .ooo.ooXXXXXXX..oooooXXXO@@@@@@@@OXXoooo.    o.ooo...X.XXXOO@@@@@@@@OXXXX..oXXOO@@@@@$@@@@OOO@@@@@@OXXXXXXOXXXXXXOOO@@@@@@@@@@OOOXXXXXOOOOXXXX@@@@@$#@@@@OXXXXXXXXOOOO@@@@@$$$$$@@@@@OOOXXXXXXXXXXXXXXXOOOOOOOOOOOOOOO@OOOOO@@@@@@OO@@@OOXX+++@@@@@@@@#@OXXX+XXXXXX+++++XX+XXXO#%-------------------------------;=::::&&&&&&######%%%%%%======-----------------------------------------------------------%.X++@%------------------------------------%O..+....+++++.........+++#--------------------------------------%#X++++++++++++++++++++++++++++++++++++++++++++++++++&&++++++++++%--------------------------------------------------------------------------------------------------%+.+++++++++.+.++++++++++++++++++++++++++++++++++++++++&&&&&+++++++++&&#++OOO@@###O+++++:---------------------------------------------------------%%@X.XXXO@##%%=------------------;;;;:::::::&###+++&&&&=&*#$$**@@@@OO$-------------------------------#oXoXXXXXXXXoXXX..XXO@OO%----------------------------=$@@@@OOOOOOO@@@@@@@$@@@@@@@@OOXXXXXXOOOOOOOOOXOOOOO@@OXXXXXXXXXXX+@@OO++++XOOX+++@@@++++OOO+++@@++@@@@++@@@@@@+++@+@@@@@&&@&#&$$**=======;;;;;;;;;;========;;;;;;;;;;;;;;;;;===*******$$$@@@@@@@@OOOOOOOOXXXXXXXXXXXXoooooooo.o.oo..                            ",
"@@OOOXXX.o.... ooo..Xo.ooooooooo.....oooXXO@@@@@@@OXXooo  .ooo..ooXXXXXX.ooooo.XXXO@@@@@@@@@XXoo...    ooooo.oXXXXXXXO@@@@@@@@OXXXXo..XXXXO@@@@@@@@@OOO@@@@@@OXXXXXXXXXXXXXXXO@@@@@@@@@@OOOOOOOOOOOOOXXX@@@@@@$$$@@@@@OXOXXXXXXXXOOO@@@@$$$$$@@@OOOOXXXXXXXXXXXXXO@@OOOXXXXXXXOOOOXXXOO@@@@X++@@OOOO+++++@@$@@@@@@@XXX++XX++X+XXXXX+XXXXO%--------------------------------=#&&::::&&&&&&&&&&@@@@@@@@@@@#@@##################%*==*===============================-=%@++++$-------------------------------------#+....+...++++++.......+.+%--------------------------------------%++++++++++++++++++++++++++++++++++++++++++&+&&&&&&&&&&&&&&&&&&+&%---------------------------------------------------------------------------------------------------#X++++++++++++++++++++++++++++++++++++++++++++++++++++&&&&&&+++++++&&&&&++++++++++++++@=-----------------------------------------------------------%#O..+++++++&&&##%%%---------------------------%%%%%==*%%$$$$$@@@O@@=------------------------------%OXoXXooXXoXoooXXXXXO@OO@-----------------------------%@@OOOOOOOOO@@@@@@@@@@@@@@@@@OOXOOOOO@@@@@OOOOOOO@@@@OXXXXXXXXXX+++++++OXXXOXX+++@@@@O+OO++++++@+@@@++@@++++@+++@@@@@@@@@&@&&&$$*=======-;;;;;;;;;;========;;;;;;;;;;;;;;;;;====******$$$$$@@@@@@@OOOOOOOOOXXXXXXXXXXoXoooo....ooo.                             ",
"@@@OOOXXXX.ooooo.oXXXXXXXXXXXXXX......ooXXO@@@@@@@OXXooo  .ooooo.oXXXXXXoooooo.XXXO@@@@@@@@OXXooo..    ooooo.o.XXXXXXO@@@@@@@@OOXXXo..XXXXO@@@@@@@@@OOO@@@@@@OXXXXXXXXXXXXXXXOOO@@@@@@@@@OOOOOOO@@@@OOO@@@@@@@@@@$$@@@@@OXXXXXXXXXOO@@@@@@#$$$$@@@@OX+XXXXXXXXXXOO@OOXXXXXXXXXXXXXXXXXXO@@@+++@@@OOO+++++@@@@@@@@@+XXX++XX++X+XXXXXX.XXX%---------------------------------%@&&&&::::&&&&&&&&@@@@@++OOO@@@OOOOOOOOOOOOOOOOOOO@@@@@@@@@@@@@@@@OOOOOOOOOOOOO@@@@@@@@@@X++++%------------------------------------%#...++.+++++++++.........+%--------------------------------------%+++++++++++++++++++++++++++++++++++++&&&&&&&&&&&&&::::&&::::&:&:----------------------------------------------------------------------------------------------------%X++++++.++++.++++++++++++++++++++++++++++++++++++++++&&&&&++++++++&&&&+++++++++++++++#=------------------------------------------------------------=#+.++++++++++.XXXO@#%%%---------------------------------====$@@OO@=------------------------------%OXXXXoooXXoooXoXXXXOOOXO=----------------------------=$OOOOOOOOOO@@@@@@@@@@@O@@@@@@OOOOOO@@@@@@OOOXXOOO@@@OXXXXXXXXXXX+@@++++XXOOXXOO+@@@@+OOO+++++++@@@@@@@++++++@@@@@@@@@@@&&@&&&$$*=======-;;;;;;;;;;========;;;;;;;;;;;;;;;;-====******$$$$@@@@@@@@OOOOOOOOOXXXXXXXXXXooooooo..oooo                              ",
"@@@@@+XXXXo..oXXXXXXXXXXXXXXXXXXXXXXXXXXXX@@@@@@@@OXXooo    ooooooXXXXXXX.ooooXXXXO@@@@@@@@OXXoo..     o .oo.ooXXXXXXO@@@@@@@@OOXXooooXXXXOO@@@@@@@@OO@@@@@@@OXXXXXXXXXXXXXXXXXXOOO@@@@@@@@@@@@@@@@@@@@@@#$$$$$$@$$$$$#@@@OOXXXXXXXXXXOOO@@@@$$$$$@@@OXXXXXXXXXX@OOOXXXXXXXXXXXXXXXXXXXO@@@@+++@@+++X++++@@#$@@@@@OXXX+XXXX++XXXXXXXXXO#%---------------------------------&+&&&&&:::&&&&&&&&&&&+++++++++++++++++++++++++++++++@#@@+++@@@@++++++.+++++++++++++++++++++++@=------------------------------------%+++.+++++++++++++.+..+..X#--------------------------------------=#++++++++++++&&&&&&&&&&&&&+&&++++++++&&&&&&&&&&&&&&&&&&&&&&&&&&&:--------------------------------------------;;;;;;;;;;---;;-----------------------------------------%@..+..+..+++++++++++++++++++++++++++++++++&++++++++++&&&&&++++++++&&&&+++++++++++++++#=--------------------------------------------------------------%@+++++++&&+++++...+++@##%%==;;;;;;------------------------=@OOO@%-------------------------------@XXXXoooXXXXXXXXXXXXOOOO%-----------------------------%OOOOOOOOO@@@@@@@@@@@@@@@@@@@@@@@O@@@$@@@@OOOOOOO@@@@OXXXXXXXXXO@@@++OXOOOOXXO+@@@@@@+++++++++++@@@@+@@@@@@@@@@&&&&&&@@&&&&&&$$*========;;;;;;;;;;========;;;;;;;;;;;;;;;;-====******$$$$@@@@@@@@@OOOOOXOXXXXXXXXXXXooooooooooo..                              ",
"@@@@@+XXXXoXXXXXXXXXXXXXXXXXOOOOXXXXXXXXXO@@@@@@@@OXXooo   ooooooXXXXXXXX.ooooXXXXO@@@@@@@@OXXoo..     o ....ooXXXXXXO@@@@@@@@OOXXXoXXXXXXOO@@@@@@@@OO@@@@@@@OXX.XXXoXXoXXXXXXXXXXXXOO@@@@@@@@@@@@@@@@@@@@$$***$$$$$$$$$$#@@@OXXXXXXXXXOOOO@@@@$$$$$@@@+XXXXXXXXOOOOXXXXXXXXOOXXXXXXXXXO@@@@++@@++OXXX+X+@@@$@@@@@+XXXXX+X++XXXXXX+XXX@%---------------------------------=&@&&&&&&&::&&&&&&&&&&&&+++++++++++++++++++++++++++++@&@@@@+++##@+++...++.+++++..+++++++++++++#------------------------------------=#+++++++++++++++++....+..O%--------------------------------------%@++++++++++++++++++++++++++&&&+++++++&&&&&&&&&&&&&&&&&&&&&+&&&&+&----------------------------------------%%%%%%%%%%%%%%%%%%%------------------------------------------#+.++......+++++++++++++++++++++++++++++++&++++++++++&&&&+++++++++&&&&+++++++++++++++#=--------------------------------------------------------------=%+++++++&++++.++.+.++XXXX+@###%=--------------------------=@OOO@%-------------------------------%XXXoXoooXXXXXXXXXXXOXOO$-----------------------------%@OOOOOOOOOOOOO@@@@@@@@@@@@@@@OOOOO@@$@@@@OOOOOO@@@@@OXXXXXXXXXO@@OOOOOXOOOXX@@@@@@@@+++@@+++@@+@@@@@@@&&&&@@@@&&@@@@@@&&&&&&$$*===;;===;;;;;;;;;;========;;;;;;;;;;;;;;;;-====***=**$$$$@@@@@@@@OOOOOOXXXXXXXXXXXXoooooooooooo..                              ",
"@@@@@OXXXXXXXXXXXXXXXXXXXXXOOO@@@OOOOOXXOO@@@@@@@@OXXX....ooooooXXXXXXXXXooooooXXXOO@@@@@@@OXX..oo       ...oooXXXXXXXO@@@@@@@OXXXXXXXXXXXO@@@@@@@@@OOO@@@@@@OXXo.oooXXXooXXXXXXXXXXXOOO@@@@$$$$@@@@@@@@@@@@$$$$$$@@$$$$$$$$#@@@OXOOXXXXOOOOO@@@@@$$$$#@@@OOXXXXOOOXXXXXXXXOOOOXXXXXXXXO@@@@++@@@O++OOXXO@@@#@@@@@OOXXXXOOOOOOO@#O+XXO#=--------------------------------;=&&&&&&&&&&&::&&&&&&&&&&&@@+++++@++@++@+++++++++++++++@&&@++++&&&++++++++++++++++++++++++++++@=------------------------------------=@++..++++++++&+++++..++.+@=--------------------------------------%@@@@@@@O@@@@@@@@@@@@###@@#############%%%%%%%%%%%%%%%%%%%&+++++#%---------------------------------------%&+++&+++++++++++++&&#=---------------------------------------%#@@@@OOOOOXXXXXX+++++++.XX+++++++++++++++&++++++++++&&&&+++++++++&&&&+++++++++++++++#:----------------------------------------------------------------%@.+++&&++++++++++++++++++++&&&&&&::===;------------------$OO@@%-------------------------------%OXXoXoooooooXXXXXXOOOOO@------------------------------%OXOOOOOOOOOOO@@@OOOOO@@@@@@@@@OO@@@$$@@@@@@OOOO@@@@OXXXXXXXXXO@@+++OOOOOOOO@@@@@@@+++@@++++@@++@@&&&&&&&&&&&&&&&&&&&&&&&&$$$$*====;;;-;;;;;;;;;;========;;;;;;;;;;;;;;;;-====*******$$$@@@@@@@@@OOOOOOOXXXXXXXXXXXooooooooo..    .                           ",
"@@@@@OXXXXXXXXXXXXXXXXXXXXXO@@@@@@OOOOXXOO@@@@@@@@OXXX.o..ooooooXXXXXXXXXooooooXXXOO@@@@@@@OXXoooo       ..o.ooXXXXXXXO@@@@@@@OXXXXXXXXXXXO@@@@@@@@@OO@@@@@@@OXXXXXXXXXXXXXoXXXXXXXXXOOOO@@@@$$$$$$@@@@@@@@@$$$$$$@@@@$$$$$$$##@@@OOXXXXXXXOOOO@@@@@$**$#@@OOOOOOOOXXXXXXXXOOOOOXXXXXXO+@@@@OO@@@O++XXXXO@@@@@@@@@@OOO@@##%%%%%==@+XXO%---------------------------------=#&&&&&&&&&&&&&&&&&&&&::&&&&++++++++++++++++++++++++++@&&&@++@@&&#++++.++++.++++++++++++++++++#;------------------------------------#+++++.++++++++&+++++.++.+#----------------------------------------%============::=:========;;;;--;;----------------;;----;;&+++++#----------------------------------------#++++++++++++++++++++@#=---------------------------------------%%%=%%%%%%%##################@@@++++++++&&++++++++++&&&&+++++++++&&&&&++++++++++++++#;-----------------------------------------------------------------%++++&&&+++.+++++++++++++++&&&&&&&&@##%%%===-------------%OOO@%-------------------------------%OXXXXoooooooXXXXXXOOXOO@=-----------------------------%OOOO@OOOOOOOO@@OOXXXO@@@@@@@@OOOO@@@@@@@@@@@@@@@@@@OOXXXXXXXXO@@@+OOOOO+OO@@@@@@@@@@@@@@@++@@++@@&&&&&&&&&&&&&&&&&&&&&&&&#&$$*====;=;-;;;;;;;;;;========;;;;;;;;;;;;;;;;;====*******$$$@@@@@@@@@OOOOOOOXXXXXXXXXXXXooooooooo. o  .                           ",
"@@@@@OXXX..o..XXXXXXXXXXXXXO@@@@@@@@@@OOOO@@@@@@@@OXXX...oooooXXXXXXXXXXXoo.oooXXXOO@@@@@@@OXXooooo.    oooo.oXXXXXXXOO@@@@@@@OXXXXoo.XXXXO@@@@@@@@@OOO@@@@@@OXXXXXXXXXXXXXXXXXXXXXOOOO@@O@@@@$$***$$@@@@@@$$$**$$$@@@@@@@@$$$$$$@@@@OOOXXXXXXOOOO@@@$$$*$$@@@OOOOOXXXXXXXXOOOOOXXXXXXXO@@@OOOO@@OOOOOOOO@$$$$$$%%%%%%----------=@XXX#----------------------------------#&&&:&&&&&&&&&&&&&&&&&:::::&&@++++++++++++++++++++++++@@&&@++&@@@#++++++++++....++++++++++++++%------------------------------------=&++++++++++++++&+++++.++.+%-------------------------------------------------------------------------------------------------#+++++%---------------------------------------;#+++++++++++++++++++++&%---------------------------------------%%#%%%%===---------------------%%%%%%%%%==%%################@@@@+@###+++++++++++++++#:------------------------------------------------------------------#O++&&&+++.++++++++++++++&&&&&&&&&&&&&&@@&#*====;;------*@OO@$-------------------------------%@XXXXXXoXXXXXXXXXOOOXOO@%------------------------------%OO@@@@OOOO@@@@OOOOOO@@@@@@@@@OOO@@@@@@@@@@@@@@@@@@OOXXXXXXXXO@@@+OOOOOOOO@@@@@@@@@++@@@++@@@++++&&&&&&&&&&&&&&&&&&&&&&&&&&$**=======-;;;;;;;;;;========;;;;;;;;;;;;;;;;;====*******$$$@@@@@@@@@OOOOOOOXXXXXXXXXXXXXooooo.ooooo...                           ",
"@@@@@OXXX.oooo..ooXXXXXXXXXO@@@@@@@@@OOOOOOO@@@@@@OXXXXX.o..ooXXXXXXXXXXXoo..oooXXOO@@@@@@@OXXoo.oo. . ooooo.oXXXXXXXO@@@@@@@@OXXXXXooXXXXO@@@@@@@@@OOO@@@@@@OXXXXXXXXXXXXXXXXXXXXOOOO@@OOO@@@@$$$$*$$@@@@$$$$*****$$$@@@@@@@$$$$$$$@@@OXXXXXXXXXXO@@@@$$$$$#@@@@@OOXXXXXXXOOOOOXXXXXXXO@@@OOO@@OOOOO@@@%%====------------------#OXXO#---------------------------------%#&&&&&&&&&&&&&&&&&&&&&&&==:::&&++++++++++++++++++++++@@@@@@+@+@@@#+++++++++++...+++++++++++++#-------------------------------------%+++++++++++++++&++++++++X+%------------------------------------------------------------------------------------------------%+++++&%---------------------------------------=#++++++++++++++++++++++%---------------------------------------%@OOOOO@###%%%%%----------------------------------;-;;;=::======%%::::########&+++++#:------------------------------------------------------------------=#+++&&+++.+++++++++++++++&&&&&&&&&&&&&+@+@@@*****%===--%OOOO#--------------------------------@XXXXXXXXXXXXXXXXXXOO@@@%------------------------------%OO@@@OOOOOOO@@OOOXXX@@@@@@@@@OOO@@@@@@OOOO@@@@@@@@OXXXXXXXXX@@@@++OOOO@@@@@@@@@@@@@+@@@+++@@++++&&+++&&&&&&&&&&&&&&&&&&&&&***======;;;;;;;;;;;;========;;;;;;;;;;;;;;;;;====*******$$$@@@@@@@@@@OOOOOOXXXXXXXXXXXXXoooo..oo.oo...                           ",
"@@@@@OXX..ooooo..ooooXXXXXOO@@@@@@@@@@OOOOOOOOOOOOOOXXXXXXXXXXXXXXXXXXXXXXooooo.XXOO@@@@@@@OXX.ooo     ....ooo.XXXXXXO@@@@@@@@OXXXXo.oXXXX@@@@@#@@@@OOO@@@@@@XXXXXXXXXXOOOOXXXXXXXOOOOOOOO@O@@@@$$$$*$##$@@$$$$******$$@@@@@@@$$$$$*$$$@@OXXXXXXXXOOOO@@@@$**$@@@@OOOXXXXXXOOOOOOOXXXOOOOOOOOO$$$$%%%%-------------------------%@XOX@=--------------------------------=#&&&&&&&&&&&&&&&&&&&&&&&&&&::::##&@+++++++++++++++++++++@@@@++@@@@@@+++XX.+...XXXXXXXXX++++++@#------------------------------------;#&+++++++++++++&&++++.++.o#--------------------------------------=#&+#####%%%====-------------------------------------------%++++++%---------------------------------------%#++++++++++++++++++++++#---------------------------------------%O++++++++++++++#####%%==-;;--------------------------------------------------%O++++&&::::=-;-------------------------------------------------------------#++&&+++++++++++++++++++&&&&&&&&&&&&&&&+&&&&&&$@@@$***@@OOO@=-------------------------------%OXXXXXXXXXXXXXXXXXO@@@@@=-----------------------------%@O@@@@OOOOOO@@@@OOOO@@$*$$@@@OOOO@@@OOOOOO@@@@@OOOOOXXXXXXXX@@@@@@@@O@@@@@$$$@@@@@@@@@@+@@@@++@&@+++@@++&&&&&&&&&&&:&:&&&&&**======;;;;;;;;;;;;========;;;;;;;;;;;;;;;;;=====**=**$$$$@@@@@@@@OOOOOOXXXXXXXXXXXXXoooooooo.oo o                              ",
"@@@@@OXX...oooooooooooXXXXOO@@@@@@@@@@OOXXXXXOOOOOOXXXXXXXXXXXXXXXXXXXXXXXooooooXXOO@@@@@@@OXXo.oo   ....ooo.oXXXXXXXO@@@@@@@@OXXXXo.oXXXX@@@@@#@@@@OO@@@@@@OXXXXXXXXXXXOOOXXXXXXXXXXXOOOOO@@@@@$$@@@@@@@@@@@@$$*******$$@@@@@@$$$$$$**$$@@@OXX+XXXXOOOO@@@@****#@OXXXXXXXOOO@OOOOOOOO@@$%%%==---------------------------------%OXXO%---------------------------------=#&&&&&&&&&&&&&&&&&&&&&&&&&&&&#:=*#&&&@+++++++++++++++++++@@@@@@@##@@+++++++++++++++O+@@++++++@%------------------------------------=#&+++++++++++++&&++++++++X#--------------------------------------#O++.XXXXXOO@@@@@###%%%%%%%%%%-----------------------------%+++++#----------------------------------------%@++++++++++++++++++++++#---------------------------------------%O++++++++++++++++XXXO+O@@##%%%%----------------------------------------------%O+++++&&&+#@##%%%%---------------------------------------------------------##++&+++++++++++++++++++&&&&&&&&&&&&&&&+&&&&&*$@@@$$$@@OOOO@=-------------------------------%OXXXXXXXXXXXXXXXO@@@@OOO%------------------------------%O@@@OOOOOOOO@@@@O@@@@$$*$@@@@@@@@@OOOOOOOOO@@OOOOOOXXXXXOXOO@@@@@@@O@@@$$$$@@@@@@@@@@@+@@@@@@&&@++@@+++&&&&&&&&&&&&::::&&&&*=====;;;;;;;;;;;;;========;;;;;;;;;;;;;;;;;=====**=**$$$$@@@@@@@@@OOOOOXXXXXXXXXXXXXooooooo..o oo                              ",
"@@@@@OXX...o...o ..oo...XXXO@@@@@@@@@@OOXXXXXXXXXXOXOXOOOOOOOOOOOOXXXXXXXXooooooXXXO@@@@@@@OXXooo.    oo.ooo.o.XXXXXXO@@@@@@@@OOXXXo.XXXXXO@@@@#@@@@OO@@@@@@OXXXXXXXOOOOOOOXXXXXXXXXXXXOXX@@@@$$*$@@@@@@@@@@@@@@@@$$$*****$$$$$$$$$$$$$$**$$@@@@OXOXXXXXOO@@@$$**#@OOOOOO@@#$%%$%%%%%==---------------------------------------%@XXO#---------------------------------=&@&&&&&&&&&&&&&&&&:&&&&&&&&&&&&&&:=*###@@@++++@@@@OOOOO@@@@@@@####%%$$#$%%%%%%%%%%%%%%%%#O++++@=------------------------------------:#&+++++++++++++&&++++++.+@%-------------------------------------%+++++++++++++++++++++++++++###&#####%%%%%%%===------------=#+++++#----------------------------------------#+++++++++++++++++++++++%---------------------------------------%@+++++++++++++++++++++++++++++++@######::==----------------------------------%O++++&&&&++++++++++####%::::;;;---------------------------------------------%+++++++++++++++++++++&&&&&&&&&&&&&&&&&&&&&&&&&@@$$@@@OOOO@%-------------------------------%OXXXXXXXXXXXXXO@@@@XXXXO%------------------------------%@@@@OOOOXOO@@@@@@@@@@$$*$@@@@@@@@@@@@OO@OOO@OOOOOOOOOXXXXOO@@@@@@@@@@@$****$$#$@@@@@@@&@&&&&&&&&&&&&&++&&&&&&&&&&&&&::::&&*========;;;;;;;;;;;========;;;;;;;;;;;;;;;;-====******$$$$@@@@@@@@@OOOOOOOXXXXXXXXXXooooooo....                                 ",
"@@@@@OXX..o....oo  .oooXXXXO@@@@@@@@@@OXXXXXXXXXXXXXXXOOOOOO@@@@OOOXXXXXXXooooooXXXO@@@@@@@OXXoo.     oo.ooo.oXXXXXXXO@@@@@@@@OOXXXo.XXXXXO@@@@$@@@@OO@@@@@@OXXXXXXXXOOOOOXXXXXXXXXXXXXXXX@@@@$**$$@@@@@$$$@@@@@@@@@$$$********$$$$$@@@@$$***##@@OOOXXXXOO@@@@@$$$@@@@@@#$%=======----------------==---------=====%%%%%%%%%%#@OXXX@%---------------------------------=&@&&&&&&&&&&&&&&&&&&&&&&&&&&&&&&&&#*####@@@@@@@@@@#######%======-----------------------=#X++++#-------------------------------------##&+++++++++++++&&++++++.+#=-------------------------------------%+++++++++++++++++++++++++++++++++++XOOOOO@@@##%%%%%%%=----%#+++++#---------------------------------------%#X++++++++++++++++++++++#;--------------------------------------%@+++++++++++++++++++++++++++++++++++++@###@@#%%%%%---------------------------%O++++&&&&+++++++++++++++#####%%%%-------------------------------------------%##&++++++++++++++++++&&&&&&&&&&&&&&&&&&&&&&&&&@@$@@@@O@+O@%-------------------------------%OXXXXXXXXXXOO@@@@XXXXXXO#------------------------------=@@@@OOOXXXO@@@@@@@@@@@@**@@@@@@@@@@@@@@@@@O@@@OOOOOOOOOOOOOO@@@@@@@@$**====****#$&@@@&&&&&&&&&&&&&&&&&&&&&&&&&&&&&&&&&:::::=:======;;;;;;;;;;;========;;;;;;;;;;;;;;;;-====******$$$@@@@@@@@@OOOOOOOOXXXXXXXXXXXoooooo....   . .                           ",
"@@@@@OXX.oo... ooooooooXXXXO@@@@@@@@@@OXXXooXXXXXXXXXXOOOO@@@@@@@OOOXXXXXXooooooXXXO@@@@@@@OXXoo..    oo.....oXXXXXXXO@@@@@@@@OOXXXo.XXXXXO@@@@@@@@@OO@@@@@@OXXXXXXXOOOOOOOXXXXXXXXXXXXXXXO@@@****$@@@$$$$$$@@@@OO@@@@@$$*********$$@@@@@@@$$$##@@@OOXOOOOO@@@@@@@@@@@@O@@#$$%%%%$$$$$$$$###@@@@@@@@@@@@@@$***$$@@OOXXXXXXXXOXXXOO%---------------------------------=*&&&&&&&&&&&&&&&&&&&&&&&&&&########%%%%%%%%%%%%%%=--------------------------------------%@..+XO%-----------------------------------;=&&&+++++++++++++&&++++.+.X%-------------------------------------=#++++++++++++++++&&+++++++++++++&&&++++++++&&&&&&&&&&&&&&&&&&&&&&#:--------------------------------------;=&+&&&&&&&&&&&&&+++++&&+&%---------------------------------------=@&&&&&&&&&&&&&&&&&&&&&&&&&&+++++++++++&&&&++++++++&&&::====--;;;-------------%O++++&&&&++++++++++++++++&&+++++++###%=---------------------------------------%%%%%###@@OOOOOXXX+++&&&&&&&&++&&#+++@&&&#&$@@@$@@@@+O+O@%--------------------------------@XXXXXXXXOO@@@@OXXXXXXXO@=------------------------------%@@OOOXXXXXO@@@@@@@@$****$@@@@@@@$$@@@@@@@@OOO@@OOOOOOOOOO@@@@@$$$**=======**$$$$$@@&&&&&&&&&&&&&&&&&&&&&&&&&&&&&&&&&&&::::::======;;;;;;;;;;;========;;;;;;;;;;;;;;;;--===*******$$$@@@@@@@@@OOOOOOOXXXXXXXXXXXXXXoo......  .                             ",
"@@@@@OXX.o.... ...oooooXXXXO@@@@@@@@@OXXXooo.ooXXXXXXXOOOO@@@@@@@@OOXXXXXXoooo.oXXXO@@@@@@@OXXoooo  ..oo......XXXXXXXOO@@@@@@@OOXXXo..XXXXO@@@@@@@@@OOO@@@@@OXXXXXXXOOOOOOXXXXXXXXXXXXXXXXO@@@****$@@@$$$$*$@@OOOOO@@@@@@$$***===***$$@@@@@@@@@@@@@@@OOO@@@@@@@@@@@@OOXXXOO@@@@@OOOOOOOO@@OOOOOOOOOOOOOOO@@#$$$$@@OOOXXXXXXXXXXXO@%---------------------------------=*:&&&&&&&&&&&&&&*::::::::::===========--------------------------------------------------%XX++X@%------------------------------------%&&&+++++++++++++&&++++++.+%-------------------------------------=#&+&&&&&&&&&&&&&&&&&&&&&&&&&&&&&&&&&&&&&&&&&&&&&&&&&&&&&&&&&&&&&&#:--------------------------------------;=##&&&&&&&&&&&&&&&&&&&&&&%;--------------------------------------=#&&&&&&&&&&&&&&&&&&&&&&&&&&&++++++++++&&&&++++++++++&#@@@@@##%%=-------------%O++++&&&&++++++++++++++++&&+++...++++#%------------------------------------------------%%%%%%######&::&&&&&&&&&&&++@&&&#&#&@@$$@@@+OXO@%--------------------------------$XXXXXXXOO@@@OXXXXXXXXXO@%------------------------------%@@OOOXXXOXOO@@@@$*$*****@@@@@@$*$@@@@@@@@@OOOO@@@@@@OOOO@@@@$$***=========*$$$@@@@@@&&&&&&&&&&&&&&&&&&&&&&&&&&&&&&&&&&&::==:==;==;;;;;;;;;;;;=======-;;;;;;;;;;;;;;;;;-====******$$$@@@@@@@@@OOOOOOOXXXXXXXXXXXXXXoo......o .                             ",
"@@@@@OXX.oo.oooo.oooo.oXXXXO@@@@@@@@@OXXooooo.ooXXXXXXXOOO@@@@@@@@OOXXXXXXXooo.oXXXO@@@@@@@OXX.oooo ..oo.o..ooXXXXXXXO@@@@@@@@OOXXXo..XXXXO@@@@#@@@@OOO@@@@@OXXXXXXO@@@@@OXXXXXXXXXXXXXXXXO@@@#**$$@$$$$$$$$$@OXOXXOOO@@@@@@$*****=****$@@@@@@@@@@@@@@@@@@@@@@@@@@@OOXXXXOO@@@@@OXXXXXX+@@@O++@@++++XX+X@@@#@@#@@@+++X..XX...XXXO%---------------------------------=:&::&&&&&&&&&&&&*===::::;;;;=;;;--------------------------------------------------------=@.+.+X#------------------------------------:#&&&++++++++++++&&&++++++X#--------------------------------------:#&&&&&&&&&&&&&&&&:&::&&::::::::&&:::::::&&&&&::&&&&&&&&&&&:::::::::--------------------------------------;=:&&&&&&&&&&&&&&&&&&&&&&:%---------------------------------------=#&&&&&&&&&&&&&&&&&&&&&&&&&&&&+++++++++&&&&+++++++++&&&&&&&&&&&&&&&&###%===--=#+++++&&&&++++++++++++++++&&&++++++++++#---------------------------------------------------------------===%%%###%#@@@@@#*$$@@#$@@@OOOX@@%--------------------------------%XXXXXXXOOOOXXXXXXXXXXOO@%------------------------------%@OOOOXOOOO@@@$**********@@@@@$$$@@@@@OO@@@OOOO@@@@@@@O@@@@@@**==========**$@@@@@@@@&&&&&&&&&&&&&&&&&&&&&&&&&&&&&&&&&&&&&::====;;;;-;;;;;;;;;;=======-;;;;;;;;;;;;;;;;;=====******$$$@@@@@@@@OOOOOOOOXXXXXXXXXXooXooooooo  oo.                             ",
"@@@@@OXX.ooooooo.ooo..oXXXXO@@@@@@@@@OXXooooooooXXXXXXXXO@@@@@@@@@OXXXXXXXooooooXXOO@@@@@@@OXX.o.oo ..oooo...oXXXXXXXO@@@@@@@@OOXXXo..XXXXO@@@@#@@@@OOO@@@@@OXXXoXXX@@@@@@OXXXXXXXXXXXXXXXOO@@@@$$@@@$$$$$*$@@OXOXXXOOOO@@@@@@$*****==**$$@@@@@@@@@@@@@@@@$$$$$@@@@OXXXXXXOO@@@@OXXXXX++@@@+++@@++X+XXXX+@@#@@@@@@OXXXXXXX..XXXX@%---------------------------------%&&:::::&&&&&&&&&&&*==:::===:===;---====-------------------------------------------------%O...+X%------------------------------------%@&&&++++++++++++&&&++++++O%--------------------------------------##&&&&&&&&&&&&&&&&&&&&&&&&&&&&&&&&&&&&&&&&&&&&&&&&&&&&&&&&&&&&&&&&#:--------------------------------------;%&&&&&&&&&&&&&&&&&&&&&&&:-;--------------------------------------=#&&&&&&&&&&&&&&&&&&&&&&&&&&&&+++++++++&&&&+++++++++&&&&&&&&&&&&&&&++++@@@####+X++++&&&&++++++++++++++++&&+++++++++++#---------------------------------------%##%%%%---------------;;;;;;;;;-;--=========*****$@@@OX@@$=-------------------------------%OOXXXXXXXXXXXXXXXXXXX@@@$-------------------------------#OOOXOOOOO@@@****$******@@$$$$@@@@@@OOOO@@@O@@@@@@@@@@@@@@***====;=====**$@@@@@@@$##***&&&&&&::::::&&&&&&&&&&&&&&&&&&&&&&==:==;;;;-;;;;;;;;;;=======-;;;;;;;;;;;;;;;;;=====******$$$@@@@@@@@OOOOOOOOXXXXXXXXXooXoXoooooo  oo.                             ",
"@@@@@OXX.ooooo..oooo..oXXXOO@@@@@@@@@OXX....oooooXXXXXXXOO@@@@@@@OXXXXXXXoooooXoXXOO@@@@@@@OXXoooo...oo.oo...XXXXXXXOO@@@@@@@@OXXXXo.oXXXXO@@@@@@@@@OO@@@@@@OXXXoXXX@@@@@@OXXXXXXXXXXXXXXXOO@@@@@@@@@@@@$$$$@@XXXXXXXXXOOOO@@@@@$$*********$@@@@@@@@@@@@@@$****$@@@@OXXXXXOO@@@@XXXXXX+@@@@+++@@@+O++O+++@@@@@@#@@OX+++XXXXX..XO%---------------------------------;=&&&:::::::&&&&&&&&&&&&====&&&&&&#*==:######################%%%======================-==%#+....@%------------------------------------#+&&&++++++++++++&&&+++++X$-------------------------------------;%&+++++++++++++++++++++++++++++++++++++++++++++++++++++++++++++++++=---------------------------------------;#++++++++++++++++&&++++#=----------------------------------------=#++++++++++++++++++++++++&&&&+++++++++&&&&&++++++++&&&&&&&+&&&&&+&&+++++++++++++++++&&&++++++++++++++++&&+++++++++++&---------------------------------------%#+++++####%=--------------------------------------%@OOO@#=-------------------------------%@OXXXXXXXXXXXXXXXXO@@@@@@=------------------------------%OOOOOOO@@@$*$************$$$@@@OOO@@O@@@@@@@@@@@@@@@@$***===========**$$$@@*$$$**$*======**::::::::::::&&&&&&&&&&&&&&&&::====;;;;-;;;;;;;;;;========;;;;;;;;;;;;;;;;;=====*****$$$$@@@@@@@@@@OOOOOXXXXXXXXXXoXooooo..ooo oo ..                           ",
"@@@@@OXX.ooo....oooo.XXXXXOO@@@@@@@@@OXX.o..oooooXXXXXXXO@@@@@@@@OOXXXXXooXooXXXXXXO@@@@@@@OXXoooo . ..o o...XXXXXXXOO@@@@@@@@OXXXXo..oXXXO@@@@@@@@@OOO@@@@@OXXXXXXX@@@@@@OXXXXXXXXXXXXXXXXOOOO@@@@@@@@@$$$#@@XXXXXXXXXXXOOOOO@@@@$$*********$$@@@@@@@@@@@$$****$@@@@OXXXXO@@@@@XXXXXXX@@@@O++@@OOOO+++++@@@#@@#@@+X++XXXX....X@%---------------------------------:#&&&&&&&::::&&&&&&&&&&&&===&&&&&&@&&#&&###@@@@@@+XXX+OOOO@@@@@@@@@@@@@@@@@@@@@@@@@#@@@@@@+....+#-------------------------------------&+&&&++++++++++++&&&&&++.+%-------------------------------------=#+++++++++++++++++++++++++++++++++++++++++++++++++++++++++++++&+++&----------------------------------------:#++++++++++++++++&&+++&%-----------------------------------------:+++++++++++++++++++++++++&&&&+++++++++&&&&&++++++++&&&&&&++++&&++&++++++++++++++++++&&&++++++++++++++++&&+++++++++++#=--------------------------------------%#+++.+XXXXOO@#%%=----------------------------------%@OO@@=--------------------------------@OXXXXXXXXXXXXXXO@@@@@@@@=------------------------------%@OOOOO@@@***$****$*******$$@@@@OOOOO@@@@@@@@@@@@@@@$**============***$@$$**==******==;;;===&&::::::::::::::&&&&&&&&&&&&======;;;;-;;;;;;;;;;========;;;;;;;;;;;;;;;;;=====******$$$@@@@@@@@@@OOOOOOXXXXXXXXXoXooooooooooooo .                            ",
"@@@@@OXX.ooo.....oo...XXXXOO@@@@@@@@@OXXoooo.oo.ooXXXXXXO@@@@@@@@OXXXXooooXXXXXXXXXO@@@@@@@OXXoooo   o.. oo.XXXXXXXOOO@@@@@@@@OXXXX.oooXXXO@@@@@@@@@OOO@@@@@OXXXXXXX@@@@@@OXXXXXXXXXXXXXXXXXXXXXXXXXOO@@@###@+XXXXXXXXXXXXXXOOOO@@@@@$****==****$@@@@@@@@@@$@@@@@@@@@OXXXXOO@@@@XXXXXXX@@@@+OOO+@+OXXX++O@@@#@@@#@OXXXXXXXXXX.X#--------------------------------;=:&&&&&&&&&&&::::&&&&&&&&&&*&&&&&&&&&&&&&&&&&&&&++++++++++++++@+++++@&&@+++++++++++++++++++++++.+%------------------------------------%&+&&&++++++++++++&&&++.+@%--------------------------------------#@+++++++++++++++++++++++++++++++++++++++++++++++++++++++++++++++++#----------------------------------------%@++++++++++++++++++++#%------------------------------------------=+++++++++++++++++++++++++&&&&+++++++++&&&&&++++++++&&&&+++++++++#####@+++++++++++++&&&&&+++++++++++++++&&&++++++++++&=--------------------------------------=#++++++++++++++++###::::;;;;-----------------------%@OO@@=--------------------------------#OXXXXXXXXXXXXOO@@@@@@@OO%------------------------------=$OOO@@@$$********$******$@@@@@@@@OOOOO@@@@@@@@@@@**==============**$$$**=====******=;;;;;==::&:::::::::::::::&&&&&&&&&&*=====;=;;=;;;;;;;;;;=======-;;;;;;;;;;;;;;;;;-====******$$$@@@@@@@@OOOOOOOOXXXXXXXXXoXoXXooo.oo..oo .  .                         ",
"@@@@@OXX..oo.....ooo.XXXXXOO@@@@@@@@@OXXoooo..o..oXXXXXXO@@@@@@@@OXXXXoooXXXXXXXXXOOO@@@@@OXXX.oo    ...ooo.XXXXXXXO+O@@@@@@@@OXXXX.X.oXXXO@@@@@@@@@OOO@@@@@OXXXXXXX@@@@@@OXXX.......XXXXXXXXXXXXXXXXXOO@@@@@OXXXXXXXXXXXXXXXXXO@@@@@@@$$$***==****$@@@@@@@@@@@@@@@@@OOOOOO@@@@@XXXXXXX@@@@++++@@+OOXX++@@###@#@#@OXXXXXXOXXXXO%---------------------------------%&&&&&&&&&&&&&&::::&&&&&&&&&&&&&&&&&&&&&&&&&&&&&&++++++++++++++++++@&&&#@+++++++++++++++++++++..@-------------------------------------%&&&&&++++++++++++&&&+++#%---------------------------------------&++++++++++++++++++++++++++++++++++++++++++++++++++++++++++++++++++#----------------------------------------#@+++++++++++++++++++#%-------------------------------------------%++++++++++++++++++++++++++&&&+++++++++&&&&&++++++++&&&&++++++++#:=;::%##+++++++++++&&&&++++++++++++++++&&&++++++++++&%---------------------------------------#++++++++++++++++++++&###%%=%----------------------%@OO@@=--------------------------------#XXXXXXXXXXXO@@@@@@@@OOOO%-------------------------------%@@@@@********$$$$$$@@@@@@@OO@OOOOO@@O@@@@@@@@$**===========*=*********==;===******===;;===:::::::::::::::::::::&&&&&&&*==:====;;=;;;;;;;;;;=======-;;;;;;;;;;;;;;;;;-====******$$$@@@@@@@@OOOOOOOOXXXXXXXXXoXXoooooooo. o      .                        ",
"@@@@OOXX.o....ooooo...XXXXXO@@@@@@@@@@XXooo.oooo.XXXXXXOO@@@@@@@@OXXXXXXXXXXXOOOOOOOOOO@OOOXXX..     o......XXXXXXXO+@@@@@@@@@OOXXX.X..XXX@@@@@@@@@@OOO@@@@@OXXXXXXXO@@@OOXX.ooo........XXooXXXXXX.XXXXXXXXXXXXXXXXXXXXXXXXXXXXXXXXO@@@@@@$$*********$$@@@@@@@@@@@@@@@@@OOO@@@@OXXXXXXX@@@@OOO@@OOOXXXXOO@$$$$$$$$$$$$%%=%@XXX#---------------------------------=#&&&&&&&&&&&&&&&&&::::&&&&&&&&&****&&&@+++++&&&##@++++++++++++@@&++@@&&&&++++++++++++++&+++++++X#------------------------------------%@++&&++++XXX+++++++###%%----------------------------------------%+X++++++++++++++++++++++++++++++++++++++++++++++@@@@++++OO+@++++++O%----------------------------------------%@OXOXOOOO@@OOOO@@#%----------------------------------------------%O++++++++++++++++++++++++++&&+++++++++&&&&+++++++++&&&&++++++X@%--------%%##@+++++++&&&++++++++++++++++&&++++++++++&&%---------------------------------------#@+++++++++++++++++&&&&&&&&&&&#*====--;------------%@OO@@%--------------------------------%OXXXXXXXO@@@@@@@@@OOOXXX@-------------------------------%@@@$$$$$$$***$@@@@@@@@OOOOOOOOOOOOO@@@@@@$****==========**************====*********=========:::::::::::::::::::::&&&&&**:==;===;;;;;;;;;;;;=======-;;;;;;;;;;;;;;;;;=====******$$$@@@@@@@@@OOOOOOXXXXXXXXXXooooooo...o                                  ",
"@@@@@OXXoo..o.oooo...XXXXXOO@@@@@@@@@@OXooo.ooooXXXXXXXXO@@@@@@@@@OXXXXXXXXXOOOOOOOOOOOOXXXX....     o.o...XXXXXXXXOO@@@@@@@@@OOXXo.XXXXXO@@@@@@@@@@OOO@@@@@OXXXXXXXOO@OXXXXoooo......o...ooooooXXXXXXXXXXXXXXXXXXXXXXXXXXXXXXXXXXOOOOO@@@@@@$***********$$@@@@@@@@@#$$@@@@@@@@OXXXXXXX@@@@O@@@@@@@OOO@@@$*=====---=-----%+XXX%--------------------------------=#@@&&&&&&&&&&&&&&&&&&::::*&&&&&&&##*##&@++++++@&&#++++++++++++@&&&&&++&&&&+++++++++++++&&&++++++X#------------------------------------%@&&&&&&#+#########:::=------------------------------------------%@++++++#########&&######&&##############################%%##&+++++#:-------------------------------------------=====::=======-------------------------------------------------%#+++++++++++++++++++++++++&&&++++++++++&&&+++++++++&&&&++++++X#%---------;-==%###&&&&&&++++++++++++++++&&++++++++++&#%---------------------------------------%@+++++++++++++++++&&&&&&&&&++@####$%%%=-----------=@OOO@%--------------------------------%OXXXXXXO@@@@@@@@OOOXXXXXO%------------------------------=$@@@@@@@@@$$*$$@@@@@@OOOOOOOOOOOOOO@@@@@**===========***$*******$$$$$********************===::::::::::::::::::::::&&&&&*=:=;====;;;;;;;;;;;=======-;;;;;;;;;;;;;;;;;=====******$$$@@@@@@@@@OOOOOOXXXXXXXXXXXoooooo..ooo                                 ",
"@@@@@OXXoo....ooo.....XXXXXO@@@@@@@@@@OXX...ooooXXXXXXXOO@@@@@@@@@OXXXXXXXXXOOOOOOOOXXXXXXXX.o....   ooo....XXXXXX++@@@@@@@@@@OXXXX...XXXO@@@@@@@@@@@OO@@@@@OXXXXXXXOOOOXXXooo.o.ooooooo..XXoo..XX.XXXXXXXXXX.XXXXXXXXXXXXXXXXXXXXXXOOOOOO@@@@@@*****==*****$@@@@@@@@@****#@@@@@OXXXXXO@@@@O@@@@$$%%%%%%-----------------#XXX@%--------------------------------%@@++++&+&&&&&&&&&&&&&&&&:::&&&&&&&&#&&&&+++++++@@@++++++++++++++&&&&+++&&&++++++++++&&&&&&++++++O%-------------------------------------%%%==%=%%%%%%==--------------------------------------------------%%%%%%%%----%%%%----%%-------------------------------------%#+++++#=-----------------------------------------------------------------------------------------------------------=%%%%%%%%%%%%%%%%%%%%%%#############@#####@+++O++@@##&+++++++X#------------------=%%###@+++++++++++++++&&++++++++++##=---------------------------------------%@++++++++++++++++&&&&&&&&&&&&&&&&@@@&#******==----=@OOO@%--------------------------------%OXXXXXO@@@@@@OOOXXXXXXXXO%-------------------------------$@@@@@@@@@@@***$@@@OOOOOOOOOOOO@@@@@@$**===========**$*******$$$$$$$$$********************==::::::::::::::::::::::::&&**===;====;;;;;;;;;;;=======-;;;;;;;;;;;;;;;;;====*******$$$@@@@@@@@@OOOOOXXXXXXXXXXXXoooooo..ooooo                               ",
"@@@@@OXX.o..o..o......XXXXXO@@@@@@@@@@OXX...oooooXXXXXXXO@@@@@@@@@XXXXXXXXXXOOOOOOOOXXXXXX.o.o...   o oo....XXXXX+X+O@@@@@@@@@OXXXX..XXXOO@@@@@@@@@@@OO@@@@@OXXXXXXXOXOXXX.o.o.o..ooooooXXXXo..XXXXXXXXXXXXXXXXXXXXXXXXXXXXXXXXXXXXXXXOXX+OO@@@@@@$*********$$@@@@@@@@@@#$*##@@@OOOOO@@#%%%%%===------------------------%OXXO#---------------------------------@@O++++@+&&&&&&&&&&&&&&&&&::=&&&&&&@@#**#&+++++++++++++++++++++++@@&@+@@&&&++++++++++++&&&&&&++++@%-----------------------------------------------------------------------------------------------------------------------------------------------------------------%@+++++#---------------------------------------------------------------------------------------------------------------------------;---------;;;;====;===::::::%#%%#%%%:::&++++.+O#--------------------;;=:%######&##+++++&&&+++++++&&&#:----------------------------------------=#+++++++++++++++++&&&&&&&&&&&&&&&@@@@$$**$$$$$%%%%%@OOO@%--------------------------------%OXXXXOO@@@@@OOXXXXXXXXXXX%-------------------------------$@O@@@@@@@@@***$@@@OOOOOOOOOO@@@@@@***==========***********$$$$$$$$$$*********************==:;:::::::::::::::::::::::&*====;====-;;;;;;;;;;=======-;;;;;;;;;;;;;;;;;====*******$$$@@@@@@@@@OOOOOOXXXXXXXXXXXoooooo..oooo                                ",
"@@@@@OXXoo.  .oooo....XXXXOO@@@@@@@@@OXXX...oooo.XXXXXXOO@@@@@@@@OXXXXXXXXXXXXXXXXXXXXXo.ooo .....   o..ooo.XXXX++OOO@@@@@@@@@OXXXX...XXXXO@@@@@@@@@@@OO@@@@OXXXXXXOOOOXXXooooooooo.oooX.XX...XXXXXXXOOO+XXXXXXXXXXXXXXXXXXXXXXXXXXXXXXXOOOOOO@@@@@@@$**********$@@@@O@@@@@$$$$$$$$%%%==--------------------------------#XXXO%--------------------------------%@++++++++++@@&&&&&&&&&&&&&&:::&##@@$%===*&&@+++++++++++++++++++++++&&+@@@&#+++++++++&++++++&&&++#%------------------------------------------------------------------------------------------------------------------------------------------------------------------%++++++%-----------------------------------------------------------------------------------------------------------;-----------------------------------------------------;%++++++@=------------------------------------==--=%%%%%%%%===------------------------------------------%@+++++++++++++++++&&&&&&&&&&&&&&&&&+&&&*#$@@$$$@@@OOO@@@%--------------------------------=@XXXXOXOOOXXXXXXXXXXoXXXX$-------------------------------$O@O@@O@@@@@***$@@@@@OOOO@@@@@@$**==========*************$$$$$$$$$*********=========*****===:;;;;;;::::::::::::::::::&*===:;;;===;;;;;;;;;;========;;;;;;;;;;;;;;;;;-===*******$$$@@@@@@@@@OOOOOXXXXXXXXXXXXXXoo.ooooo. o  .                            ",
"@@@@@OXXoo....oooo..XXXXXXOO@@@@@@@@@OXXo...oooo.XXXXXXOO@@@@@@@@OXXXXXXXXXXXXXXXXXXXo..ooo   .. .   .ooooo.XXXX++O@O@@@@@@@@@OXXXX...XXXXO@@@@@@@@@@@OO@@@@OXXXXXXOOOOXXXXooo..oo..XXXXXXX..XXXXXXXO@@@@@+++XXXXXXXXXXXXXXXXXOOOOOOXXXXOOOOOOOOOOO@@@@@*****===****#@#$$%*=====---------------------------------------%@XXX#---------------------------------#OX+++++++++++@&&&&&&&&&&&&&&::=*====-;-=#&&&&++++++++++++++++++++++&&+++@#@+++++++++&++++#+&&&++&%---------------------------------------------------------------------------------------------------=%%##%%%%%%%%%%------------------------------------------------#++++++%----------------------------------------------------------------------------------------------------------%##%%%%%-----------------------------------------------;%&+++++#-----------------------------------------------------------------------------------------------%@+++++++++++++++++&&&&&&&&&&&&&&&&&+&&&*#$@@@$*#@@O++++@*---------------------------------@XXXXXXXXXXXXXXXXXXXXXXXX$-------------------------------$O@O@@@@@@@$***@@@@OOOOOO@@@@$**==========************$$$$$$$***********============******===::::::::::::::::::::::::&=====;;;===;;;;;;;;;;========;;;;;;;;;;;;;;;;;-===*******$$$@@@@@@@@@OOOOXXXXXXXXXXXXXXXoo.ooooo..   ..                           ",
"@@@@@OXX...........XXXXXXXOO@@@@@@@@@@XXo.....oooXXXXXXOO@@@@@@@@OOXXXXXXXXXXXXXXXoooooo..    ..      ..oooXXXXX+OOO+@@@@@@@@@OXXX....XXXXO@@@@@@@@@@@@@@@@@OXXXXXXOOOOXXXXXoooo....XXXXXXXXXXXXXXXO@@@@@@@@@@@@XXXXX.XX...XXXO@@@@@@OOXXXXXXOOOOOOOO@@@@@$***============--------------------------------------------=$OXXO%--------------------------------%@+XX++++++++++++@@@&&&&##&&**===--------=*###&@@++++++++++++XXOO@O@@@@@@@###@@@#@@#####%%%##&#+++&%--------------------------------------------------------------------------------------------------=#@++++++&&&&&&&&&&&&###:::::=====;;;--------------------------;#&&&&&&=---------------------------------------------------------------------------------------------------------##&&++&&&&&&&&#:===--------------------------------------=&+++++%-----------------------------------------------------------------------------------------------%@+++++++++++++++++&&&&&&&&&&&&&&&&+&&&&&&&@@@##@@++++++@%---------------------------------$XXXXXXXXXXXXXXXXooooXXXX@=------------------------------$O@O@@@@@@$****@@@@@@@OO@@@***==========*****===***$$$$$$$$$*********===============*********========;;;;;;;;;;;;::::::====;;;==;;;;;;;;;;;=======-;;;;;;;;;;;;;;;;;-====******$$$@@@@@@@@OOOOXXXXXXXXXXXXXXXXoo..oooo..                                ",
"@@@@@+XX........oo.XXXXXXXO+@@@@@@@@@@XXo..oo...oXXXXXXOO@@@@@@@@OOXXXXXXXXXXXoo..ooo ..      ..      ..oooXXXXX+O+O++@@@@@@@@OXXXX...XXXXO@@@@@@@@@@@@@@@@@OXXXXXOOO@OXXXXXooo.....XXXXXXXXXXXXXXO@@@@@@@@@@#@@@+XX.......XXXXO@@@@@@@@OOOXXXOOOXXXOOOO@@@@$*****=***$$$%%===%%%%%%%%%%%%%%%%%%%%%%$%%$$$%%%%%%%$%$$@@@OOO@%--------------------------------%XXX+X++++++++++++@+@&&&#**===;;;-;-----=*#&&#&##@+++++++@@@@@@######%%%%%===========------=%&++++#%--------------------------------------------------------------------------------------------------%@+++++++&&&&&&&&&&&&&&&#########%%%%%%%%==--------------------;=::::::----------------------------------------------------------------------------------------------------------:#&&&&&&&&&##&&#####%%%%%--------------------------------%&&+++#%-----------------------------------------------------------------------------------------------%@++++++++++++++++&&&&&&&&&&&&&&&&&&&&&&*&&&@@#$@@@+++++@$=--------------------------------%XXXXXXXXXXXXXXXXXXoXXXXXO=------------------------------$O@@@@@@@@$****$@@@@@@@@@$*==========*****====**$$$$$$$$$$*********====;;;;;;;====***$*******=========;;;;;;;;;;;;::::::===;;;==;;;;;;;;;;;=======-;;;;;;;;;;;;;;;;;-====******$$$@@@@@@@@OOOOXXOXXXXXXXXXXXXXoo..oooooo                                ",
"@@@@@OXXoo......o...XXXXXXO+@@@@@@@@@@OXoooo....oXXXXXXX@@@@@@@@@@OXXXXXXXXXX...ooo    .       .       ....XXXXX++++++@@@@@@@@+XXX....XXXXO@@@@*@@@@@@O@@@@@OXXXXXOO@@OOXXXooooo.XXXXXXXXXXXXXXXXO@@@@@@@@@@@#$##@+XX.....XXXXXXXOO@@@@@@@@@OOXXXXXOOOOOOOO@@@@@$$$$@@@@OO@@@@@@@OOO@@@@@@@@@@@@@@@OO@@@@@@#$*$@@@@@@OOOOOO#---------------------------------%XXXXXXXXXXOOOOOOO@OO@$%%=--------------%%$$$$$%#$##$#%%%%%%%%%=----------------------------%+++++#%-------------------------------------------------------------------------------------------------:#++++&&&&&&&&&&&&&&&&&&&&&&&&&&&&&&&&&&&:::::::::::;;::;;;;;;;;::&&&:::----------------------------------------------------------------------------------------------------------:&&&&&&&&&&&&&&&&&&&++++#&&&&#::::=;----;;;;------------;#&&&&+#%------------------------------------------------------------------------------------------------%%%$$@@@@OOOOOO+++@#&&&&&&&++@&##@@@@##*#$@@$#$@@++++++@@=--------------------------------%OXXXXXooXXXXoooXXXoXXXXXO%------------------------------%@@@@@@@@@******@@@@@@@@**========*****====***$$$$$$$$*********=====;;;;;;=====*****$$*******==========;;;;;;;;;;;::=======;;;;;=;;;;;;;;;;=======-;;;;;;;;;;;;;;;;;-====*****$$$$@@@@@@@@@OOOOOOXXXXXXXXXXXXooo..oooooo   .                            ",
"@@@@@OXXoo.....oo....XXXXXX+@@@@@@@@@@OXoooo..o..XXXXXXX@@@@@@@@@@OXXXXXXXXXX.oooo                    .o.o.XXXXX+++++O@@@@@@@@+XXX....XXXXO@@@@$@@@@O@@@@@@@OOXXXOOO@@OOXXXoo.oo.XXXXXXXXOOOOXXXOO@@@@@@@@@@@$$###@+XXXXXXXXXXXXXXXXXOO@@@@@@@@OOOXXXXOOOO@@@@@@@@@@@@OOOOOOOOOOOXXXOOO@@@OO@@@OOOOOOOOOOO@#***@@@@@@OOXXXO%---------------------------------%@@@@@@@@@#@####%%%===------------------=========-=-----------------------------------------%+++++#%-------------------------------------------------------------------------------------------------#+++++&&&&&&&&&&&&&&&&&&&&&&&&&&&&&&&&&&&&&&&&#&&&&#############&&&&&&#:---------------------------------------------------------------------------------------------------------%&&&&&&&&&&&&&&&&&&&&+++++++++&###@@###%%%=--------------::&&&&##-------------------------------------------------------------------------------------------------------=%%%%%%%%####&&&&&&&&&#&&###@@@$#*#@@@##$@@@++++@@@%--------------------------------%OXXXXXoXXooooXXXXXooXXXXO%------------------------------=$##@@@@@@******@@@@@@@$**====******====***$$$$$$$$$*********===;;;;;;;;===*********$*********==========;;;;;;;;;;::========;;;;=;;;;;;;;;;=======-;;;;;;;;;;;;;;;;;-====*****$$$$@@@@@@@@@OOOOOOXXXXXXXXXXXXooo..oooooo   . .                          ",
"@@@@@+XXoo....oo......XXXXO@@@@@@@@@@@OX.oo ..oo.XXXXXXX@@@@@@@@@@OXXXXXXXXXX.ooo.     .            .....o.XXXXXXX++OOO@@@@@@@+XXXX...XXXXO@@@@@@@@@OOO@@@@@OOXXXOOO@@@OXXXo.o.oXXXXXXXOOOOOOOOOOOOOO@@@@@@@@@&$##@+XXXXXXX.X.XXXXXXXXXXO@@@@@@OOXXXXOOOXO@@@@@@@@@@OOXXXX@@@@@OOXXX+O@@@@@++@@@@@+++++++@@$$$$#@@@@O++XXX@%-----------------------------------------------------------------------------------------------------------------------------%+++++#%-----------------------------------------------------------------------------------------------;%&+++++&&&&&&++++++++++++++++++++++++++++++++++++++++++&&++++++++++++++#:--------------------------------------------------------------------------------------------------------=#&+&+++++++++++&&&&&&++++++++&&&&++++++++&&&&####%%%=-=:::::&&&@#--------------------------------------------------------------------------------------------------------------------------==%%%%%%%%$$$$*$$$#$$$@@OO+O++@@%--------------------------------%OXXooooXXooooXXXXXoooXXX@%------------------------------=$$$#@@@@@$****$@@@@@************=====**$$$$*$$***********====;;;;;;=====**************$*******=========;;;;;;;;;;;:==========;==;;;;;;;;;;=======-;;;;;;;;;;;;;;;;;-====*****$$$$@@@@@@@@@OOOOOOXXXXXXXXXXXXXoXoooooo..   ..                           ",
"@@@@@@XXoo....oo......XXXXO@@@@@@@@@@@OX.oo ..oo.XXXXXXX@@@@@@@@@@OXXXXXXXXXX.oo..              .    ......XXXXXXX+OOOOO@@@@@@OXXXX.o.XXXXO@@@@@@@@@OOO@@@@@OOXXXOO@@@OOXXXo...oXXXXXXXXOO@@@OOXXXXOOOOOO++@@@&&#@@++XXXXXXX....XXXXXXXXXOOOO@OOOOXXXOOOOOOOOOOO@@OOOOXXXO@@@@@OXXXX++@@@@@++++@@@+++++++@@@$$##@@@@@@+XXO@%-----------------------------------------------------------------------------------------------------------------------------#+++++&%-----------------------------------------------------------------------------------------------=%+++++++&&&&+++++++++++++++++++++++++++++++++++++++++++++++++++++++++++#:--------------------------------------------------------------------------------------------------------#+++++++++++++++++&&&&+++++++++&&&+++++++++&&&#++@@O@@####&&&&&&#%-------------------------------------------------------------------------------------------------=----------------------;;;;----------==========%#@@@O++OO%---------------------------------OXXoXXXXXXoooXXXXXoooXXO@%------------------------------=$$@@@@@@@@$***@@@@@@*********=====***$$$$*************====-;;;;;;===***************************=========;;;;;;;;;;:=============;;;;;;;;;;=======;;;;;;;;;;;;;;;;;;-====******$$$@@@@@@@@@OOOOOOXXXXXXXXXXXXXoXXooooo..    .                           ",
"@@@@@@+XX.......o...XXXXXXOO@@@@@@@@@@XXoo....ooXXXXXXXXO@@@@@@@@@+XXXXXXXXXXooo..              .  .   .o.oXXXXXXXOO+++@@@@@@@OXXXo.o..XXXOO@@@@@@@@OO@@@@@@OOXXXXO@@@OOXXXooo.o....XXXXO@@@@@+XXXXXXXXXXXX+@@&##@@+X++XXXXX...XXXXXXXXXXXXXXXXXOOOOXXXOOOOOOOOOOOOOXXXXXX@@@@@OXXXX+O@@@@+++@@@@@+++++@O@@#$@@#@@@@O+XOOO$-------------------------------------------------------------------------=================-----------------------------------=#&++++&------------------------------------------------------------------------------------------------:&++++++&&&&++++++++++++++++++++++++++++++++++++++++++++++++++++++++++++%--------------------------------------------------------------------------------------------------------%++++++++++++++++++&&&&++++++++&&&&++++++++&&&&&&++++++++++&&&&&&#%-----------------------------------------------------------------------------------------------%##+####%%==;--------------------------------------%%@OXXXO$---------------------------------#OoXooXoXooooXXXoXooXXXO$=------------------------------=$@@@@@@@@@@$@@@@@$$********====*****$$*$***********====;;;;;;-===*********====*****************==*======;;;;;;;;;;;=======;;;;;==;;;;;;;;;=======-;;;;;;;;;;;;;;;;;====**$***$$$$@@@@@@@@@OOOOXXXXXXXXXXXXooooooo..ooo.oo                              ",
"@@@@@@OXX............XXXXXXO@@@@@@@@@OOXoo.  .ooXXXXXXXXO@@@@@@@@@+XXXXXXXXXXoo...             .       ....XXXXXXXXO+++@@@@@@@@XXXo.o..XXXOO@@@@@@@OOOO@@@@@OOXXXOO@@@OOXXooo.oo....XXXO@@@@@@+XXXXXXXXXXX++@@&##@@+++++XXXX...XXXOOXXXXXXXXXXXXXOOOOOOOOOOOOOOOOOOO+XXXXXO@@@@OXXXXO+@@@@@+@@@@@@++++O+@@@##@@@@@@@@+XXO@%------------------------------------------------------------------------%#@####$$###@@@@@@@@@@@#$$#%%%%%%%%======-%%-=-------:#&++++#%----------------------------------------------------------------------------------------------=#+++++++&&&&++++++++++++++++++++++++++++++++++++++++++++++++++++++++++++%-------------------------------------------------------------------------------------------------------%#++++++++++++++++++&&&&++++++++&&&&+++++++++&&&&&++++++++++&&&&&&#=-----------------------------------------------------------------------------------------------%#+++X+OOO@@#%%%=------------------------------------%OXXO@%----------------------------------%%%###@OOOOXXXXXXXXXXO@%--------------------------------$@O@@@@@@@@@@@@@$*******====*****$$$************=====;;;;;;===***********=======*******************=====-;;;;;;;;;;=======;;;;;=;;;;;;;;;;=======-;;;;;;;;;;;;;;;;;====**$****$$$@@@@@@@@@OOOXXXXXXXXXXXXXXoooo....oooooo                              ",
"@@@@@@++XX........XX.XXXXXXO@@@@@@@@@OOXoo    oo.XXXXXXXO@@@@@@@@@XXXXXXXXXXoo....        . ...       .....XXXXXX+XO++@@@@@@@@OXXX.....XXXOO@@@@@@@OOOOO@@@@@OOXXOO@@@@OXXXo..o....XXXXO@@@@@@XXXXXXXXXXXX++@@##&@@+++@++XXX.XXXX@@@@@@OXXXXXXXXXXO@@@@@@OOOOOO+OOOOXXXXXOO@@@@OXXXXX+@@@@@@@@@@@@@+++++@@@$*@$@@@@@OOX+O@%------------------------------------------------------------------------$@@@@&&#&&&@@++++++++++++++@@@@@@@@##################:&&++++#%---------------------------------------------------------------------------------------------:#&+++++++&&&&+++++++++++++++++++++++++++++++++++++++++++++++++++++++++++#%-------------------------------------------------------------------------------------------------------#+++++++++++++++++++&&&&++++++++&&&&&++++++++&&&&&++++++++++&&&&&&%------------------------------------------------------------------------------------------------%#++++++++++++++#&&&:=:;;;;;;;;-----------------------$XO@@%--------------------------------------------%%%%%$@@@@$%%---------------------------------$@@@@@@$****$$$$$******==****$$$$*************===-;;;;;====****************===*********************=====;;;;;;;;;;;=======;;;====;;;;;;;;;=======-;;;;;;;;;;;;;;;;;====******$$$$@@@@@@@OOOOOXXXXXXXXXXXXXXXooooooooooo                                ",
"@@@@@@++XXX.....XXXXX.XXXXXO@@@@@@@@@OOXooo   oo.XXXXXXXO@@@@@@@@@XXXXXXX.XXXo....                   .....oXXXXXX+XX++@@@@@@@@OXXXo....XXXOO@@@@@@@OOOOO@OOOOOOOXOO@@@@OXXXXXo.o..XXXXOO@@@@@@XXXXXXXXXXXX++@@@@@@@+@@@++XXXXXXX+@@@@@@@@@OXXXXXXXO@@###@@@@OOOOOOOOXXXXXXO@@@@OXXXXX+@@@@@@@@@@@@@++XXO@@@@#@@@$@@@OO++X@=-----------------------------------------------------------------------=@O@@@@&####@@+++++++++++++++@@+++@@@@@@@@++++++@@@@@#&&&&+++#%--------------------------------------------------------------------------------------------%##&+++++++&&&&+++++++++++++++++++++++++++++++++++++++++++++++++++++++++++#=-----------------------------------------------------------------------------------------------------%%+.++++++++++++++++++&&&&++++++++&&&&&++++++++&&&&&++++++++++&&&&&&%-----------------------------------------------------------------------------------------------=#++++++++++++++++++++####%====------------------------%@@##%-----------------------------------------------------------------------------------------=$@$************$$$$$******$$$$$$$**********====-;;;;-===***************$***************************=====;;;;;;;;;;;=======;;;====;;;;;;;;;=======-;;;;;;;;;;;;;;;;;====******$$$$@@@@@@@OOOOOXXXXXXXXXXXXXXXooooooooooo   .                            ",
"@@@@@@@+++XXXXXXXXXXXXXXX++O@@@@@@@@@OOX.o    ...XXXXXXO@@@@@@@@@@XXXXXXX.XXX...   .                ......oXXXXXX+X+OO@@@@@@@@OXXX....XXXXO@@@@@@@@OOOOO@OOOOOOXXOO@@@@OXXXXX...XXXXX+@@@@@@@@OXXXXXXXXXXX+O@@@@@@++++O+XXX.X.XX+@@@@@@@@@@OXXXXXXXO@@#***@@@OOOOOOOOXXXX++@@@@OOXXXOO@@@@@@OOO@OOOOOOOO@@$$$%%*===$@OOOO#------------------------------------------------------------------------=@+++++&&&&&&@+++++++++++++++&&&++&&&&&&++++++++&&&&++++&&&&+&%-------------------------------------------------------------------------------------------=#&&&++++++&&&&&+++++++++++++++++++++++++++++++++++++++++++++++++++++++++++#------------------------------------------------------------------------------------------------------##++++++++++++++++++++&&&&++++++++&&&&&++++++++&&&&&++++++++++&&&&&#------------------------------------------------------------------------------------------------%#++++++++++&&&&&&&&&&&&&&&&&&&#*===-;-;;;-------------%@@$*%=-----------------------------------------------------------------------------------------%*====*******$$@@@@@$$$$$$$$$***********====;;;;;;===**********$$$$$$$$$$$$$$$$$$*******************====;;;;;;;;;;;=======;;;===;;;;;;;;;;=======-;;;;;;;;;;;;;;;;;=====*****$$$$@@@@@@@@OOOOOOXXXXXXXXXXXXXXXooooooooo                                ",
"@@@@@@@@@O++XXXXXX+++++++++@@@@@@@@@@OXX.o.   ....XXXXXX@@@@@@@@@@XXXXXXX.XXXX.. . ...             . .....oXXXXXX+XO+O@@@@@@@@OXXX...XXXXXO@@@@@@@OOOOO@@OOOOOXXOOO@@@@@XXXXXXXXXXXX+@@@@@@@@@OXXXXXXXXXXOO@@@@@@@++++XXXXXX..XX+@@@@@@@@@@OXXXXXXXXXO@#***#@@OOOOOOOXXXX+OO@@@OOXXXXOO@@@@@@@@@@@#####$%====------=@OXXO#------------------------------------------------------------------------%O++++++@@&&&@+++++++++++++++@&&+++++@&&+++++++++&&&+&++&&&&+&%------------------------------------------------------------------------------------------%##&&&+++++++&&&&+++++++++++++++++++++++++++++++++++++++++++++++++++++++++++#-----------------------------------------------------------------------------------------------------%#+++++++++++++++++++++&&&&++++++++&&&&&++++++++&&&&&++++++++++&&&&#:-----------------------------------------------------------------------------------------------%#@++++++++++&&&&++++&&&&&&&&&&@@##$#%%===--------------%@#**%=-----------------------------------------------------------------------------------------====****$****$@@@@@$$$$$$$$$*********====-;;;;;===**********$$$$$$$$$$$$$$$$$$$$$$$$***************=====;;;;;;;;;;;=======;;;;===;;;;;;;;;=======-;;;;;;;;;;;;;;;;;=====***$*$$$$@@@@@@@@OOOOOOXXXXXXXXXXXXXXo.oooooooo   .                            ",
"@@@@@@@@@@@+++++@+++@@+@+@@@@@@@@@@@@@OX..o. ....XXXXXXX@@@@@@@@@@XXXXXXXXXXXXo.  ...      .     ...   ...oXXXXXX+XOOO@@@@@@@@+XXX...X.XXXO@@@@@@@OOOO@@@@@OOOOOXXOOO@@@OXXXXXXXXXXX+@@@@@@@@@++.XXXXXXXOO@@@@@@@@O+++XXXXXX.XXX+@@@@@@@@@@OXXXXXXOOOXO@@***$@@OOOOOOOXXOOO@@@@@OOOOOO@$$$$$%%%%=------------------%@OOOO#------------------------------------------------------------------------#X....++++@&&@+++++++++++++++#&&+++++&&&+++++++++&&&&&&&&&&&+&%-----------------------------------------------------------------------------------------%#&+&&&+++++++&&&&++++XX++++++++++++++++++++++++++++++++++++++++++++++++++++@%----------------------------------------------------------------------------------------------------%#++++++++++++++++++++++&&&&++++++++&&&&++++++++++&&&&+++++++++&&&&&#:-----------------------------------------------------------------------------------------------%&+&++++++++++++++++++&&&&&&&&&&&&&&&&&@#****===--------%##**%=-----------------------------------------------------------------------------------------=****$$@@@@$$@@@@@$$$$$************===-;;;;====****$$****$$$$$$$$$$$$$$$$$$$$@@@@$$$$$$$$***********====-;;;;;;;;;;=======;;;;===;;;;;;;;;========;;;;;;;;;;;;;;;;;=====*$****$$$@@@@@@@@OOOOOOXXXXXXXXXXXXoooo....oo  oo .                            ",
"@@@@@@@@@@@@@@@@@@@@@@@@@@@@@@@@@@@@@@+X..oooo.oXXXXXXXXO@@@@@@@@@XXXXXXXXXXXoo..   ....         ...   ...oXXXXXX++OOO@@@@@@@@+XXX...XXXXXO@@@@@@@@OOO@@@@@@@@@@OOOOOOOOOXXXXXXXXXXX+@@@@@@@@@++X.XXXXX+O@@@@@@@@@O++OOXXXXX.XXX++@@@@@@@@@XXXXXXOO@@@OO@@$**@@@OO@@OOXXO@@@@@@@##$%%%===--------------------------%@O++O#-----------------------------------------------------------------------%@X..XX+++++&&@+++++++++++++++#&&+++++@&&++++++++++&&&&&+&&+&&&%-----------------------------------------------------------------------------------------%@&&&&&++++++&&&&&&##############&&&##&#############::####:::##::::#&&&+&+&&#:----------------------------------------------------------------------------------------------------%%##&&&&&&&&#+++++++++++&&&&&+++++++&&&&++++++++++&&&&&+++++++&+&&&&#:----------------------------------------------------------------------------------------------=#++&++++++++++&+++++++&&&&&&&&&&&&&&&#&$$$$$#$$$%%%%%%%=$@@#*%=-----------------------------------------------------------------------------------------%$$@@@@@@@@$$$@$$$$$************===-;;;;;===***********$$$$$$$$$$$$@$$@@@@@@@@@@@@@@$$$$$$$**********===-;;;;;;;;;;=======;;;;==-;;;;;;;;;========;;;;;;;;;;;;;;;;;=====*$$$**$$$@@@@@@@@OOOOOOXXXXXXXXXXXXoooo....oo  oo..                            ",
"@@@@@@@@@@@@@@@@@@@@@@@@@@@@@@@@@@@@@@@OXX.....X.XXXXXXXO@@@@@@@@@OXXXXXXXXXXXoo..              ..    ......XXXXXOXX++@@@@@@@@OXXX....XXXXO@@@@@@@@OOOOOOO@@@@@@@@@@@@OOXXXXXXXXXXX+O@@@@@@@@@++XXXXXXXXO+@@@@@@@@++OOOXXXXXXXXXOO@@@@@@@@@XXXXXX@@@@@@@@@@@$$@@@@@@OOO@$%%%%%%------------------------------------%@O++O#-----------------------------------------------------------------------%OX.X.....X+++++++++++++++++++@&@++++&&&++++++++++&&&&&&&+&+&&&#:----------------------------------------------------------------------------------------%%%%==%%%%%%%%%%----%%------%%--------------------------------------;:::::::%;-----------------------------------------------------------------------------------------------------------------=%%%%%%%%%%%%%%%%%%%%%%%%%%%%%%########%#######&#+++&&&%----------------------------------------------------------------------------------------------%#++&&&++&+++++++++++++&&&&&&&&&&&&&&&&&&&&&##$$$##$$$@@@@+@@$**=-----------------------------------------------------------------------------------------%$@@@@@$$$*******************====;;;;;===**$$$$$$$$$$$$$$$$$@@@@@@@@@@@@@@@@@@@@@@@@$$$$$$$$$********===-;;;;;;;;;;========;;;=-;;;;;;;;;;=======-;;;;;;;;;;;;;;;;;=====***$$$$$$@@@@@@@@@OOOOOXXXXXXXXXXXooooooooooo  o...                            ",
"@@@@@@@@@@@@@@@@@@@@@@@@@@@@@@@@@@@@@@@+XX.....XXXXXXXXXO@@@@@@@@@OXXXXXXXXXXXoo.. .         .....   ........XXXXXXX+O@@@@@@@@OXXX....XXXXO@@@@@@@@OOOXOOOOO@@@@@@@@@@OOXXXXXXXXXXXX+O@@@@@@@@++XXXXXXXXXXO++O+OO+XX+XXXXXXXXX++O+@@@@@@@@OXXXXX+@@@@#$$$$@$*****======-------------------------------------------=$@O++O%-----------------------------------------------------------------------$XX.......X.++++++++++++++++++@&&+++++&&++++++++++&++++&&&&&&&&#=--------------------------------------------------------------------------------------------;---------------------------------------------------------------;=&&&&&&#:----------------------------------------------------------------------------------------------------;;-;;--------------------;;;-----------------------;;;;;---=##+++++&%----------------------------------------------------------------------------------------------%&++&+++++++++++++++++++&&&&&&&&&&&&&&&&&&&#$$$$$$$$$*@@@@+@@$$$=-----------------------------------------------------------------------------------------%$@@@@$$$*************$***====-;;;;===***$$$$$$$$$$$$$$$$$$@@@@@@@@@@@@@@@@@@@@@@@@@@$$@$$$$$********===-;;;;;;;;;;=======;;;;=-;;;;;;;;;;=======-;;;;;;;;;;;;;;;;;=====***$*$$$$@@@@@@@O@OOOXXXXXXXXXXXXXoooooo.oooo.. ...                            ",
"OO++O@OO@@@@++@@@@@@@@@@@@@@@@@@@@@@@@@++++.XXXXXXXXXXX+O@@@@@@@@@OXXXXX.XXXXX.o......          ..    ..o....XXXXXXX++@@@@@@@@+XXX....XXXXO@@@@@@@@OXXXXXXOO@@@@@@@@@@@OO+XXXXXXXXXXXO@@@@&@@@++.XXXX.XXXXXXXXXXXXXXXXXXXXXOO+O@OO@@@@@@@@+XXXXXO@@@@#$$##@@##***======-=--------------------=---------------=---==$@O++O%----------------------------------------------------------------------%@XX...XXX++++++++++++++++++++@@@@@@@@@#&@@+++++++++++++++++&++&#:------------------------------------------------------------------------------------%%%%%%::;;--------------------------------------------------------------=#&&+&++%------------------------------------------------------------------------------------------------=###::=====-----;------------------------------------------------#@++++&&=---------------------------------------------------------------------------------------------%#++&&&&+++++++++++++++++&&&&&&&&&&&&&&&&&&&&&&&&&&&##$@@++X+@##*=-----------------------------------------------------------------------------------------$$@$$$***==*************===-;;;-===**$$$$$*$$$$$$$$$$$@@@@@@@@@@@@@@@@@@@@@@@@@@@@@@@@$@$$$$$********====;;;;;;;;;;=======;;;==-;;;;;;;;;;=======-;;;;;;;;;;;;;;;;;=====******$$$@@@@@@@OOOOOXXXXXXXXXXXXXXX.oo....o...  ..                            ",
"O++O+O++@+++++@@@@@@@@@@@@@@@&@@@@@@@@@@++++XXXXXXXXXXXXO@@@@@@@@@OXXXXXXXXXXX........  .    .....    .......XXXXXXX++@@@@@@@@OXXX....XXXXO@@@@@@@@OXXXXXXOO@@@@@@@@@@@@@@+++++OXXXXX+@@&$&@@@++.X.X.......XXXXXXXXXXXXXXX@@@@@@@@@@@@OO@+XXXXXXO@@@@@$$$@@@@@@@@@@@@@@@@$$$$$$$$$$$@@$$$$$$$$$$$$$$@@@@$$$$$$%%%$$@OO++O#----------------------------------------------------------------------#@XX....++++++++@@+@++++@++++@@@##@@@@###@@@@@@@@&@@@#@&&&&+++&&+#=---------------------------------------------------------------------------------%%#@OOOO@###%%%%%%%%%%=-%-------------------------------------------------=@+++&+#%----------------------------------------------------------------------------------------------%%#+++@@@#####%%===------------------------------------------------#+++++&:---------------------------------------------------------------------------------------------%#O++&&&&+++++++++++++++++&&&&&&&&&&&&&&&&&&&&&&&&&&##$$@@++++@##*=----------------------------------------------------------------------------------------=$$$******************====;;;===***$$$$$$$*$$$$$$$$$$$@@@@@@@@@@@@@@@@@@O@OO@@@@@@@@@@@@@$$$$*********===-;;;;;;;;;;=======;;;===-;;;;;;;;;=======-;;;;;;;;;;;;;;;;;=====*****$$$$@@@@@@@OOOOXXXXXXXXXXXXXXoX.oo....o ..      ..                        ",
"XXXXXXXXXXXXOOOO+++@@@@@@@@@@@@@@@@@@@@@@++++++@++++++OX+@@@@@@@@@+XXXXXXXXXXX........   ........     .....o.XXXX++O++@@@@@@@@OXXX....XXXXO@@@@@@@@OXXXXXXOO@@@@@@@@@@@@OO++++OOOOX+++@@@@@@@@XX............oXXXXXXXXXXXXO@@##$$#@@@@@OOOOXXXXXXO@@@@$$#@@@+OO@@@@@@OOOOOO@@@@@O@OOOOO@@@@@@@@@@@@OOOO@@@@@@@***$$@@OO+XO#----------------------------------------------------------------------#OXXoXXXXXXOOOO@OOOO@@@@@@@@@@@@#$$$$$$%%%%%%%%%%%%%%%%%%%#@+++++&%=------------------------------------------------------------------------------:#&++++++++&&&++++++++&&&&&&########%%==--==%-------------------------------=@+++++#---------------------------------------------------------------------------------------------%##+++++++++++++++&&&:::##:=:==--;;;;--------------------------------#X++&&&:--------------------------------------------------------------------------------------------%%@++@##+++++++++++++++++++&&&&&&&&&&&&&&&&&&&&&&&&&$$$$#@@O+++@$$$*----------------------------------------------------------------------------------------=$***********$****=====-;-===***$$$$$$$$$$$$$$$$@@@@@@@@@@@@@OOOOOOOOOOOOOO@@@@@@@@@@@@@$$$$$*******=====-;;;;;;;;;;=======;;;===-;;;;;;;;;========;;;;;;;;;;;;;;;;;-====*$$$$*$$$@@@@@@@@OOOOXXXXXXXXXXXXXXXooooooo. ..      ..                        ",
"XXXXXXXXXXX+X+OO++++@@@@@@@@@@@@@@@@@@@@@@@@@@@@@@@@+++O+@@@@@@@@@+XXXXXXXXXXX........    ......      .....o.XXXX+OO++@@@@@@@@+XXX....XXXOO@@@@@@@@OXXXXXXOOO@@@@@@@@@@@OO+XO+OOO+X+O+@@@@@@@@XX.....o......o.XXXXXXXXXXXXO@@$$***$#@@@@@OOXXXX++@@@@@@$@@@OOOO@@@@@OOOOXOOO@@@@OOOOOO@@@@@@@@@@@@OOOOO@@@@##*$*@@@@OO++O#---------------------------------------------------------------------%#@XXXXXXXXO@@@@@@@#####%%%%%%=%%=====---------------------=#++++++#%-----------------------------------------------------------------------------%#@+++++++++&&&+++++++++&&&++++++++++@@#####@@#$#%%%%=-----------------------=O+++++#-------------------------------------------------------------------------------------------%%#++++++++++++++++++&&&&+++@@####%%==%--------------------------------#X++&&#:---------------------------------------------------------------------------------------------%%%#########++++++++++++++&&&&&&&&&&&&&&&&&&&&&&&$&@####@@++++@$$**----------------------------------------------------------------------------------------=**********$****====---===***$$$$***$$$$$$$$$$@@@@@@@@@@@@@@OOOOOOOOOOOOOOOO@@@@@@@@@@@@$$$$********=====-;;;;;;;;;;=======;;;====;;;;;;;;;=======-;;;;;;;;;;;;;;;;;====**$$*$*$$$@@@@@@@@OOOOOOXXXXXXXXXXXXo.oooooo          .                         ",
"ooo.oXXXXXXXXXXXXXXXOO+++@@@@@@@@@@@@@@@@@@@@@@@@@@@@@@+@@@@@$$@@@+XXXXXXXXXXX.........       ..      ...o.o.XXXXXO++@@@@@@@@@OXXXo...XXOO@@@@@@@@OOXXXXXXOO@@@@@@@@@@+OOOOXX+OOOO+OO@@@@@@@@@+X....oooooo......XXX.XXXXXOO@@@$$****$$@@@@OOOXX+O@@@@@@@@@@@@@+O@@@@OXX+X+OO@@@@X+XXXX+@@@@+@@@@@@+++@+@@@##$*$$#@@@OOOOO@%--------------------------------------------------------------------%%%#%%%%%%%%%%%%%%%-----------------------------------------%@++++++#%=-------------------------------------------------------------------------=#&+++++++++++&&&&+++++++&&&&&+++++++++++&&&++++++++++&&::&#####%=====---------#++++++:---------------------------------------------------------------------------------------=%%#@++++++++++++++++++++&&&&&+++++++++&&&&&&####%%:::=;;;;----------------#X+++&&:-------------------------------------------------------------------------------------------------------=-%%%%%%%%%################@#@@@@@@#$**@@@@@##@@O+O+@@$$*----------------------------------------------------------------------------------------=%*$**$$$$****====;-====***$$$$$$$*$$$$$$@@@@@@@@O@@@@OOOOOOOOOOOOOOOOOOOOOOOOO@@@@@@@@@$$$$$$******=====-;;;;;;;;;;=======;;;;;-;;;;;;;;;;=======-;;;;;;;;;;;;;;;;;====**$$$$$$$$@@@@@@@@OOOOOOXXXXXXXXXXXooooooooo  ..oo                              ",
"oo.........XXXXXXXXXXXXX+++@@@@@@@@@@@@@@@@@@@@@@&&@@@@@@@@@@$$@@@+XXXXXXXXXXX.......                   ...o.XXXXX+O+@@@@@@@@@OXXXo..oXXOO@@@@@@@@OOXXXXXXOO@@@@@@@@@@+XXXXXXOOOOO++OO@@@@@@@@XX....oooooo.......X..XXXXXXO@@@@$$$$$$$$$#$@@OO++O@@@@@@@@@@@@@O@@@@@O+OX+OOO@@@+++++XXO@@@@+@@+@@@+++OOO@@@#@$@*@@@@OOOOO@%---------------------------------------------------------------------------------------------------------------------------------#+++++++@%-----------------------------------------------------------------------%###++++++++++++&&&&+++++++&&&&&++++++++++++&++++++++++++&&&#+++++@@@@###%%%%%%%%#++++++:----------------------------------------------------------------------------------%%%%##@XXX+++++++++++++++++++++&&&&+++++++++&&&&++++++++#######%%%%------------%#X+++&&:----------------------------------------------------------------------------------------%%%%%%%=-;------------------=;;::::::::::###*#####*****@@####@@O+O+@@$*=---------------------------------------------------------------------------------------=*$*$$$$*****===---==***$*$$*$$$$$$$$$$$@@@@@@@@@@OOOOOOOOOOOOOOOOOOOOOOOOOOOOOOO@O@@@@@@@@$$$$$*****=====-;;;;;;;;;;=======;;;;;-;;;;;;;;;;=======-;;;;;;;;;;;;;;;;;====**$$$$$$$$@@@@@@@@OOOOOOXXXXXXXXXXXoooo.oooo  .ooo.                             ",
"..oooooooooo..XXXXXXXXXXOOOO+@@@@@@@@@@@@@@@@@@@@@&&@@@@@@@@@@@@@@OXXXXXXXXXXX..... .....      ...      o...XXXXXXX+@@@@@@@@@@OXXXo...XXXXO@@@@@@@OOXXXXXXO+@@@@@@@@@@@OOOO++++@OOOOO@@@@@@@@+XX.....oo.............XXXXXXXO@@@#$$$$$$****$$$@@@@@@@@@@@@@@@@@@@@@@@OXXO++++@@@@OOXX+++@#@@O@@@@@@++++++@@@#$#*$$@@@@OXOO@%--------------------------------------------------------------------%--==---------------------------------------------------------$+++++++##=------------------------------------------------------------------%#&+&&&++++++++++++&&&&+++++++&&&&++++++++++++&&&++++++++++&&&&&+++++++++++++++++++++++++++###################################%%############%%###%######%%%%#%%%%%%%%%%%######+++++++++++++++++++++++++++++++&&&&++++++++&&&&&++++++++&&&&++++++#&&&::::=;--=%#++++&&:::=-----------------------------------------------------------------------------------%%@+++++++&#:===-------------------------------------=====%===%%$$@O@@$$**---------------------------------------------------------------------------------------**$******====--===***$$$$$$$$$$$$$@@@@@@@@@@@O@OOOOOOOOOOOOOOOOOOOOOOOOOOOOOOOOOOOOOO@@@@@@$$$$$******====-;;;;;;;;;;=======;;;;;==;;;;;;;;;=======-;;;;;;;;;;;;;;;;;====**$$$$$$$$@@@@@@@@OOOOOOXXXXXXXXoooooooo.ooooooooo                              ",
".o .  oooo..o.oXXXXXXXXXOXO+++OO++@@@@@@@@@@@&$$@&&&@@@@@@@@@@@@@@OXXXXXXXXXXX..... ....        .. .    .o.XXXXXXXX+@@@@@@@@@@OXXX....XXXXO@@@@@@@OOXXXXXXO+@@@@@@@@@@@@@@@O+@@@OO@@@@@@@$@@@+XX..oooo......o........XXXXXXXXO@@@@@@@$$$******$#@@@@@@O@@@@@@@@@@@@@OXXOXX++@@@OXXXXXX@@@@@@@@@@@@@+++++@@@#*$**$@@@@O+XOO$=------------------------------------------------------------------%%%%$$@$$$##%%%%%%%%%%%%---------------------------------------%#++++++++#%=-------------------------------------------------------------%%#@X++&&&++++++++++++&&&++++++++&&&&+++++++++++++&&+++&&++&&&&&&&&++++++++++++++++++++++++++++++XXXXXXXXXXXXXXXXXXXXX.X+XXXXXXX+XXXXXXXXXXXXXXXXXXXXXXXXXXXXXXXXXXXXXXXXXXX+++X++++++++++++++++++++++++++++++++&&&&&+++++++&&&&&++++++++&&&&++++++++++&&#####%%#+++++&&&####%%------------------------------------------------------------------------------%%#O++++++++++@@#@##%%%%-------------------------------------------=%%#@$$**--------------------------------------------------------------------------------------=%$$**==========***$$$$$$$$$$$$$$$@@@@@@OO@@OOOOOOOOOOOOOOOOOOOOOOOOOOOOOOOOOOOOOOOOOOO@@@@@@$$$$$****=====-;;;;;;;;;;=======;;;;;==;;;;;;;;;=======-;;;;;;;;;;;;;;;;;====**$$$*$$$$@@@@@@@OOOOXOXXXXXXXXXooooooo.oooooooooo                              ",
"        oooooooXXXXXXXXXXXXXXXXXX+++O+++@@@@@&&&$$&&&@@@@@@@@@@@@@OXXXXXXXXXXX..o.. ..  ..    ..........oo.XXXXXX+XO++@@@@@@@@+XXX....XXXXO@@@@@@@OOXXXXXXOO@@@@@@@@@@@@@@@@@@@@@@@@@@@@$$@@@@XX.ooo......oooooo.....oo.XXXXXXXO+++@@@@@$$$$******$$@@@@@@@###@@@@@@@++O+@@@@@@@OOXXXX+@@@@@@@@@@@@+OO++@@@$$$$*$$@@OOOO++@%------------------------------------------------------------------%@@@@XXo.XXXXXXXXXXXXO+@@@@@######%%%=====--------------------;-#X+++++++++##%=;;;---------------------------------------------------=%##+++++++&&&++++++++++++&&&++++++++&&&&+++++++++++++&++++&&&&&&&&&&&&+++++++++++++++++++++++++++++++++++++++++++++++++++++++++++++++++++++++++++++++++++++++++++++++++++++++++++++++++++++++++++++++++++++++++++++&&&&&++++++++&&&&++++++++&&&&+++++++++&&&&++++++++++++&&&++++++###%:=---;------------------------------------------------------------------%##+++++++++++++++++++++++####%%==-;;;----------------------------------*@$$**--------------------------------------------------------------------------------------=$*==========**$$$$$$*$$$$$$@@@@@@@@@@OOOOOOOOOOOOOOOOOOOOOOOOOOOOXXOOOOOOOOOOOOOOOOOOOO@@@@@@$$$$****=====-;;;;;;;;;-=======;;;;;==;;;;;;;;;=======-;;;;;;;;;;;;;;;;;====**$$**$$$$@@@@@@@OOOOXXXXXXXXXXXXXooXooooooooo  .                               ",
"         ooooooXXXXXXXXXXXXXXXXXXXX+X+++++@@@@&&$$&&&@@@@@@@@@@@@@+XXXXXXXXXXXX.oo..... ...    ..........o.XXXXX++X++@@@@@@@@@+XXX....XXXXO@@@@@@@OOXXXXXXOO@@@@@@@@@@@@@@@@@@@@@@@@@@@&$$&$@@+X..........ooooo........o...XXXXXXX++O@@@@@@$$$$****$@@@@@@@##*$@@@@@O+++OO@@@@@@OXX+XX@@@@@@@@@@@@@OOOOO@@@*****$$@@OO++OOO%------------------------------------------------------------------#O@@OX.o..oooooo..oo..oXXXXXXXXXXOOO@@@@@####$#$#%%%%%%%%%%%--=-%@++++++++++++##%%----------------------------------------------%%%%#@OX....++++&&&++++++++++++&&&++++++++&&&&+++++++++++++++++++&&&&&&&&&&&+++++++++++++++++++++++++++++++++++++++++++++++++++++++++++++++++++++++++++++++++++++++++++++++++++++++++++++++++++++++++++++++++++++++++++++&&&&&++++++++&&&&++++++++&&&&++++++++++&&&++++++++++++&&&&+++++++++@###%%=--------------------------------------------------------------%%#@XXX++++++++++++&&++++++++X+++@@@@##%%----------------------------------*@$#**--------------------------------------------------------------------------------------====--=====*$$$$$$$$*$$$$$$@@@@@@O@OOOOOOOOOOOOOOOOOOOOOOOXOOXOOOOXXXXOOOOXXOOOOOOOOOOO@@@@@@@@$$$$****====-;;;;;;;;;-=======;;;;-==;;;;;;;;;=======-;;;;;;;;;;;;;;;;;====***$$$$$$$@@@@@@@OOOXXXXXXXXXXXXXXoooooooo..o.  ..                              ",
"          .oooooXXXXXXXXXXXXXXXXXXXXXXX+++@@@@&&$@@@@@@@@@@@@@@@@@OXXXXXXXXXXXX.oo....  ..    .............XXXXXXXX+++@@@@@@@@OXXX....XXXXO@@@@@@@OOXXXXXXO@@@@@@@@@@@@@@@@@@@$$$$$$$$&$$*&&&@@OX......oooo...oo..........o..XXXXXXXXXXX++@@@@@@$$$$@@@@@@@@#$$$$$#@@OOOO@@@@@@@OOOOOO@@@@@@@@@@@OOOOOOOO@$$$$%%$$$$@OXO+OO@%----------------------------------------------------------------%@@@@@O.......................+++++++++++++++++++&&+&&&&&&++++###&+++++++++++++&&&+###%%%=--------------------;----;-----==%%%###@+X.....++++++++&&&++++++++++++&&&++++++++&&&&++++++++++++++++++++++++++&&&&++++++++++++++++++++++++++++&+++++++++++&++++++++++++++++++++++++++++++++++++++++++++++++++++++++++++++++++++++++++++++++++++++++++++++++++++&&&&&++++++++&&&&++++++++&&&&+++++++++&&&&+++++++++++++&&&++++++++++++++&#####%%=--------------------------------------------------=%%##++...++++++++++++++&&&++++++++++++++++++&&&::::=;-;------------------------=@$##*--------------------------------------------------------------------------------------=======*$$$$$$$$$$$$$$$@@@@@@@OOOOOOOOOOOOOOOOOOOXOOOOOOOOXXXOXXXXXXXXXXOOXXXOOOOOOOOOOO@@@@@@@$$$$$***====-;;;;;;;;;-=======;;;;=;-;;;;;;;;;=======;;;;;;;;;;;;;;;;;;====**$$$$$$$$@@@@@@@OOOOOXXXXXXXXXXXXXoooooo.oooo.                                 ",
"      ..  oooooooXXXXXXXOOXXXXXXXXXXXXXX++@@@@@@$@@@@@@@@@@@@@@@@@OXXXXXXXXXXXX.......  ..    ........ .....XXXXXXX+++@@@@@@@@OXXX....XXXXO@@@@@@@@OXXXXXXO@@@@@@@@@@@@@@@@@@@@$$$$$$&&&$$&&&&@@XXXXX..X.oo...oo.............XXXXXXXXXXXXXOO@@@@@@@@@@@O@@@@@@@$**$@@@OO@@@@@@@@@@O@@@@@@@@@@@@@@###$$%%%===========%@OOXOOO@%--------------------------------------------------------------%@O@@@@OX...............+.......++++++++++++++++++&&++++&+++++++++++++++++++++++&&++XXXOOO@@###%%%%%%%%%%%%%%%%%%%%%%###@OOOOOXXo..........+++++++&&&++++++++++++&&&++++++++&&&&++++++++++++++++++++++++++&&&&++++++++++++++++++++++++++&&&&&&&&++++&&&&&&&&+&&&&&&&&&&&&&&&&&&&&&&&&&&&&&&&&&&&&&&&&&&&&&&&+++&&&&&&&&++&+++++++++++++++++++++++++++++++++&&&&&+++++++&&&&&++++++++&&&&+++++++++&&&&+++++++++++++&&&+++++++++++++++#@+++O@###%%%%=-------------------------------------%%%%%$@OOXX.+.++++++++++++++++&&+++++++++++++++++++++#&&#####%%==---------------------=@$$#*--------------------------------------------------------------------------------------====**$$$$$*$$$$$$$$$$@@@@@@@OOOOOOOOOOOOOOOOOOOXXXXOOXXXXXXXXXXXXXXXXXXXXXXXOOOOOOOOOO@@@@@@@@$$$$$****===;;;;;;;;;;-=======;;;;==-;;;;;;;;;=======;;;;;;;;;;;;;;;;;;====**$$$$$$$@@@@@@@@OOOOOXXXXXXXXXXXXXooo.o..oooo                                  ",
"       .    ooooooXXXXXXOOOXXXXXXXXXXXXX++@@@@@@@@@@@++++@@@@@@@@@+XXXXXXXXXXXXX.o....  ... ......      ....XXXXX+X+OO@@@@@@@@OXXXo...XXXXO@@@@@@@@OXXXXXXO@@@@@@@@@@@@@@@@@@@@@$$$$$$$$$$$$&@@@XXXXXXXX......oo....o.........XX.XXXXXXX+XXXXXXO@@@@@@@@@@@@@@@$@$$@@@OO@@@@O@@@@@@@$$$$%%%%%%====------------------%$OXXX+XO#%-----------------------------------------------------------%%@X+@@@@OXX..................oooXX...+++++++++++++++++&&&&&++++++++++++++++++++++&&&++++++++++++&&&+++++++++++&&&&++++++............+..........++++&&&++++++++++++&&&++++++++&&&&++++++++++++++++++++++++++&&&&++++++++++++++&&&&&&&&&&&&&&&&&&&&&&&&&&&&&&&&&&&&&&&&&&&&&&&&&&&&&&&&&&&&&&&&&&::::::::::::&::&::::::::&&&&&&&&&&&&&&&&&&&++++++++++++++++++&&&&&+++++++&&&&&++++++++&&&&++++++++++&&&&+++++++++++&&&&++++++++++++++&&&+++++++++&&&&#########%%=========-===----=%%######++++++++++++..+++.+.++++++++++&&+++++++++++++++++++&&&&&&&&&&&&&&###*====-------------=@###*------------------------------------------------------------------------------------==****$$$$$$*$$$$$$$@@@@@OOOOOOOOOOOOOOOXXXXOOOOXXXXXXXXXXXXXXXXXXXXXXXXXXXXOOXOOOOOOOOO@@@@@@@@@$$$$$$***===-;;;;;;;;;========;;;;=--;;;;;;;;;=======;;;;;;;;;;;;;;;;;;====**$$$$$$$$@@@@@O@OOOOOXXXXXXXXXXXXXooo...o.oo.    . . ..                        ",
"              ooooXXXXXXOOOOXXOXXXXXXXXXO@@@@@@@@@@@++++X+@@@@@@@@@XXXXXXXXXXXXX........... ......      ....XXXXX+XOOO@@@@@@@@OXXX....XXXXO@@@@@@@@OXXXXXXO@@@@@@@@@@@@O@@@@@@@@@$$$$$&$$$$$@@@@XXXXXXXX......o.................XX.X..XX.XXXXXXXXXXO@@@@@@@@@@@*@$$@@@@@@@@@@$$%%%%%=====----------------------------%@OXXXXOO%%-------------------------------------------------------%%@OOXX+@@@@OXX.............................+++++++++++++++++++++++++++++++++++++++++&&&++++++++++++&&&++++++++++++&+++++++......................++++++&&&++++++++++++&&&++++++++&&&&++++++++++++++++++++++++++&&&&+++++++++++&&&&&&&&&&&&&&&&&&&&&&&&&&&&&&&&&&&&&&&&&&&&&&&&&&&&&&&&&&&&&&&&&&&&&&&&&&&&&&&&&&&&&&&&&&&&&&&&&&&&&&&&&&&&&&&&&&&+++++++++++++++&&&&&++++++++&&&&++++++++&&&&+++++++++&&&&+++++++++++++&&&++++++++++++++&&&+++++++++++++++++XXX+XO+@@@###@@##@@######@+++XXXX+.++...++++++.+..+++++++++++++&&++++++++++++++++++++&&&&&&&&&&&&&#@@###%%%%%%---------%@$##*-----------------------------------------------------------------------------------=$$$$$$**$$$$$$$$$$@@@@@@OOOOOOOOOOOOOOOOOXXOOOXXXXXXXXXXXXXXXXXXXXXXXXXXXXXXOOOOOOOOOOO@@@@@@@@@@$$$$$$***===;;;;;;;;;;========;;;;=--;;;;;;;;;=======;;;;;;;;;;;;;;;;;;====**$$$$$$$$@@@@@@@OOOOOXXXXXXXXXXXXXXo..o..ooo.    ... ..                        ",
"            ooooXXXXXXXXXXXOOOOOOOOOXXXX+@@@@@@@@@@+XXXXXX@@@@@@@@OXXXXXXXXXXXXXo................   ... oo..XXXXX++OO@@@@@@@@@OXXXX...XXXX@@@@@@@@@OXXXXXXO@@@@@@@@@@OO++O@@@@@@$$$$****$$$$$@@@@OOXXXXX......................XX..XX...XXXXXXXXXXXXOO@@@@@@$*******===%%%%=%===--==----------------------------------%$OXXXXXO@#%=-------------------------------------------------=%#@OXXXXXX+@@@@OXX.........................+..++++++++++++++++++++++++++++++++++++++++++&&&++++++++++++&&&++++++++++++&&++++++++..................++..++++&&&++++++++++++&&&++++++++&&&&+++++++++++++&&&++++++++++&&&&+++++++++&&&&&&&&&&&&&&&&&&&&&&&&&&&&&&&&&&&&&&&&&&&++++&&&&&&&&&&&&++&&&&&&&&&&&&&&++++&&&&&+&&&&++++&&&&+&&&&&&&&&&&&&&&&&&&&&+++++++++++++&&&&&++++++++&&&&++++++++&&&&++++++++++&&&+++++++++++++&&&++++++++++++++&&&&++++++++&&&+++++++++++++++&&&++++++++++&&++++++++++++++++++++++++..++++++++++++&&+++++++++++++++++++&&&&&&&&&&&&&&&&&&&&**##&$*========*#@$$*=--------------------------------------------------------------------------------=%$$$$$$$$$$$$$@@@@@@@@@OOOOOOOOOOOOOOOOOXXXOXXXXXXXXXXXXXXXXXXXXXXXXXXXXXXXXXOOXOOOOOOO@@@@@@@@@@@$$$$$$$***===;;;;;;;;;;========;;;;;==;;;;;;;;;=======;;;;;;;;;;;;;;;;;;====**$$$$$$$$@@@@@@OOOOOOXXXXXXXXXXXXXooo..oooo.   oo.                             ",
"             ooooooXXXXXXXXOOOOOOOOOXXXX+@@@@@@@@@@+XXXXXX@@@@@@@@OXXXXXXXXXXXXXoo......... ......  ........XXXXX++OO@@@@@@@@@OOXXX..XXXXO@@@@@@@@@OXXXXXXO@@@@@@@@@@@O+OOO@@@@@@$$$*********$$$@@@OOX+X.X.........................X..XXXXXO++++++OO@@@@@@@#$*****=====%%%%%===-====----------------------------------%$XXXXXXXOO$%--------------------------------------------%%%#OOXXXXXXXXX+@@@@OXX........................++...+++++++++++++++&&++++++++++++++++++++++++&&&++++++++++++&&&++++++++++++&&+++++++.......................++++&&&++++++++++++&&&++++++++&&&&++++++++++++&&&&&+++++++++&&&&++++++++&&&&&+&&&&+++++++&+&++++++++++++++++++++++++++++++++++++++++++++++++++++++++++++++++++++++++++++++++++++++++++++&&&&&&&&&++++++++++++&&&&&++++++++&&&&++++++++&&&&++++++++++&&&+++++++++++++&&&++++++++++++++&&&&++++++++&&&++++++++++++++++&&++++++++++&+++++++++++++++++++++.+.+..++++++++++++&&+++++++++++++++++++&&&&&&&&&&&&&&&&&&&&#*#@&@####@@@@@@@$$$*%------------------------------------------------------------------------------=%$$$$$$$$$$$$$$$@@@@@@@OOOOOOOOOOOOOOOOOXXXXXXXXXXXXXXXXXXXXXXXXXXXXXXXXXXXXXXXOOOOOOOOOO@@@@@@@@@@@$$$$$$$***===;;;;;;;;;;========;;;;;==;;;;;;;;;=======;;;;;;;;;;;;;;;;;;====**$$$$$$$@@@@@@@OOOOOOOXXXXXXXXXXXXXoo...ooo.   o                               ",
"               oooooXXXXXXXOOOOO@O@OOOOX+@@@@@@@@@++XXXXXX@@@@@@@@OXXXXXXXXXXXXXXX.........................oXXXX++++O@@@@@@@@@@+XXX...XXXX@@@@@@@@@OXXXXXO@@@@@@@@@@@OO+++OOO@@@@$$$$$**$********$$$@@@@+XX....................X......XXXX+O+@@@@@@@@@@@@@@@@#@@@@@@@@@@@@@@#$$$*%*****=*============*==*=========**%**#XXXXOXOOOOO#%%------------------------------------%%##@OXXXXX..+XXXXXX+@@@@OXX.............................+++++++++++++++++++++++++++++++++++++++++&&+++++++++++++&&&++++++++++++&&++++..................+..+.+..++++&&&++++++++++++&&&++++++++&&&&++++++++++++&::&++++++++++&&&&++++++++&&&&+++++++++++++++++++++++++++++++++++++++++++++++++++++++++++++++++++++++++++++++++++++++++++++++++++++++++++++++++&&&&++++++++++++&&&&+++++++++&&&&++++++++&&&&++++++++++&&&+++++++++++++&&&+++++++++++++++&&&&+&&&++&&&&++++++++++++++++&+++++++++++&+++++++++++++++++++++.+++..++++++++++++&&+++++++++++++++++++&&&&&&&&&&&&&&&&&&&##&#&@&#$$$@@@@@@@$$$$$=====---------;-------------------------------------------------------------=%$$$$$$$$$$$@@@@@@@@@OOOOOOOOOOOOOOOOOXXXXXXXXXXXXXXXXXXXXXXXXXXXXXXXXXXXXXXXXXXOOXXOOOOOOO@@@@@@@@@@$$$$$$$$***===;;;;;;;;;;========;;;;===;;;;;;;;;=======;;;;;;;;;;;;;;;;;;====**$$$$$$$@@@@@@@OOOOOOOXXXXXXXXXXoXXoo..oooooo  .                               ",
"                  ooooXXXXXOOO@@@@@@OOOOO@@@@@@@@@@+XXXXXX@@@@@@@@OXXXXXXXXXXXXXXX..o.....   ......o...oooooXXXX+++OOO@@@@@@@@OXXXX....XXX@@@@@@@@@OXXXXX+@@@@@@@@@@@O+++OOO+OO@@@@@@@$$$$$$$$**$***$$#@@+XX...................X....XXXXXX++@@@@@@@@@@@@@#@@@@@@@@@@@@@OOOOO@@@@@@@@@@@$$$$$$$$$$$$$$@@@@$$$$$$$$$@@@OOOOXXXXXXOOOXOOO#%%%--------------------------%%%%#@OXXXXooooXXXX...XXXX@@@@@OXX.............................+++++++++++++++&+++++++++++++++++++++++++&&+++++++++++++&&&++++++++++++&&+++++..................+.++...++++&&&++++++++++++&&&++++++++&&&&+++++++++++&&::&++++++++++&&&&+++++++&&&&&++++++++++++++++++++++++++++++++++++++++++++++++++++++++++++++++++++++++++++++++++++++++++++++++++++++++++++++++++&&&++++++++++++&&&&+++++++++&&&&++++++++&&&&++++++++++&&&+++++++++++++&&&+++++++++++++++&&&&&&&&&&&&&&++++++++++++++++&&++++++++++&&++++++++++++++++++++.+.+..+++++++++++&&&+++++++++++++++++++&&&&&&&&&&&&&&&@&@@@@&#@@@##$#@@+@@@@@##@@@@@@@@@@@$%%%%%%=---------------------------------------------------------=%$$$$$$$$$$$@@@@@@OOOOOOOOOOOOOOOOOOXXXXXXXXXXXXXXXXXXXXXXXXXXXXXXXXXXXXXXXXXXXXXXOOXOOOOOOOO@@@@@@@@@@$$$$$$$****===;;;;;;;;;;========;;;;===;;;;;;;;;=======;;;;;;;;;;;;;;;;;-====**$$$$$$$@@@@@@@@OOOOOOXXXXXXXXXooXooo..ooo..o  .                               ",
"                   ooooXXXXOO@@@@@@@@OOX+O@@@@@@@@+X..XXXX@@@@@@@@@+XXXXXXXOOO++OOOOXXXXXXXXXXXXoo....oo.....XXXXXOO+++@@@@@@@@XXXX..XXXXXO@@@@@@@@OXXXX++@@@@@@@@@@@OOO++OOOOOO@@@@@@@@@@@@@@@$$$$$$$##@@XX.......................XXXXXX++@+@@@@@@@@@@@$$$@@@@@@@@@@@@O@@@@@@@@@@@@@@@$@@$$$$@@@@@@$@$$$$@@@***#@@@@O++XXXXXXXXXXX+OXXO@@#%%%=--------======%%##@@OXXXXXX.X.X........++..++XX@@@@@O...............................+++++++++++++++++++++++++++++++++++++++++&&+++++++++++++&&&++++++++++++&&+++++...+...................++++++&&&++++++++++++&&&++++++++&&&&+++++++++++&&:&&++++++++++&&&&+++++++&&&&+++++++++++++++++++++++++++++++++++++++++++++++++++++++++++++++++++++++++++++++++++++++++++++++++++++++++++++++++++&&&++++++++++++&&&&+++++++++&&&&++++++++&&&&++++++++++&&&+++++++++++++&&&++++++++++++++++++++&&&&&&&++++++++++++++++++&+++++++++++&&++++++++++++++++++++..+++++++++++++++&&&+++++++.++++++++++++&&&&&&&&&&&&&+@@@&&&&$$$@$#$#@@@@@@@&##@@@@@@@@O++++O@OOOO@@@@#####%%%%===-------------------------------------===%$$$$$$$$$@@@@@OOOOOOOOOOOOOOOOOOOXXXXXXXXXXXXXXXXXXXXXXXXXXXXXXXXXXXXXXXXXXXXXXXXXXXOXOOOOOOOO@@@@@@@@@@$$$$$$$***====;;;;;;;;;;========;;;;=--;;;;;;;;;=======;;;;;;;;;;;;;;;;;-====**$$$$$$$@@@@@@OOOOOOOXOXXXXXXXXoooooo..o....oo                                 ",
"                    ooooXXXOO@@@@@@@@OOXX+O@@@@@@@+X..XXXX@@@@@@@@@+XXXXXXXO@@@@@@@@+OXXXXXXXXXXXX....ooXXXXXXXXXXOO+++@@@@@@@@+XXX...XXXXO@@@@@@@@OXXXXX+@@@@@@@@@@@@OO+XOOOO+O@@@@@@@@@++@@@@@@@@@$$$$@@XXX.............X........XXXXXX++@@@@@@@@@@@@@@@@@@@@@@@@@@@@@OOO@O@@@@@@@@@@@@@@@$@@@@@@@@@$$$@@@$**$@@@@@@++XXXXXX++XXOO+OOOXXXOOOO@%%$$#@@@@@@$@@OoXXooXooo..X.XX...........+++XX@@@@@O..............................+++++++++++++++&&+++++++++++++++++++++++++&&+++++++++++++&&&++++++++++++&&+++++...+................+.+++++++&&&++++++++++++&&&++++++++&&&&+++++++++++&&&&&++++++++++&&&&+++++++&&&&+++++++++++++++++++++++++++++++++++++++++++++++++++++++++++++++++++++++++++++++++++++++++++++++++++++++++++++++++++&&&++++++++++++&&&&+++++++++&&&&++++++++&&&&++++++++++&&&&++++++++++++&&&+++++++++++++++++++++++++++++++++++++++++++++&+++++++++++&&++++++++++++++++++++..+++++++++++++++&&&++++++....++++++++++&&&&&&&&&&&&&+@@@&&&#$$@@@$$#@@+@@@@@@@@@@@@@@++++OOOOOXXXXXXXXXXXXXOOOOO@@$%%%%%%%==----------------------==%%$$$$$$$$$$$@@@@@@@OOOOOOOOOOOOOOOOOOOOXXXXXXXXXXXXXXXXXXXXXooXXXXXXXXXXXXXXXXXXXXXXXXXXXOOOOOOOO@O@@@@@@@@@@$$$$$$$***====;;;;;;;;;;========;;;;--=;;;;;;;;;=======;;;;;;;;;;;;;;;;;-====**$$$$$$$@@@@@@OOOOOOOOXXXXXXXXXoooooo.......oo.o                               ",
"                      ooXXXOO@@@@@@@@OXXXXOO@@@@@OXXXXXXXX@@@@@@@@@OXXXXXXXO@@@@@@@@@@@@@@@O@+++XXXXXXXXXXXXXXXXOOXX++@@@@@@@@@+XXX..XXXXXO@@@@@@@@OXXXXX+@@@@$@@@@@@@OO+++XOOOO@@@@@@@@@@++OOOOOO@@@@@@@@XXX.............X....X...X.XXXX+@@@@@@@@@@@@@@$$$$@@@@@@@@@@@@OO@@@@###@@@@@@@@@@@@@@@@@@@@@$$$$@@*****@@@@@@@OXXXXXXXOOOOOOOXXXXXXXOO@@@OXXXOO@@@@@OXXXX..............X..XXXXXXXXXO@@@@@O.............................++++++++++++++++&&&++++++&&&+++++++++++++++&&&++++++++++++&&&++++++++++++&&++++++++................++..++++++&&&++++++++++++&&&++++++++&&&&+++++++++++&&&&&&+++++++++&&&&+++++++&&&&+++++++++++++++++++++++++++++++++++++++++&&&&+&++++&&++++&+++&&&+++&&++++&&++&&&&++&&++++&&++++++++++++++++++++++++&&&&+++++++++++&&&&+++++++++&&&&++++++++&&&&++++++++++&&&++++++++++++&&&&++++++++++++++++++++++++++++++++++++++++++++&&+++++++++++&&+++++++++++++++++++++++++++++++++++++&&&++++.....+++++++++++&&&&&&&&&&&&&@@&@@&&$#$@@@###@@@+++@@@@@@@@@@@@@OO+++@@++++XXXXXXXXXXXOO+O@@@#@@@@@@@##$**========-----==*%$$$$$$$$$$@@@@@@@@OOOOOOOOOOOOOOOOOXXXXXXXXXXXXXXXXXXXXXXXXXXXXXXXXXXXXXXXXXXXXXXXXXXXXXXXXXOXOOOOO@@O@@@@@@@@@@@$$$$$$****===;;;;;;;;;;========;;;;===;;;;;;;;;=======;;;;;;;;;;;;;;;;;-====**$$$$$$#@@@@@@OOOOOOOXXXXXXXXXXXXooooooooo.oooooo                              ",
"                      oooXXXO@@@@@@@OXXXXXOO@@@@OXXXX..XXXO@@@@@@@@OOXXXXXXOO@@@@@@@@@@@@@@@@@@@@@O++XXXXXXXXXXXXXX+++@@@@@@@@@+XXX...XXXXO@@@@@@@@OXXXXX+@@@@$@@@@@@@O+OOOXOO+O@@@@@@@@@@@@OOOO++X+@@@@@+XXX.........XXX......X...X.XXXX++OO@@@@@@@@@@$$**$$@@@@@@@@@@O@O@@@@##*@@@@@@@@@@@@@@@@@@@@@@@**@@$****@@@@@@+XXXXXXX+XOOO@O+XXXXXXX++@@@OXXXOO@@#@@XXXXX.XXX.....XXXXXXX.XXXXXXXXXO@@@@@O...........................+.+++++++++++++++&&&&++++++&&&+++++++++++++++&&&++++++++++++&&&++++++++++++&&+++++++++...........+....+.+++++++&&&++++++++++++&&&++++++++&&&&+++++++++++&&&&&++++++++++&&&&+++++++&&&&++++++++++++++++++++&&&&&&&&&&&&&&&&&&&&&&&&&&&&&&&&&&&&&&&&&&&&&&&&&&&&&&&&&&&&&&&&&&&&&&&&&&&&&&&&&&&&+++++++++++&&&&+++++++++++&&&&+++++++++&&&&+++++++++&&&++++++++++&&&++++++++++++&&&&+++.++++.++.+++++++++++++++++++++++++++++++++&+++++++++++&&+++++++++++++++++++++++++++++++++++++&&&++++.....+++++++++++&&&&&&&&&&&&&&@@@#&&&$@@@&&##@@++@@@@@&&@@@@@@@@OO++++@+O++XXXXXXXXXXXO@+@@@##@@OOOOO@@@@@@$$$$$%*=*%%$$$$$$$$$$$$@@@@@OOOOOOOOOOOOOOOOOOOOOOOXXXXXXXXXXXXXXooXoooXoXXXXXXXXXXXXXXXXXXXXXXXXXXXXXXXXXXXOOOOOOO@@O@@@@@@@@@@@$$$$$$****===;;;;;;;;;;========;;;;===;;;;;;;;;=======;;;;;;;;;;;;;;;;;-====**$$$$$$#@@@@@@OOOOOOOXXXXXXXXXXXXXoooooo.o.oo  oo                              ",
"                        oooXXOOOOO@OOXXoXXXXXOOOXXXoo..XXXO@@@@@@@@@O+XXXXXX++@@@@@@###@##$$#@@@@@@@@@@++++++++++++OO@@@@@@@@@@XXX....XXXXOO@@@@@@OOXXXXX+@@@@@@@@@@@@@OOOOOXX+O@@@@@@@@@@@@@@@@@OOOOOXXXXX...X.........X..........XXXXXXXX+@@@@@@@@@@$$$$###@@+OOOOO+X+XO@@@#$**#@@@@@@@@@@@@@@@@@@@@$$**@@$***$@@@@@OOXXXXXXXX+O+O@OOOXXXXOOO@@@@O++O+O@@@@OXXXXXXX.X.X.XX.XXXXXX.....XXXXXO@@@@@OXX..........................+.+++++++++++++&&&&&++++++&&&+++++++++++++++&&+++++++++++++&&&++++++++++++&&++++++++...............+.+++++++++&&&++++++++++++&&&++++++++&&&&+++++++++++&&&++++++++++++&&&&+++++++&&&&+++++++++++++++++&&&&&&&&&:&&&&:&::::::::::::::::::::::::::::::::::::::::::::::::::::::::::&&&&&&&&&:&&&&&&++++++++&&&&+++++++++++&&&&++++++++&&&&&+++++++++&&&++++++++++&&&+++++++++++++&&&+++++..++..++++++++++++++++++++++++++++++++++&&++++++++++&&+++++++++++++++++++++++++++++++++++++&&&++++....++++++++++++&&&&&+++++&&&&@@@$&&&#@@@@$##@@@+@@@@$$$@@@@@@++OX+++@@+++++++OOOO+++XXXOO@@#@@@OOOO@@@@@@@@$$*****$$$$$$$$$$@@@@@OOOOOOOOOOOOOOOOOOXXXXXXXXXXXXXXXXXXXoXooXXXooooXXXXXXXXXXXXXXXXXXXXXXXXXXXXXXXXXXXXOOOOOOOO@@@@@@@@@@@@@@$$$$$$***====;;;;;;;;;;=========;;;===;;;;;;;;;=======;;;;;;;;;;;;;;;;;-====**$$$$$$@@@@@@@@@OOOOXXXXXXXXXXXXXooooo.ooo..   oo                              ",
"                         ooXXXOOOOOXXXXooXXXXXXXXXXo...XXXO@@@@@@@@@++XXXXXXX++@@@@@@@@#########&&####@@@@@@+++++++OO@@@@@@@@@@+XX....XXXXO@@@@@@@OOXXXXXOO@@@@@@@@@@@@+OOOOX++O@@@@@@@@@@@@####@@@@O+XXXXXXX......................XXXXXXXXOO@@@@@@@@@@$$*###@@@OOXOXXX+XOO@@#$$#@@@@@@@@@@@@@@@@@@@@@$$*$@@$***$@@@@@OOXXXXXXXXOOO+@+OOXOXXOOO@@@@OOO++O@@@@OXXXXXX......X..XXXXXXX....XXXXX+@@@@@OXX.........................++.++++++++++++++&&&&&+++&&&&&+++++++++++++++&&+++++++++++++&&&++++++++++++&&++++++++...............+..++++++++&&&++++++++++++&&&++++++++&&&&+++++++++++&&&++++++++++++&&&&+++++++&&&&+++++++++++++++&&&&&&&&&&&&&&&&&&&&&&&&&&&&&&&&&&&&&&&&&&&&&&&&&&&&&&&&&&&&&&&&&&&&&&&&&&&&&&&&&&&&&&&&&&&&&+++++++&&&&+++++++++++&&&&++++++++&&&&&+++++++++&&&++++++++++&&&+++++++++++++&&&+++++..+.+.++++++++++++++++++++++++++++++++++&&++++++++++&&+++++++++++++++++++++++++++++++++++++&&&+++.....+++++++++++++&&&+++++++&&&@@@$&&&#@@@&$#&@@+@@@@&$$@@@@@@@++OXX++++O++O@@@@@@@@@++O+O@@@#@@@OOOO@@@@@@@@$***$$$@@@$@$$$@@@@@OOOOOOOOOOOOOOOOOOOOXXXXXXXXXXXXXXXXXXXoooooXoooooooXXXXXXXXXXXXXXXXXXXXXXXXXXXXXXXXXXOOOOOOOO@@@@@@@@@@@@@@$$$$$$***====;;;;;;;;;;========;;;;===;;;;;;;;;=======;;;;;;;;;;;;;;;;;=====**$$$$$$@@@@@@@@OOOOOXXXXXXXXXXXXXoooooooooo     o                              ",
"                          ooXXXXXXXXX.oooooXXXX.o.oo....XXO@@@@@@@@@@+++O+OX++++O@@@@@@@#####$##########@@@@@@+++++OO@@@@@@@@@@+XX....XXXXO@@@@@@@@OXXXXXOO@@@@@@@@@@@++OO+O++O@@@@@@@@OOO@@@@@@##@@@@@++++........................X.XXXXXXOOO@@OO@@@@@#$$$$$@@@XXXXXXXOXO@@@##@@@@@@@@@@@@@@$$$@@@@@@$$*$$@$****@@@@@OOXXXXXXXXO+O@@@OXXXXXXOO@@@@OXO++O@@@@OXXX............XXXXXXXXX++XXX+X+@@@@@OXX........................+++.+.++++&&&&&&&&&&&&&&++&&&&++++++++++++++++&&+++++++++++++&&&+++++++++++&&&++++++.................+....+.++++&&&++++++++++++&&&++++++++&&&&+++++++++++&&&++++++++++++&&&&+++++++&&&&+++++++++++++++&&&&&&&++++++++++++++++++++++++++++++++++++++++++++++++++++++++++++++++++++&&&&&+++++&&&++&&&&++++++&&&&++++++++++&&&&&++++++++&&&&&+++++++++&&&++++++++++&&&+++++++++++++&&&+++++..++...+++++++++++++++++++++++++++++++++&&+++++++++&&&+++++++++++++++++++++++++++++++++++++&&&+++......+++++++++++&&&&&++++++&&&&@@&$&$$@@@@&#&@@++@@@&##@@@@@@@++OXXO+@@++X+@@@@@@@@@@@@@O@@@@@@@OOOOO@@@@@@$**$$@@@@@@@@@@@@@OOOOOOOOOOOOOOOOOOOXXXXXXXXXXXXXXXXXXooooooooooXooooooooooXoXXXXXXXXXXXXXXXXXXXXXXXXXXOXOOOOOOOOO@@@@@@@@@@@@$$$$$$$****====;;;;;;;;;;========;;;;===;;;;;;;;;=======;;;;;;;;;;;;;;;;;=====*$$$$$$$$@@@@@@OOOOOOXXXXXXXXXXXXX.o..o.oo. .                                   ",
"                          oooXXXXX..o..o oo....ooo   .ooXXO@@@@@@@@@@@++++OOOO+++@@@@@@@@@@@@@@#@#####@@@@@@@@@++++O@@@@@@@@@@@+XXX...XXXXO@@@@@@@@OXXXXXOO@@@@@@@@@@+++OO+X++@@@@@@@@@OXOOOOO@@@@@@@@@@++++.......................X..XXXXXXOOOOOO@@@@@@$$#$$@@@OXXX+X++X+@@@@#$#@@@@@@O@@@@$$$$$@@@@@@@*$$$$****@@@@@OOXXXXXXXXO+O@@OOXXXXXXOO@@@@OOO++O@@#@OXX.........XXX..XXXXXXXXX+++X+X+@@@@@@XX.........................+..+.+++&&&&&&&&&&&&&&+++++++++++++++++++++++&&&++++++++++++&&&++++++++++++&&+++++..................+....+.++++&&&++++++++++++&&&++++++++&&&&+++++++++++&&&++++++++++++&&&&+++++++&&&&+++++++++++++&&&&&&&++++++++++++++++++++++++++++++++++++++++++++++++++++++++++++++++++++++++++++++++&&&++&&&&++++++&&&&++++++++++&&&&&++++++++&&&&&+++++++++&&&++++++++++&&&+++++++++++++&&&+++.+..++....+++++++++++++++++++++++++++++++&&&++++++++&&&&&&&&&&&&&&&&&&&&&&&++++++++++++++++++&&&++++...++++++++++++&&&&&&&++++@&&&&&@$&&$$@@@@##@@+++@@@&&#@@@@@O@+XOXX+@@@@OO++@@@@@@@@@@OOO@@@@@@@OO@@@@@@@@@@@@@@@@@@@@@@@@@OOOOOOOOOOOOOXXXXXXXXXXXXXXXXXXXXXXXXoooooooooooooXXooooXXooXooXXXXXXXXXXXXXXXXXXXXXXOOOOOOOOOOOOOOO@@@@@@@@@@@$$$$$$$****====;;;;;;;;;;=========;;;;==;;;;;;;;;=======;;;;;;;;;;;;;;;;;=====*$$$$$$$$@@@@@@OOOOOXXXXXXXXXXXXXXo.....oo. .                                   ",
"                            oooooooo       ..o...     ooXXO@@@@@@@@@@@@@@@@@@@@@@@@@@@@@@@@@@@@@@@@@@@@@@@@@@@OOOOOO++@@@@@@@@OXXXX.X.XXXXO@@@@@@@OOXXXXXX+@@@@@@@@OO+OO++++O@@@@@@@@@@+XXXXXXXX++++@@@@+++++++++X...................XXXXXXOO++OOO+@@@@@$$$$$@@@+++++OOOO@@@@@$$##@@@@@@@@@@$$$$$@@@@@$$$$@@$****@@@@@OXXXXXXXXXXOO@@@XXXXXXXXX@@@@OXXX+O@@@@OXX.........X...XXXXXXXXXXXX+X+X+@@@@@@XX...............X........++..++++++&&&&&&&&&&&&++++++++++++++++++++++++&&&++++++++++++&&&++++++++++++&&++++....++..++......+...++..+.++++&&&++++++++++++&&&++++++++&&&&+++++++++++&&&++++++++++++&&&&+++++++&&&&+++++++++++++&&&&++++++++++++++++++++++++++++++++++++++++++++++++++++++++++++++++++++++++++++++++++++++++&&&&++++++&&&&++++++++++&&&&&+++++++++&&&&+++++++++&&&++++++++++&&&+++++++++++++&&&+++++..++++...+.+++++++++++++++++++++&&&&&&&&&&&&&&&&&&&&&&&&&&&&&&&&&&&&&&&&&&&+++++++++++++++&&&&++++.++++++++++++++&&&&&&&@+++@&&&&&@&&&$#@@@@##@@++++@@&#@@@@@@O@OO+XX+@@@@O+OOOOOOOO+OOOO+@@@@$@@@@@@@@@@$@@@@@@@@@@@@@@@OOOOXOOXXXXXXXXXXXXXXXXXXXXXXXXXXXXXoXXXXXXXooXoooooooXoooooooooXXXXXXXXXXXXXXXXXXXXXXXXXXXXOOOOOOOOOOO@@@@@@@@@@@@@$$$$$$****===-;;;;;;;;;;========;;;;;==;;;;;;;;;=======;;;;;;;;;;;;;;;;;=====*$$$$$$$@@@@@@OOOOOXOXXXXXXXXXXXXXX..ooo.o..ooo.                                ",
"                                                      oo.XO@@@@@@@@@@@@@@@@@@@@@@@@@@@+++OO@++@@@@@@@@@@@@@@@OOOOOOO++@@@@@@@@@OXXXXXXXXXXO@@@@@@@OOXXXXXX+@@@@@@@++XXXXXX++O@@@@@@@@@@+XXXXXXXX++++++++++++@@@++++X.................XXXXX++@@+O++OO@@@$&$$$$@@++@@@@@@@@@@@@@@@@@@@@OOO@@@@$$$$$@@@@@$$@@@$$***$@@@@@OXXXXXXXXXXXO@@@OXXXXXXXX@@@@OXXXOO@@#@OXXXXX.X....XXX..XXXXXXXXXXXXXXX+@@@@@OXX...............X.......+.+..++++++++&&&&&&&&&&++++++++++++++++++++++++&&+++++++++++++&&&++++++++++++&&++++++..+...+++........++++.++++++&&&++++++++++++&&&++++++++&&&&+++++++++++&&&++++++++++++&&&&+++++++&&&&+++++++++++++&&&&++++++++++++++++++++++++++++++++++++++++++++++++++++++++++++++++++++++++++++++++++++++++&&&&+++++&&&&&++++++++++&&&&&+++++++++&&&&+++++++++&&&++++++++++&&&+++++++++++++&&++++++.+++.++....++++++++++++++++++&&&&&&&&&&&&&&&&&&&&&&&&&&&&&&+++++++++++++++++++++++++++++++&&&&++++++++++++++++++++&&&&&&&+++&&&&&&@&$&$@@@@@&#@@@+++@@&#@@@@@@@@OO+XX+@@@@OOOOO+OOOOOOOXXOO@@@@@@@@@@@@@@@@@@@@@@@@@@OOOOOOOXXOOOOXXXXXXXXXXXXXXXXXXXXXoXXXXXoooooXXooooooooooooooooooXoXXXXXXXXXXXXXXXXXXXXXXXXXXXXOOOOOOOOOOOO@@@@@@@@@@@@@$$$$$$*****==-;;;;;;;;;;========;;;;;-=;;;;;;;;;=======;;;;;;;;;;;;;;;;;=====*$$$$$$$@@@@@@OOOOOXOXXXXXXXXXXXXXX...oo....oo....                              ",
"..                                                    ...XO@@@@@@@@@@@@@@@@@@@@@@@@@@@@++OO+++++@@@@@@@@@@@@++OOOO++++@@@@@@@@@OXXXXXXXXXXO@@@@@@@OOXXXXXX+@@@@@@@+XXXXXXX++@@@@@@@@@@@+X.....XXXXXX+++++++@@@@@@++++...X............X.XXX+@@@@@@@@@@@@@&&$$$@@@O@@@@##@@@@@@@@@@@@@@@@@@@@@$$**$$@@$$**@@@@****$@@@@@OXXXXXXXXXX+XO@OOXOOXXXXXO@@@OXXOOO@@@@OXXXXXXXX..XXXX....XXXXX+XXXXXXX+@@@@@OXXX...............X......+.+..++++++++++++++&&++++++++++++++++++++++++++&&&++++++++++++&&&++++++++++++&&++++++++++....++.......++++.++++++&&&++++++++++++&&&++++++++&&&&+++++++++++&&&++++++++++++&&&&+++++++&&&&++++++++++++&&&&&+++++++++&&&&&&&&&&&&&&&&&&&&&&&&&&&&&&&&&++++++++++++++++++++++++++++++++++++++++++++++&&&&&++++&&&&&++++++++++&&&&+++++++++&&&&&+++++++++&&&++++++++++&&&++++++++++++&&&++++++.+..+.++++.+++++++++++++++&&&&&&&&&&&&&&&&&&&&&&&&++&+++++++++++++++++++++++++++++++++++++&&++++++++++++++++++++++&&&&&&&&++&&&&$$$$&&&@@@@@##@@@++@@@&@@@@@@@@@OX+XX@@@@@++OOO+++++OOOOXXO@@@@@@@@@$$@@@@@@@@@@@OOOOOXXXXXXXXXXXXXXXXXXXXXXXXXXXXXXoXooooooooooooXoXoooooooooooooooXXXXXXXXXXXXXXXXXXXXXXXXXXXXXXXXOOOOOOOOO@OO@@@@@@@@@@@@@$$$$$*****====;;;;;;;;;;========;;;;-==;;;;;;;;;=======;;;;;;;;;;;;;;;;;=====*$$$$$$$@@@@@@OOOOOOXXXXXXXXXXXXXXX.ooooo.o.ooo.                                ",
".....                                         .        ..XO@@@@@@@@@@@@@@@@@@@@@@@@@@@@+++++++@@@@@@@@@@@@@@@++@@@++++@@@@@@@@@@OXXXXXXXXXO@@@@@@@OOXXXXXX++@@@@@@+XXXXXXX+O@@@@@$$@@@@+.......XXXX.+++++@@@@@@@@@++++++XXX....X.....XXXXX+@@@@@@@@@@@@&&&$$$@@+++@@@#$$@@@@@@@@@@@@@@@@@@@@$$*$$$$@$$$$$@@$*****@@@@@OOXXXXXXXX++XO@@OXXXXXXOXO@@@OOXX+O@@@@OXXXXXXXX..XXXXXX..XXXXX++XXXXXX+@@@@@OXXX...............XX.......+.++.++++++++++++++++++++++&+++++++++++++++++&&&++++++++++++&&&++++++++++++&&++++++++++.....+........++++++++++&&&++++++++++++&&&++++++++&&&&+++++++++++&&&++++++++++++&&&&+++++++&&&&+++++++++++&&&&&++++++++&&&&&&&&&&&&&&&&&&&&&&&&&&&&&&&&&&&&&+++&&&&+++++++++++++++++++++++++++++++++++++&&&&&++++&&&&&++++++++++&&&&&+++++++++&&&&+++++++++&&&++++++++++&&&++++++++++++&&&++++++.+..++++++++++++++++++++&&&&&&&&&&&&&&&&&+&&+++++++++++++++++++++++++++++++++++++++++++++++&++++++++++++++++++++++&&&&&&&&@+&&&&$@$$&&&@@@@@##@@@+@@@@&&@@@@@@@++X+X+@@@@@@+++++++++OXXXXX@@@@@*@@@@@@@@@@@@@@@OOOXXXXXXXXXXXXXXXXXXXXXXXXXXXXXoXXXXooooooooooooooXXXooooXooooooooXXXXXXXXXXXXXXXXXXXXXXXXXXXXXXOOXOOOOOOOOOO@O@@@@@@@@@@@@@@$$$$$*****====;;;;;;;;;;========;;;;===;;;;;;;;;=======;;;;;;;;;;;;;;;;;=====*$$$$$$$$@@@@@OOOOOOOXXXXXXXXXXXXXXooooooooooo                                  ",
"X.......                                               ..XXO@@@@@@@@@@@@@@@@@@@@@@@@@@@@OOOO+@@@@@@@@@@@@@@@@@@@@@@@@@@@@@@@@@@@@@@@++XXXO@@@@@@@@OXXXXXXXOO@@@@+++XXXXX+XOO@@@@@@$@@@@+..........XX++++@@&&@&@@@++++++++++++++++++XXX.++++@@#####@@@@@$$&&$#@@O++O@@$*$@@@@@@@@@OOOOOOO@@@@@@$$$$$$$$$$$$$$****@@@@@@OOXXXXXXXOXXO@@@OXXXXXOOO@@@@OXXX+O@@@@OXXXX......XXXXXX.XXXXXXXXXXXXX+@@@@@@@XX...............XXXX....+...++.++++++++++++++++++++++&+++++++++++++++++&&&++++++++++++&&&++++++++++++&&+++++++.................++++++++++&&&++++++++++++&&&++++++++&&&&+++++++++++&&&++++++++++++&&&&+++++++&&&&++++++++++++&&&&++++++&&&&&&&&&&&&&&&&&&&&&&&&&&&&&&&&&&&&&&&++&&&&&&+++++++++++++++++++++++++++++++++++++&&&+++++&&&&&+++++++++++&&&++++++++++&&&&++++++++&&&&+++++++++&&&&+++++++++++++&&++++++.....+.+.+++++++++++++++&&++++++++++++++++++++++++++++++++++++++++....+++++++++++++++++++++++++++++++++++++++++++&&&&&&&&&++&&&&&&$$&&&@@@@@##@@@++@@@&#@@@@@@O++XXXO@@@@@++++++O+XXOOOO@@@@@@@@@@@@@@@@@O@OOOOOOOOOOOXXXXXXXXXXXXXXXXoooooooooooXoooooooooo.ooooooXXXoooXooXXoooXXXooooXXXXXXXXXXXXXXXXXXXXXXOOOOXXOOOOOOOOOOO@@@@@@@@@@@@@@$$$$$$****====;;;;;;;;;;========;;;;;==;;;;;;;;;=======;;;;;;;;;;;;;;;;;=====**$$$$$$@@@@@@@@OOOXXXXXXXXXXXXX.ooooooooooo     .                              ",
"XXX......                                             ..oXXO@@@@@@@@@@@@@@@@@@@@@@@@@+++OOOOO@@@@@@@@@@@@@@@@@@@@@@@@@@@$$@@@@@@@@@@+@OOOOO@@@@@@@OXXXXXXXO@@@@@@++XXXXXX+OO@@@@@@@@@@++X.X.....XX+X++++@@&&&@@@++++++++++++++++++++X..XX+++@@@@##@@@@@$$$$*#@@OX+O@@#$$@@@@@@@@@OOOX+OO@@@@@@$$$$$$$$$$$$$$****@@@@@@OOXXXXXXXXXXO@@@OXXXXXOOO@@@@OXXXXO@@#@OXXXX.....XX.XXXX.XXXXXXXXXXXXX+@@@@@@OXX..............XX.XX...++.+.X+.++++++++++++++++++++++&&++++++++++++++++&&&++++++++++++&&&++++++++++++&&++++++++++........++....++++++++++&&&++++++++++++&&&++++++++&&&&+++++++++++&&&++++++++++++&&&&+++++++&&&&++++++++++++&&&&+++++&&&&&&+++++++++++++++++++++++++++++++++++++++++++++++++++++++++++++++++++++++++++++++&&&++++++&&&&+++++++++++&&&&+++++++++&&&&++++++++&&&&+++++++++&&&&+++++++++++++&&++++++....+++.+++++++++++++++++++++++++++++++++++++++++++++++++++++++++.....+++++++++++++++++++++++++++++++.++++++++++&&&&&&&&&&++&&&&&&$$#$&@@@@@@#@@@+++@@#&@@@@@@+++XXXO@@@@@@+++OOOXOOO@@@@@@@@@@@@@@@OOOOOOOOOOOXXXXOOOOOXXXXXXXXXXXXoooooooooooooooooooooooo.oooXXXXXXXooXooXXooXXoXoXoXXXXXXXXXXXXXXXXXXXXXXXOOOOXXOOOOOOOOOOO@@@@@@@@@@@@@@$$$$$*****====;;;;;;;;;;========;;;;;==;;;;;;;;;=======;;;;;;;;;;;;;;;;;=====**$$$$$$@@@@@@@OOOOOXXXXXXXXXXXXoooo.ooooooo    .                               ",
"XXXXXXX...                                            ..ooXXO@@@@@@OOO@@@@@@@@@@@@@@++++++OOO@@@@@@@@@@@&&#&##&&&&$$&&&&$$&&$$$$$@@@@@@@@@@@@@@@@@+XXXXXX+@@@@@@@@OXXXXXX++OOO@@@@@@@@++.XXX..XXXXXX+++@@@&&&@+++++.....+..++++.+.+.X.XXXXX+++@@@#@@@@@#&$**$@@O+X+@@#$$@@@@@@@@@OO+++@@@@@@$$$$$$@$$$$$$$$*****@@@@@@OOXXXXXXXX+XO@@@OXXXXXOOO@@@@XXXXXO@@#@OXXXX..XXXXX..XXXXXXXXXXXXXXXXXXO@@@@@O.X.............X.......+++++++++++++++++++++++++++++++&&++++++++++++++++&&&++++++++++++&&&++++++++++++&&++++++++++....+.++++....+...++++++&&&++++++++++++&&&++++++++&&&&+++++++++++&&&++++++++++++&&&&+++++++&&&&++++++++++++&&&&&+++&&&&+++++++++++++++++++++++++++++++++++++++++++++++++++++++++++++++++++++++++++++++++&&&&&+++++&&&&++++++++++&&&&++++++++++&&&&+++++++++&&&+++++++++&&&&+++++++++++++&&++++++..++++....++++++++++++++++++++++++++++++++++++++++++++++++++++++++++++++++....++++++++++++++++++++.++.....++++++&&&&&&&&&+++&&&&&$$$$#$@@@@@@@@@@+++@@&#@@@@@@@@+XXXX+@@@@OO+X+OOO@@@@@@@@@@@@@@OOOOOXOXXXXXXXXXXXXXXXOXXXXXXXXXXXXooooooooooooooooooooooooooooooXXXXXXoooooXXoooooXXXXXXXXXXXXXXXXXXXXXXXXXXOXXXOXXOO@@@@@@O@@@@@@@@@@@@@@@$$$$$$*****====;;;;;;;;;;========;;;;====;;;;;;;;=======;;;;;;;;;;;;;;;;;=====*$$$$$$$@@@@@@@OOOOXXXXXXXXXXXoooooooo..oo..                                    ",
"XXXXXXXX..                                    . .    ...ooXXOO@@@@OOOOO@++++@@@@@@@O++++XXX+OO@@@@@@@@@@@@@@@@&&&&##&&&$$$&&$$$$$$$@@@@@@@@@@@@@@OOXXXXX++@@@@@@@@OXXXXX++OOO@@@@@@@@@+XXX....XXXXXX++@@@@#&&++++++....++++++++.........X.X+++@@@#@@@@@#$&**$@@@++O@@#$$$@@@@@@@@OOOOO@@@@@@$$$$$@@@@$$$$@$*****$@@@@@OOXXXXXXXX+XO@@@OXXXXXXOO@@@@XXXXXO@@#@OXXXXX.XXXX...XXXXXXXXXX++++XXXXO@@@@@O.X.........X..........X++++++X++++++++++++++++++++++++&&++++++++++++++++&&&++++++++++++&&&++++++++++++&&++++++++++++++++++++...+++..+++++++&&++++++++++++&&&++++++++&&&++++++++++++&&&+++++++++++++&&&+++++++&&&&++++++++++++&&&&&+++&&&++++++++++++++++++++++++++++++++++++++++++++++++++++++++++++++++++++++++++++++++++&&&&&++++&&&&&++++++++++&&&&++++++++++&&&&+++++++++&&&+++++++++&&&&+++++++++++++&&++++++..++++....++++++++++++++++++++++++++++++++++++++++++++++++++++++..++++++++....++++.++.++++++++++++.++.....+.+++++&&&&&&&&+++&&&&&$@$$$@@@@@@#@@@++++@@&$@@@@@@@@OXXXX+@@@@OO+O@@@@@@@@@@@@@OOOOOOOXXXXXXXXXXXXXXXXXXXXXXXXXXXXXXXXXooooooooooooooooooooooooooooooXXXXXXXoooooXooooXXXXXXXXXXXXXXXXXXXXXXXXXXXOXXXXOOO@@@@@@@@@@@@@@@@@@@@@@@$$$$$*$****====;;;;;;;;;=========;;;;===-;;;;;;;-=======;;;;;;;;;;;;;;;;;=====*$$$$$$$@@@@@@@OOOOXOOXXXXXXXXoooooooo..o...                                    ",
"XXXXXXXX...                               oo.. . .      oooXXOOO+XXXXXXXXXXX++++XXXXXXXXXXXXX++O+@@@@@@@@@@@@@@@@@@#&#$$$$$$**$$&&&&$$$&$@&&@@@@@@@+++++@@@@@@@@@@@+XXXXXOOOOOO@@@@@@@XX......XXXX+++@@@####@@++......++++++++++....+...X.X+X+@@@#@@@@&#&$*&#@@+O++@@#$$$@@@O@@@@@+OX+@@@@@@$@@@$@@@@$$$$@$******@@@@@OXXXXXXXXX+XOO@@OXXXXXXOO@@@@XOXXOO@@#@OXX....XXXXXXXXXXXXXXXXXXXXXXXXX+@@@@@+XXXX......XX...........+X+++++++++&&++++&&+++&&++++++&&&++++++++++++++++&&&++++++++++++&&&++++++++++++&&++++++++++++++++++++++++....+++++++&&++++++++++++&&&++++++++&&&++++++++++++&&&+++++++++++++&&&+++++++&&&&++++++++++++&&&&+++&&&&++++++++++++++++++++++++++++++++++++++++++++++++++++++++++++++++++++++++++++++++++&&&&&+++++&&&&++++++++++&&&&&++++++++&&&&&++++++++&&&&+++++++++&&&&+++++++++++++&&++++.+..+++.++++++++++++++++++++++++....++..++++++++...+...........+....++++++++..+++++++++++++++++++++...+....++.++++++&&&&&&&+@+&&&&&$&&#&@@@@@@@#@@++++@@##@@@@@@O@OXXXX+@@@@OO@@@@@@@@@@@@OOOOOOXXXXXXXXXXXXXXXXXXXXXXXXXXXXXXXXXXXXooooooooooooooooooooooo  ooooooXXXXXXXXXooXXXXoX.XXXXXXXXXXXXXXXXXXXXXXXXXXXXXX+OO@@O@@@@@O@@@@@@@@@@@@@@@@$$$$$$*****===;;;;;;;;;=========;;;;=--;;;;;;;;;=======;;;;;;;;;;;;;;;;;=====*$$$$$$$@@@@@@OOOOOXXXXXXXXXXXooooooooo.ooo .                                   ",
"XXXXXXXX...                               .. .   . .    .ooXXXXXXXXXXXXXXXXXXXXXXXXXXXXXXXXXXXXXXX++++@@@@@@@@@@@@@@@&&$&$$$&&&&$$$&$$$&$$$$$&$@@@@@@@@@@@@@@@@@@@@+XXXX+XXOXOOO@@@@@@XX.X....XXXX+++@@@&&&&&@++.......+.++++++++++++...X.X+++@@&@@@@@@#&$*$#@@+++@@@$$$$@@@O@@@@@O+++O@@@@@$$@@$@@@@$$$$$$******@@@@@OXXXXXXXXXXXOO@@OXXXXXOOO@@@@OOXXOO@@@@OXXXX..XXXXXXXXXXXXXXXXXXXXXXXXX+@@@@@+XX.X......XX...........+++++++++&&&&++++&&&++&&++++++&&&++++++++++++++++&&&++++++++++++&&&++++++++++++&&++++++++++++++++++++++++.++++++++++&&++++++++++++&&&++++++++&&&++++++++++++&&&++++++++++++&&&&+++++++&&&&+++++++++++&&&&&&++&&&+++++++++++++++++++++++++++++++++++++++++++++++++++++++++++++++++++++++++++++++++++&&&&++++++&&&&++++++++++&&&&+++++++++&&&&&++++++++&&&&&++++++++&&&&+++++++++++++&&++++++...+..++++++++++++++++++++++++++..++++++++++++++++..+..+....+....+..++++++..++++...++..+.+++++++++++++....+.+++++&&&&&&&&+@@&&&&$@&&#&@@@@@@@#@@O+++@@##@@@@O@OO+XXXX++@@+OO@@@@@@@@OOOOOOOOXXXXXXXXXXXXXXXXXXXXXXXXXXXXXXXXXXXXXoooooooooooooooooooooooo  oooooXXXXXXXXXXooXXXXXX.XXXXXXXXXXXXXXXXXXXXXXXXX+X+XOOOXO@O@@@@@O@@@@@@@@@@@@@@@$$$$$$*****===-;;;;;;;;;=========;;;;----;;;;;;;;=======;;;;;;;;;;;;;;;;;=====**$$$$$$@@@@@@OOOOOXXXXXXXXXXXoooo.oo.ooooo .                                   ",
"XXXXXXXX...                                .      ....  . oooXXX...XX...............o......X.XXXXXXXXX+XXXX+X+OO@@@@@@@@@&$$$$&&&&$$$$&&$$$$&&$$&$$@@@@@@@@@@@@@@@@+XXXXXXXXXX+O@@@@@@++X......XXX++++@##&*&&@++++....++++++++++++++++.++.++++@@&&@@@@&#$*$$$@@+++@@@$$$@@@@@O@@@@O++OO@@@@@@$@@$@@@@$$$$@$*****$@@@@@OXXXXXXXXXXXO@@@OXXXXXOOO@@@@OOOXO@@@#@OXXXXXXXXXXXX..XXXXXXXXXXXXXXXXX@@@@@@OXX..XXXX..XX......XX..XX+++++++&&&&&&&++&&+++&&&+++++&&&++++++++++++++++&&+++++++++++++&&&++++++++++++&&++++++++++++++++++++++++++++++++++&&&++++++++++++&&&++++++++&&&++++++++++++&&&++++++++++++&&&&+++++++&&&&+++++++++++&&&&&&++&&&++++++++++&&&&&&&&&&&&&&&&&&&&&&&&&&&&&&&&&&&&&&&&&&&&&&&&&&&&&&&&&&&&+++++++++++++&&&&++++++&&&&+++++++++++&&&&++++++++&&&&&&&&&&&&&&&&&&&&&&&&&&&&&&++++++++++++&&&++++++++....++++++..++++..........................................++........................+..++++++++++++++..+++++++&&&&&&&&&@++&&&&$@@$&&#@@@@@##@@++++@@##@@@@OOO+++XXXX+X++XOO@@OOOOOOO@@@O@OOOXXXXXXXXXXXXXXXXXXXXXXXXXXXXXXXXXooooooooooooo    ooooooooo o ooooXXXXXXXXXXooXXXXXXXXXXXXXXXXXXXXXXXXXXXXXX++XXOOOOXOXOOOO@@@@@@@@@@@@@@@@@@@$$$$$******===-;;;;;;;;;=========;;;;=-=;;;;;;;;-=======;;;;;;;;;;;;;;;;;=====**$$$$$$@@@@@@OOOOOOXXXXXXXXXXooo.oooooooooo                                    ",
"XXXXXXXX...                                       ...    ..ooo......................oo..........XXXXXXXXXXXXXXXX+++@@@@@@@@@@&&&$$$$$$&&$$$$&&$$$$$$$$@$###$$$@@@@@+XXXXXXXXXXX+@@@@@OXX...........X++@@&&&&&@+++......+..++++++++++++.+X+++++@@&&@@+@@#&*$$$@@++O@@@$$#@@@@OO@@@@O++OO@@@@@@@@@@@@@@$$$$@@******@@@@@OXXXXXXXXXXXOO@@OXXXXXXOO@@@@OOOX+O@@@@OXXXXXXXXXXXXX..XXXXXXXXXXXXXXXX@@@@@@OXX..XXXX..XX..........XX+++++++&&&&&&&++&&&&&&&&+++++&&&++++&&++++++++++&&&++++++++++++&&&++++++++++++&&++++++++++++++++++++++++++++++++++&&&++++++++++++&&&++++++++&&&++++++++++++&&&++++++++++++&&&&+++++++&&&&+++++++++++&&&&&&++&&&++++++++++&&&&&&&&&&&&&&&&&&&&&&&&&&&&&&&&&&&&&&&&&&&&&&&&&&&&&&&&&&&&&&+++++++++++&&&&++++++&&&&+++++++++++&&&&++++++++&&&&&&&&&&&&&&&&&&&&&&&&&&&&&&++++++++++++&&&++++.+.+....++++++..+................+...................................................+++++.++++++++++++++++++++#&&&&&&&&&&&@++&&&&$@@$&##@@@@@@#@@++++@@##@@@OOO+++XXXXXXXXXXX+OOOOO@@@O@@@@@@OOOOOXXXXXXXXXXXXXXXXXXXXXXXXXXXoXooooooooooo       ooo     o   ooooXXXXXXXXXXXXXXXXXXXXXXXXXXXXXXXXXXXXXXXXXXXXXXOOOOXXXOOO@@@@@@@@@@@@@@@@@@@@$$$$$$*****===-;;;;;;;;;=========;;;;===-;;;;;;;-=======;;;;;;;;;;;;;;;;;=====**$$$$$$@@@@@@OOOOOOXXXXXXXXXXooooooo.ooooooo                                   ",
"XXXXXXXX...                                             ..................   .....    .. .  o........ooo....ooXoXXXXXXXO@+@@@@@@@@@@@@@@@@@@@@@@@@@@@@@@@$$$@@@@@@@OOXXXXXXXXOOO@@@@@@+XX........XXXXX+@##&&&@++........++++++++++++....+++++@@#&&@@@@@$$*$&$@@@OO@@@#$$@@@@O@@@@@O+OOO@@@@@@@@$$@@@$$$$@@@@*****@@@@@OXXXXXXOOXXXOO@@OXXOXXXOO@@@@XXX++@@@@@OXXXXXX..XXXXXXXX+XXXXXXXXXXXXXXO@@@@@OXX......XXXXXXXXXXX+++++++++++&&&&&&&&+++++++&&++++++&&&+++++++++++++++&&&&++++++++++++&&&+++++++++++&&&+++++++++++&&&&&&&&&++++++++++++++&&&++++++++++++&&&++++++++&&&+++++++++++++&&+++++++++++++&&&+++++++&&&&++++++++++++&&&&&++&&&&++++++++&&&&&&&&&&&&&&&&&&&&&&&&&&&&&&&&&&&&&&&&&&&&&&&&&&&&&&&&&&&&&&&&&+++++++++&&&&&+++++&&&&++++++++++&&&&&+++++++++&&&&&&&&&&&&&&&&&&&&&&&&&&&&&+++++++++++++&&++++.+......++..........+...........................................................++++++++++++++++++++++++++++&+++++++&&&&&&&@@@@&&&&@@$&#@@@@@@@@@@++++@@###@@++OO+++XXXXXXXXXXXXXXXXXXXXOXXXXXXXXXXXXXXXXXXXXXXXXXXXXXoooooooooooooo  ooo o ooooo oo   ooo     oooXXOXXXXXXXXXXXXXXXXXXXXXXXXXXXXXXXXXXXXXXXOXOOXX++OOO@OOOOO@@@@@@@@@@@@@@@@@@$$$$$****====-;;;;;;;;;======*===;;;===;;;;;;;;;=======;;;;;;;;;;;;;;;;;=====**$$$$$$@@@@@@@OOOOOXXXXXXXXXXXooooo..oooo.oooo                                 ",
"XXXXXXXX....                                                    .     ....    ..    .  .    ......o.oooo....oXooXXXXXXXX++@@@@@@@@@@$@@@@@@@@@@@@@@@@@@@@@@$@##@@@@+OXXXXXXXXOO@@@@@@@XXX...........XX++@&&&&@+++........++++++.+++++.+.+++++@@#&&@@@@@$$*&$$@@@O+@@@#$$$@@@O@@@@OO++OO@@@@@@@@@$@@@$$$$@@@$*****@@@@@OXXXXXXXOXXXOO@@OXOOXXXOO@@@@OXXX+@@@@@OXXXXXX..XXXXXXXX++XXXXXXXX+XXXXO@@@@@OXX......XXXXXXXX..X+++++++++++&&&&&&&&+++++++&&++++++&&&+++++++++++++++&&&&++++++++++++&&&+++++++++++&&&++++++++++++&&&&+&++++++++++++++++&&&++++++++++++&&&++++++++&&&+++++++++++++&&+++++++++++++&&&+++++++&&&+++++++++++++&&&&&++&&&&+++++++&&&&&&&&&&&&&&&&&&&&&&&&&&&&&&&+&++++++++++&+&&&&&&&&++++&+&&+&&&&+++++++++&&&&&+++++&&&&++++++++++&&&&&+++++++++&&&&&&&&&&++&&&&&&&&+++++&&&&+++++++++++++&&++++......................+..+......................................................++++++++++++++++++++++++++++++++++++&&&&&&@+@@&&&&&@@@&&@@@@@@@@@@++++@@###@@O+O+XX+XXXXXXXXXXXXXXXXXXXXXXXXXXXXXXXXXXXXXoXXXXXXXXXXXoooooooooooooooooo     ooo        oo     oooXXXOXXXXXXXXXXXXXXXXXXXXXXXXXXXXXXXXXXXXXXXOXOOOOO++OO@OOOOOO@@@@@@@@@@@@@@@@@$$$$$****====-;;;;;;;;;======*===;;;===;;;;;;;;;=======;;;;;;;;;;;;;;;;;=====**$$$$$$@@@@@@@OOOOXXXXXXXXXXXXoooo..oooo.o.oo                                  ",
"XXXXOXXX....                                                          ...    ...  ...   ..  . .......o.o......XX.XXXXXXX++@@@@@@@@@$$$@@@@@@@@@@@@@@@@@@@@@@@@@@@@@OOXXXXXOO@@@@@@@@@@+X...........XXXX+@@&&@@++++...++.+++++++++++++...++++@@&&##@@@@##&***$$@@@@@@##$$$@@@O@@@@@+++OO@@@@@@@@$$@@@$$$$@@@@****$@@@@@OXXXXXXXXXXXO@@@OXOOXXOOO@@@@OXXX+O@@#@OXX.XXX.XXX..XXXXXXXXXXXXXX++XXX@@@@@@OXX...X..XX....XX....XX++++++++&&&&:&&&&&&&++&&&&+++++&&&+++++++++++++++&&&&++++++++++++&&&++++++++++++&&++++++++++++++++++++++++++++&++++&&&+++++++++++++&&&++++++++&&&&+++++++++++&&&++++++++++++&&&&+++++++&&&+++++++++++++&&&&&+&&&&++++++++&&&&+++++++++++++++++++++++++++++++++++++++++++++++++++++++++++&&&+++++++++&&&&&+++++&&&&++++++++++&&&&&+++++++++&&&&++++++++++++++++++++++&&&+++++++++++++&&++++......................+++++...............................................................++++++++++++++++++++++++++&&&&&&@+@@&&&&$$@@##@@@@@@##@@++++@@###@@OOOOOXXXXXX+XXXXXXXXXXXXXXXXXXXXXXXXXXXXXoooooXoooooooooooooooooo  ooooooo    ooo        oooo  oooooXXXOOXXXXXXXXXXXXXXXXXXXXXXXXXXXXXXXXXOXOOXOXOOOOOOOOOOOO@@@@@@@@@@@@@@@@@@@@@$$$$$****=====;;;;;;;;;======*==;;;;====;;;;;;;-=======;;;;;;;;;;;;;;;;;=====**$$$$$$@@@@@@OOOOXXXXXXXXXXXXXooo..ooooo.oooo                                  ",
"OOOOOXXX...                                                             .    ...   .    ..    .. ..o.........oX...XXXXXX++@@@@@@@###$$$&$@@@@@O++++++OOO@@@@@@@@@@O+XXXXXO@@@@@@@@@@@@+XX...........XXX++@@@++++++..++++++++++++++++..++++++@@&&&&@@@@@&&**&$$@@@@@@##$$@@@@@@@@@O++++OO@@@@@@@@@@@@$$$$@@@@****$@@@@@OXXXXXXXOXXXO@@@OXOOXXOOO@@@@OXXX+@@@#@OXXX.XXXXXX..XXXXXXXXXXXXXX++XX+@@@@@@+XX...X..XX....XX....X.++++++++&&&&:&&&&&&&&&&&&&+++++&&&&++++++++++++++&&&&++++++++++++&&&++++++++++++&&++++++++++++++++++++++++++++++&&&&&&+++++++++++++&&&++++++++&&&&++++++++++++&&++++++++++++&&&&+++++++&&&+++++++++++++&&&&&+&&&&++++++++&&&++++++++++++++++++++++++++++++++++++++++++++++++++++++++++++&&&+++++++++&&&&&+++++&&&&++++++++++&&&&++++++++++&&&&++++++++++++++++++++++&&&+++++++++++++&&++++.+....................++++.................................................................+++++++++++++++++++++++++&&&&&&&+@@&&&&$@@@$#@@@@@@##@@+++++@@@@@OOOXOOXXXXXXXXXXXXXXXXXXXXXXXXXXXXXooooXooooooooooooooooooooooo.oo     o.o                oooo  oooooXXOOOXXXXXXXXXXXXXXXXXXXXXXXXXXXXXXXXXXXOXX+XOOOOOO@O@@O@@@@@@@@@@@@@@@@@@@@@$$$$$$****=====;;;;;;;;;=========;;;;====;;;;;;;-=======;;;;;;;;;;;;;;;;;=====*$$$$$$$@@@@@@OOOOXXXXXXXXXXXXooooo.ooooo..o..                                  ",
"OOO++XXX.o.                                                               ..        ... ....     .oooo....oooo...X..XXXX++@@@@@@@@@####&&&@@@OOXXXXXXXXX++O@@@@@@@O+++++O@@@@@@@@@@@@OOX.............XX+++@@@++++++..+++++++++++++++++++++@@&&&&&&@@@@&&&&**$$@@@@@@@#$$@@@@@@@@@OOO+O+O@@@@@@@@@@@@$$$$@@$*****$@@@@@OOXXXXXXXXXOO@@@OXXXXXXOO@@@@OOO++@@@@@OXXX.XXXXXXXXXXXXXXXXXXXXXXXXXXX@@@@@@+XX..XXXX......XXX+++XX+++++++++&&&&&&&&&&&&&&&&&+++++&&&++&&&+++++++++++&&&++++++++++++&&&++++++++++++&&++++++++++++++++++++++++++++++&&&&&&+++++++++++++&&&++++++++&&&&+++++++++++&&&++++++++++++&&&&+++++++&&&&+++++++++++&&&&&&&&&&&++++++++&&&++++++++++++++++++++++++++++++++++++++++++++++++++++++++++++&&&&++++++++&&&&&+++++&&&&+++++++++++&&&++++++++++&&&&++++++++++++++++++++++&&&+++++++++++++&&++++......++..............+...................................................................+++++++++++++++++++++++++++&&&&&&@@@&&&&&@@&##&@@@@@##@@++++++++++OOXX+XXXXXXXXXXXXXXXXXXXXXXXXXXXoooooooo.oooooooooooo ooooooooo o            o o         oooo  ooooooXXO@OXXXXXXXXXXXXXXXXXXXXXXXXXXXX+++XOOXXX+++OOOOOO++OOOO@@@@@@@@@@@@@@@@@@@@@$$$$$****=====;;;;;;;;;=========;;;;-==-;;;;;;;-=======;;;;;;;;;;;;;;;;;=====*$$$$$$$@@@@@@OOOOXXXXXXXXXXXooooooooooo  ooo.                                  ",
"OOOO+XXX.o.                                                                          .. ..       .oooo....o.oo...X.XXXXX++@@@@@@@@@#####&&@@@O+XXXXXXXXX++OO@@@@@@++++++O@@@@@@@@@@@@O+XXX..XX.......XXX++++@@++++++++++++++++..+++++++++@@@&&&&&&@@@@&&&&*$$$@@+XO@@@$$$@@@@@@@@@++OO@@@@@@@@@@@@@@$@@@@@$*****$@@@@@OOXXXXXXXXXOO@@@OXOXXXXOO@@@@OXXX+@@@@@OXXX.XX..XXXXXXXXXXXXXXXXXXXXXX+@@@@@@OXXXXXXXX......XXX+++XX++++++++&&&&&&&&&&&&&&&&&&+++++&&&++&&&&+++++++++&&&&++++++++++++&&&++++++++++++&&++++++..+++++++++++++++++++++++&&++++++++++++++++&&&++++++++&&&++++++++++++&&&++++++++++++&&&&+++++++&&&&+++++++++++&&&&&&+&&&&&+++++++&&&++++++++++++++++++++++++++++++++++++++++++++++++++++++++++++&&&&++++++++&&&&&+++++&&&&+++++++++++&&&++++++++++&&&&++++++++++++++++++++++&&&+++++++++++++&&++++....++++....+++......+++..............................................++..................++++++++++++++....++.++++++&&&&&&@@@&&&&&@@@##&@@@@@##@@++++XX++XXXOXXXXXXXXXXXXXXXXXXXXXXXoooXooooooooooo..  .. .oooo      ooooo oo          oooo        oooooo  ooooXXXO@OXXXXXXXXXXXXXXXXXXXXXXXXXXXXOX+XXOXX++++OOOO+O@@@@OO@@@@@@@@@@@@@@@@@@@@$$$$$$****=====;;;;;;;;;=========;;;;-==-;;;;;;;;=======;;;;;;;;;;;;;;;;;====**$$$$$$$@@@@@@OOOOXXXXXXXXXXXoXooooooooo oo o.                                  ",
"OOO+XXXX.o                                                                                    .....oo.........oXXX..XXXX++@@@@@@@@@@##@@@@@@@+XXXXXXXXXXXOOO@@@@@@++XXXXXO++++@@@@@@+++XXX..XXXXXXXX+++++++@@@&@@+++++++++++@++++++X++++@&&&&&&&&&@@@@&&****&&@@XXO+@@$$$@@@@@@@@@+++O@@@@@@$$$$$@@@$$@@@@@*****$@@@@@OOXXXXXXXXXOO@@@OOOOXXXOO@@@@OXXX+O@@@@OXXXXXX..XXXXXXXXXXXXXXXXXXXX+XX@@@@@@OXX....X.X.XX..+++XX+X+++++++++&&&&&&&&&&++++&&&&+++++&&&&+&&&++++++++++&&&&++++++++++++&&&++++++++++++&&+++++++.+++++++++++&&&+++++++++++++++++++++++++++&&&++++++++&&&++++++++++++&&&+++++++++++++&&&+++++++&&&&++++++++++++&&&&+++&&&&+++++++&&&++++++++++++++++++++++++++.....++++....++++++++++++++++++++++&&&++++++++&&&&&+++++&&&&+++++++++++&&&++++++++++&&&&++++++++++++++++++++++&&&++++++++++++&&&++++.+..+++++.+.+....++..................................................+++................++++++++++++..+.....+.+++++++&&&&&&@+&&&&&&&@@&###@@@@$@@@O+XOOO@+OOOOXXXXXOOXXXXXXXXXXXXX..oooo.......ooooo        oooo  o .ooooooooo    oo o  oooooooo    ooooooooo ooXXX@@OOXXXXXXXXXXXXXXXXXXXXXXXXXXXXXXXXXX+XO++OOO++O@@@@O@@@O@@@@@@@@@@@@@@@@@$$$$$$$***====-;;;;;;;;;=========;;;;;==-;;;;;;;-=======;;;;;;;;;;;;;;;;-=====*$$$$$$$@@@@@OOOOOXXXXXXXXXXooooooooooooo   o.  oo                              ",
"OOO+XXXX.o                                                                . .       ..         ... .oo.......ooXXXX.XXXX++@@@@@@@@@@@@@@@@@@@OXXXXXXXXXXX+O@@@@@@@++X+XXXXXXXXXXOO@+++XXXX++++++++XXX+++X+++@&&&@++++++++++@@@@+++...++++@&&&&&&&&@@@@&&$&$$&@@+XX++@@$$$@@@O@@@@OO++++@@@@@$$@$$@@@@@@@@@@*****$@@@@@OOXXXXXXXXXOO@@@@OXOXXXXO@@@@OOXX+O@@@@OXXXXXX..XXXXXXXXXXXXXXXXXX++XXXO@@@@@OXX......XXXX..++XXX+++++++++++&&&&&&&&&&&+++&&&&+++++&&&+++&&+++++++++++&&&++++++++++++&&&++++++++++++&&+++++++++++++++++++&&&++++++++++++++++++.++++++++&&&++++++++&&&++++++++++++&&&++++++++++++&&&&+++++++&&&+++++++++++++&&&&+++&&&&+++++++&&&++++++..++++...+++......+++++.++++++....+++.......++++++++&++&&&++++++++&&&&&+++++&&&&++++++++++&&&&++++++++++&&&&++++++++++++++++++++++&&&++++++++++++&&&++++++..++++++++++...+++................................................++++................++++++++++++........+++++++++&&&&&@+++&&&&&&@@####@@@@$@@@O+OO@@@@@@@@@@@@@@@@@@+XXXXXX.o.o.oo....ooooo. .ooo      o o.   o ooooXXX.oo.  ooooo  oooooooooo   oooooo.. o.XXO@@OOOXXXXXXXXXXXXXXXXXXXXXXXXXXXXXXXX+OXO++OOO@++@@@OO@@@O@@@@@@@@@@@@@@@@$$$$$$$$***====-;;;;;;;;;=========;;;;;==-;;;;;;;-=======;;;;;;;;;;;;;;;;-=====*$$$$$$$@@@@@OOOOOXXXXXXXXXXoooooooooooo    oo  oo                              ",
"OOXXXXXX...                                                                       ....  ....  .......ooo.o....o...XXXXXXO@@@@@@@@@@@@@@@@@@+++XXXXXXXXXXXOO++@@@@@+++XXXXX+XXXXX++OOXXXXX+++++@@++XX++++++++@@&&&+++++++++@@&&&&@+X+..++@@&&&&**&&&@@@##&**$$@@@XX++@@$$$@@@O@@@@@OO+OOO@@@@@@@$$@@@@@@@@@@@****$@@@@@OXXXXXXXXOXXO@@@OXXXXXXOO@@@@XXXXXO@@#@OXXXXXX..XXXXXXXXXXXX+++XXXX+X+O@@@@@@OXX.X.X..XXXX.XXX..++XX++++++++&&&&&&&&&&&&&&&&&&+++++&&+++&&&+++++++++++&&&++++++++++++&&&++++++++++++&&++++++++.++++++++++&&&+++++++++++++++++++++++++++&&&++++++++&&&&+++++++++++&&&+++++++++++++&&&+++++++&&&+++++++++++++&&&&&&+&&&&+++++++&&&++++++...+.....+++++..++++++++++...+++.............++++++++++&&&++++++++&&&&++++++&&&&++++++++++&&&&+++++++++&&&&+++++++++++++++++++++++&&&+++++++++++++&&++++++++++.++++.....++++................................................+++..................+++++++++++++....++++++++++++&&&++++@&&&&&@@@&###&@@&##@@++@@@##$$$@#@@@@@@@@@@@OOXXXXXXXX.ooooooooooo.o.        o o...ooooooXXXXXXoooo     o              oooo .o.ooooXXO@@@OOXXXXXXXXXXXXXXXXX+XXXXXXXXXX++++OXOOOOOO++@O@@+@O@@@@@@@@@@@@@@@@@@@@@@$$$$*****====-;;;;;;;;;==========;;;;===;;;;;;;;=======-;;;;;;;;;;;;;;;-=====*$$$$$$@@@@@@@OOOOXXXXXXXXXXXXXooo.ooooooo.  ooo                                ",
"XXXXXXXX...                                                                       ....  ....  .. ....ooo......oo..XXXXXX+@@@@@@@@@@@@@@+@++++XXXXXXXXXXXXXO++@@@@@@+++XXXXXXXXXX++O+OXXXXX++++@++++X.++++++@@&&&&@++++++++@&&&&&@@++++++@@&&&&**&&&@@@@&&$*&$@@@+X++@@$$$@@@O@@@OOOO++OO@@@@@@@$$$@@@@$@@@@@$***@@@@@@OXXXXXXXXOXX@@@@OXXXXXOOO@@@@OXXXXO@@#@OXXXXXX.XXXXXXXXXXXXX++++XXX+X+O@@@@@@OXX....X...XX.X+X..X+X+++++++++&&&&&&&&&&&&&&&&&&+++++&&+++++++++++++++++&&&++++++++++++&&&++++++++++++&&++++++++.++++++++++&&&++++++++++++++++++.++++++++&&&++++++++&&&&+++++++++++&&&+++++++++++++&&&+++++++&&&+++++++++++++&&&&&&&&&&++++++++&&&++++++...+......++....+++...........++............+++++++++++&&&++++++++&&&&++++++&&&&++++++++++&&&&+++++++++&&&&+++++++++++++++++++++++&&&+++++++++++++&&++++++++++....++..++++++.................................................+..................+++++++++++++....+++++++++++++&&&&++++@&&&@@@@@####@@##&@@@@@@@@$$$$@##@@@@@@@@@@OXXXXXXXXXXXXoooooooo...         oo     oooooXXXXXXooo      o      oo      ooo.. ooooooXXO@@@OOXXXXXXXXXXXXXXXXX+XXXXXXXXXXOO+++XOOOOOO+++O+++OO@@@@@@@@@@@@@@@@@@@@$@$$$$*****====-;;;;;;;;;==========;;;;-==;;;;;;;;=======-;;;;;;;;;;;;;;;-=====*$$$$$#@@@@@@OOOOOXXXXXXXXXXXXoooo.oooooo.. o                               ....",
"XXXXXX....                                                                        ..    .. .  ..  ....oo......o...XXXXX++@@@@@++@@@@@@@++++++XXXXXXXXXXXXXX++@@@@@@+O+XXXXXXXXXX++@+++XXXXX+++++++X...+++++@@&&&&+++++++++@&&&&&#@@+++++@&&&&&&&&&@@@@&&$*$&$&@@+XO+@@#$$@@@@@@@@@@@++++@@@@@@@$$$$$$$**********$@@@@@OXXXXXXXOOXXO@@@OXXXOXOOO@@@@OOOX+O@@#@OXX..XX.XXXXXXXXXXXXX++XXXXXXX+X@@@@@@OXX...XXX....X.....X+++++++++++&&&&&&&&&&&&&&&&&&++++&&&&++++++++++++++++&&+++++++++++++&&&++++++++++++&&++++++....++++++++&&&&+++++++++++++++++++++++++++&&&++++++++&&&&+++++++++++&&&++++++++++++&&&&+++++++&&&+++++++++++++&&&&&++&&&++++++++&&&++++++...........................................+++++++++++&&&&++++++++&&&&++++++&&&&++++++++++&&&&+++++++++&&&&+++++++++++++++++++++++&&&+++++++++++++&&++++++.+++.+...+++++++++..................................................................++++++++++++++++++++++++++++++++&&&&&&&&&&&&&&@@@@##&@@$##@@@@@@@@@@@$@@@@@@@@@@@@@OOXXXXXOOOXXXXXXXoooooooooo.    ooo   .ooooooXXXOOXooo.    ooo oo oooo   oo o o  ooooooXXO@@@OOOXXXXXXXXXXXXXXXXXXXXX+XX+X+XOXXXXXOOOOO++OO@@OOOO@@@@@@@@@@@@@@@@@@@$$$$$$*****====;;;;;;;;;;======*===;;;;-=-;;;;;;;;=======;;;;;;;;;;;;;;;;-=====*$$$$$$$@@@@@OOOOOXXXXXXXXXXXXXooooooooooo. o                            .. ....",
"++XXXX....                                                                        ..    ....  .   ............oo...XXXX++@@@@+++@@@@@@@@@@+++XXXXXXXXXXXXXXXO+@@@@@@O+XXXXXXXXX++++++++XXX++++++++.XXX+++++@@@&&&@++++++++@&#&&&#@+++++@@&&&&&&&&&@@@@@$$$&&$@@@OX++@@$$@@@@@@@@@@@@+++O@@@@@@@@@@$$$******====**@@@@@XXXXXXXXXXXXO@@@OXXXOOOOO@@@@OOX+OO@@@@OXXX.XX.XXXXXXXXXXXXX++XXXXXXXXX@@@@@@OXX..XXXX....+XX..++X++++++++++&&&&:&&&&&&&&&&:&&++++&&&&&+&&&+++++++++++&&&++++++++++++&&&++++++++++++&&++++++....++++++++&&&&+++++++++++++++++++++++++++&&&++++++++&&&&+++++++++++&&&++++++++++++&&&&+++++++&&&+++++++++++++&&&&+++&&&++++++++&&&++++++...........................................+++++++++++&&&&++++++++&&&&++++++&&&&++++++++++&&&&+++++++++&&&&+++++++++++++++++++++++&&&+++++++++++++&&++++++.+++++..+++++++++++................................................++................+++++++++++++++++++++++++++++++&&&&&&&&&&&&&&@@@@@@@@@$$$@@@@@@@@@@@$*#@@@@@@@@@@@@OXXXXXXXXXXXXXXXXXXXoooooooo. oooooooooooooXXXOOOXXooo. .oooooooooooo   oo oooo.ooooooXXO@@@OOOOXXXXXXXXXXXXXXXXXXX+XXX+O+OOXXXXOOOO++++OO@@OOO@@@@@@@@@@@@@@@@@@@@$$$$$******====;;;;;;;;;;====***===;;;;---;;;;;;;;=======;;;;;;;;;;;;;;;;-=====*$$$$$$$@@@@@OOOOXXXXXXXXXXXXXXoooooooo.ooo                               ......",
"++XXX...... .                                                                        ...    ..   .......oo.....o..XXXXX+OO@@++++@@@@@@@@@@@++XXXXXXXXXXXXXX++@@@@@@@O++XXXXXXXXO+++++++++++++++++++XXXX++++@&&&&&@++++++++@&$$$$&@++XX+@@&&&&*&&&&@@@@&&$$&&&&@@OXOO@@$$$@@@@@@@O@@@+XXXO@@@@@@@@@@@$$***$$******@@@@@@XXXXXXXXXXXO@@@OOOOOOXOO@@@@OOOOOO@@@@OXX..XXXXXXXXXXXXXXXX+++XXX++X+X+@@@@@+XXXXXXX.+.X.++++X+++++++++++++&&&::&&&&&&:&&&:&&+++&&&&&&&&&&++++++++++&&&&++++++++++++&&&++++++++++++&&+++++....++++++++++&&&++++++++++++++++++++++++++++&&++++++++&&&++++++++++++&&&++++++++++++&&&&+++++++&&&+++++++++++++&&&&+++&&&++++++++&&&+++++.....+.............................++++.......+++++++++&&&&++++++++&&&&++++++&&&&+++++++++++&&&++++++++++&&&&++++++++++++++++++++++&&&++++++++++++&&&++++++....+++..+++++++++++...............................................++................++++++&&+++++++++++++++++++++++++&&&&&&&&&&@@+++++++@@#$#@@@@@@@@@@@$$@@@@@@@@@@@@@OOXXXXXXXXXXXXXXXXXXXXXXoooooo.oooooooooooXXXXO@@OXooo..oooooooooo          ooooooooooXX@@@OOOOOXXXXXXXXXXXXXXXXXXXXXXXXXXXXXXXOXOX+++OOOO@OOOO@@@@@@@@@@@@@@@@@@@@@$$$$$*****====;;;;;;;;;;====***===;;;===-;;;;;;;-=======;;;;;;;;;;;;;;;;-=====**$$$$$$@@@@@@@OOOXXXXXXXXXXoXoooooooooooo  o    o                          ....",
"+++XXX..........  .                                                                   ..    .    .......ooo...oo..XXXXXXX@@@+@@+@@@@@@@@@@@++XXXXXXXXXXXXXX++@@@@@@@O+++X..XXXX+++++++X+++++++@+++XXXXX++++@@&&&&@++++++++@&@$$$&&++XX+@@&&&&&&&&&@@@@&&$$$&$&@@OXO@@@$#$@@O@@@@+OO+OXXXO@@@@@@@@@@@@@@@@@@@@@@@@@@@@@@XXXXXXX+XXXO@@@OXOXOOXOO@@@@OXOOOO@@@@+XX.XXXX.XXXXXXXX++XXXXXXXXX+X+X+@@@@@+XXXXXX..++..++++++++++++++++++&&&&:&&&&&&:&&&:&&+++&&&&&&+++++++&&&++++&&&&++++++++++++&&&++++++++++++&&+++++.....+++++++++&&&++++++++++++++++++++++++++++&+++++++++&&&&+++++++++++&&&++++++++++++&&&&+++++++&&&+++++++++++++&&&&+++&&&&+++++++&&&&++++++.++++.........++.+...........++..++++....++.+++++++++&&&&++++++++&&&&++++++&&&&+++++++++++&&&+++++++++&&&&+++++++++++++++++++++++&&&++++++++++++&&&++++++++..++++++++++++++++................................................................++++++++&+++++++.....+++++++++++++++&&+++++++++++++++@@&*$@@@@@@@@@@@@@@@@@@@@@@@@@@OOXXXOXXXXXXXXXXXXXXXXXXoooooo..ooooooooooXXXXO@@OXXo.o oooooooo.o      oo  ooooooooooXX@@@OXOOOXXXXXXXXXXXXXXXXXXXXXXXXXXXXXXXOOO++++OOOO@@OOO@@@@@@@@@@@@@@@@@@@@@$$$$$*****====;;;;;;;;;;====***===;;;===-;;;;;;;-=======;;;;;;;;;;;;;;;;======**$$$$$@@@@@@OOOOOXXXXXXXXXXoooooooooooooo                                   ...",
"+X++++XXXXX.............................            .                                .........  ...................XXXXX++@@@+@+@@@@&@@@@@@++XXXXXXXXXXXXXO+++@@@@@O@++XXXXXXXXX++XXXX+X++++++@+++XXXXXX+++@@@&&&@++++++++@&&&#$&@++XX++@&&&&***##@@@@@&****$#@@++O@@@$$$@@@O@@@O+++OOOO+@@@@@@@@@@@@$$$@@@@@@@@@@@@@@@OXXXXXXOOXXO@@@OXOXXXXXO@@@@+XXOOO@@#@OXXXXXX..XXXXXXXXXXXXXXXXXXXXXXO@@@@@@OXXXXX...+X+.XX++X+++X+++++++++&&&&:&&&&&::&&&:&&+++&&&&&&++++++++++++++&&&&++++++++++++&&&++++++++++++&&++++++....++.++++++&&&++++++++++++++++++++++++++++++++++++++&&&++++++++++++&&&+++++++++++++&&&+++++++&&&+++++++++++++&&&&+++&&&++++++++&&&&&+++++..+++++...+..++++++++++.....++++..+++++...+...++++++++&&&++++++++&&&&++++++&&&&++++++++++&&&&+++++++++&&&&+++++++++++++++++++++++&&&+++++++++++++&&+++++++++.+++++++.++++++..............++++.............................................+....+++++&&&++++......++..+++++++++++++++++++++++++++++@@&*#@@@@@@#@@@@@@@@@@@@@@@@@@@@@OOOOOOXXXXXXXXXXXXXXXXXXoooo.....oooooXXXXXOO@@@XXoooooooo o......oo o     oooo ooooXX@@@OXOOOXXXXXXXXXXXXXXX+XXXXXX++XX++++XXOOOO++++@+++OOO@@@@@@@@@@@@@@@@@@@@@@$$$******====;;;;;;;;;-====*=*===;;;;===;;;;;;;-=======;;;;;;;;;;;;;;;;======*$$$$$@@@@@@OOOOOOXXXXXXXXXXoooooo..oooo..                                     .",
"@@++++++XXXXX.XX....X......................  .......... .                            .........   ..................XXXXX++@@@++++@@@@&@@@@@++XXXXXXXXXXXXO+O+@@@@@@@+O+XXXXX..XXX+XXXXXX++++++@@++X.++XX+++@@@&@@@++++++++@&&&&&&@+XXX++@#&&****&&@@@@@&***$$&@@+X++@@$$$@@OO@@@@@++OOOO@@@@@@@@@@@@@@$$@@@@@@$$@@@@@@@OXXXXXXXOXXO@@@OXXXXXXXO@@@@+XX+OO@@#@OXXXXXX..XXXXXXXXXXXXXX+XXXXXX+O@@@@@@OXX......XXXXXXX+++++XX++++++++&&&::&&&&&::&&&:&&+++&&&&&&++++++++++++++&&&&++++++++++++&&&++++++++++++&&++++++....++.++++++&&&++++++++++++++++++++++++++++++++++++++&&&++++++++++++&&&+++++++++++++&&&+++++++&&&+++++++++++++&&&&+++&&&&++++++++&&&&++++..++++++..+++..++++++..+++....++++++++++..+++...+++++++&&&++++++++&&&&++++++&&&&++++++++++&&&&+++++++++&&&&+++++++++++++++++++++++&&&+++++++++++++&&++++++++++++++++..++++++..............+++++............................................+.....+++++&&++++..........+++++++++++++++++++++.++XX+++@@&*#@@@@#$$$$@@@@@@@@@@@@@@@@@@O@@OOOOXXXXXXXXXOXXXXXXXXXooo..oo.ooooXXXXXOO@@@@XXoooo...o..o......ooo  oo    ooooooXX@@@OOOOOXXXXXXXXXXXXXXXXX+XXXX+XXX+++XOO++OO+++@@@OO@@O@@@@@@@@@@@@@@@@@@@@@@$$$$*****====;;;;;;;;;-====*=====;;;-===;;;;;;;-=======;;;;;;;;;;;;;;;;======*$$$$$@@@@@@OOOOOOXXXXXXXXXXoooooo..oooo..                                    . ",
"@@++++++++++++++++++++++++++++++++++++XX++++XXXX.........                                 ..... . ..........ooo....XXXXXX+OO+++++@@@@@@@@@@+XXXXXXXXXXXXXX++O@@@+@+++++X+XXXXXXXXXXXXXX.X++++@@@++X.X.X++++@&&&&@@++++++++@@&&&&&@OXXX++@&&&&&&&#&@@@@@$&&$$$$@@++OO@@$$$@@+O@@@@@OOO+++O@@@@@@@@@@@@@$$@@@@@$***@@@@@OXXXXXX+XOXOO@@@OXXXXXXOO@@@@XXOO+O@@@@OXXXXXXXXXXXXXXX+XXXXXX+X+XXX++@@@@@@@OXX.XXXXX..++XX+++++++++X++++++&&&::&&&&&&:&&&:&&+++&&&&&&++++++++++++++&&&&+++++++++++++&&++++++++++++&+++++++.....+.+++++&&&&++++++++++++++++++++++++++++++++++++++&&&++++++++++++&&&+++++++++++++&&&++++++++&&+++++++++++++&&&&+++&&&+++++++++&&&&+++++++++++++++++++++++++++++++++++++++++++++++++++++++++++&&&++++++++&&&&++++++&&&&++++++++++&&&&++++++++++&&&++++++++++++&+++++++++&&&&+++++++++++++&&++++++++++++++++++++++++..............++++++++...........................++.............++++..+++&&&++++..........++++++++++++..++++....XX..+++@&&&&@@@#$***#@#@$$@@@@@@@@@@@@@@@@@OOOOOOOOXXOOOOOXXXXXXXoooooooooooXXXXXXOO@@@@XXoooo..oooooo..    .ooo....oooo..ooXX@@@@OOOOXXXXXXXXXXXXX+XXXXXXXXXXX+XXOO++++OO+++@@@OO@O@@@@@@@@@@@@@@@@@@@@@@$$$$$*****====;;;;;;;;;;===*======;;;====-;;;;;;;=======-;;;;;;;;;;;;;;;=====***$$$$@@@@@@OOOOXXXXXXXXXXXXXoooooo..ooo..o                                     ",
"@@@@@@@@@@@@+++++++++++@++++++++++++++XX+++X+XXXXXXX.....                         ..      .....   ...........o.o....XXXXX+OO++++++@@@@@@@@++XXXXXXXXXXXXXO+O@@@@++++++++OOOO+++XXXXXXXXXXX+++@@@++XX..X++++@@&&&@@++++++++@@&&&&@@+++X++@&&&*&&&&&@@@@@$&&$$$$@@XXXO@@#$$@@OO@@@OOOO+XX+O@@@@@@@@@@@@@$@@@@@@$$$*@@@@@OOXXXXXXXXXX@@@@OXXXXXXOO@@@@XOO++O@@@@OXXXXXXXX.XXXXXX+XXXXXX+++XXX++@@@@@@@O+X.XXXXX...+XX++++++++++++++++&&&::&&&&&&:&&&:&&+++&&&&&&++++++++++++++&&&&+++++++++++++&&++++++++++++&+++++++..+.++.+++++&&&&++++++++++++++++++++++++++&++++++&+&&&&&&+++++++++++++&&+++++++++++++&&&+++++++&&&+++++++++++++&&&&+++&&&++++++++++++++++++++++++++++++++++++++++++++++++++++++++++++++++++++++++&&&++++++++&&&&++++++&&&&++++++++++&&&&++++++++++&&&++++++++++&&&&&&&&&&&&&&&&+++++++++++++&&++++++..++++++++++++++++........++....+++++++...........................+++.............+++++.+++&&&++++..........++++++++++++.++++++...XX..+++@&**&@@@@$***####$$@@@@@@@@@@@@@@@@@@@@@@OOOOOOOOOXXXXXXXXoooooXoooooXXXXXOOO@@@@XXooo.....o.oo..oo.o..oo..o.oooo..ooXX@@@@OOOOXXXXXXXXXXXXXXX+XXXXXXX++XXXOO++O+OO++++@@O+OO@@@@@@@@@@@@@@@@@@@@@@$$$$$$***=====;;;;;;;;;-==========;;;====-;;;;;;;=======-;;;;;;;;;;;;;;;=====**$$$@$@@@@@@OOOOOXXXXXXXXXXXXXoooo.ooooo..o                                     ",
"@@@@@@&&@@@@@@@@@@@@&&@@@@@@@@@@@@@@@@@@++++@@@@+++++X...                         ..  ..  ......  ....  ....oo.......XXXXOOOO+XXX++++++++++XXXXXXXXXXXXXXOXO+@@OOOO+++@@@@@@+++++++++++++++++++++++X.X+++++@&&&&@@++++++++@@&#&&@@+++X++@&&&**&&&&@@@@&#&&*$$$@@+XOO@@@$$@@@@@@OOOOO+XX+O@@@@@@@@@@@@$$$@@@@@$*$*@@@@@OXXXXXXXXXXO@@@@OXXOXXXXO@@@@XOO+OO@@@@OXX.XXX.XXXXXXXXX+++XXXXXXXXXX+OO@@@@@X++....XX..X+X.X+XX++++++++++++&&&::&&&&&&:&&&:&&++++&&&&&+++++++++++++++&&&+++++++++++++&&++++++++++++&++++++++.++++.+++++&&&&+++++++++++&&&&&&&&&&&&&&&&&&&&&&&&&&&&&++++++++++++++&&+++++++++++++&&&++++++++&&+++++++++++++&&&&+++&&&&&++&&&&&+++++++++++++++++++++++++++++++++++++++++++++++++++++++++++++++&&&++++++++&&&&++++++&&&&+++++++++++&&&++++++++++&&&&+++++++++&&&&&::::&&&&&&&+++++++++++++&&+++++++++++++++++++++++++++++++++++++++++++++.....+++++.................++++..............++.++++&&&++++.......+..+++.+++++++++++++++...XXXXX++@&**$@@@@@@@@@@@@@@@@@@@@@@@@@@@@@@@@OOOOOOOOOOOXXXXXXXXXXoo.o...oooXooXXXOOO@@@@XXoooo...o......oooo..oooooooooo..ooXX@@@@OOOXXXXXXXXXXXXXXXXXXX+X++X+XX+XOOOOOOOOO+OOOO+O+@@@@@@@@@@@@@@@@@@@@@@$$$$$$****=====;;;;;;;;;;===***====;;;;-==;;;;;;;-=======-;;;;;;;;;;;;;;;=====**$$$@$$@@@@@OOOOXXXXXXXXXXXXXooooooooooo..                                      ",
"@@@@&&&&@@@&&@@@@@@@&&@@@@@@@@@@@@@@@@@@@@@@@@@@@@+++X....                       ......    ....   ....  .....o.oo....XXXXX++X+XXXXXXXXX+XXXXXXXXXXXXXXXXXXXXXXXXOXXX+++@@@@@+@@@@@@@@+++++++++@+++XXXX+++++@@&&@@@++++++++@@@&&@@@++++++@&&***&&&&@@@@##&$$$*$@@XXXO@@@#@@@@@@OOOOOO+XXO+@@@@@@@@@@@@@$@@@@@@$$$*@@@@@OXXXXXXOXXXO@@@@OXXOOXOOO@@@@XOO+OO@@@@OXX..XX.XXXXXXXX+++XXXXXXXXXXXXXO@@@@@+X+....XXXXXXXX++XX++++++++++++&&&&:&&&&&&:&&&:&&++++&&&&&+++++++++++++++&&&+++++++++++++&&++++++++++++&+++++++++++++.+++++&&&&++++++++++&&&&&&&&&&&&&&&&&&&&&&&&&&&&++++++++++++++++&&++++++++++++&&&&++++++++&&+++++++++++++&&&&+++&&&&&&&&&&&&&&&&&&+++++++++++++++++++++++++++++++++++++++++++++++++++++++++&&&++++++++&&&&++++++&&&&+++++++++++&&&++++++++++&&&&+++++++++&&&&&&&&&&&&&&&&+++++++++++++&&++++++++++++++++++++++++++++++++++++++++++++++++++++++++...+++..........++++.............+++.++++&&&++++.......+..+++..++++++.++++++++.+XXXX+++@&**$@@@@@@@@@@@@@@@@@@OOOOOOO@OOOOOOOOOXXXXXXXXXXXXXXXXXXoo.o.o.oooXXXXXXOOO@@@@OXXooo...ooo..o.ooooooooooooooooo.ooXX@@@@OOOXXXXXXXXXXXXXXXXXXX+XXX+++X+++OOOOOOOOOOOO@++@@@@@@@@@@@@@@@@@@@@@@@$$$$$$***======;;;;;;;;;;===****===;;;--==;;;;;;;;=======-;;;;;;;;;;;;;;;=====**$$$$$$$@@@@@OOXXXXXXXXXXXXXXooooooooooo.                                      .",
"&&&&&@@@&&&&&&@@@@@@@@@@&@@@&&&&@@&@@@@@&&@@@@@@&@@@++XX..                        ...     . .. ..... .....oo....oo.XXXXXX+++XXXXXXXXXXXXXXXXXXXXXXXXXXXXXXXXXXXXXXXX++OO++++@@@@@@@@@@++++++@@+++++XX.XX++++@&&@@@++++++++@&@@@@@++++X+@@#$***$&&&&@@@##$**&$$@@+XX+@@@#@@@@@@@@@@@+XXXXO@@@@@@@@@@@@@@@@@@@$***$@@@@@@OXXXXXOXXXO@@@@XXXOOOOOO@@@@XXXOOO@@@@OXX...XXXXXX++XXX++XXXXXXXXXXXX+@O@@@@OXXXX..++XXXXXXXXX+++++++++++++&&&&&&&&&&&:&&&:&&&+++&&&&&&++++++++++++++&&&+++++++++++++&&++++++++++++&&+++++.++++..++++++&&&&+++++++++&&&&++++++++++++++++++++++++++++++++++++++++&&&+++++++++++++&&&+++++++&&&+++++++++++++&&&&++++&&&&&&&&&&&&&&&+++++++++++++++++++++++++++++++++++++++++++++++++++++++++++&&&+++++++++&&&++++++&&&&+++++++++++&&&++++++++++&&&&+++++++++&&&&++++++++++&++++++++++++++&&++++++++++++++++++++++++++++++++++++++++++++++++++++++++.................+++..............+++++++&&&++++.......+..+++.++++++++++.+..+++.XX++++++&*#$@@@@O+OXOOOOOOOOOOOOXXXXXXXXXXXXXXXXXXXXXXXXXXXXooXX.oooooo.ooXXXXXXXOO@@@@@OXXXXX..oo..oooo.ooooooooooooooo..ooXX@@@@OOOOXXXXXXXXXXXX++++XXXXXX++XO++XOOO+O++++O++@@@@@OO@@@@@@@@@@@@@@@@@@@$$$$$$****=====;;;;;;;;;;===***====;;;;-==;;;;;;;;=======;;;;;;;;;;;;;;;;====***$$$$$$$@@@@@OOOXXXXXXXXXXXXXoooooooooooooo                                  ...",
"@@&&&@@@&&&&&&&&&&&&$@$$&@@@@&&&&&&&&&&&&&&&&&&&&&@@@++X...                               .. .  ..    ... .oo...ooXXXXXXXXXXXXXXXXXXXXXXXXXXXXXXXXXXXXXXXXXXXXXXXX+X++OO+++++OOO++@@@@++++++@@+@++XXX..X++++@&&&&@+++++++++@@@@@@+++XX+@@#&&**&&&&@@@@@#$**$&$@@XXX+@@@$$@@@@@@@@@@@XXXX+@@@@@@@@@@@@@@@@@@@@***$@@@@@@XXXXXXOXOXO@@@@XXXOOOOOO@@@@XXXX+O@@@@OXX..XXXXXXX+XXXXXXXXXXXXXXX+X+O@O@@@@XXX.X..++..XXXXXXXX++++++++++++&&&&&&&&&&&:&&&:&&&++&&&&&&&++++++++++++++&&&+++++++++++++&&++++++++++++&&++++++++++..++++++&&&&+++++++++&&&+++++++++++++++++++++++++++++++++++++++++&&&+++++++++++++&&&+++++++&&&+++++++++++++&&&+++++++++++++++++++++++++++++++++++++++++++++++++++++++++++++++++++++++++++++++&&&+++++++++&&&++++++&&&&+++++++++++&&&++++++++++&&&+++++++++&&&&++++++++++++++++++++++++++&&+++++++++++++++++++++++++++++++++++++++++++++++++.++++++.................++...............++++++++&&++++......++......++++++++++++..++++.++++++@&&$$@@OOOOOXOOOOOOOOOOOOXXXXXXXXXXXXXXXXXXXXXXXoXXooooooooooooooooXXXXXXOOO@@@@@OXXXXX..o...oooo..ooooooooooooooo.ooXX@@@@OOOOXXXXXXXXXXXX+XX+XXXXXXX+X+++XOOOOO+X+XO+@O@@@@O@@@@@@@@@@@@@@@@@@@@$$$$$*****=====;;;;;;;;;;===*=*====;;;;-==;;;;;;;;=======;;;;;;;;;;;;;;;=====***$$$$$$$@@@@@OOXXXXXXXXXXXXXXoooooooo...ooo       o                          ...",
"@@@&@@@@@@@@@@@&@@@@@@&&&&@@&&&&$$&&$&$$&&&&&&&&&&&&@@++.....                              .  . ..    ..  .........XXXXXXXXXXXXXXXX++O+X+XXXXXXXXXXXXXXXXXXXXXX+OOO+XOOO@+++OOOOXXXX++++X++++@@@+++.+..XX++@@@&&&+++++++++@@@&@@++XXXX+@@&#&**$&&&&@@@@#$$$$&$@@OXO@@#$**$$@@@@@@@@@OX+++@@@@@@@@@@@@@@@@@@@$***$@@@@@@XXXXXXXXXXXO@@@XXXOOXXOO@@@@XXXXOO@@@@OXXXXXXXXXXXXXXXXXXXXXXXXXXXXX+O@O@@@@XXXXXXXX...++XXXX++++++++++++++&&&&&&&&&&&:&&&:&&&&&&&&&&&&++++++++++++++&&&+++++++++++++&&++++++++++++&&++++++.+.+.+++++++&&&&+++++++++&&++++++++++++++++++++++++++++++++++++++++++&&&++++++++++++&&&&+++++++&&&+++++++++++++&&&&++++++++++++++++++++++++++++++++++++++++++++++++++++++++++++++++++++++++++++++&&&++++++++&&&&++++++&&&&+++++++++++&&&++++++++++&&&&++++++++&&&&+++++++++++++++++++++++++&&&++++++++++++++++++++++++++++++++++++++++++++++++...........................................++++++++&++++.......+..+.++++++++..++++..++....+++++@&&&&@@@OX++XXXXXXXXXXXXXXXXXXXXXXXXXXXXXXXXXXX.oXXX.oooo.o .ooXXoXXXXXXXOO@@@@@@OXXXXXoooo..oooo....oooo..oooooo..oXXO@@@@OOOOXXXXXXXXXXXXXXXXXXXXXXXXXXXXXO++OO++OO@@@@@@@OOO@@@@@@@@@@@@@@@@@@@@$$$$$*****====;;;;;;;;;====***====;;;;-==;;;;;;;;=======;;;;;;;;;;;;;;======***$$$$$@@@@@@OOOXXXXXXXXXXXXXXooooooooo  oooo                                 ...",
"@@@@@@@@@@@@@@@@@&@@&&&&&&@@@&&&&&&&&&$$&&&&&&&&&&&@@@++.....                          .        .. .   . ...........XXXX++XXXXXXXX++@@@++OXXXXXXXXXXXXXXXXXXXXOOOO+OOOO@@@@@@OOOXXXXXX+.XX++@@@@+X+...X++++@@@&&&+++++++++@@@@@@++XXXX++@&&&$$&&&&@@++@@@$$$$$$@@OO@@$***$$@@@@@$$@@OXX++@@@@@@@@@@@@$@@@@@@$***$@@@@@@XXXXXXXXXXXO@@@XXXOXOXOO@@@@XXXXOO@@@@OXXXXXXXXXXXXXXXXXXXXXXXXXXXXXXO@@@@@@X++XXXXX.....++X+++++++++++++++&&&&&&&&&&&:&&&:&&&+&&&&&&&&++++++++++++++&&&+++++++++++++&&++++++++++++&&++++++...+.+++++++&&&&+++++++++&&++++++++++++++++++++++++++++++++++++++++++&&&+++++++++++++&&&+++++++&&&++++++++++++&&&&+++++++++++++++++++++++++++++++++++++++++++++++++++++++++++++++++++++++++++++++&&&++++++++&&&&++++++&&&&+++++++++++&&&++++++++++&&&&++++++++&&&&+++++++++++++++++++++++++&&&++++++++++++++++++++++++++++++++++++++++++++++++...+......................................++++++++&&++++.......++..+.+++++++..++++..+.....+++++@&&&&@@++X+XXXXXXXXXXXXXXXXXXXXXXXXXXXXXXXXoo.o......oooo..  oXXXoXXXXXXXOO@@@@@@OXXXXXooooX.oooo....oooo..oooooo..ooXO@@@@OOOOXXXXXXXXXXXXXXXXXXXXXXXXXXXXOO+++O+XOO@@@@OOOOOO@@@@@@@@@@@@@@@@@@@@$$$$$$****====;;;;;;;;;====***====;;;;===;;;;;;;;=======;;;;;;;;;;;;;=======***$$$$$@@@@@@OOOXXXXXXXXXXXXXXoooooooooo ooo   oo                        ..   ...",
"@@@@@@@@@@@@@@@@@@@@@@@@@@@@@@@&&&&&&&&&&&$&&&&&&&&@@@++.....     .......... .......      .     ...................oXXXXXXXXXXXXX++@@@+++++XXXXXXXXXXXXXXXXXXXO@@OOO++O@@@@@@@@@++XXXXXX+++++@@+++X.XXXX+++@@#&&&@@+++++++@@@@@@++++.X+@@&#&*&&&&&@@@@@@@@@$&***$$@@$$$$$$$@@@$$$$$@@@++O@@@@@@@@@@@@$$$@@@@$$$$$@@@@@@+XXXXXXXXXX+@@@OXXXXXXOO@@@OOOOO+O@@#@OXXXX.X.XXX.XXXXXXXXXXXXXXXXX+O@@@@@@@XXX+.+XXXXXXXXX+++XX+++++++++++&&&&:&&&&&::&&&:&&++++&&&&&+++++++++++++++&&&+++++++++++++&&++++++++++++&&+++++...+++.+++++++&&&+++++++++&&&+++++++++++++++++++++++++++++++++++++++++&&&+++++++++++++&&&+++++++&&&+++++++++++++&&&+++++++++++++++++++++++++++++++++++++++++++++++++++++++++++++++++++++++++++++++&&&++++++++&&&&++++++&&&&+++++++++++&&&++++++++++&&&++++++++++&&&+++++++++++++++++++++++++&&&&&&&&&&&&&&&&++&&&&&&&&&&&&&&&&++&&&&++++++++++++++++++++++++++++............................++++&&&+++++........+++.+++++++.....++...+++++++++@&&#&@@++XXXXXXXXXXXXXXXXXXXXXXXXoooo...ooooo....... ....o   ooXXXXXXXOOOO@@@@@@@OXXXXXooooooo...oooo....oooo....o.ooXO@@@@@@OOXXXXXXXXXXXXXXXXXX+XXXXXOOOOXO++OO+OOOOOO+OOO@@@@@@@@@@@@@@@@@@@@@$$$$$$$$***=====;;;;;;;;;;===*****==;;;====;;;;;;;-=======;;;;;;;;;;;==========**$$$$$$@@@@@OOOOXXXXXXXXXXXXooooooooooooooo.                         ....     ..",
"@O@@@@@@@@+@@@@@@@@@@@@@@@@@@@@@&&&&&&&&&&$$&&&&&&&&@@++........... . ......   . ..        .            ....oo.o.....XXXXXX+XXXXX+@@@@@@@+++XXOO+XXXXXXX.XXXXXO@@O@@@+O@O@@@@@O++OO+O++X+++++@++++X.XXXX+++@@#&&&+@+++++++@@@@&@++++XX++@&#$***&&#&@@@@@@@@@$******$$$$$$$@@@@@@$$@@@@++@@@@@@@@@@@@@$$$$@@@$$$$$$@@@@O++XXXXXXXXXX@@@OXXXXXXOO@@@OOOOO+O@@@@OXXXX.X.XXXXXXXXXXXXXXXXXXXXX+O@@@@@@@XXX+...X+XXXX+++++X++++++++++++&&&&&&&&&&::&&&:&&++++&&&&&+++++++++++++++&&&+++++++++++++&&++++++++++++&++++++.+.+++++.++++&&&&+++++++++&&&+&&&&&&&&&&&&&&&&&&&&&&&&&&&&&&&&&&&&&&&&&&&+++++++++++++&&&+++++++&&&+++++++++++++&&&+++++++++++++++++++&++&&&&+&&&&&&&&&&&&&&&&&&&&&&&&&&&&&&&&&&&&&&&&&&&&&&&&+++&&&&++++++++&&&&++++++&&&&+++++++++++&&&++++++++++&&&&+++++++++&&&++++++++++++++++++++++++++&&&&&&&&&&&&&&&&&&&&&&&&&&&&&&&&&&&&&&&&&&&&&&&&&&&&&&&&+++++++++++++..........................++++&&&++++.......+.+++++..++++....+++++++++.+++++&&&#&@@++XXXXXXXXXXXXXooooooooooooooo..oo.ooooo              oXXXXXXXXOOOO@@@@@@@OXXXXXo..oo.....oooooo..oooo....ooooXO@@@@@@OOXXXXXXXXXXXXXX+XXXX+XXXXXOXOOO+OOOXOOOOOO+@@@@@@@@@@@@@@@@@@@@@@@@$$$$$$$$***=====;;;;;;;;;;===*****==;;;====;;;;;;;-=======;;;;;;;;;============**$$$@$#@@@@@OOXXXXXXXXXXXXXXXooooo.ooooo....                        ......    ..",
"XXXXXXX++X++++++@+O@@@@@@@@@@@@@@@@@@@@@@@@@@&&&&&&@@@@OXXXX..XX..XXXX....XXXX..........oo.......oooo............o..XXXXX+XXXXX++@@@@@@@@@+XXX++OXXXX.XX.XXXXXO@@@@@@+OO@@@@@@OO++OOOO+++++++@@@++XXXXX++++@@&&&&+++++++++@@#$$@@@++X+++@&&&*&*&$#$@@@@@&&$$&*****$$$$$$*$$$@@@@@@@@@@@@@@@@@@@@@@@@$$$$$$$$$***$$@@@@@OXXXXXXOOXX+@@@OXXXXXXXO@@@@OOOO+O@@@@OXXXXXXXXXXXXXXXXXXXXXXXXXXXX+OOO@@@@+XXX..XXXX.X++++++XX++XX++++++++&&&&:&&&&&::&&&:&&&&++&&&&&+++++++++++++++&&&+++++++++++++&&++++++++++++++++++....++++++++++&&&&+++++++++&&&+&&&&&&&&&&&&&&&&&&&&&&&&&&&&&&&&&&&&&&&&&&&+++++++++++++&&&+++++++&&&+++++++++++++&&&++++++++++++&&&&&&&&&&&&&&&&&&&&&&&&&&&&&&&&&&&&&&&&&&&&&&&&&&&&&&&&&&&&&&&&&&&&&&&+++++++&&&&++++++&&&&+++++++++++&&&++++++++++&&&&+++++++++&&&++++++++.+++++++++++++++++++&&&&&&&&&&&&&&&&&&&&&&&&&&&&&&&&&&&&&&&&&&&&&&&&&+++++++++++++++++........................++++++++&&++++......++..+++++++++++...+++++++++++++++&&&#&@@@O+XXXXXXXXXXXoooooooo.o....oo. o o o                 .XXXXXXXXOOOO@@@@@@@OXXXXXoXXXXXoX.o..oooo..oooo.oooooXXXO@@@@OOOXXXXXXXXXXXXXXXXXXXX+XXXXXOXOXX++OOOOOO@O@@@@@@@@@@@@@@@@@@@@@@@@@@@$$$$$$****=====;;;;;;;;;-===*****==;;;=-==;;;;;;;-=======-;;;;;-==%**=========**$$$@$$@@@@@OOXXXXXXXXXXXXXooooo....ooo                             ......    ..",
".XXXXXXXXXXX++XX+X+O+++++++@@+@@@@@@@@@@@@@@@&&&&&@@@@@O+XXXXXXXXXXXXX.X..XXXX......................o.......oooo.o.oXXXXX+XX+XX+++@@@@@@@O+XXOO+OXXXX....XXXXXO@@@@@O+OO@@@@@+OX++OOOO++@++++@@@++XX..X+++++@&&&&+++++++++@@$$$$@@++X+++@&&&&&&&$#@@@@@@&&$$$****$$@@$$**$$@@@@@@@@@@@@@@@@$$$@@@@@@@$$$$$$$$*****$$@@@@XX+++++OXX+@@@OOXXXXXXO@@@@OXOOO@@@@@OXXXXXXXXXXXXXXXXXXXXXXXXXXXX+OOOO@@@+X+X..XXXX..++++++X+++X+++++++++&&&&:&&&&&::&&&:&&&&++&&&&&+++++++++++++++&&&++++++++++++&&&++++++++++++++++++....+++++.++++&&&&+++++++++&&&+&&&&&&&&&&&&&&&&&&&&&&&&&&&&&&&&&&&&&&&&&&&+++++++++++++&&&+++++++&&&+++++++++++++&&&+++++++++&&&&&&&&&&&&&&&&&&&&&&&&&&&&&&&&&&&&&&&&&&&&&&&&&&&&&&&&&&&&&&&&&&&&&&&&&&++++++++&&&++++++&&&&+++++++++++&&&++++++++++&&&&+++++++++&&&+++++++++.+.++....++++++++++++++++++++++++++++++++++++++++++++++++++++++++++++++++++++++++++..........................++++++++&&++++.......+.+++.++++++++..++++++++++++++++&&&#&@@@+++XXXXXXXXXXXXXXooo...o...oooooo  oo                .XXXXXXXOOOOOO@@@@@@OXXXXXXX..XXoXoo..X.oX..ooooooooooXXXO@@@@OOOXXXXXXXXXXXXXX+XXXXX+XXXXXXOOXX++OOXOOOO+@@@@@@@@@@@@@@@@@@@@@@@@@@@$$$$$$****=====;;;;;;;;;-===****===;;;====;;;;;;;-=============%%****=========**$$$@$$@@@@OOOXXXXXXXXXXXXoooooooo.oo.                                  ..    ..",
"..XXXXXXXXXXXXXXXXXXXXXXXXXXXX++OO+++@@@@@@@@@@@@@@@@@@+++++++OO+OOO+++++OOO++++OOXX++XXXXXXXXXXXXXXXXXX.XX.X....XXXXXXXXXXXXXXX+++@@@@@OOXXXXO+XXXXX....XXXXO+@@@@@OOOO@@@@@+XXXXXXXXX+OX+@@@@@++XXXX+++++@@@@@@@++++++++@@#&*$@@+++++@@&&&&***&&&@@@@@##$$*****#@@@@@@@@@@@@@@@@@@@@@@@$$$$$$@$$$@@$$$@@@$$$$$*****#@@@OXX++OOOO@@@@@OXXXXXOO@@@@OXXOO@@@@@OXXXXXXX.XXXXXXXXXXXXXXXXXXXXXXO@O@@@+X+X.XX+XXXX++XX+++++X++++++++++&&&&&&&&&&::&&&:&&&&&&&&&&&+++++++++++++++&&&++++++++++++&&&+++++++++++++++++.++++...+++++++&&&++++++++++&&+++++++++++++++++++++++++++++++++++++++++++&&+++++++++++++&&&+++++++&&&++++++++++++&&&&++++++++&&&&&&&&&&&&&&++++&&&&&&&&&&&&&&&&&&&&&&&&&&&&&&&&&&+++++++++++++++++++&&&&++++++++&&&++++++&&&&+++++++++++&&&++++++++++&&&&+++++++++&&&++++++++++++....++++....+++++++++++++++++++++++++++++++++++++++++++++++++++++........................................+++++++++&+++++.......+..+++++++++++++++++++++++++++++&&&*&@@@++XXXXXXXXXXXXXXXXXo.oooo..oooooo                .....XXXXXXXOOOO@@@@@@@@OXXXXXXX..XXoooooooX....ooooooooooXXXO@@@@OOOOXXXXXXXXXXXX+X+XXXXXXXXXXX++++XXOO++OOOO@@OOO@@@@@@@@@@@@@@@@@@@@@@@$$$$$***======;;;;;;;;;====****===;;;=-==;;;;;;;-==========***$$****========***$@$@$$@@@@@OOOOXXXXXXXXXXoooooooooo.   o                                     ..",
"..XXXX...X...XXXXXXXXXXXXXXXXXX+XXX+++++++@@@@@@@@@@@@@+OO@@++@@+++@+++++@OO++++OOOO++++OO++++++XXXXXXXXXXXXXXXXXXXXXXXXXXXXXXXXXX++@@@@OOXXXXOOOOXXX....XXXXOO@@@@+O+OO+@@@@+XXXXXXXXXXXX+@+@@@++XXXX++X++@@&&@@@++++++++@@&&&&@@+++++@@&&&&*&$&&@@@@@@@$$$****$@@+O@@@@@@@@@@@@@@@@@@@@$$$$$@@@@@@@$$$$$$$$@@@@@$$$***#@@@+++XOO@@@@OOOXXXXOO@@@@XXXOOO@@@@OXXXXXXX..X.XXXXXXXXXXXXXXXXXXXO@O@@@@XXX.X.+XXXX++XX++++XX++++++++++&&&&&&&&&&::&&&:&&&&&&&&&&&&++++++++++++++&&&++++++++++++&&&++++++++++++++++++++.......++++++&&+++++++++&&&+++++++++++++++++++++++++++++++++++++++++++&&++++++++++++&&&++++++++&&&++++++++++++&&&&++++++++&&&&++++++++++++++++++++++++++++++++++++++++++++++++++++++++++++++++++++&&&++++++++&&&++++++&&&&+++++++++++&&&++++++++++&&&&+++++++++&&&++++++++++++.......+...+++++++++++++++++++++++++++++++++++++++++++++++++++...........................................+++++++++&+++++..........+++++.+++.++++++++++++++++++&&&&*$@@+++XXXXXXXXXXXXXXXXX.o.ooo..ooo.oo    o           .. .oXXXXXXXOOOO@@@@@@@@OXXXXXXXoXXXXXXooooo.oo.ooooooooooXXXO@#@@OOOXXXXXXXXXXXXXXX+XXXXXXXXX++++++O+OO++OOOO+@OOO@@@@@@@@@@@@@@@@@@@@@@@$$$$$****=====;;;;;;;;;===*****===;;;=-=-;;;;;;;-======*******$$*****======*=**$@$@$$@@@@@OOOOXXXXXXXXXooooooo.ooo..o o                                     ..",
"..XXoooooooooooo.o...o.o..XXXXX.XXXXXXXXXX++++OO++@++@+OO@@@@@@@@@@@@@@@@@@@@@@@@@@@@@@@@@@@@@@@@@@@@@@@@@@@++++OOOO+++++++++OO@+++@@@@@@OOXXX++++XXXXXoXXXXXX+@+@@+O++++@@@@+XXXXXX.XXXXX+++@@++++XX.X++++@&&&@@@@@++++++@@&&&&@@+++++@&$&&&***&&&@@@@@#$$$****#@++XXXXOO+++++@@@@@@@@@@@@@@@@@@@@@@@$$&$$$$$$$$@@@@$$$**$#@@@@OO@@@@@OX+XXXOO@@@OXXX++O@@@@OXXXXXXX..XXXXXXXXXXXXXXXXXXXXX+@@@@@@XXXXX.++XXXX+XX++++X+++++++++++&&&&&&&&&&&::&&:&&&&&&&&&&&&&+++++++++++++&&&++++++++++++&&&++++++++++++++++++++....++..+++++&&+++++++++&&&+++++++++++++++++++++++++++++++....+....+++&&++++++++++++&&&++++++++&&&++++++++++++&&&&++++++++&&&+++++++++++++++++++++++++++++++++++++++++++++++++++++++++++++++++++++&&&+++++++&&&&++++++&&&&+++++++++++&&&++++++++++&&&&+++++++++&&&+++++++.+.+++.....++.............+..+..............+.................................................................++++++++&&&+++++......+...++++.++++..++++++++++++++++&&&&*$@@++++XXXXXXXXXXXXXXXXX.ooooooooo...oooooo             .oXXXXXXXOOOO@@@@@@@@OXXXXXXXXXXXXXoXooooXXoooooo..ooo.XXXO@#@@@@OOXXXXXXXXXXXXXX+XXXXXXXXXOOOOXO+++++++OOOO+O+O@@@@@@@@@@@@@@@@@@@@@@$$$$$$$***=====;;;;;;;;;-==******==;;;;===;;;;;;;-===*******$$$$$****=======****$@$@$$@@@@@OOXXXXXXXXXXoXXooooooooooooooo                                    ..",
"XXXXXXXXX.o..oo......o......XXXXXX.XXXXXXXXXXXXOX++++OOOOO@@+@@@@@@@@@@@@@@@@@@@@@@@@@@@@@@@@@@@@@@@@@@@@@@@@@@@@@@@@@@@@@@@@@@@@@@@@@@@@@OO+++@@+XXXXXX.XXXXXX++@++OX++++@@@OXXX..X..X..X+++@@+++XXX.+++++@&&&@@@@@++++++@@&&&&@@+++++@@$&&&**&&&&@@@@@@$$$&***#@++XXXXXOX++O++O@@@@@@@@@@@@@@@@@@@@@@@@@$$******$$$@@@$$$$###@@@@@@@OO+XXXXOO@@@OXXXO+O@@@@OXXXXXX...XXXXXXXXXXXXXXXXXXXXXO@@@@@@XXXX..+++XX++XX++++++++++++++++&&&&&&&&&&:::&&:&&&&&&&&&&&&&&+++++++++++++&++++++++++++++&&++++++++++++++++++++....++..+++++&&+++++++++&&&++++++++++++++++++++++++++++++++.++++++++++&&++++.+++++++&&&&+++++++&&&++++++++++++&&&&+++++++&&&&+++++++++++++++++++++++++++++++++++++++++++++++++++++++++++++++++++++&&&+++++++&&&&++++++&&&&+++++++++++&&&++++++++++&&&&+++++++++&&&+++++++.+.+++............+++........+.+............+....+............................................................++++++++&&&++++++........++++..++++++++++++++++++++++&&&&*&@@++++XXXXXXXXXXXXXXXXXoooXooooooo..ooooooo            .oXXXXXXXOOOO@@@@@@@@OXXXXXXXXXXXXXoooooXXXoooooo.oooooXXXO@@@@@@OOXXXXXXXXXXXXXXXXXXXXXXXXXOOOOOX++++++OOO++++O@@@@@@@@@@@@@@@@@@@@@@@$$$$$$***=====;;;;;;;;;===******==;;;;-==;;;;;;;-===******$$$$$$*****=======***$@@@$$@@@@OOOXXXXXXXXXXXXXoooooooooooooo.                                    ..",
"XXXXXXXXo.oo..      ...............X....XXXXXXXXXXXXXX++++++OOOO@@O@@@@@@@@@@@@@@@@@@@@@@@@@@@@@@@@@@@@@@@@@@@@@@@@@@@@@@@@@@@@@@@@@@@@@@@@@O+++@@+XXX...XXXXXX+@@@+++++@++@@+XX........XX++@@@++++.XX+X++@@@&&@&@@++++++@@@@&&@@@+++++@@$&*****#&&@@@@@@#@$$***$@+XXXXXXXXXX+++++++O+O+++OOO+++XX++OOO@@@@@@@@@##****$$$$#$$$$##@@@@@OX+XXXOOO@@@OXXXX+O@@@@OXXXXXX...XXXXXXXXXXXXXXXXXXX++@@@@@@@XXX+XX++X..X+X+++++++++++++++++&&&&&&&&&&:::&&:&&&&+&&&&&&&&&++++++++++++&&&+++++++++++++&&++++++++++++&++++++++++++++++++++&&++++++++++&&+++++++++++++++++++++++++++++++....++++++++&&+++++++++++++&&&+++++++&&&+++++++++++++&&&+++++++&&&+++++++++++++++++++++++++++++++++++++++++++++++++++++++++++.++++++++++&&&++++++++&&&++++++&&&&+++++++++++&&&++++++++++&&&&+++++++++&&&++++++++++++++.+.+..........................+........................................................................+++.+++++&&&+++......++....++++++++++++++++++++&&&++&&&&&*&@@+++XXXXXXXXXXXXXXXXXoXXXXXooooooooooooo              .oXXXXXXXOOOO@O@@@@@@OXXXXXXXoooooXXX..oXoXoo..ooo.ooooXXOO@@@@@@OOXXXXXXXXXXXXXXXXXX+XXXO+++++++OOO+OO+@OOOO+@O@@@@@@@@@@@@@@@@@@@@@@$$$$$$$***=====;;;;;;;;;===******==;;;;;==-;;;;;;;===******$$$$$$*****======****$@$$$@@@@@OOOXXXXXXXXXXXoooo.o....oooo                                      ...",
"XXXXXXXXXooo..            ...............XXXXXXXXXXXXXXXXXXXXOOO+O+OOOOOO@@@@@@@@@@@@@@@@@@@@@@@@@@@@@@@@@@@@@@@@@@@@@@@@@@@@@@@@@@@@@##@@@@@@++@@+XXXXX.XXXXX++@@@+++++@@@@@+XX........XX+@@@@@+++XXX++++@@@@&&&@@++++++@@@@@@@@@+++++@@$&&&&**$@@@++@@@#&&&***$@+XXXXX++@+++XX++++O+OO+OO@@+++XXXXXXOX++@@@@@@@@$$***********$#@@@@@+X+XXXOOO@@@@XXXXXO@@@@OXXXXXX.XXXXXXXXXXXXXXXXXXXXX++@@@@@@@X+XXXX++X..++XX++XX++++++++++++&&&&&&&&&&&:&&&:&&&&+&&&&&&&&&++++++++++++&&&+++++++++++++&&++++++++++++&+++++..+++++++++++++&&++++++++++&&+++++++++++++++++++++++++..++++....++++++++&&+++++++++++++&&&+++++++&&&+++++++++++++&&&+++++++&&&++++++++++++++++++++++++++++++++++++++++++++++++++++++++++++++++++++++&&&++++++++&&&++++++&&&&+++++++++++&&&++++++++++&&&&+++++++++&&&++++++++++++++++++..............++.........++.......+.+..............................................................+++..++++&&&+++++..........++++++++++++++++++&&&&&&&&&&&&&&@@+++XXXXXXXXXXXXXXXXXXXXXXXXX....oooooooo             .oXXXXXXXOO@O@@@@@@@@OXXXXXXXXXooXXXXoooooXooXoooooooooXXXO@#@@@@OOXXXXXXXXXXXXXXXXXXXXXXO+++++++OXXOOOO++OOOO+O@@@@@@@@@@@@@@@@@@@@@@$$$$$$$***=====;;;;;;;;;===******===;;;;===;;;;;;;===******$$$$$$*****======****$@$@$@@@@@OOOXXXXXXXXXXXXooo.o...oooo.                                     ....",
"XXXXXXXXXX.o    .        .......oo........XX...XX.XXXXXXXXXXXXXXXXXX+XXXXXXX+++X++++++O@@@@@+@@@@@@@@@@@@@@@@@@@@@@@@@@@@@@@@@@@@@@@@&&#@$@@@O++@O+XXXXXXXXXXXO@@@@OO+++@@@+++XX........XX+++@@@++XXXX+++++@&&&&&@+++++++@@@&&@@@@+++++@@&*&&&**$@@@@+@@@#&$$***#@+XXXO+@@&&&&@@@@@@@+XX++O@@@@@@OO+XXXX++++++O+@@@@@$$$##$**####@@@@@++XXXXXOO@@@@XXXX+O@@@@OXXXXXXXXXXXXXXXXXXXXXXXXXXXXX+OO@@@@@X+X+X.+XX+XX+++++XX++++++++++++&&&&&&&&&&&:&&&:&&&&&&&&&&::&&+++++++++++++&&+++++++++++++&&++++++++++++&+++++....+++++++++++&&&+++++++++&&++++++++++++.+........+++++..++.+....++++++&&+++++++++++++&&++++++++&&&+++++++++++++&&&+++++++&&&++++++++++++++++++++++++++++++++++++++++++++++++++++++++++++++++++++++&&+++++++++&&&++++++&&&&+++++++++++&&&++++++++++&&&&+++++++++&&&++++++++++++++++.+............++.+......++++++++++..++++....++++..++++++++++++++++++.++.++...........................++..+++++&&++++............+++++++++++++++++&&&&&&&&&::&&*&@@+++OOOXXXXXXXXXXXXXXXXXXXXXXXXXX.ooooo....o.....      oXXXXXXXO@OOOO@@@@@@OXXXXXXXXXXXXXXXo.ooXXXX..oooooo.oXXXO@#@@@@OOXXXXXXXXXXXXXXXXXXXXXOOO++O+XXOOOOOO+O++OO@@@@@@@@@@@@@@@@@@@@@@@@@@$$$$$$***=====;;;;;;;;;==*******===-;;;==;;;;;;;;==******$$$$$$$****=======****$@$$$$@@@@OOXXXXXXXXXXXXXoo.oooooooooo                                      ...",
"XXXOOO+XXXX.o......   . ..ooo...o....XXX......................XXXXXXXXXXXXXXXXXXXXX+++OOOOOO++++@@@@@@@@@@@@@@@@@@@@@@@@@@@@@@@@@@@@@@&#$$#@@@+@@OXXXX.XXXXXXOO@@@@OOOO+@+@@++XX........XX+++@@@++XX..+X+++@&&&&&+++++++++@&&&@@@@++++++@&&&&&$$$@@@@+@@@@@@$***$@++XX++@@##****&&&&@+OX++@@@@@@@@@@@OO+++@+++OO@@@@@@@@@@@@@@@@@@O@@@+XXXXXOOO@@@@XOX+OO@@@@OXXXXXXXXXXXXXXXXXXXXXXXXXXXXXOOO@@@@@X+X+X..XXXXX+++++XX++++++++++++&&&&&&&&&&&:&&&:&&&&+&&&&&&:&&++++++++++++&&++++++++++++++&&++++++++++++&+++++.....++++++++++&&++++++++++&&++++..+.++++.++....++++....++++++++..+.++++&&+++++++++++++&&++++++++&&&+++++++++++++&&&+++++++&&&++++++++++++++++++++++++++++++++++++++++++++++++++++++++++++++++++++++&&+++++++++&&&++++++&&&&+++++++++++&&&++++++++++&&&&+++++++++&&&++++++++++++&&++++.+++++........++++...+++++++++++++++++++.++++++.+++++++++++++...++................................+++...++++++++.+.......++..++++++++++++++++++&&&&&&&&::::&&&@@@@@OOOOXXXXXXXXXXXXXXXXXXXXXXXXXXo........oo......   o.XXXXXXXO@OOOO@@@@@@OXXXXXXXXXXXXXXXooXXXXXXooooooooX.XXXO@@@@@@OOXXXXXXXXXXXXXXXXXXXXX+OOXOXXOXOOOOOO++++O@+@@@O@@O@@@@@@@@@@@@@@@@@@$$$$$****=====;;;;;;;;;=*****$***==;;;;==;;;;;;;;====*****$$$$$$****======*****$@$$$$@@@@OOXXXXXXXXXXXXXooooooooooooo                                    .....",
"XXOOOOOXXXXX..oo...... ooooo.......XXXXXXXX...............oo..............X.XXXXoXXXXXXXXXXXXXXXX+XXXXXO++OOO@@@@@@@@@@@@@@@@@@@@@@@@@@#$##@@@@@@@+XX.X..XXXXXO@@@@OOOOO+@@+@++XX...XX.X+++++&@@++XXXXXX++++&@&@@@@+++++++@@&&&@@++++++@&&&&&&&&&&&@@@@@@@$$&***@@+X+++@@@#*******#@++++++@@@@@@@@@@@@@@@@@O@@@@@@@$@@@@@@@@@OO@@OO@@@@OOXX+XXO@@@@+OO+OO@@@@OXXXXXXXXXXXXXXXXXXXXXXXXXXXXXXO@O@@@+OXXXX.XXXXXXX++++++X+++++++++++&&&&&&&&&&&:&&&:&&&&+&&&&&::&&+++++++++++++&++++++++++++++&&+++++++++++++++++.+.......+.+++++&&++++++++++&+++++..+++++++++++++++++++++++++++++..++++++&&+++++++++++++&&++++++++&&&+++++++++++++&&&+++++++&&&++++++++++++++++++++++++&&+++&&&+++++&&&&&&&&&++++++++++++++++++++++++&&&++++++++&&&++++++&&&&+++++++++++&&&++++++++++&&&&+++++++++&&&++++++++++++&&&+++++++....++....++++++++++++++++++++++++++++++++++++++++++++++++++++++++++++++........................+.++++++&+++++........+++++++++++++&&&&++++&&&&&&&:::::&#&@@+@@OOOOOOOOXXXXXXXXXXXXXXXXXXXXXXX..o.oo. ooo...  . .ooXXXXOXO@@@OO@@@@$@@OOXXXXXXXXXXXXXXoXXXXXXXooooooooX.XXXO@@@@@OOXXXXXXXXXXXXXXXXXXXXXXOXXXXX++OOOO+O+++++O@O@@@@@@@@@@@@@@@@@@@@@@@@$$$$$$$***=====;;;;;;;;;=*****$***===;====-;;;;;;-====****$$$$$$$****=======****$@@@$$@@@@OOXXXXXXXXXXooooooooooooo..                                     .  ..",
"XXOOOOOOXXXXX...oo.o.oo..o.X..XXXXXXXXXXXXX.....            .......................XXXXXXXXXXXXXXXXXXXXX++XXXO+++++++@@@@@@@@@@@@@@@@@@@@@#@@@+O@@+XXXXXXXXXX++@@@@@OO+O+@@@@++XX...X..X+++++&&@++XXXXXX+++@&@&@&@++++++++@@&&&@@@++X++@&&&&&&&&&&@@@@@@@$$$$***@@+X++++@&#&**&&**#@++X+++@@@@@@@@@@+@@@@@@@@@@@@@@@@@@@@@@+OOOOOOO+@@OOOXXXXXO@@@@OOOOOO@@@@OXXXXXXXXXXXXXXXXXXXXXXXXXXXXX+O+O@@@+XXXXX.XXXXXXXXXXX++++++++++++++&&&&&&&&&&&:&&&:&&&&+&&&&&::&&+++++++++++++&++++++++++++++&&++++++++++++++++++++......+.+++++&&++++++++++&+++++++++++++++++++++++++++++++++++++.++++++&&+++++++++++++&&++++++++&&&++++++++++++&&&&+++++++&&&+++++++++++++++&&&&&&&&&&&&&&&&&&&&&&&&&&&&&&&&&&&&&&&&&&&&&&+++++++++&&&++++++++&&&++++++&&&&+++++++++++&&&++++++++++&&&&+++++++++&&&++++++++++++&&++++++++...+++++++++++++++++++++&&&&&&&&&&&&&&+&&&&&&&&++&&&&&++&&&&&&&&&&+++++++.......................+.++++++&+++++........++++++++++++++&&&&+++&&&&&&&:::::&*&@@@@@@O@@OO+OOXXXXXXXXXXXXXXXXXXXXXXX.o.oo. ooo...   ..oXXOOOOOO@@@@@@@@@$@@OOXXXXXXXXXXXXXXooXXXXXXXXooooooX.XXXO@@@@@OOXXXXXXXXXXXXXXXXXXXXXXOOXXXXXXOOOOOOO++++@@OOO+OOO@@@@@@@@@@@@@@@@@@@$$$$$$***=====;;;;;;;;-=*****$***===;====-;;;;;;-=====**$$$$$$$$*****======****$@@@$$@@@@OOXXXXXXXXXXXooooooooooo...                                        ..",
"XXOOOOOOXXXXXXXXXXXXXXXXXXXXXXXXXXXXXXXXXX....                                    ............o........XX.XXXXXXXXXXXXXXXX+++++++O++@@@@@@@@@@@@@@@XXXXX.XXXX++@@@@@++++@@@@@+++X.....XX+++++@@+++XXXXX+++++@@@@@@@+++++++@@@@@@@+++O+@@&&$&**&&&&&@@@@&##$$****#@++++@@@#&&&&&&&&#&++X+XOO@@@@@+++OX+@@@@@@@@@@@@@@@@@@+O+++XXX+XX+@@@OOXXXX+O@@@@OXXOOO@@@@OXXXXXX...XXXXXXXXXXXXXXXXXXXX++@O@@@+OXX.++XXX+++XXX++++++++++++++++&&&&&&&&&&&:&&&:&&+++&&&&&&&&&&+++++++++++&&++++++++++++++&&++++++++++++++++++++.++.+++.+++++&&++++++++++&++++++++++++&&&&&&&&&&&&&&&&++++++.+++++++++&&+++++++++++++&&++++++++&&&++++++++++++&&&&++++++++&&+++++++++++++&&&&&&&&&&&&&&&&&&&&&&&&&&&&&&&&&&&&&&&&&&&&&&&&&++++++++&&&++++++++&&&+++++++&&&+++++++++++&&&++++++++++&&&&+++++++++&&&++++++++++++&+++++++++..++++++++....++++++++++&&&&&&&&&&&&&&&&&&&&&&&&&&&&&&&+&&&&&&&&&+++++++........................++++++++&+++++++....++..+++++++++++&&&&&&&&&&&&&&&&:::&&*&@@++@O@@++++OOOOXXXXXXXXXXXXXXXXXXXXXXXooo....oo    ..o.XO@@OOOO@@@@@@@@$$#@OOXXXXXXXXXXXXXXXXXXXXXXXXooXXXXXoXXXO@@@@OOOXXXXXXXXXXXXXXXXXXXXXXOX+X+++OOOO++OO++++OO@@@@@@@@@@@@@@@@@@@@@@@@$$$$$$$$***=====;;;;;;;;==***$*****==;;;====;;;;;;-====***$$$$$$$$*****======***$$@@@$#@@@OOOXXXXXXXXXXXooooooooooo..                                          .",
"XOOOOOOOXXXXXXXXXXXXXXXXXXXXXXXXXXXXXXXXXX..o.                               .     ...........................XXXXXXXXXXXXXXXXXXXX++++@@@@@@@@@@@@+XXXXXXXXXX++@@@@@++++@@@@@+++X.....XX++++@@@@++XXXXX++++@&@&@@@@+++++++@@@@@@++++OO@@&&$$*$$$&&@@@@@&##$$****@@++++++@@@@++++@@@@++XXXXO@@@@@@++O+@@@@@@@@@@@@@@@@@@@XXXXXXXXXXX+@@+XXXXXX+X@@@@OX++OO@@@@OXXXXXX..XX.XXXXXXXXXXXXXXXXXX++@@@@@+X+X.++XX+++++XX++++++++++++++++&&&&&&&&&&::&&&:&&+++&&&&&:&&&+++++++++++++&++++++++++++++&&+++++++++++++++++++++....++.+++++&&++++++++++&+++++++++++&&&&&&&&&&&&&&&&&&+++++.+..++++++&&+++++++++++++&&++++++++&&&+++++++++++++&&&++++++++&&+++++++++++++&&&+++++++++++++++++++++++++++++++++++&&++&&&&&&&&+++++++&&&++++++++&&&+++++++&&&+++++++++++&&&++++++++++&&&&+++++++++&&&++++++++++++&&++++.+...++++++++++...++++++++++++++++++++++++++++++++++++++++++++++++++++++++..............+++........+++.+++++&&+++++.....++.++++++++++++&&&&&&&&&&&&&&&&:::&&&&@@@@@O++++O+OOOXXXXXXXXXXXXXXXXXXXXXXXoooo....ooo   ...oXO@@@OO@@@@@@@@@$$#@OOXXXXXXXXXXXXXXXXXXXXXXXoooXXXXXoXXX@@@@@OOOXXXXXXX+X+XXXXXXXXXXXX+++++X+XXXO++O++++O@OOO@++@@@@@@@@@@@@@@@@@@@$$$$$$$$***=====;;;;;;;;=*$$*$**$***========;;;;;;-====***$$$$$$$$****=======***$$@@@$#@@@OOOXXXXXXXXXXXoooooooo.ooo..                                         .",
"XOOOOOOOOXXXXXXXXXXXXXXXXXXXX+OXXXXXXXXXXXX...                                          ................o....ooo....oooooo......XXXXXXO@@@OOOOO@@@++XXXXXXXXX+@@@@@+OOO+@@@@++++XX...+X+++++@@@+++++XXXX+++@&@&&&+@+++++++@@@@@@++++++@@&&&*$&&&&@@@@$$******&$$@@++++++++++++++++@@OXXXX+@@@@@@@@@@@@@@@@++O@@@@@@@@@@@OXXXXXXXXXX+@@@XXXXX+OO@@@@OXXXOO@@@@OXXXXXX...X.XXXXXXXXXXXXXXXXXXO@@@@@@@X+X++XXXXXX++X+XX++++++++++++++&&&&&&&&&&&::&&:&&&&+&&&&&&&&&++++++++++++&&++++++++++++++&&++++++++++++&+++++++..++++..+.+++&+++++++++++&+++++++++++++++++++++++++++&&&+++++....+++++&&+++++++++++++&&+++++++++&&+++++++++++++&&&+++++++&&&++++++++++++++&+++++++++++++++++++++++++++++++++++++++++++++&&&+++++++&&&++++++++&&&++++++&&&&+++++++++++&&&++++++++++&&&&+++++++++&&&+++++++++++&&&+++++++.+++++++++++.+++++++++++++++++++++++++++++.+++++++.++++...+.........................++++.......++++..+++&&&+++++......+.+++++++++++&&&&&&&&&&&&&&&&::::&&&&@@@@@@++OOO+OOOOXXXOXXXXXXXXXXXXXXXXXXXoooo.oo    o o ooXO@@OOOO@@@@@@@@$$@@OXXXXXXXXXXXXXXXXXXXXXoooooXoXXXooXXO@@@@@@OXOXXXXXXXXXXXXXXXXXXXXXXX+XXXXOOOXO+OO++++@@OOO++@@@@@@@@@@@@@@@@@@@@@$$$$$$****====;;;;;;;==*$$$$$$$$**==;====-;;;;;;;=====**$$$$$$$$****======****$$$@$$$@@@OOXXXXXXXXXXXooooooooo.oooo. .o                                     . ",
"OOOOOOOOOXXXXXXXXXXXXXOOXXX+OOOOXXXXXXXXXXX...                                    .     ......... ..................oooo.o..ooooXXXXXXXXOOOOXXO@@@++XXXXXXXXO+@@@@@+@+O@@@@@++++.XX.++++X++++@@@++XXXXXX+++@@@&&&@@+++++++@@@@@@@++X++@@&&&**$&&@@#$*==========*#@++++++++++++++++@@+XXXO+@@@@@@OOOO++@@@+XX+O@@@@@@@@@@XXXXXXXXXX+@@@@XXXXX+OO@@@@OXXXXO@@@@OXXXXXXX.XX.XXXXXXXXXXXXXXXXXXO@@@@@@@OXX.XXX++XXXX+XXX++++++++++++++&&&&&&&&&&&:&&&:&&&&+&&&&&&&&&++++++++++++&&++++++++++++++&&+++++++++++++++++....++++...+++++&+++++++++++&+++++...+++++++++++++++++++&&&++++++..++++++&&+++++++++++++&&+++++++++&&+++++++++++++&&&+++++++&&&++++++++++++++&+++++++++++++++++++++++++++++++++++++++++++++&&++++++++&&&++++++++&&&++++++&&&&+++++++++++&&&++++++++++&&&&+++++++++&&&+++++++++++&&&++++++..+.+++++++++.+++++++++++++++++++++++++++............................................++++.......++++.++++&&&+++.+......+++++++++++++&&&&&&&&&&&&&&&&::::&&&&#@@@@+++OOOOOOOOXXOOOOXXXXXXXXXXXXXXXXXoooo.ooo .   o ooX@@@@OOO@@@@@@@$$$@@OXXXXXXXXXXXXXXXXXXXXXooooXXooXXooXXO@@@@@@OXOXXXXXXXXXXXXXXXXXXXXXX++XOOOOOOO++OO++++@@OOOO@@@@@@@@@@@@@@@@@@@@@@$$$$$$****====;;;;;===**$$$$$$$$$*==;=====;;;;;;;=**=***$$$$$$$*****======****$$@@$$#@@@OOXXXXXXXXXXoooooo.oooooooo . oo                                  . . ",
"++OOOO++OXX+XX++XOOO+OOO++OOOOOOOOO+++XXXXX...                                   .    ..    ..  ..    ..........  .....o....oo.o...XXXXXXXXXX+OO@O++XXXXXXXXXO@@@@@@++++@@@@@+++XXX...++X+++@@&++++X++X+++@@@@&&&@@++++++@@@&&@@@@OO+@@@&&****#&&#*====:==;;:::=*#@@@@@@@&@@@@@+++@++++X@@@@@@@@@@@@@@@@@@++OO@@@@@@@@@@OXXXXXXXXO+@@@@OXXXXX+O@@@OXXXXXO@@@@OXXXXXXX.XX.XXXXXXXXXXXXXXXXXXO++@@@@+X+X.XXX++XX++++XX+X++++++++++++&&&&&&&&&&&:&&&:&&&&&&&&&&&&&&+++++++++++++&++++++++++++++&&+++++++++++++++++.......+...+++++&+++++++++++++++++++...+++++++++++++++++&&&++++++.+++++++&&+++++++++++++&&++++++++&&&+++++++++++++&&&+++++++&&&++++++++++++++&&++++++++++..++++..++++++++..++++..++++++++++&&++++++++&&+++++++++&&&+++++++&&&+++++++++++&&&++++++++++&&&&+++++++++&&&+++++++++++&&+++.+......++++++++...++++++++.++....+.......................................................+++.......+++++.+++&&&+++........+++++++++++++&&&&&&&&&&&&&&&&::::&&&&@@@@@+++OOOOO++OOXOOOOXXXXXXXXXXXXXXXXX.ooo.oo....  ..o.X@@@@OOO@@@@@@$$$$@@OOXXXXXXXXXXXXXXXXXXXXoXXXXXoooooXXXO@@@@@@OOOXXXXXXXXXXXXXXXXXXXXX++++O++OOOOOOOOOOOO@@O@@@@@@@@@@@@@@@@@@@@@@@@@$$$$$$***=====;;;;====**$$$$$$$$$*==;;====;;;;;;-====***$$$$$$$$****======****$$@@@$@@@@OOXOXXXXXXXXXoooooooooo.ooo.  o                                    ...",
"OOOOOO+++XX+XX++OOOOOOOO@@@@@@@OOOOOOOOXXXX...                                        ..    ..  ..    ..    ...  ..................XXXXXXXXXX+OO@O++XXXXXXXXXX+@@@@+++++@@@@@++++XX...++X+++@&@+++++++++++++@@&&&@@++++++@&&&&&@@@@@@@@@&&&&$$&&&#$*=========:===*#&###########@+++++X+X@@@@@@@@@@@@@@@@@@@@@@@@@@@@@@@@OXXXXXXXXOO@@@@OXXXXXOO@@@OXXXXXO@@@@OXX.XXXX.XX.XXXXXXXXXXXXXXXXXXO+@@@@@+X+X.XXX++X+++++XXXX++X+++++++++&&&&&&&&&&&:&&&:&&&&&&&&&&&&&&+++++++++++++&++++++++++++++&&++++++++++++++++++..........+++++&&++++++++++++++++.....++.++++.....++++++&&++++++.+++++++&&+++++++++++++&+++++++++&&&+++++++++++++&&&++++++++&&++++++++++++++&&++++....++..+.+...++++++++..+++...++++++++++&&++++++++&&+++++++++&&&+++++++&&&+++++++++++&&&++++++++++&&&&+++++++++&&&+++++++++++&&+++.+......++++++++....++++.+...............................................................++++..............++&&+++++.......++++++++++++&&&&&&&&&&&&&&&&&::::&&#&@@@@@++O+OOOOO+XOXXXXXXXXXXXXXXXXXXXXXXX.oo.ooo....oo.o.X@@@@@OO@@@@@@$$$$#@OOXXXXXXXXXXXXXXXXXXXXooXXXXoooooXXXO@@@@@@OXOXXXXXXXXXXXXXXXXXXXXX++++O++++OOOOOOOOOOO@OO@@@@@@@@@@@@@@@@@@@@@@@@$$$$$$***=====;;;=====**$$$$$$$$$*==;;====;;;;;;-=====**$$$$$$$$****======****$$@@@$@@@@OOXXXXXXXXXXoooooooooo..ooo   o                                    ...",
"OOOOOOOOOXOOXXOOOOOO+O++@@@@@@@@O+OO@O+XXXXX..                                               ..        ..         .... ...........XXXXXXXXXO+O@@@@OXXXXXXXXXXX++@@@++X+++@@@@++++XX..+++X+++@@@@++++++++XX++&@&&&@@@++++@@$*&&&$@@@+@@@@@@@@@@@+@@@&&&&&@&&&&&&&&#&&#######&&&#@@@@++++++@@@@@@@@@@@@@@@@@@@@@@@@@@@@@@@XXXXXXXXXO+@@@OXOXXXX+O@@@OXOXOOO@@@@XXXXX.XXXXX.XXXXXXXXXXXXXXXXXX+++@@@@@X+X.XXX++.++++++++XX+XX++++++++&&&&&&&&&&&:&&&&&&&&+&&&&&::&&+++++++++++++&++++++++++++++++++++++++++++++++.........+..+++++&+++++++++++&++++.+...+++..........+.++++&&++++++.+++++++&&++++..+++++++&+++++++++&&&+++++++++++++&&&++++++++&&++++++++++++++&&++......................................++++&&++++++++&&&++++++++&&&+++++++&&&+++++++++++&&&++++++++++&&&&+++++++++&&&++++++++++++&+++++....+++++++++....+++++++.............+++...............................................++++.............++++++++++++....+++++++++++++&&&&&&&&&&&&&&&&&::::&&&&@@@@@@OOOOOO+OOOOXXXXXXXXXXXXXXXXXXXXXXXXoooo.o.ooooo.o.X@@@@@O@@@@@@@$$$$#@@XXXXXXXXXXXXXXXXXXXXXooXXooXXoooXXXO@@@@@@OXOXXXXXXXXXXXXXXXXXXXXXX++++++OOOOOOOO@@OOOO@@@@@@@@@@@@@@@@@@@@@@@@@@$$$$$****=====;;;=====*$$$$$$$$$$*========;;;;;;-=====**$$$$$$$$****======****$$@@@$$@@@OOXXXXXXXXXXXXoooooooo..  o   o                               ..o..XXX",
"OOOOOOOO+XOOOOOOOO+OOOO+OO@@@@@@@@@@@@++XXXX..                                            ....  .     ... ......  ....  ..........XXXXXXXXXX+O@@@@+XXXXXXXXXXX++++++XOX++@@@@+++X....+.+X+++@@@@++++++X++++@&@&@&@@@++++@@#*&&&$&@@+@@@@&&@@@@@+@@@@@@@@@@@@@@@+++++@@@@@@@@+@+@++++X+XX+@@@@@@@@@@@@@@@@@@@@@@@@@@@@@@@OXXXXXXXXXO@@@OXXXXXX+O@@@OOOX+OO@@@@OXXXXXXXXXX.XXXXXXXXXXXXXXXXX+++OO@@@+X++.XXX++.X+X++++++++XX++++++++&&&&&&&&&&&::&&&&&&&+&&&&&::&&+++++++++++++&++++++++++++++++++++++++++++++++.........+..+++++&+++++++++++&++++++..+.++............++++&&++++++++++++++&&++++..+++++++&&+++++++++&&+++++++++++++&&&++++++++&&++++++++++++++&&++..................................++...+++&&++++++++&&&++++++++&&&+++++++&&&+++++++++++&&&++++++++++&&&++++++++++&&&+++++++++++&&&+++++.+.+++++++++....+++++++............++++...............................................++++.............++++++++++++....+++++++++++++&&&&&&&&&&&&&&&&&::::&&&&@@@@@@@O@OOO++OOOXXXXXXXXXXXXXXXXXXXXXXXX..o...oooo...oXX@@@@@@@@@@@@@$$$*#@OOXXXXXXXXXXXXXXXXXXXXoooXooXXXXooXXO@@@@@@OXOXXXXXXXXXXXXXXXXXXXXX++++XX+OOOO++OOO@OOOO+O@@@@@@@@@@@@@@@@@@@@@@@@$$$$$****=====;;;=====*$$$$$$$$$$**=======;;;;;;-=====**$$$$$$$$****======****$$@@$$$@@@OOXXXXXXXXXXXXooooooooo.  o                               ......XXXXXX",
"OOOOO+OOOOOOOOOOO+OOOOO++O+O@@@@@@@@@OOOOXXX..                                    .       ...  ..     ...... .   ....    . o.....XXXXXXXXXXXOO@@@@+XXXXXXXXXXXX+++++XXX++@@@@+++X.....X+X+++@@@@+++XXXXX+++@&&&@&@@+++++@@&&&&$$@@@@@@@&&&&&&&&&@@@@@@@@+@@@@@++++++++++++++++++++XXXXX+X+@@@O++@@@@@@@@@@@@@@@@@@@@@@@@OXXXXXXXXXO@@@+XXXXXXOO@@@@OOXX+O@@@@XXXXXXXX..XXXXXXXXXXXXXXXXXXXXOOOO@@@@X++XXXXX+XX+XXX++XX+++++++++++++&&&&&&&&&&::&&&&&&&+&&&&&::&&++++++++++++&&+++++++++++++++++++++++++++++++++......++++.+++++&++++++++++++++++.....+++..+.....+.++++++&&+++++++++++++++&+++++++++++++&&+++++++++&&+++++++++++++&&&+++++++&&&++++++++++++++&&++.......................................+++&&++++++++&&&++++++++&&&+++++++&&&+++++++++++&&&++++++++++&&&++++++++++&&&+++++++++++&&&++.++++.++++++++....+++++++++.........+++++++..............................................++++.....++++....++++++++.++++..+++++++++++++++&&&&&&&&&&&&&&&&::::&&&&@@@+@@@+++OOO+OO+XXXXXXXXXXXXXXXXXXXXXXXX.X...ooooo.o.oXX@@@@@@@@@@@@@$$$$@@OOXXXXXXXXXXXXXXXXXXXXooooooXXXXooXXO@@@@@@OXOXXXXXXXXXXXXXXXXXXXXXOOXXX+XOOO+++OO++++OO+OOOOO@@@@@@@@@@@@@@@@@@@@$$$$$$**======;;-====**$$$$$$$$$$**=======;;;;;;-=====**$$$$$$$*****======****$$@@@$$@@@OOXXXXXXXXXXXXoooo..oooo  o  o                           ..XXXXXOOO@@@",
"OOO@@OOOO+OO++OOO+OOOOO+X++++@@@OO@@@@@@OXXX..                                  ....      .. .  .     . ........ ...    ...oo.ooXXXXXXX++OOXXO@@@@+XXXXXXXXXXOOO++++XOXX++@@@+++X.....XXX++@@@&@+++X..XXX++@&&&@&@@+++++@&&&&&$$@@@@@@@&&&&**&&&&@++++++@@&&&&@@++++++++@@@@@+@++++@OXXXXXOOOO++OO+++++@O@@@@@@@@@@@@@@@XXXXXXXXXXX@@@+XOXXX+OO@@@@OXXXOO@@@@XXXXX.....XXXXXXXXXXXXXXXXXXXXOOO@@@@@X+XXXXXX+XX+XXXX+XX+++++++++++++&&&&&&&&&&:&&&&&&+&+&&&&&::&&+++++++++++++&+++++++++++++++++++++++++++++++++.++...++++.+.+++&++++++++++++++++.....+++..++++.+++++++++&&+++++++++++++++&+++++++++++++&&+++++++++&++++++++++++++&&&+++++++&&&++++++++++++++&&++......................................++++&&++++++++&&&++++++++&&&+++++++&&&+++++++++++&&&++++++++++&&&&+++++++++&&&++++++++++++&&++.++++.+++++++++...++++++++++.........+++++...............................................++++.....++++...+++++++++++++++++++++++++++++++&&&&&&&&&&&&&&&&::::&&&&@@@@@@++++OO++OOXXXXOOXXXXXXXXXXXXXXXXXXX....ooo....o.XXX@@@@OO@@@@@@@$$$$@@OOXXXXXXXXXXXXXXXXXXXXooooooXXXXoXXXO@@@@@@OXXXXXXXXXXXXXXXXXXXXXXXOXXXX+XOO++++OO++++++++OOOO@@@@@@@@@@@@@@@@@@@@@$$$$$**=====-;;;====**$$$$$$$$$$**=======;;;;;;-=====**$$$$$$$*****======****$$@@$$$@@@OOXXXXXXXXXoXXoooo.oooooo o                              oXXXXO@@@@@@@",
"OOO@O@@OO++++++OOOO+OXXXOOOOOOOOOO@@@@@@OO+XX..                                    ..        .....      ..............o...ooo...XXXXXX+XOOXXOOO@@@++XXXXXXX+OOO@@++XXX+@+@@@@+++.......X+++++@@@++XX.XXX++++&@&@&+++++++@&&$#$#@@@@@@@&&*******&&++++++@@@#####@@@++++@@#******#####@OOXOX+++@++OX++X++++XOOOO@@@@@@@@@@XXXXXXXXXXXO@@++OXXX+OO@@@@XXX++O@@@@OXXXX........XXXXXXXXXXXXXXXXXOOO@@@@+X++XXXXXXXX++XX+++XXXX++++++++++&&&&&&&&&&:&&&&&&&&+&&&&&&&&&++++++++++++&&++++++++++++++&&++++++++++++++++.++.......+++++++&&+++++++++++++++........+++.....++++++++&&+++++++.++++++&&++++++++++++++&+++++++++&&+++++++++++++&&&++++++++&&+++++++++++++&&&++.....................................+++++&&++++++++&&+++++++++&&&+++++++&&&+++++++++++&&&++++++++++&&&&+++++++++&&&+++++++++++&&&++++.+..++++++++.++.+.++++++............++++...............................................++++.......++....+++&&+++++++++++++++++++++++&&&&&&&&&&&&:&&&&&::::&&#&@@@@@@+++++O+OOOOOO+X++XXXXXXXXXXXXXXXXX.ooooo..oo.o..XXO@@@@O@@@@@@@@$$$$@@OOXXXXXXXXXXXXXXXXXXXXXoooXXoooo.oXXO@@@@@@OOXXXXXXXXXXXX++XXXX+XX++++XXXX+XOOO@O++++@@@@@@@OO@@@@@@@@@@@@@@@@@@@@$$$$$****====-;;;====**$$$$$$$$$$**======-;;;;;;;=====**$$$$$$$*****======****$@@@$$#@@@OOXXXXXXXXoooooooooooooo                            ooXXXXO@@@@@@@@@@$",
"@@@@OOO+O+++XXXO+OXXXXXXXXOOOOOOOOOO@@@@OOXXX..                                   ..         ..... .  ....................ooo....XXXXXX+O+OO+O@@@@++XXXXXXX+++O@@+++XXO++@&@@++++X....XX+++++@@@+++XXXX+++++&@@@&+++++++@&&$&#@@@@@@@@&*******&&@++++++@@@@&##@@@O+++++@####&&&&####@@OXOO@@@@@@++XXX++++XOOO@@@@@@@@@@@XXXXXXXXXXXO@@@+OXXX++O@@@@XXXXXO@@@@OXXXX....X.XXXXXXXXXXXXXXXXXXXOOO@@@@+X+XXXXX+XXX+++X+++XXX+++++++++++&&&&&&&&&&:&&&&&&&&+&&&&&&&&&+++++++++++++&++++++++++++++&+++++++++++++++++..........+++++++&+++++++++++&++++.+......+++++++...++++++&&++++++...+++++&&++++++++++++++&+++++++++&++++++++++++++&&&++++++++&&+++++++++++++&&&++......................................++++&&++++++++&&&++++++++&&&+++++++&&&+++++++++++&&&++++++++++&&&&+++++++++&&&+++++++++++&&&++++.+..++++++++.+..++++++++............++++...............................................++++.......++....+++&&+++++++++++++++++++++++&&&&&&&&&&&&:&&&&&::::&&:&@@@@@+++++OO++OOOOOOX+XXXXXXXXXXXXXXXXXX.o.ooooooo....XXO@@@@O@@@@@@@@$$$$@@OXXXXXXXXXXXXXXXXXXXXXXooXXXXoooooXXO@@@@@@OOXXXXXXXXXXXXXXXXXXXXXX+++XX+XXXOOO+OO++++@@O@OOO@@@@@@@@@@@@@@@@@@@@@$$$$$****====;;;-====**$$$$$$$$$$**=======;;;;;;;=====**$$$$$$$*****=======***$@@@$$#@@@OOXXXXXXXXoooooooooooooo                           ooo.XXO@@@@@$$$$$$$",
"O@@@@O+OOOXXXXXXXOXXXXXXXXXXXXOOO+OOOOOOO+XX..                                  ...   ....  .  ...........................oo.....XXXXX++@OXOO+@@@@@XXXXXXX++++++@@+O+XO++@&&@++++X.....XX+++@&&@+++XXX++++++@@&&@@@+++++@@&#&&@@@@@@@#&&&&&&***$@@+++@@@@@@@@#&&@++X+++@@@&@&&@@@@@@+++++@@###@@@@+++@@@OOOO@@@@@@@@@@@OXXXXXXXXXXO@@@+X+XXXXOO@@@@XXXXXO@@@@OXXXXXXXXXXXXXXXXXXXXXXXXXXXXXO+O@@@@OX+X.XXXXXXX++++++++XX+++++++++++&&&&&&&&&&:&&&&&&&&&&&&&&&&&&+++++++++++++&++++++++++++++&+++++++++++++++++.........+..+++++&+++++++++++++++++.......+++++++..+..++++&&++++++++.+++++&&++++++++++++++&+++++++++&++++++++++++++&&&++++++++&&++++++++++++++&&++......................................++++&&++++++++&&&++++++++&&&+++++++&&&+++++++++++&&&++++++++++&&&&+++++++++&&&++++++++++++&&++++..+.++++++++....++++&+++............++++...............................................++++......+++...++++&&&+++++++++++.++++++++++&&&&&&&&&&&&&&&&&&::::&&:&@@++@+++++@@OOOOXXXXXXXXXXXXXXXXXXXXXXXXXX..oooooo....XXO@@@@@@@@@@@@@$$$*@@OOXXXXXXXXXXXXXXXXXXXXXXooXXXXooooXXO@@@@@@OOXXXXXXXXXXXXXXXXO+XXXXX+OOO++XXOO+OOO+++++O+OOO@@@@@@@@@@@@@@@@@@@@@@$$$$$$$**====-;;-====*$$$$$$$$$$$**=======;;;;;;;=====**$$$$$$$*****=======***$@@$$$#@@@OOXXXXXXXXoooooooooooooo  o  o                     ooXXXO@@@@@@@@$@$@@",
"@@@@@OOOOOXXXXXXXOXXXXXXXXXXXXXXXXXOOOOOOXXXo.                                  ..   ......    .....................oo..oooo.....XXXXXO+@O+XO+@@@@+XXXXXXX++++OO+@@O+++++@&@&+++X.....XX++++@&&@+++X..++++++&&&&@+++++++@@&#&@@@@@@@@@#&&&&&*$$@@++++@@@@@@@@&@@@+XX+++@&###&&&&@@@@@++++@@#$$$@@@++@@@@OOO@@@@@@@@@@@@@XXXXXXXXXXO@@@+XOXXXXOO@@@@XXXXXO@@@@OXXXXXXXXXXXXXXXXXXXXXXXXXXXXXO++@@@@+X+XXXXXXXXX+++++++XXX+++++++++++&&&&&&&&&&:&&&&&&&&&&&&&&&&&&&++++++++++++&++++++++++++++&&++++++++++++++++.........+.++++++&++++++++++++++++..+....+++++++++.+..++++&&++++++++..++++&&++++++++++++++&+++++++++&++++++++++++++&&&++++++++&&++++++++++++++&&++......................................++++&&++++++++&&&++++++++&&&+++++++&&&+++++++++++&&&++++++++++&&&&+++++++++&&&++++++++++++&&++++..+.+++++++++...++++&+++............++++...............................................++++.....++++...++++&&++++++......+++++++++++&&&&&&&&&&&&&&&&&&::::&&:&@@+@@++++@OOOOOOXXXXOXXXXXXXXXXXXXXXXXXXX.oooooooo....XXO@@@@@@@@@@@@@$$*$@@OOXXXXXXXXXXXXXXXXXXXXXXooXXXXooooXXO@@@@@@OOXXXXXXXXXXXXXXX+XXXXXXX+OOX+++XXOX+O+O++++OOOOO@@@@@@@@@@@@@@@@@@@@@@$$$$$$$**====-;;;====*$$$$$$$$@@$$***=====;;;;;;;=====**$$$$$$$*****======****$@@$$$#@@@OOXXXXXXXXooooooooooo.oo  o  o                     ooXXXO@@@@@@@@$@@@@",
"@@@@@@OOOO++OXOOOXXXXXXXXXXXXXXXXXOXXOOOXXXX..                                          ....   ..............................oXXXXXXXOO@@+OO+@@@@@@+XXXXXXOO+OOO+@O++++O@@@@@@++X.....XX+++@@#&++++XXX+++++@@@&&@@+++++++@&&#@@@@@@@@@&&&&**&&&&@@++@@##&&$$$$&&@++XXX@@**======**&&@++++@@##$$@@@++@@@@@@++@@@@@@@@@@@OXXXXXXXXXX+@@@OXXXXXX+O@@@@XXXX+O@@@@XXXXXXXXXXXXXXXXXXXXXXXXXXXXXXX+OO@@@OX+XXXX+++XXX++X+++++++X+++++++++&&&&+&&&&&:&&&&&&&&&&&&&&:&&&&+++++++++++&&+++++++++++++++++++++++++++++++++.+......+..++++++++++++++++++++++.........+++++++.+.+++++&&&++++++++++++++&+++++++++++++&++++++++++&++++++++++++++&&&++++++++&&++++++++++++++&&++........................................++&&++++++++&&++++++++++&&+++++++&&&+++++++++++&&&++++++++++&&&&+++++++++&&&+++++++++++&&&++++....++++&&++++..++++&+++...........+++++.........+++...................................++++.....++++....+++&++++++........++++++++++&&&&&&&&&&&&&&&&&&::::&&:&@@@@@@+++XOOO+XOOO+XOXXXXXXXXXXXXXXXXXXXXXX...o.oo....XXO@@@@@@@@@@@@@@$**@@OOXXXXXXXXXXXXXXXXXXXXXXoooXXXXoooXXO@@#@@@OOOXXXXXXXXXXXXXXXXXXXXXXXO++XOOOX++XOO++++OOO@O@OO@@@@@@@@@@@@@@@@@@@@$$$$$$***====-;;;====*$$$$$$$$@@@$$***====;;;;;;;=====**$$$$$$$*****======****$$@$@$@@@@OOXXXXXXXoXXooooo.ooo ooooo                        ooXXXOO@@@@@@@@@@@@",
"@@@@@@OO@OOOOOOOOOOXXXXXXXXXXXXXXXXOXXXXXXXX..                                      ........  ................ooo............XXX.XXXXOO@@@++++@@@@@+XXXXXXXO+OOO@@O++++O+@@@@@++.......X++++@##++++XXX+++++@@@&@&&++++++@@&&#@@@@#@@@@@@&&&&&&&&@@+++@###&$$$$&&@+XXX+@@*=========&&@++++@@####@@@++@@@@@@+@@@@@@@@@@@@OXXXXXXXXXX+@@@OXXXXXX+O@@@OXXXX+O@@@@XXXXXXXXX...XXXXXXXXXXXXXXXXXX++OO@@@OX+XXX++X+XXX++++X++++XX+++++++++&&&&&&&&&&:&&&&&&&&&&&&&&:&&&+++++++++++&&&++++++++++++++++++++++.++++++++++.+.....++..++++++++++++++++++++++.........+++++++++.+++++&&&++++++++++++++&+++++++++++++&++++++++++&++++++++++++++&&&++++++++&&++++++++++++++&&++........................................++&&++++++++&&++++++++++&&+++++++&&&++++++++++++&&++++++++++&&&&+++++++++&&&+++++++++++&&&++++.++.++++&&+++++.++++&&++++....+.++.+++++.........+++..................................+++++.....++++....++++++++++........++++++++++&&&&&&&&&&&&&&&&&&::::&&&&@@@@@@+++XOO++XXOO++OOXXXXXXXXXXXXXXXXXXXXXX...oo...o.XXO@@@@@@@@@@@@@$@**@@OOXXXXXXXXXXXXXXXXXXXXXXooXXXXXooXXXO@@#@@@OOOXXXXXXXXXXXX+XXXX+XXXXX+++XXOOX+++OO++@@OO@@@@OO@@@@@@@@@@@@@@@@@@@@$$$$$$***====;;;;====*$$$$$$@@@@$$$$**====;;;;;;;======*$$$$$$$*****======****$$@$@$#@@@OOXXXXXXXoXXooooooooooooooo                         ooXXXXOOOO@@@@@@OO",
"O@@@@@OO@@@@OOO@@OOXXXXXXXXXXXXXXXXXXXXXXXX....                              ...   .....  .. ...............oo.........X...XXXXX.XXXX+@@@@++++@@@@++XXXXXXX+++O@@@+++++++@@@++++.X......XX++@#@@+++XX+++++@@@&&+&+@++++++@@@@@@@@#@@++++@@@&&&&&@@@@@@###&&&$$#&@++X+O@@&*===*****&&@+O+++@##&&@@@O+@@@@@@+@@@@@@@@@@@@OXXXXXXXXXX+@@@@+XXXXXOO@@@@OXXXXO@@@@XXXXXXXXX.....XXXXXXXXXXXXXXXX+OOO@@@+X+XXXXX++XX+++++XXX++X++++++++++&&&&&&&&&&:&&&&&&&+&&&&&&::&&+++++++++++&&&+++++++++++++++++++++..++++++++++.+++....+..+++++++++++++++++++++.........++++++++++++++++&&+++++++++++++++&+++++++++++++&++++++++++&&+++++++++++++&&&++++++++&&++++++++++++++&&++........................................++&&++++++++&&++++++++++&&+++++++&&&+++++++++++&&&++++++++++&&&&+++++++++&&&+++++++++++&&&++++++++++++&&++++++++++&&++++.++.+.++++++++.........++++..................................++++.......++....++++++++++.......+++++++++++&&&&&&&&&&&&:&&&&&::::&&&&@@@@@@@++OOO+++XOOXXXXXXXXXXXXXXXXXXXXXXX.XXo.oo.oooooXXO@@@@@@@@@@@@@$$$$@@OXXXXXXXXXXXXXXXXXXXXXXXXXXXXXXXooXXO@@@@@@OOOXXXXXXXXXXXXXXXXXXXXXXXOX+XXOOXXOOOOO+OOOO@@@@OOO@@@@@@@@@@@@@@@@@@@$$$$$****====;;;;====*$$$$@@@@$$$$$$**=====;;;;;;-====**$$$$$$$*****======****$$@$@$@@@@OOXXXXXXXXXoooooooooooo oo                            o.XXXXXXXXXXXXXX",
"OO@@@@@@@@@@@@@@@@O+XXXXXXXXXXXXXXXXXXXXXXX....                 . .       ....... ......  ...........ooo..........o.XXXXXXXXXXXX.XXXX+@@@@++O+@@@@++XXXXXXX++++O@+++++++++@+++X+........XX++@#@@++++X+++++@@@@&+&@@++++++++@@@@@@@@@@+++@@@@&&&@@@@+@@@@@@&&$#&@@O++++@@$$**&&@@&&&&@@OO+@@###&@@@++@@@@@@++@@@@@@@@@@@OXXXXXXXXXX+@@@@OXXXXXOO@@@@OXXXXO@@@@XXXXXXXXXX....XXXXXXXXXXXXXXXXOOO@@@@+X+XXXXXX+XX++++X++X++X++++++++++&&&&&&&&&&&&&&&&&++&&&&&&::&&+++++++++++&&++++++++++++++++++++++..++++++++++.+.++..++..+++++++++++++++++++++.........++++++.+++++++++&&+++++++++.+++++&+++++++++++++&++++++++++&++++++++++++++&&&++++++++&&++++++++++++++&&++.......................................+++&&++++++++&&+++++++++&&&+++++++&&&+++++++++++&&&++++++++++&&&&+++++++++&&&+++++++++++&&&++++++++++++&&+++++.++++&&+++++...++++++++++........++++...................................++++.............++++++++++........++++++++++&&&&&&&&&&&&&&&&&&::::&&&&@@@@@@@++OOO++++OOXXXXXXXXXXXXXXXXXXXXXXX...Xoooo.ooooXXO@@@@O@@@@@@@@$$$$@@OXXXXXXXXXXXXXXXXXXXXXXXXXXXXXXXooXXO@@@@@@OXOXXXXXXXXXX+XXXXXXXXXXXOO++XXXXXOOOOOO+OOOO+@@@OOO@@@@@@@@@@@@@@@@@@@$$$$$****====;;;;====*$$$$@@@@$$$$$$**=====;;;;;;-====**$$$$$$$*****======****$@@$@$@@@@OOXXXXXXXXXoooooooooooo o                             oo.ooXXXXXXXXXXX",
"OOO@@@@@@@@@@@@@@@@OXXXXXXXXXXXXXXXXXXXX........    ... ...    .      .......................................XXX...XXXXXXX.XXXXXXXXXX+@@@@@+++@@@@++XXXXXXXOOO+@@++++X++++@@+++XX........X+++@@@+++++XXX+++@@&&&@@@+++++++++@++O@@@@@@@@@@@&@@@@@@+++@@@@@@&@#@@@+XXX+@@&&$$$@@@@##@@+++O@@#&#$@@+++@@@@@@+@+@@@@@@@@@@OXXXXXXXXXXOO@@@+XXXXXOO@@@OXXXXXO@@@@XXXXX...XXXXXXXXXXXXXXXXXXXXXO@@O@@@@OXXX+X+XXX+++XXX+++++++X++++++++++&&&&&&&&&&&&&&&&&&+&&&&&&&&&++++++++++++&&++++++++++++++&+++++++++++++++++......+++++++++++&++++++++++++++..........++++++...+++++++&&&++++++++++++++&++++++++++++++&+++++++++&++++++++++++++&&&++++++++&&++++++++++++++&&++......................................+++++&++++++++&&+++++++++&&&++++++++&&++++++++++++&&++++++++++&&&++++++++++&&&+++++++++++&&&++++++++++++&+++++..++++&++++++++...+++++++++.......+++++..................+.+..++.........++++.............++++++++++......++++++++++++&&&&&&&&&&&&:&&&&&::::&&&&@@++@@O@@++OO+OOOXXXXXXXXXXXXXXXXXXXXXXX....XXX.oooooXXXO@@@@@@@@@@@@@@$$$@@OOXXXXXXXXXXXXXXXXXXXXXX....XXXXXoXXO@@@@@OOXXXXXXXXXXXXXXXXXXX+XXXXXXXXXXX+OOOOOOOO+OO@@@@@@@@@@@@@@@@@@@@@@@@@@@$$$$$$**=====;;;-====*$$$@$$$$$@$$$$**====;;;;;;;=====**$$$$$$$*****======****$$@$$$@@@@OOXXXXXXXXXooooooo..ooo   o oo                                        ",
"OOO@@@@@@@@@@@@@@@@OXXXXXXXXXXXXXXXXXXXX..o....... ........   .. .    ..........XX...........................XXXXXXXXXXXXXXXXXXXXXXXX+@@@@+O+@@@@@++XXXXXXX+++OO@@+++++++O@@++XX+........+X++++++++++X+++++@@&&@@@@+++++++++@+OO@@@@@@&&#&&&&@@@@+++++@@@@@@&@@@+XX++@@@&****&@@@##@@++++@@@&#$@@++++@@@OOO++@@@@@@@@@@OXXXXXXXXXOOO@@@+XXXXOOO@@@OXXXXXO@@@@OXXXXXXXXXXXXXX..XXXXXXXXXXXX++@O@@@@OXXX++XXXX++++XX++++++++X+++++++++&&&&&&&&&&&&&&&&&&&&&&&&&&&&++++++++++++&+++++++++++++++&&+++++++++++++++++....++++..++++++++++++++++++++++.........++++++....++++++&&&++++++..+++++++++++++++++++++&+++++++++&++++++++++++++&&&++++++++&&++++++++++++++&&+++.....................................+++++&++++++++&&++++++++++&&++++++++&&+++++++++++&&&++++++++++&&+++++++++++&&&+++++++++++&&&++++++++++++&&++++..++++&++++++++....++++++++.......+++++...............++++++++++++++.....++++....+++++++..+++++++++++++...+++++++++++++&&&&&&&&&&&::&&&&::::&&&&@@+@@@@@+++OXXXX+XXX+XXXXXXXXXXXXXXXXXXX..X.Xo..ooooXXXXO@@@@@@@@@@@@@@$$$@@OOXXXXXXXXXXXXXXXXXXXXXXXXXXXXXXXoXXO@@@@@OOXXXXXXXXXXXXXXXXXXXXXXXXXXXX+X++X+OOOOOO+OOOOO@OOOO@@@@@@@@@@@@@@@@@@@$$$$$$**=====;;;-====*$$$@$$$$@@$$$$**=====;;;;;;=====**$$$$$$$*****======****$$@$$$$@@@OOXXXXXXXXXoooooooo.o  oo   oo                                        ",
"OOO@@@@@@@@@@@@@@@@OOXXXXXXXXXXXXXXXXXXX..oo....................      .....XXXXXXXX.X.......................XXXXXXXXXXXXXXXXXXXXXXXXX+@@@@+++@@@@@++XXXXOO++@@@@@@+++O+XX+++++X..........XX..X++++++++X++++@&&@@&@@+++++++++@+@@@@@@@@&&**&&&&@@@+++++@@@@@@&&@@OX+++@@#&*===**&###@@+@@+@@&&#$@@O+++@@@OO++@@@@@@@@@@@O+XXXXXXXXXO@@@@+XXXXXXO@@@@XXXXXO@@@@OXXXXXXXXXX.XX...XXXXXXXXXXXXXO+O@@@@+X+++++XXX+++XXXX+XX++++++++++++++&+++&&&&&&&&&&&&&&&&&&&&&&&&++++++++++++&&++++++++++++++&+++++++++++++++++......++++++++++++++++++++++++++++.........++++++...++++++&&+++++++..+++++++++++++++++++++&++++++++++++++++++++++++&&&++++++++&&++++++++++++++&&++...................................+..++++&&++++++++&&++++++++++&&++++++++&&+++++++++++&&&++++++++++&&++++++++++++&&++++++++++++&&++++++++++++&&+++++.++++&++++++++.....+++++++........+++++++.+..+.........+++++++.++.......+++++....++++.+++++++++++++++....++++++++++++&&&&&&&&&&&&::&&&&::::&&&&@@++@@++++OO++O++O+O++XXOOXXXXXXXXXXXXXXXXX.XXo.......XXO@@@@@@@@@@@@@@$$$@@OOXXXXXXXXXXXXXXXXXXXXXXXXXXXXXXXoXXO@@@@@OOXXXXXXXXXXXXXXXX++XXXXOO+OOOOO++++++OOOO++OO+OOOOO@@@@@@@@@@@@@@@@@@@@$$$$$***=====;;;-====*$$$@$@@$@@@$@$**=====;;;;;;=====**$$$$$$$*****======****$$@$$$$@@@OOXXXXXXXXoooooooooo. o  o                                            ",
"OOOO@@@@@@@@@@@@@@@OOXXXXXXXXXXXXXXXXXXX...o.............................XXXXXXX++XXX.................oo...XXXXXXXXXXXXXXXXXXXXXXXXXX+@@@@@@@@@@@@@+XXXXXX++@@@@@@@+++XXXXXXXX..+.........XX++++++++XXX++++@@&&@++@++++++@@@@+++@@@@@@&&$$&&&&@@@@++++@@@@@&&&@@+++++@@@&&*****#&#@@@+++@@@&&#$@@O++@@@@@O+++@@@@@@@@@@OOOXXXXXO+O@@@@@@@++O+O@@@@@+XXX+O@@@@OOXXXXXXXXXXXX..X.XXXXXXXXXXXXOXOO@@@+X++++XXXX+++XXXXXXXXX++++++++++++&+++&&&&:&&&&&&&&&&&&&&&&&&&++++++++++++&&++++++++++++++++++++++++++++++++......+++..++++++&++++..+++++++++++........+++++++..++++++&&&++++++..+++++++++++++++++++++&+++++++++&++++++++++++++&&&++++++++&&++++++++++++++&&++...................................+..++++&&++++++++&&++++++++++&+++++++++&&+++++++++++&&+++++++++++&&++++++++++++&&++++++++++++&&+++++++++++++++++++.++++&+++++++......+++++++.........+++..................................++++............++++++++++++.....++++++&+++++&&&&&&&&&&&&::&&&&::::&&&&@@+@@@@+++OOOOOX+XXX+XXXOXXXXXXXXXXXXXXXXXXXX.o.....X.XXO@@@@@@@@@@@@@$$$$@@OOXXXXXXXXXXXXXXXXXXXXXXXXXXXXXXXoXXO@@@@@OOXXXXXXXXXXXXXXXXXXXXOOOX+OOOOOOO++++XXX+++OO+OOOO@@@@@@@@@@@@@@@@@@@@@$$$$$$**=====;;;-====*$$$$$$@@@@@@$$**=====;;;;;;;====**$$$$$$$*****======****$$@$$$@@@@OOXXXXXXXXoooooooooo. ooo o                                           ",
"OOO@@@@@@@@@@@@@@@@+OOXXXXXXXXXXXXXXXXXX.................................+++@++++++XXX...................XXXXXXXXX+++OOXXXXXXXXXXXXX++@@@@@@@@@@@@+++XXX+++@@@@@@@++++XXX+++XX.+X........X++++++++XX+XX+++@@@&@@++++++++@@@@@+++@@@@@@@&$&&&&&&@@@@+@@@@@@@&&&@@+++++@@@&&&$#&&#&&@@@@@@@@@@&$#@@@O@@@@@@@@@@@@@@@++@@@@@O+O+OOO@@@@@@@@@@@@@@@@@@@OOOOO@@@@@@OXXXXXXXX.XX..X..XXXXXXXXXXXX+X+O@@@+XXX++X+X+X+XXXXXXXXX+X+++++++++++&&&+&&&&:&&&:&&&++&&&&&&&&&&++++++++++++&&++++++++++++++&+++++++++++++++++.....+......+++++&++++++++++++++...........+++++++..++++++&&&++++..+...+++++++++++++++++++&+++++++++++++++++++++++++&&++++++++&&++++++++++++++&&++.......................................+++&&++++++++&&++++++++++&&++++++++&&+++++++++++&&&++++++++++&&+++++++++++&&&++++++++++++&&+++++++++++++++++++.++++++++++++......++++++...........+.........................++...+....+++.....++++++++++++++++++.....++++++++++++++&&&&&&&&&&&&::&&&&::::&&&&@@@@@@++OOOO+++O+OOO+XXXXXXXXXXXXXXXXXXXXXXX...oo...XoXXO@@@@@@@@@@@@@@$$$@@OOXXXXXXXXXXXXXXXXXXXXXXXXXXXXXXXXXXO@@@@@@OXXXXXXXXXXXXXXXXXXXXXXXX+XXXXX+OOX+++++++OOOOOOOO@@@@@@@@@@@@@@@@@@@@@$$$$$$****===;;;;====*$$$$@@@@@@@@$$**=====;;;;;;;====**$$$$$$$*****=======***$$@$$$$@@@OOXXXXXXXXooooooooooo oo      o                                       ",
"XXO+O@@@@@@@@@@@@+OOOOO+XXXXXXXXXXXXXXX..............................XX.X++@@@@@@@@++XXX.............XXX.XXXXXXX++++OO+O++++XXXXXXXO++@@@@@@@@@@@@@+++OO++@@@@@@@@@+++XXXXXXX.XXXXX.....XX++++++++XX++XX++@@@&@@++++++++@@@@@++@@@@@@@@&&&&&&&&@@@@@@@@@@@@@&&@@O++X+@@@@@@@@@@@@@@@&@@@@@@&#&$@@@@@@@@@@@+@@@@@@@OO@@@@OO+O++@@@@@@@@@@@@@@@@@@@@@@@@@@@@@@@@OXXXXXXXX.XXX.XXXXXXXXXXXXXXX+++@@@@+XXX+XXX++++XXXXXXXX++XX++++++++++&&&&&&&&:&&&:&&&++&&&&&&&&&&+++++++++++++&++++++++++++++&+++++++++++++++++...+++......+++++&++++++++++++++...........+++++++..++++++&&&++++.++++.++++&++++++++++++++&+++++++++++++++++++++++++&&++++++++&&++++++++++++++&&++++...........................+......+.++++&&++++++++&&+++++++++&&&++++++++&&++++++++++++&&++++++++++&&+++++++++++&&&++++++++++++&&+++++++++++++++++++.++++++++++++.....+++++++++.+....++++++++++...+++++++++..++++++++++++++.++++..+++++++++++++++++++++....++++&&&+++++++&&&&&&&&&&&&::&&&&::::&&&&@@@@++++@OOO++XX+XXXXXXXXXXXXXXXXXXXXXXXXX.oX..ooo..X.XXO@@@@@@@@@@@@@@$$@@@OOXXXXXXXXXXXXXXXXXXXXXXXXXXXXXXXXXXO@@@@@@OXXXXXXXXXXXXXXXXXXXXXXXX+XXXXX++OXXO++++++OO@@@@@@@@@@@@@@@@@@@@@@@@@@$$$$$$****===;;;;====*$$$$@@@@@@@@$$**=====;;;;;;;====**$$$$$$$*****=======***$$@$$$$@@@OOXXXXXXXXXoooooooooo oo     ooo                                      ",
"XX+O+@@@@@@@@@@@@+O+OO++XXXXXXXXXXXXXXXXXX.....X...X....XX...........X.XX++@@@@@@@+++XXXXXX....X..XXXXXXXX+++++O+++@@@@@@@+++XXXXXXX++@@@@@@@@@@@@@@OOO@@@@@@@@@@@@@@+XXXXXXXXXXXXX.....++++++@+++XX++++++@@@@&@&&+++++++@@@@++@@#@@@@@$&&&&&&&&@@@@@@@@@@@&@&@@@+XX++@@@@@@@@@@@@@@@@###&&$&&&&@@@@@@@@@@@@@@@@@@O+O@@@++XXXX+@@@@@@@@@@O++OO@@@@@@@@@@@@@@@@@OOXXXXXXXXXXXXXXXXX+XXXXXXXXOOO@@@@XXXX++XX++XXXXXXX+++++XXX+++++++++&&&&&&&&:&&&:&&&++&&&&&&&&&&++++++++++++++++++++++++++++&&++++++++++++++++++.+++..++++++++++++++++++++++++...........+++++++..++++++&&&++++++++++++++++++++++++++++&&&++++++&&&+++++++.++++++&&&++++++++&&++++++++++++++&&+++++....................+....++++....++++++&&++++++++&&++++++++++&&++++++++&&++++++++++++&&++++++++++&&+++++++++++&&&++++++++++++&&+++++++++++++++++++.+++++++++++++...++++++++++++++++++++++++++++++++++++.+.++++++++...+....++++..++++..++++.+++++++++++.++++++&&&+++++++&&&&&&&&&&&&::&&&&:::::&&&@@@@+++++O++OOOO+OOOXOXOXXXXXXXXXXXXXXXXXXX.XXXooo..X.XXO@@@@@@@@@@@@@$$$$@@OOXXXXXXXXXXXXXXXXXXXXXXXXXXXXXXXXXXO@@@@@@OXXXXXXXXXXXXXXX+XXXXXXX++XXOXXX+OOOOOO+++O+O@@@@@@@@@@@@@@@@@@@@@@@$$$$$$$$$****===;;;;====*$$$$$@$$@@@@$$**=====;;;;;;;====**$$$$$$$*****=======***$$@$$$$@@@OOXXXXXXXXXooooooooo  o o   ooo                                       ",
"XX+O+++@@@@@@@@O+OXXOOXOXXXXXXXXXXXXXXXX.X.....X..XXXX..XXX.X.......XXXXX++@@@@@@@@+++XXXXXX.XXXXXXXXXXX++++++++++@@@@@@@@@@+XXXXXX+++@@@@@@@@@@@@@@OO@@@@@@@@@@@@@@@+XXXXXX+.XX.XXX...X+++++@@+++XX++++++@@@&&@@++++++++@@@@++@@@@@@@@$&&&&&&&@@@@@@####&&&$&@@@+XX+++O@@@@@@@@@@@@##&&#@$$&&&&@&&#@##@@@@@@@@@@++XO@@O++XX+X++@@@@@@@@@O+XXOOO@@@$$$@@@@@@@@@@@OOXXXXXX+XXXXXXXXXXXXXXXXXOOO@@@@XXXX++XXX+XXXXXX++++++XXX+++++++++&&&&&&&&&&&&:&&&++&&&&&&&&&&++++++++++++++++++++++++++++&+++++++++++++++++++++++..+++++++++++++++++.++++++...........++++++++.+.++++&&&+++++++...+++++&&&&&&&&&&&&&&&&&&&&&&&&&+++++++.+++++++&&++++++++&&++++++++++++++&&++++..........................+++++...++++++&&++++++++&&++++++++++&&++++++++&&++++++++++++&&++++++++++&&+++++++++++&&&++++++++++++&&+++++++++++++++++++.+++++++++++++...+++++++++++++++++++++++++++....+++......++..............................++++++++++++++++++&&&+++++++&&&&&&&&&&&&::&&&&::::&&&&@@@@++++++++OOOXOOOXXXOXXXXXXXXXXXXXXXXXXXXXXXXXoo..o.XXO@@@@@@@@@@@@@$$$$@@OOXXXXXXXXXXXXXXXXXXXXXXXXXXXXXXXXXXO@@@@@@OXXXXXXXXXXXXXXXXXXXXXXX++XXXXX++XOOOOOOXX++OOOOOOOOO@@@@@@@@@@@@@@@$@$$$$$$$****===;;;;===**$$$$@@$$$@@@$$**=====;;;;;;;====**$$$$$$******=======***$$@$$$$@@@OOXXXXXXXXXoooooooo.  oo    ooo                                       ",
"XXX+++O+OOO+++OOXXXXXXXXXXX+++XXXXXXXX..............XXX.X.....XX..XXXXXX+O@@@@@@@@@@++XXXXXXXX++XX+++++OOOOO+++@+++@@@@@@@@@@+++XXX++@@@@@@@@@@@@@@@O+@@@@@@@@@@@@@@@@++++XXXXXX..+..XXX+++++++++++XX++X+++@@&&@@@++++++@@@@@@@@@#@@@@&&&&&&&&@@@@@@&*====**&&@@++XXXXXXXXX++XO@@@@@##$$$$$$$*$$$$$$$*#$$$$@@@@@@@+X+O@@OO+OOOO@@@@@@@@@OXXXXXXXOO@@@@@@@@$$$$$$@@@@@OOXXXXXXX.XXXXXXXXXXX++OO@@@@+XXX++XXXXX+++X++++++++++++++++++&&&++&&&&&&&&&&&+++&&&&&&&&&&++++++++++++++++++++++++++++&++++++++++++++++++++++++++++++++++++++++.+++++++++..........++++++++.++++++&&&+++.+++++..++++++++&&&&&&&&&&&&&&&&&&+++++++++++++++++&&&++++++++&&++++++++++++++&&++....................++..+....++.+...+++++++&++++++++&&++++++++++&&++++++++&&+++++++++++&&&++++++++++&&+++++++++++&&&&+++++++++++&&+++++++++++++++++++++++++++++++++++++++++++++++++++++++++++++++..++++++...+++++...........................++++++++++++..+.+++&&&++++++++&&&&&&&&&&&&::&&&&::::&&&&#@@@+@@@@O++OOOOOXXXOOXXXXXX+XXXXXXXXXXXXOOOXX.XXX..XXXXO@@@@@@@@@@@@@$$*$@@OOXXXXXXXXXXXXXXXXXXXXXXXXXXXXXXXXXXO@@$@@OOXXXXXXXXXXXXXXXXXXXXXXX+XXXX+O++XXOOOO+++OO@OOO@@@O@@@@@@@@@@@@@@@@@$$$$$$$****===-;;;;====*$$$@@@$$$$$$$$**=====;;;;;;;====**$$$$$$$*****======****$@@$$*$@@@OOXXXXXXXXXooooooooooo  oooo  o                                   ..oX",
"XXXXXX+++OXXXXXXXXXXXXXXXXXXXXXXXXXXX...X......X.XXX...XXX....X..XXXXXXXOO@@@@@@@@@@++XXXXXXXXX+XX++++@@O@@@++@@@@@@@@@@@@@@@+++XX+++@@@@@@@@@@@@@@@OO@@@@@@@@@@@@@@@@++++XXXX.X.+....++++++++++++++++X+++@@@&&&@@+++++++@@@@@@@@@@@+@@@&&&&@@@@@@@@#=======*&@@++XXXXXXXXXX+XXOO@@@@@@@@@@$$$@@@@$$@@@@$$@$#@@@@OXXXOOOO+++XOOO@@@@@@@@OXXXXXXXOO@@@@@@@@@@@@@@@@@@@@@@@OXXXX.XXXXXXXXXXX++OO@@@@+XX.XXXXXXX+X+X+++++++++XX+++++++&&+++&&&&&&&:&&&+++&&&&&&&&&&++++++++++++&&++++++++++++++&+++++++++++++++++++.++.+++.++++++++++++..+++++++++..........++++++++.++++++&&&+++.+++++..++++++++++++++++++++++++++++++++++++.++++++&&&++++++++&&++++++++++++++&&++..................++....+....+++++...++++++&++++++++&&++++++++++&&++++++++&&++++++++++++&&++++++++++&&+++++++++++&&&&++++++++++&&&&++++++++++++++++++++++&&++++++++++++++++++++++++++++++++++++++++++++++++++++++++.........................+++++&++++.+..+.+++&&&+++++++++&&&&&&&&&&&::&&&&::::&&&&@@@@+++OOO+++XXXXXXXOXXXXXXXXXXXXXXXXXXXX++XXXXXXX..XXXXO@@@@@@@@@@@@@$$**@@OOXXXXXXXXXXXXXXXXXXXXXXXXXXXXXXXXXXO@@$@@OOXXXXXXXXXXXXXXXXXXXXXXXXXXXXXX++OXXOOO++OOOOOO+@@@@@@@@@@@@@@@@@@@@@@@$$$$$****===;;;;;====*$$$@@@$$$$$$$$**=====;;;;;;;====**$$$$$$$*****======****$$@$$$$@@@OOXXXXXXXXXooooooooooo  ooo                                      o..XX",
"XXXXXXXXXXXXXXXXXXXXXXXXXXXXXXXXXXXXX...X......X.........XX.....XXXXXXXXO@@@@@@@@@@+++XX..XXX+XX++++++++++@@+@@@@@@@@@@@@@@@@@++OOOO@@@@@@@@@@@@@@@@@@@@@@@@@@@@@@@@@@++++++++.X+++..X++++++@@@+++++++++++@@@&&@&@@++++++@@&@@@@@#@@++@@@&@@@@@@@@@#*=======*&@+XXXXXXXXXXXXXXXXO@@@@@@@@@@@$$$@@@@@@@+@@@@@@@+@@O+X+O@OO+++OOO@@@@@@$@@+XXXXXXXOOO@@@@@@@@@@@@@@@@@$***#@@+XXXXX+XXXXXXXX++OO@@@@XX...XXXXX++XXXX++X+XX+XXXX+++++++&&++&&&&&&&:&&&&++&&&&&&&&&&++++++++++++&&++++++++++++++&++++++++++++++++++++++++++++++++++++++..++++++++++..........+++++++++++++++&&&+++.+++....++++++++++.+..++++.+++++..+++++++++..+++++++&&++++++++&&++++++++++++++&&++++++++..++++++..........+........++++++++++&++++++++&&++++++++++&&++++++++&&++++++++++++&&++++++++++&&++++++++++&&&&&&&&&&&&&&&&&&&&&&&&&&&&&&&&&&&&&&&&&&&&&&&&&&++++&&&&&&++++++&&++++&&&+++++&&&&&+++++++++++++++...........+............+++++&++++++..++++&&&&&+&+++++&&&&&&&&&&&&:::&&&::::&&&&@@@@++++OOO++++XXXX+OOOOXXXXXXXXXXXXXXXXXXXXXXXXXXXXXXXXO@@@@@@@@@@@@@$$**@@OOXXXXXXXXXXXXXXXXXXXXXXXXXXXXXXXXXXO@@@@@OOXXXXXXXXXXXXXXXXXXXXXXX++++XXX++OOOOOOO+OOOOOOOO@@@@@@@@@@@@@@@@@@@@@@$$$$$*****==;;;;;====*$$$@@@@$@@$$$$**=====;;;;;;;=====*$$$$$$$*****=====*****$@@$$$$@@@OOXXXXXXXXXooooooooooo  oooo                              ... oo.oXXXX",
"XXXXXXXXXXXXXXXXX.XX....XXXXXXXXXX......XX................X.....X.XXXXXXO@@@@@@@@@++++X.XXXXXX++XX++++++++++++@@@@@@@@@@@@@@@@@+@@O@@@@@@@@@@@@@@@@@+O@@@@@@@@@@@@@@@@+++++++++++++.XX++++++@@@+++++++++++@@@@@@@@@++++++@@@@@@@@&@@++@@@@@@@@@@@+@@#=======&&@+++XXXXXXXXXXXXXXOO@@@@@@@@$$**$$$$$@@++XXXXXXX++XXXXXOOOO+OXOOO@@@@@@$@@++XXXXXXOOO@@@@@@@@@@************@@OXXX+X+XXXXXXX+++OO@@@@XXX.XXXXXXX+XXXX++XXXX+XXX++++++++&&&&&&&&&&&&&&&&+&&&&&&&&&&&&&&&+++++++&&&&+++++++++++++&++++++++++++++++++++++++++++++++++&++++.++++++++++..........+++++++++++++++&&&+++.+++....++++++++++++++++++++++++++++++...++..+++++++&&++++++++&&++++++++++++++&&+++.++++..++++.............+....++..+++++++++&++++++++&&++++++++++&&++++++++&&++++++++++++&&++++++++++&&++++++++++&&&&&&&&&&&&&&&&&&&&&&&&&&&&&&&&&&&&&&&&&&&&&&&&&++++&&&&&&&+++++&&&&++&&&&+++++&&&&&&++++++++++++++..........++....+++++++++++++&++++++..++++&&&&&+&+++++&&&&&&&&&&&&&::&&&::::&&&&@@@@+++XOXX++++XXXXXX+XXXXXXXXXXXXXXXXXXXOOXOXXXXXXXXXXXO@@@@@@@@@@@@@$$*$@@OOXXXXXXXXXXXXXXXXXXXXXXXXXXXXXXXXXXO@@@@@OOXXXXXXXXXXXXXXXXXXXXXX+XXXXXXXXXXXX+OOO+OOOOOOOO@@@@@@@@@@@@@@@@@@@@@@$$$$$*****==-;;;;====*$$$$$@@$@@$$$$**=====;;;;;;;=====*$$$$$$$*****=====*****$@@$$$$@@OOOXXXXXXXXXooooooooooo  oooo                     ...  oooooo.ooXXXXXOO",
"XXXXXXXXXX...............XXXXXXXXXXX...X..................XXX...X.XXX+++@@@@@@@@@@O++++XXXX.XXXXXX++++X+++O@@@@@@@@@@@@@@@@@@@@O+@+@@@@@@@@@@@@@@@@@@@@@@@@@@@@@@@@@@++++++++X++XXXX+XXX++++@@@++++++++++@@@&&&@@@@++++@+@@&@@@@@@@@+@@@@@@@@@@+@@@@@&&#$***$@@@+++XXXXXXXXXXXXXXXXXXOOO@@@@@@@@@@@@@XX....XXX..XXXX++@@OOXX++O@@@@@$$$@+++XXXXXO@@@@@@@OOO@@@@*********@@@OXXXXXXXXXXXXXX+++OO@@@XXXX+XXXXXX+XXXX++++XXXXXX++++++++&&&&&&&&&&&&&&&&&&&&&&&&:&&&&&&&&&&&&&&&&&&&&&&&&&&&&&&&&&&&&&&&&&&&&&&&&&&&&&&&++++++++++&&&+++++++++++++...........+++++++++++++++&&+++++++...++++..+++...................++....+++.++++++++&&++++++++&&++++++++++++++&&++++++++++++++++++++++++++++++++++++++++++++++++++++++&&++++++++++&+++++++++&&++++++++++++&&++++++++++&&++++++++++++++++++++++++++++++++++++++++++++++++++++&&++++++++++++&++++++++++++++++++++++++++++++++++++++++++..........+++++++++++++++++++&&++++++..++++&&&&&&&++++++&&&&&&&&&&&&:&&&&::::&&&&@@++@@@++OOO+++++X+XXXXXXXXXXXXXXXXO@OOXXXXXXXXXXXXXXXXXO@@@OO@@@@@@@@$$*$@@OOXXXXXXXXXXXXXXXXXXXXXXXXXXXXXXXXXXO@@@@@OOXXXXXXXXXXXXXXXXXXXXXX+X+X++XOOOO+++OOOXO+@@@@@@OOO@@@@@@@@@@@@@@@@@@@$$$$$****===;;;;;====*$$$$$$$$@@$$$$**=====;;;;;;;====**$$$$$$$*****======****$$@@$$$@@@OOXXXXXXXooooooooooo  oooooo                    oo.ooooooo.XXXXXXXXXOO",
".XXXXXXX..........oo......XXXX..XX........................X.X...X.XXX+++@@@@@@@@@@OO+++X++X...XXXXXXX+XX++OO@@@@@@@@@@@@@@@@@@OO++O@@@@@@@@@@@@@@@@@@@@@@@@@@@@@@@@@OO+++++XXXX+XXXX+XXX++++@@@@+++++++++@@@&&&@@@@++++++@@@@@+@@@@@@@@@@@@@@@@@@@@@+@@@&&***$@@@+++XXXXXXXXXXXXXXXXXXXOXOOOOO@@@@@OOXXX...XXXXXXXXX++OOOOOXOOO@@@@@@@@@++XXXXXXO@OO@@@@@@OOOO@@@@$$$$**@@@@+XXXXXXXXXXXX+++++O@@@XXX+XXXXXXXXXXXX++++XX++++X+++++++&&&&&&&&&&&&&&&&&&&&&&&&&&&&&&&&&&&&&&&&&&&&&&&&&&&&&&&&&&&&&&&&&&&&&&&&&&&&&&&&&&&&&&&&&&&&++++++++++++++...........+++++++++..++++&&&++++++....+++.+++.............+++..++++....+++..+++++++&&++++++++&&++++++++++++++&&&&+&&&&&&+++++&&&&&&++++&&++++++++++++++++&&&&++++++++&&++++++++++&+++++++++&&++++++++++++&&++++++++++&&++++++++++++++++++++++++++++++++++++++++++++++++++++++++++++++++++++++++++++++++++++++++++++++++++++++++++.............+++++++++++++++++++&&++++++..++++&&&&&+++++++&&&&&&&&&&&&&&&&&&::::&&&&@+++@@O++XXX++XXXXXXXXXXXXXXXXXXXXO@@@OXXXXXoXXXXXXXXXXXO@@@OO@@@@@@@@$$*$@@OOXXXXXXXXXXXXXXXXXXXXXXXXXXXXXXXXXXO@@@@@OOXXXXXXXXXXXXXXXXXXXXXX+++XXXXOXXXX++O+OX+O@@@@@@OO@@@@@@@@@@@@@@@@@@@@$$$$$***====;;;;;====*$$$$$$$$@@$$$$**=====;;;;;;;====**$$$$$$$*****======****$$@$$$$@@OOOXXXXXXXooooooooooo  oooooo                    o.XXXXXXXXXXXXXXXXXXOO",
"XXXXXXX............o.............................................XXX+++@@@@@@@@@@@@O+++XXXXX..XXXXXXXX+++OO@@@@@@@@@@@@++@@@@@OO++@+@@@@@@@@@@@@@@@@@@@@@@@@@@+O@@@+O+XXX+X..XXXXX++++XX+++++@++++++++++O@@@&&@@@@@@+++++@@@@@@@@#@@@@&&&&#&$$&&&&&@@@@@&&&***##&@@@+@++++++@@@OXXXXXXXXXXXXXXXXXXX...o.........XXXXXO@@OOXXX+++@@@@@$@@OXXXXXXX@@@O@@@@@+XXXXX+OO@@@@@$#@@OXXXXXXXXXXXXXX++OOO@@@+XX+XX...XX+++XXX+++XX++++X++++++&&&&&&&&&&&&&&&++++&&&&&&&&&&++++&+&+&++++&&&&+++&&&&&+&&&&++&&&&&&&&&&&&&&&&&&&&&&&&&&&&&&&+++++++++++++++..........+++++++.+.+.++++&&&+++++++........++.+..+++++..+++++++++++..++++++.++++++&&&++++++++&&++++++++++++++&&&&&&&&&&&&&&&&&&&&&&&&&&&&&&&&&&&&&&&&&&&&&&&&+++++++++&++++++++++++++++++++&&++++++++++++&&++++++++++&&++++++.++++.+++.........++.............+++++++++++++++++++++++...+++++++++...++++.+.....+......+++.....................++++++++.+++++++++++&+++++++++++&&&&+++++++++++&&&&&&&&&&&&&&&&:::&&&&&@@++@@++++XX+++XXXXXXXXX++XXXXXXXXXOOOXXXXXXXXXXXX..XXXXO@@@OO@@@@@@@@$$*$@@OOXXXXXXXXXXXXXXXXXXXXXXXXXXXXXXXXXXO@@@@@OOXXXXXXXXXXXXXXXXXX++XXXXXX++OOO+++OO+OXXOOOO@@@@OO@@@@@@@@@@@@@@@@@@@@$$$$$***====;;;;;===**$$$$$$@$@$$$$$**=====;;;;;;;====**$$$$$$$****=======****$$@$$$$@@@OOXXXXXXXooooooooooo  ooooooo                  oo..XXXXXXooooXXXoXXXXO",
"XXXXXXX............o.............................o................XX+++@@@@@@$@@@@@@++X.XXXXXXXXXXXXXXXXXOO@@@@@@@@@@@@@O@@@@@+OO+++@@@@@@@@@@@@@@@@@@@@@@@@@@+++++++XXX+XX...XXX+.+++XX++++++++++++++++O+@@&&@@@@@++++++@@@@+@@@@@@@@@&&&&***&&&&*##&&&&&&$**&&&&###@@@@@@@@@@OXXXXX..X.XXXXXXXXX.........XXX....XXXOOOOXXXXXO+@@@@@@@@OXXXXXXOO@OO@@@@OOXXXXXXOO@@@@@@@@@OXXXXXXXXXXXXXX+OOO@@@@+X++XX....X+++XXXX++++++++X++++++&&&&&&&&&&&&&++++++&&&&&&&&&+++++++++++++++++++++++++++++++++++++++++++++++++++++++++++++++++++++.+++++++++..........+++++++.+...++++&&&++++++.........++++..+++++++++++++..++++.+++++..++++++&&&++++++++&&++++++++++++++&&&+&++&&&&&&&++&&&&&+&&&&&&&&&&&&&&&&&&&&&&&&&&+++++++++&++++++++++&+++++++++&&++++++++++++&&++++++++++&&++++++....++.+..........+.....++++++...+++++++.++++++++++.+++++...++++++++............+.................................+++......++....+++++++++++.++++&&+++++++++++++&&&&&&&&+++&&&&&:::&&&&&@+++@+++++XXOXXXXXXXXX++++OOXXXXXXXXXXXXXXXXoXXXXX..XXXX@@@@OO@@@@@@@@$$$$@@OOXXXXXXXXXXXXXXXXXXXXXXXXXXXXXXXXXXO@@@@@OOXXXXXXXXXXXXXXXXXXXXXXXXXXXXXXXXXXXXOOXOOOOOOO@OOOO@@@@@@@@@@@@@@@@@@@$$$$$***====;;;;;====*$$$$$$@@@@$$$$**=====;;;;;;;=====*$$$$$$******======****$$@$$$$@@@OOXXXXXXXooooooooooo o ooooo  o                 oooooooooooooo.o.oXXXO",
".+X.XXX........................................................XXXX+++@@@@@$$$&&@@@@+++++++XXX++XXXXXXXX++@@@@@@@@@@@@OO@O@@@@OO++++@@@@@@@@@@@@@@@@@@@@@@@@@@++++OOOXXXXXXX+.....+X+X++++++@@++++++++++++@@@@@@@@++++++@@@@@@@@@&@@@@&&&&***&&&****#&&#&&&&&&&&&##@&&@@@@&###@@+XXX...oooo..........o....oo......XXX+O@OXXXXXX+@@@@@$@@OXXXXXXO@@@OO@@@@OXXXXX+XOO@@@@@@@@OXXXX+XXXXXXXXX++OO@@@@XXXXXXXXXX.XXXXX+XX+++XXX+++++++++&&&&&::&&&&+++++&&&&&&&&&&&+++++++++++++++++++++++++++++++++++++++++++++++++++++++++++++++++++++++++++...............++++++++.++++++&&+++++.+++.....++.+..++++.+++.+.+++++++++..++++...++++++&&+++++++++&&++++++++++++++&&++++++++++++++++++++++++++++++++++++++++++++++++++++++&&++++++++++&+++++++++&&++++++++++++&+++++++++++&&++++++++.+......................................++++.....+..........++................................................................+.++++++++..+++++&+++++++++++++&&&&&&&&&++++&&&&&::&&&&&@@@@@@++++++X++++XXXXXXXXXXXXXXXXXXXXXXXXXXooooXX..XXXXXO@@@@O@@@@@@@@$$$$@@OOXXXXXXXXXXXXXXXXXXXXXXXXXXXXXXXXXXO@@@@@OOXXXXXXXXXXXXXXXXXXXXXXXXXXXXOOOXXOOOOOOOOO+O@@@@@@@@@@@@@@@@@@@@@@@@@@$$$$$$**====;;;;;====*$$$$@@@@@@@$$$**=====;;;;;;;=====*$$$$$$$*****======****$@@$$$$@@OOOXXXXXXXXoooooooooooo        oo                     o..oo     ooXXXXX",
".++.XXX...................................................XXXXXXXX++O@@@@@$$$$&#@@@@++++X+XXXXXXXXXXXX+X+@@@@@@@@@@@@@OOOO@@@@+O+++@@@@@@@@@@@@@@@@@@@@@@@@@@+++++OOOX+XXXXXX.....++++XX++++@@+++++++X++++@@@@@@@++++++++@@@@@+@@@@@@@@&&&$$#&&&&&&&&&#&$$&&&&&&##@@@@@@@@#@@@@@+XXX....oo...............o........XXX+O@OXXXX+XX@@@@@@@@OXXXXXXO@@@@@@@@OXXXXXXXXXOO@@@@@@@OXXXX+XXXXXXXXX+OXO@@@@+XXXXXXXXX....X++XXXX+XXX+X+++++++&&&&&&&&&&&++++&&&&&&&&&&&++++++++++++++++++++++++++++++++++++++++++++++++++++++++++++++++++.+.......................++++++++.++++++&&&++++.+++......+.+..++++.+++++.++++++++++.++++.+.++++++&&++++++++++&++++++++++++++&&++++++++++++++++++++++++++++++++++++++++++++++++++++++&&++++++++++&+++++++++&&++++++++++++&++++++++++++&+++++++...++..................++.....+.+.......+.+........................................+++.........................................+.++++++++..+++++&++++++++++++++&&&&&&&&++++&&&&&::&&&&&@+@@++++++XXXX+++XXXXXXXXXXXXXXXXXXXXXXXXoooXooXoooXXXXXO@@@@O@@@@@@@@$$*$@@OOXXXXXXXXXXXXXXXXXXXXXXXXXXXXXXXXXXO@@@@@OOXXXXXXXXXXXXXXXXXXXXXXXXXXXXOXOOXOOOOO+O+O@@O@OOO@@@@@@@@@@@@@@@@@@@@@$$$$$$**====;;;;;===**$$$$@@@@@@$$$$**=====;;;;;;;=====*$$$$$$$*****======****$@@$$$$@@OOOXXXXXXXooooooooooooo                                           ooooo",
"..+.XXX.............   .........oo........................XX.XXXX+++O@@@&&$$$$$&@@@@+XXX.XXXXXXXXXXXXXXX+@@@@@@@@@@OOO+@O+@@@@++O@@@@@@@@@@@@@@@@@@@@@@@@@@@@OOX++OO++++XXXX++....++XXXX++++@@@+++++XXX++@@@&&&@@@+++++++@@@@++@@#@@@@@@@@@@@@@@@@@@@@@@@@@@@@@@@@@@@+@@@@@@@@@@+XXX.oooo.....oo....o..X.oo...o..XXXXOO@+XXXXXXX@@@@@@@@OXXXXXXO@@@@@@@@OOOXOO@@@@@@@@@@@@@@XXXXXXXXXXXXXX++XO@@@@XXX..X..X.XXXXXXXXXX+++XX+X++++++&&&&&&&&&&&&&&&&&&&&&&&&&&&++++++++++++++++++++++++++++++++++++++++++++++++++++++..++++...............................++++++++.++++++&&&+++++........++++++++++++++++++++++++++++..++++...++++&&++++++++++&++++++++++++++&+++...+....++++........+.+.++++...+++.+++++++....++++++&&++++++++++&+++++++++&&++++++++++++&&+++++++++++&++++......+++...++..................++++.+....++..+...+++.........+.+.......................+.............+.......................++..+.++++++++..++++++++++++++++++&&++&&&&&&++&&&&&&&&&&&&&&@+@+@++++++O++XXXXXXXXXXXXXXXXXXXXXXXXXXXXooXXXXXoXXXXXXO@@@@O@@@@@@@@$***#@OXXXXXXXXXXXXXXXXXXXXXXXXXXXXXXXXXXXO@@@@@OOXXXXXXXXXXXXXXXXXXXXXXXXXX++XXXX+OOO++O++XOOOOOOO@@@@@@@@@@@@@@@@@@@$$$$$$$****==-;;;;;====*$$$$@@$$@$$$$$**=====;;;;;;;=====*$$$$$$$*****======****$@@$$$$@@OOOXXXXXXXXooooooooooo oo                                              ",
".++.................   ..........o..........................XXXXX+++O@@@@$$$***#@@@@+XXXX..XXXXXXXXXXXXX+@@@@@@@@@@O+O++++@@@@++O@@@@@@@@@@@@@@@@@@@@@@@@@@@@O+X++OO+++X.X.X.++X..X+.XXX+++@@@@+++++XXX++@@@&&@@@@+++++++@@@@++@@&@@@@@@@@@@+++++++@+++++++++++@@@OX+++X++OO+@@@+XX.o.oo.o.....o.....ooooo...oo..XXXXOOO+XXXXXXXO@@@@@@@+XXXXXXO@@@OOOOOO+O@@@@@@@@@@@@@@@@@XXXXXXXXXXXXX++++O@@@@XXX.XXXXXXXXXXXXXXXX+++XX++++++++&&&&&&&&&&&&&&&&&&&&&&&&&&&++++++++++.+++++++++++++++....++++++++++++........++++.....................................++++++++.++++++&&&+++++........++++++++++&&&&&&&&&&&&&+++++++++++...+++++&+++++++++&&++++++++++++++&+++.........................+++..........+.......++.+++&&++++++++++&&++++++++&&++++++++++++&&++++.+++++&&++++......+.....++..........++++....++++.........+.....+++........................................................................++....++++++++..++++++++++++++++&&&&&&&&&&&&&&&&&&&&&&&&&&&&#++++++++XXXXXXXXXXXXXXXXXXXXXXXXXXXXXXXXXooXo.....XXXXXO@@@OO@@@@@@@@$$*$@@OXXXXXXXXXXXXXXXXXXXXXXXXXXXXXXXXXXXO@@@@@OOXXXXXXXXXXXXXXXXXXXX+XXXXX+OXX+++O++OO++XOO@@OO@O@@@@@@@@@@@@@@@@@@$$$$$$$$****==-;;;;;====*$$$$@$$$$$$$$$**=====;;;;;;;=====*$$$$$$$*****======****$$@$$$$@@OOOXXXXXXXXoooooooooooooo   o                                          ",
"++XX......................................................XXXX..X+++@@@@@$$$$*$$@@@OXXXXXXXX.XXXXXXXXXXXO@@@@@@@@@@OXX+++O+@+@@OO+O@@@@@@@@@@@@@@@@@@@@@@@@@@O+O+++++XXX.X..XX.X..XX.++++++++@+++++++X+++@@@&&&@@@@++++++@@@@@@@###@@@@@@@@@@O++++@@@@@+X+XXXX+@@@++++XX++++@@@@@XX.o   ...  ..ooo....o.....o...XXXXX++++XXXXXX+O@@@@@@@OXXXXXXOO@OXXOOXOOO@@@@@@@@$$$$$@@@@XXXXXXXXXXXXXX+++X@@@@+XXXXXXXX...XXXXXXX+X+++++X++++++&&&&::&&&&&&&&&&&&&&&&&&&&&++++++++++++++++..++++++++..++++.+..+++++++++....++++......................................+++++.++.++++++&&&+++.++.....++++++&&&&++&&&&&&&&&&&&++++++++++++++.++++&&+++++++++&&++++++++++++++&&++++..............+..............................+.+++++++++++++++++++++++++&&++++++++++++&&++++.+++++&&++.+..+..................+.+++......+.....++.....................................................................................+++....+++&++++++++++++++++++++++&::::&&&&&&&&&&&&&&&&&&&&&&&&@++@++++++++++XXXXXX+XXXXXXXXXXXXXXXXXXXXXXX.oooXXXXXXXO@@@OO@@@@@@@@$***@@OOXXXXXXXXXXXXXXXXXXXXXXXXXXXXXXXXXXO@@@@@OOXXXXXXXXXXXXXXXXXXXXOXXXXOOOX+++X+++++OOOOOOO@@OOO@@@@@@@@@@@@@@@@@@$$$$$$$***===-;;;;-====*$$$$@@$$$$$$$***=====;;;;;;;=====*$$$$$$*****========***$@@$$$$@@OOOXXXXXXXooooooooooooooo    oo                                        ",
"+++X......................................................XXXXX+X+X+@@@@@$$$$$$$@@@OXXXXXXXX.X.XXXXXXXXXO@@@@$$@@@@OXX++XX+++@OO++OO@@@@@@@@@@@@@@@@@@@@###@@@O++@@@++XX..........XX..++++++++++++++++++++@@&&@@@@@+++++++@@@@@@@#@@+++@@@@@@O++++@@##@+X++X++@@@@@+++XX+++@@@@@@OX.o oo..  ...ooo.o..  ....ooo..XXXX++@+XXXXXX+@@@@@@@@OXXXXXXOOO+XXOOOOOOOO@@@@@$$$**$@@@@XXXXXXXXXXXXXXX++X@@@@OXXXXXXXXX..XXXXXXXX++++++X++++++&&&::::&&&&&&&&&&&&&&&&&&&&++++++++++++++++..++++++++..++.+......++..+++.....+++......................................++++++++.++++++&&++++.+++....+++++&&+++++++++++++++++++++++++++++++.++++&&+++++++++&&++++++++++++++&&++..........................++++.+................++++++++++++++++++++++++++&&++++++++++++&+++++.+++++&&++++..++.+...+.........+++++++......++++++++++++++++++++....................................................................++...+++....+++&++++.+++++++++.+++++++&:::&&&&&&&&&&&&&&&&&&&&+++&@++++++++X+++XXXXXXXX+OXXX++O+O++XXXXXXXXXXXXXXXXXXXXXXOO@@@OO@@@@@@@@$*$$@@OOXXXXXXXXXXXXXXXXXXXXXXXXXXXXXXXXXXO@@@@@OOXXXXXXXXXXXXXXXXXXXXOXOXOOXXOO+++++OOOOO++@OO@OOOO@@@@@@@@@@@@@@@@@@@$$$$$$**====-;;;;-===**$$$$@@$$$$$$$***=====;;;;;;;====**$$$$$$*****=======****$@@$$$$@@OOOXXXXXXXooooooooooooooo    oo                                        ",
"++++................................................X......X.XX+XX+++@@@@$$$$$$@@@+O+X+XXX.X.XXXXXXXXXX+O@@@$$*$$@@OXXX+XX++++OX++++@@@@@@@@@@@@@@@@@@@@@#@@@@+++@@@OXXXX.......++.X.X++++++@@+++++++++++@@@@@@@@@@@++++@@@@@@@@@#@@+++@@#@@+++++@@&##@@OXXX@@@##@@+XXXX+@@@@@@@@OXXoooo ....ooooo...o.   ..o.ooXXXXXX@@+XXXXXXX@@@@@@@@OXXXXXXOOO+XOO@@OOOOO@@@@@$$$****@@@+X+XXXXXXXXXXX++OO@@@@+XXXXXXXXX..XXXXX+XXXXX+++X+++++++&&&::::&&&&&&&&&&&&&&&&&&&++++++++++++++...............+......................+.....................................++++++++++++++++&&++++..+++...++++&&++++++..+++++++++.+++++&+++++.++.++++&&+++++++++&&+++++++++++++++++++................+.....+........................+++++&++++++++++++++++++++&&++++++++++++&++++++++++++&++++++++++..++++......+++++++++++++++++++++++++++++++++++++++++.++...+.+..........+...................++++........+++.............++...++++&++++++++++++++.+++++++&&::&&&&&&&&&&&&&&&&&&&&+++++++++++++X+++++XXXXX++@+O++@@@@@@++XXXXXXXXXXXXXXXXXXXXXO@@@OO@@@@@@@$**$*@@OOOXXXXXXXXXXXXXXXXXXXXXXXXXXXXXXXXXO@@@@@OOXXXXXXXXXXXXXXXXXXXXOO++++OOOOOOOO++@OOO+@@@OOOO@@OO@@@@@@@@@@@@@@@@@@$$$$$***===;;;;;-====*$$$$@@$$$$$$$**======;;;;;;;====**$$$$$$***=**======****$@@$$$$@@OOOXXXXXXoooooooooooo  ooo    o                                        ",
"+++++++++...........................................X.....XX.X++XXX++@@@&$$$**$@@@+++X++XXX+XXXXXXXXXXX+@@@@$****$@OXXXXXXXX++XXXX+++@@@@@@@@@@@@@@@@@@@@@@@@+++++@@OXXXX...X...++.XX.++++++@@@+++++++++++@@@@@@@@@@@@&@&&&&@@@@@@@@@++@@#@@+++++@@@##@@+++O@@###@@+XXXX+@@#$$$@@OXX.oo oo....oooo.o..  ......ooXXXXXX@@+XXXXXXXO@@@@@@@OXXXXXXOOOOXO@@@@O@OO@@@@@$$$****@@@+XXXXXXXXXXXXXOOX+@@@@+XXXXXXXXXXXXXXXX+XXXXX+X+X+++++++&&&&&&&&&&&&&&&&&&&&&&&&&&++++++.....................................................................................+++++..+.++++++&&++++..+++...++++&&++++++..+++...++...++++&+++++.....+++&&+++++++++&&++++++++++++++++++..............................+................+++++++++++++++++++++++++++&&++++++++++++&++++++++++++&++++++++++++++++++++++++++.++++++++++++++++++++++++++++++++++++.++++++....++++.+++.+...................+..++.....................+++...++++&++++++++++++++.+++++++&&&&&&&&&&&&&&&&&&&&&&&&#++++++++++++++++++XXXXX+@@@+X++++@++XXXXXXXXXXXXXXXXXXXXXXXO@@@OO@@@@@@@@$*$$@@OOOXXXXXXXXXXXXXXXXXXXXXXXXXXXXXXXXXO@@@@@OOXXXXXXXXXXXXXXXXXXXXOO+++@++OOOOOO++OOOO+@@O@+@@@@@@@@@@@@@@@@@@@@@$@@$$$$$***===;;;;;-===**$$$$@@$$$$$$$**======;;;;;;;====**$$$$$$***=**======****$@@$$$$@@OOOXXXXXXooooooooooooo oo    oo                                        ",
"+++++++++++++.........................++................+++.XX++XXO+@@@@$$$**$$@@@++XXXXXXXXXXXXXXXXXXXX@@@@******@@+O+XXX+++++XXXX+O@@@@@@@@@@@@@@@@@@@@@OOXOXX++@@@+XXX.....++++..XXX+++++@@@+++++X++++@@@&&&@@@@&&&$****#@@@@@@@@++O@@#@@++++++@&#$@@++@@@&&$$@@OXXXX@@$$$$$@@OXX......o.  .o...ooo..  .o.....XXXX+@@+XXXXXXXO@@@@@@@@OO+XXO+OOOXX@@@OO@@@@@@@@@$***$*$@@OXXXXXXXXXXXXOO@+O@@@@XXXXXXXXXXXX..XXX+++++XX++++++++++&&&&&&&&&&&&&&&&&&&++++&&+++++++++++.............................................................................+..+++++++++.++++++&&&++++++++...++++&&+++++.++........+++++++&++++++.++++++&&+++++++++&&+++++++++++++++++++.............................................+++++++&++++++++++++++++++++&&++++++++++++&&++++++++++&&++++++++++++++++++++++++++++++++++++&&&&&&&&&&++&&++&&&&&&++++++&&&&+++++++++++++++++++++++++++++++++++++++++++++++++++++........+++...++++&+++++++++&+++...++++++&&&&&&++&&&+++++++++++++++++++++XXX..XXX+XXXXX++++@@@@+@@+++++XXXXXXXXXXXXXXXXXXXXXXO@@@OO@@@@@@@@$***@@OOXXXXXXXXXXXXXXXXXXXXXXXXXXXXXXXXXXO@@@@@OOXXXXXXXXXXXXXXXOOOOOOO@@@@OOO++OOOOXOO@O++@@+@OOO@@@@@@@@@@@@@@@@@@@@$$$$$$****==;;;;;;====*$$$$@@$$$$$$$$**====;;;;;;;;====**$$$$$$$*****======***$$@@$$$$$@OOOXXXXXXXooooooooooo    oo                                            ",
"++++++++++++++.++++....+..++........+++++++...XX.....X..+++.XXX+XXO+@@@@$$****$$@@++XXXXXXXXXXXXXXXXXX+O@@@$******@@@+XXXXXXXXXXXXXXO@@@@@@@@@@@@@@@+@++OOOOXXXX++@@@OXXXX...X++XX..XXX+++++@@@++++++X++@+@@&&&@@@&&$$$****$@@@@@#@@+++@@@@@++++++@&#$@@++@@@&&*$$@O+XXO@@@$$$$@@OXX.....oo.. .o...ooo..  ....o..XXXXX@@+XXXXXXXXO@@@@@@@@@@OOOOOOXXXOOOOOOOOOOO@@@@$$$$$$@@OXXXXXXXXXXXXOO+XOO@@@XXXXXXXXXXXXXXXXXX++++XX++++++++++&&&&&&&&&&&&&&&&&&+++++++++++.+.++...............................................................................+..++++++++++++++++&&&++++++++...++++&&++++...............++++&+++++...+++++&&+++++++++&&++++++++++++++++++..............................................+++++++&++++++++++++++++++++&&++++++++++++&&++++++++++&&&&&&&&&&&&&&++++++++++++&&&&&&&&&&&&&&&&&&&&&&&&&&&&&&&&&&&&&&&&&&&&&&&&&&&&&&&&&&&&&&&&&&&&&&&&&&&&&&&+++&&+++++++++++++++......+++...++++++++++++++&+++....++++++&&&&&+++++++++++++++++++++++XXXXX............X.++@@@@@@@@@@@@++XXXXXXXXXXXXXXXXXXXXOO@@OO@@@@@@@@$***@@OOXXXXXXXXXXXXXXXXXXXXXXXXXXXXXXXXXXO@@@@OOOXXXXXXXXXXXXXXXO@@@@O@@@@@OO+O@@@@@OOOOO++@@+@O@O@@@@@@@@@@@@@@@@@@@@$$$$$$***===;;;;;;===**$$$$$$$$$$$$$$**====;;;;;;;;====**$$$$$$$*****======***$$@@$$$$$@OOOXXXXXXoooooooooooo    ooo                                           ",
"++++++++++++++++++++++++++++++..++++++++++++++......XXX..X..XXX+X+X+@@@#$******$@@@++XXX..+.XXXX+X+X++++@@@$******$@@@+OOOO+OOXX+XXXO@@@@@@@@@@@@@@@@+++OO++XXX+OO@@@+++....XXXX..XX.XX+X+++@@+++++++X++@@@@@&&@@@@$$*$*****#@@@$#@@++O@@#&@+++++@@#$$@@++@@@&**$$@O++OO@@@$$$$$@OXX........ o....oooo.. .....o...XXXXOO+XXXXXXX++++@@@@@@@@@@@@@+OXXOOOOOOOOOOOO@@@@@@@$$@@OXXXXXXXXXXXXO++XX@@@@XXXX.XXXXXXXXXXXXXXX+XXXXX++++++++&&&&&&&&&&&&&&&&+++++++++++++++.+...............................................................................++..++++++++..++++++&&++++++++.....+++&&+++................++++&&++++.+++++++&&+++++++++&&+++++++.++++++&+++++......................++++.+................++++++++++++++++++++++++++++&&++++++++++++&&++++.++++++&&&&&&&&&&&&&&&&&&&&&+++&&&&&&&&&&&&&&&&&&&&&&&&&&&&&&&&&&&&&&&&&&&&&&&&&&&&&&&&&&&&&&&&&&&&&&&&&&&&&&+++++&+++++++++++++++++++...+++...++++&++++++++##+++....++++++#&&&&++++++++++++++++++++++++++XXXX...X.....XXX+@##@@@@@@@@##@@OXXXXXXXXXXXXXOOOXXXOO@OOO@@@@@@@@$$**@@OOXXXXXXXXXXXXXXXXXXXXXXXXXXXXXXXXXXO@@@@OOOXXXXXXXXXXXXXXOO@@@@@@@@@@@@@@###@@@++OOOO@@+@@@@@@@O@@@@@@@@@@@@@@$@$$$$$$***===;;;;;;===*$$$$$@@$$$$$$$$**====;;;;;;;;====**$$$$$$******======***$$@@$$$$@@OOOXXXXXXXooooooooooo    oooo                                          ",
"++++++++++++++++++++++++++++++++++++++++++++++.X........X..XXXX+X+++@@@#$******$#@@++XXX++++XXXX++X++++@@@@$*******@@@@@@@@@@OOOO+XX+@@@@@@@@@@@@@@@@@++++++XXX+OO@@@+++X+X.XXXXX..XXXX++++++@++++++X+++@@@@@&&@@@&$$$$$***$@@@@##@@+++@@#@@+++++@@#$$@@++@@@$**$$@O++XO@@$$$*$$@OXX....... oo....oooo..oooo.oooXXXXXXOOXXXXXXXXX+O@@@@@@@@@@@@@@@OXXO@OO@@@@@@@@@@@@@@$@@@@@XXXXXXXXXXXXO++OO@@@@XXXX.XXXXXXX.XXXXXXXXXXXXX++++++++&&&&&&&&&&&&&&&+++++++++++++..++................................................................................++..++++++++..++++++&&++++++++......++&&++++..............+.+++&+++++..++++++&&+++++++++&&+++++.++++++++&++++.................++++++++++...................+++++++++++++++++++++++++++&&++++++++++++&&++++..++++++++++++++&&&&++++++++++++++&&&&&&&&&&&&&&&&&&&&++&&+++++++++++++++&++++++++++++++++++++++++++++++++++++++++++++++++++++++++.......+++...++++&++++++++##+++......+++++&&&&++++++++++++++++++++++++++++++++XXX.....X.+@&&@@@@@@@@##@@+OOXXXXXXXXXXO@@@@OOO@@OOO@@@@@@@@$$**@@OOXXXXXXXXXXXXXXXXXXXXXXXXXXXXXXXXXXO@@@@OOOXXXXXXXXXXXXXXOO@@@@OO@@@@@@@####@@O++OOOO@++@@@@@@@@@@@@@@@@@@@@@@$@$$$$$$***===;;;;;-====*$$$$$$$$$$$$$$**====;;;;;;;;====**$$$$$$******======***$$@@$$$$@@OXXXXXXXXoooooooooooo    oooo                                          ",
"++++++++&&++++++++++++++++++++++++++++++++++++++++.XX.X..XXXXX++X++@@@@#$******$#@@@++++++XXXX+XXXX++O@@@@@$*******$$@@@@@@@@@@@@+++@@@@@@@@@@@@@@@@@@@@@+++OO+++@@@@++++X....XX.+XXXX+++++@@@++++++++++@@@&@$$@@@&$$$$$$$$$@@@@##@@@++@##@@OXXX+@@$##@@++@@&$**$$@+++XO@@$$$*$$@OXX.o..... .oo.o.ooX...  oooo..XXXXXXXXXXXXXXX++++++@@@OO@@@@@O@+OXXOOOOO@@@@OOO@@@@@@@@@@@@X+XXXXXXXXXXXO+OOO@@@+XXXX....XXXXXXXXXXXXX++++XXXX++++&&&&&&&&&&&&&&++++++++++++++.++.................................................................................++..++++++++++++++++&&+++++++.....+.++&&++..+..........+...++++&+++++++++++++&&++++++++++&+++++.++++++++++++.+...............+++++++++++++.................++++++++++++++++++++++++++++&+++++++++++++++++++...++++++++++++++&&+++++++++++++++++++++++++++++++++++++++++++++++++++++++++++++++++++++++++++++++++++++++++++++++++++.+++++............+++...++++++++..+++&#+++........+++@&&++++++++++++++++++++++++++++++++...XX.X..++@####@@@@@@@@@@@OXOOOOXXXXXXO@@@@@OO@@@OOO@@@@@@@@$$**@@OOOXXXXXXXXXXXXXXXXXXXXXXXXXXXXXXXXXO@@@@@OOXXXXXXXXXXXXXXXO@@@@@@@@@#$#$**##@@@+@@+OOO+@OOO@@@@@@@@@@@@@@@@@@@$@$$$$$***====;;;;;-===*$$$$$$@$$$$$$$**=====;;;;;;;;====**$$$$$$****========***$$@@$$$$@@OXXXXXXXXXoooooooooo  o    oo                                          ",
"++++++++&++++++++++++++++++++++++++++++++++++++++++.X...XX..XX++++@@@@@#*******$#@@@+++++++++++++++++@@@@@@@$$****$$$$@@@@@@@@@@@@@@@@@@@@@@@@@@@@@@@@@@@+++++++++@@@+++++X.XX.+++X+XX++++++@@++++++++++@@@&$$$@@@$$$@@@@@&@@@@@##@@@++@@@@@XXXX+@@@#@@@++@@@#**$$@@++OO@@$$$$$@@OXX.o... . ....ooooX..o   ooo.....X..XXXXXXXXXXXXXXXXOOXXOOOOOO++XXXOOOXXOXXXXXOOOOO@@@@@@@+XXXXXXXXXXXXXO+X+@@@@+XXX.X..X.XXXXXXXXXXXX++X+X+++++++&&&&&&&&&&&&++++++++++++++++.++................................................................................++++.++++++++.+++++++&&+++++++.....++++&&+++.++.........+....+++&+++++++++++++&&++++++++++&++++++..++++++++++++...............+++++++++&&++.................++++++++++++++++++++++++++++&+++++++++++++++++++.++++++.+++++++++&&+++++++++++++++++++++++++++++++++++.++.++.+++++.+..++.+..+..++++++++....++................++..++.+...+...+...........+++...++++++++..+++&++++.........++++++++++++++++++++++++++++++++++++++XX......X+@####@@@OXO+@@+XXXXXXXXXXXXXXXOOOOOO@@@OOO@@@@@@@@$***@@OOXXXXXXXXXXXXXXXXXXXXXXXXXXXXXXXXXXO@@@@@OOXXXXXXXXXXXXXXO@@@@@@@@####$**=*#@@@@@@@OO@@@@@@@@@@@@@@@@@@@@@@@@@$@$$$$$***===-;;;;;-===*$$$$$$@$$$$$$$***====;;;;;;;;====**$$$$$$****========***$$@@$$$$@@OXOXXXXXXXoooooooooo  o  o o                                           ",
"++&&++&&&&&++++++++++++++++++++++++++++++++++++++++..X+.++..XXX+++@@@@@#$*****&&$@@@+++++++++++++++++@@@@@@@$$$$*$$$$$@@@@@@@@@@@@@@@@@@@@@@@@&&@@@@@@@@@@@@@@+++@@@@+++++XX.X.++++X+X+++++@@@++++++++++@@@&&&$@@@&&$@@@@@@@@@@@@@@@+++@@@@@++XX+@@###@@OO@@@$**#@@+++++@@$$$$$@@OXX.o.ooo o....o.oXX...  .o............X.X......XXXXXXXX+@@@@@@OOXXXOOXXOXXXXOO@@@@@@OO@OOOXXXXXXXXXXXXXO+++O@@@@+XXXXXXXXXXXXX.XXXXXX+XX++X+X+++++&&&&+++++++++++++++++++++++++++................................................................................+++..++++++++..++++++&&&+++++......++++&&+++++..........+..+++++&++++++..+++++&&++++++++++&+++++..+++++++++++++...............+++++++++&&++.................+++++++++..+++++++++++++++++&++++++++++++++++++..............++++&+++.+..+++....+++++++++.....................................................................................................+++++++++.+++&+++........+++++++++++++++++++++++++++++++++++++++XXXX.X...++@####@@@O++@@OOXXXXXXXXXXXXXXXXXXXXXO@@OOO@@@@@@@@****@@OOXXXXXXXXXXXXXXXXXXXXXXXXXXXXXXXXXXO@@@@@OOXXXXXXXXXXXXXO@@@@@@@@###$$**==*#@@@OO@@OOO@@@@@@@@@@@@@@@@@@@@@@@@@$$$$$$***===;;;;;;-===*$$$$$@@@$$$$$$**=====;;;;;;;;-====*$$$$$$****=========**$$@@$$$$@@OOOXXXXXXXoooooooooo oooooo                                            ",
"+&&&&&&&&&++++++++++++++++++++++++++++++++++++++++++..+++++XXX++++O@@@@#&$***&&&$@@@+@++@@@@++++++++@@@@@@@&$$$$$$$$$$&@@@##&&&&&@&&@@@@&&&&&&&&&&@@@@@@@@@@@@&@@@&@@@+++++X.X..+++++X++++++@@++++++++++@@&&&&$@@@$$$@@@@@@@@@O@@@@@+++@@@@++XXX++@@#$@@O+@@@$**#@@+++++@@$$$$$@@OXX.o.ooo o..o.o.oXX.... ...............X.X....XXXXXXXXXO@@@@@@@OXXOO@O+++XXXOO@@@@@@@OOOOXXXXXXXXXXXXXXOO+XO@@@@XXXXXXXXXXXXX...XXXX+++X+++XX+++++&+++++++++++++++++++++++++++.++................................................................................+....++++++++..++++++&&&+++++.....+++++&&++++++.+.......+...++++&&+++++..+++++&&++++++++++&++++++..++++++++++++..............++++++++++++++..................++++++++..+++++++++++++++++&++++++++++++++++++.............+++++&&++++..++++...++++++++++....................................................................................................+++++++++.+++&++++....++++++++++++++++++++++++++++++++++++++++++XXX.XX.....+@@@@@++++++OOXXXXXXXXXXXXXXXXXXXXXXO@@OOO@@@@@@@@****@@OOXXXXXXXXXXXXXXXXXXXXXXXXXXXXXXXXXXO@@@@@OOXXXXXXXXXXXXXOOO@@@@@@@@@$#$**=#@@@@OOOOOOOOOOOOOOOO@@@@@@@@@@@@@@@@$$$$$****===;;;;;;-===*$$$$$$@@$$$$$$**=====;;;;;;;;-====*$$$$$$***=========***$$@@$$$$@OOOOXXXXXXXoooooooooo oooooo                                            ",
"+++&&&&&&&&&++++++++++++++++++++++++++++++++++++++++++++++++++++@@@@@@@$$***&&&&$$&@@@@&&&@@&&&&@@@@&&&&&&&&&&$$&&&&&&&&&&&&&&&&&&&&&&&&&&&&&&&&&&&&&&&&&&&&&&&&&&#&@@++XXXXX..+..XX++++++++@@@+++++++++@@@@&&$@@@$$$@@@@@@@@@@@@@@+XX@@@@@+++++O@@@#@@@++++@@$$$@@++XX+@@$$$$$@@OXX.ooo...   ooo.XXX..o......o........X....XX...XXXXXXXX+@@$#@@@OXXO@@O@@@OXXX@@@$@@@@@OOOXXXXXXXXXXXXXX+OOOO@@@@XXXXXXXXXX..++XX..++++XXXXXX++++++++++++++++++++++++++&+++++++.+....................................................................................+++++++++.++++++++&&&+++++......++++&&++.++..............++++&+++++++..++++&&++++++++++&++++++...+++++&++++.++.............+++++++&&+++..........+....+++++++++++...++++++++++++++++++++++++++++++++++++...............+++&+++++..+.+....++++&++++++++++..........................................................................................++....++++++++.+++++++....++++++++++++++++++++++++++++++++++++++++++++XXX......XXXXXXXXXXXXXXXXXXXXXXXXXX.XXXXXXoXXXO@@OOO@@@@@@@@$$$@@@OXXXXXXXXXXXXXXXXXXXXXXXXXXXXXXXXXXXO@@@@@OXXXXXXXXXXXXXXXXOOO@@@@@@@####**#@@OOO+@@OOOOO@@@@@@O@@@@@@@@@@@@@@$$$$$$$$***===;;;;;;=====*$$$$$$$$$$$$$***====;;;;;;;;;====**$$$$$****=========**$$$@$$$$@@OOOXXXXoooooooooooooo  oo    o                                         ",
"++++&&&&&&&&++++++++++++++++++++++++++++++++++++++++++++++++++++@@@@@@@$&$**&*&$$&&&&&&&&&&&&&&&&&&&&&&&&&&&*****&***********&*&**&&&&**&&&&:::*&*:=::::::=::=::=&&&@@+++XXX..++..XX++++++++@@@+++++++++@@@&&&@@@@@$$@@@@@$$$@@@@@@++O@@@@@+++++O@@@#@@@@+++@@$*$@@+++O@@@$$$$$@@OXX.ooo....  ooooXX.....o....o........X....XX..X..XXXXXX@@$*$#@@OOOO@@O@@@OOXXO@@@@@@@@OOOXXXXXXXXXXXXXX+@OOO@@@OXXXXXXXXXXXX++XXXX.+++XXXXX+++++++++++&&&+++++++++++&&&+++++++...+..................................................................................+++++++++...++++++&&&+++++.....+++++&&+++++...............+++&++++++..+++++&&++++++++++&++++++...+++++&+++++..........++++++++++++&++++.......++++.....++++++++++...++++++++++++++++++++++++++++++&+++++...............+++&+++++..++.....++++&++++++++++++........................................................................................++....++++++++.+++++++.......+++++++.+++++++++++++++++++++++++++++++++XX........XXXXXXXXXXXXXXXXXXXXXXooXoooo.oXooXXO@@OOO@@@@@@@$$$*@@@OXXXXXXXXXXXXXXXXXXXXXXXXXXXXXXXXXXXO@@@@@OXXXXXXXXXXXXXXXXXOO@@@@######**##@@OOO+@@OOOOO@@@@@OO@@@@@@@@@@@@@@$$$$$$$$***===;;;;;;=====*$$$$$$$$$$$$$**=====;;;;;;;;;====**$$$$$****=========**$$$@$$$$@@OOOXXXXooooooooooooo   oo                                              ",
"++++++&&++++++++++++++++++++++++++++++++++++++++++++++++@@@@@@&&&&&&&&&&&&&*&&*&*&&&&&&&&&****&&******&*&&*=*********==============**=====::==::======::::::===:=*&&&+++++X.X.++..XX++XX++++@@+++++++++@@@&&&&&@@@@$$#@@#####@@@@@@+X+@@@@@+XXXXO@@@#@@@@+@@@@$$$@@+OXOO@@$$$$$@@OXX.o.o......oooo.X...o...................XXXX.XX.XXXXOO@@$**@@@OXOO@@@@@@@OOO@@@@@@@@@OOOOXXXXXXXXXXXXXX+OXX@@@OXXXX.X..X.X.XXXXXXXXXX+++++++++++++++++++++++++++++++++++++++.+++.+.................................................................................++++++++++..++++++&&&+++.++.+...++++&&++..+........+......+++&&++++++++++++&++++++++++&&+++++++++++++++++++.+.........+++++.++++++++++.......+++++....++++++++++++..++++++++++++++++++++++++++++++++++++...............+++&+++++..++.+..+++++&++++++++++++.................................++++..................................................+++....++++++++++++&++++...............++++++++++++++++++++++++++++++++........XX...XXXXXXXXXXXXXXXXXXXXXXXXXXXXXooXXO@@OOO@@@@@@@$***$@@OOXXXXXXXXXXXXXXXXXXXXXXXXXXXXXXXXXXO@@@@@OOXXXXXXXXXXXXXXXXXO@@@@##@#######@@++@@@@@@OO@@@@@@@O@@@@@@@@@@@@@@$$$$$$$***====;;;;;;=====*$$$$$$$$$$$$$**=====;;;;;;;;;====**$$$$$***=========***$$$@$$$@@OOOOXXXXXXooooooooooo   oo                                              ",
"+++++++&++++++++++++++++++++++++++++++++++++&&&&&&&&&&&&&&&&&&&&&&&&&&&&&&***********&&&&&****&&********==========================:===========::=======:::::*=::*&&&&@++++...X++..X+++XX++++@@+++++++++@@@&&&#&@@@@$$@@@@###@@@O+++XX+@@#@@+XXXXO@@@#@@@++@@@@$$$@@+XXOO@@$$$*$@@OXX.o. .....oooo.......o..................XXXXXXXXX++XOO@@$***@@@OOO@@@@@@@OOO@@@@@@@@@@@@+XXXXXXXXXXXXXXOOX+@@@OXXXXXX......XXXXXXXXXXX++++++++++++++++++++++++++++++++++++.+++++++...........................................................................+.....++++++++++..+.++++&&&+++.++...++++++&&++..++......++......+++&+++++..+..+++&+++++++++++&++++++++++++++&+++..+.........++++..+.++++++++......++++++++++++++++++++.+..++++++++++++++++++++++++++++++++++++..............++++&+++++++++++..+++++&++++++++++++..................................+++..................................................+++...+++++++++++++&+++++...............+++++++++++++++++++++++++++++++.X......XX.XXXXXXXXXXXXXXXXXXXXXXXXOOOXXXXXXXXO@@OOO@@@@@@@$***$@@OOXXXXXXXXXXXXXXXXXXXXXXXXXXXXXXXXXXO@@@@@OOXXXXXXXXXXXXXXXXXO@@@@@@@@@@##@@@@++@@@@@@OOOOOOOO@O@@@@@@@@@@@@@@$$$$$$$***====;;;;;;=====*$$$$$$$$$$$$$**====-;;;;;;;;;====**$$$$$***=========***$$$@$$$@@OOOOXXXXXoooooooooooo  ooo                                             .",
"++++++++++++++++++++++++++++++++++++&&&&&&&&&&&&&&&&&&&&&&&&&&&&&&&&&&&&&&&**==*==**::=============================================================:======:=::::==*&&&++++++.X..++++XXXX+++++@++++++++@@@&&&*&&@@@#$$@@@@@@@@O+XX++XX+@@##@+++XX+@@@#@@@+++@@##$$@@+XX++@@$$**$@@OXX............o.......o...............XXXX....XXXXXXXOO@@$***@@@OO@@@@@@@@OOO@@@@@@@@@@@@OXXXXXXXXXXXXXX++X+@@@@XXXXXXXXXX..XX.XXXXXXXXX+++++++++++++++++++++++++++++++++.....++++++..........................................................................++.+...+++++++++.+++++++&&&+++.+++....++++&&++..........+....++++++&++++++.++++++&&++++++++++&++++++++++++++++++...........+.............++....+.+++++++++++++++++++.......+++++++++++++++++++++++++++++++++.+...........+...+++&&+++++++++++++++++&++++++++++++.......................................................................................++....+++++++++.++#&+++++...............++++++++++++++++++++++++++++++XX......XXXXXXXXXXXXXXXXOOOXXXXXXXXXOOOOXXXXXXXO@@@OO@@@@@@@$**$$@@OXXXXXXXXXXXXXXXXXXXXXXXXXXXXXXXXXOXO@@@@@OOXXXXXXXXXXXXXXXXOOOOOOOOO@@@@@@@@@OXOOXX@@@@@@@@@@@@@@@@@@@@@@@@@@@@$$$$$***===-;;;;;;=====*$$$$$$$$$$$$$**====-;;;;;;;;;-===**$$$$$***========****$$$$$**$@OOOOXXXXXXoooooooooooooo                           oooooooooooXXoXXXXXXX",
"+++&++++&&+++++++&+++++&++++++++++&&&&&&&&&&&&&&&&&&&&&&&&&&&&**&&&&::::::::::======:::=====::::================================:::============:=:::======::::::====#&@+++X.XX..++X+++XX+++@@@@++++++++@@&#**#&@@@$$#@@@@@@@+XXXXXXXX+@@##@++XX++@@##@@@++@@@#$$$@@OXX+@@@$$**$@@OXX................X...oo...........XXXXXX....XXXXX+X+OO@@$***@@@OO@@@@@@@@OOO@@@@@@@@@@@@OXXXXXXXXXXXXXX++XX@@@@XXXXXXXXXX.XXXXXXXXXXXXXX++++++++++++++++++++++++++++.+++....+++++++..........................................................................+........+++++++.+++++++&&&+++.+++++.+++++&&++.+............+++++++&+++++..++++++&+++++++++++&++..+.++++++++++++...........+.................+++++++++++++++++++++++.......++++++++++++++++&++++++++++++++++.+...........+...+++&&+++++++++++++++++++++++++++++.........................................................+++............................++....+++++++++.+++&+++++..............++++++++++++++++++++++++++++++XXXX....XXXXXXXXXXXXXXXXXXOOXXXXXXXXXXXXXXXXXXXXO@@OOO@@@@@@@$**$$@@OOXXXXXXXXXXXXXXXXXXXXXXXXXXXXXXXXOOO@@@@@OOXXXXXXXXXXXXXXXXXXOOOOOOOOOOOO@@@@OO+OXX@@@@OOOOOOO@@@@@@@@@@@@@@@@@$$$$$***===-;;;;;;=====*$$$$$$$$$$$$$**====;;;;;;;;;;-===**$$$$$***========****$$$$$**$@OOOOXXXXXXooooooooooooooo   o                    ..oooXXXXXXXXXXXXXOOOOO",
"+&&&&&&&&&&&&&&&&&&&&&&&&&&&&&&&&&&&&&&&&&&&&&&&&&&&&:&&&:&:*=:===::::======:=:::===================================;;;=;;;;======;;;=======;;;;;;;=============::=:=&@+XXXXXXXXXXX++++++++@@&@++++++++@@$#**$@@@@$$$@@@@@@@++XXXO+++O@@#@@++++X@@@#$@@@+++@@#**$@@OOOO@@@$$**$@@OXX...o....oo.oo..XXo..o............XX.......XXXXXXX+++O@@$***@@OOO@@@@@@@@OOOO@@@@@@@@O@@OXXXXXXXXXXXXX++XOO@@@@XXXXXXXXXXXXXXXXXXXXXXXXXXXX+++++++++++++++++..++.............++++....................................................................................+++++++...+.++++&&&+++.+++++++++++&&++++..+.........+++++++&++++++..++++++++++++++++&&+++..+++++++++++++..........+++++++++++++++++++++++++++++++++++++++++........+++++++++++++++&&++++++++++++++++.+...........+.+.+++&&++++++&&&&+++++++&++++++++++++....................................................+...++++...+++++++++++++++++++.....++....+++++++++.+++#++++++.............++++++++++++++++++++++++++++++XXXX....XXXXOO@OOOOOOO@@@@@@OOOOOOXXXXXXXXXXXXXOO@@@OO@@@@@@@$$$$$@@OOOXXXXXXXXXXXXXXXXXXXXXXXXXXXXXXXOOO@@@@@OOXXXXXXXXXXXXXXXXXXOOOOOOXO++OO@@@@OO@@OOOO@@@@@@OO@@@@@@@@@@@@@@@$@$$$$$****===-;;;;;;=====*$$$$$$$$$$$$$**====-;;;;;;;;;-===**$$$$****========****$$$$$**$@OOXOXXXXXXoooooooooo oooooooo                oooXXXXXOOOOOO@@@@@@@@@@@@@",
"&&&&&&&&&&&&&&&&&&&&&&&&&&&&&&&&&&&&&&&&&&&&&:::::::::::::::==::====::======:::::======:===================;;;======;;============================================:=*#@@+XXXXXXXXXX++++++++@@@@+++++@@@@#$****$@@$$$$#@@+@@+++++O+++O@@@#@@+++XX@@@$$@@@+++@@#**$@@OOO@@@@$***$@@OXX.....o...ooooooXXX..o............X..XXX...XXXXXX++++O@@$***@@OOO@@@@@@@OOXXO@@@@@@@OO@@OXXXXXXXXXXXXXXOOOO@@@@XXXXXXXXXXXXXXXXXXXXXXXXXXXX++++++++++++++++...++.............+++.....................................................................................++++++....+.++++&&&+++.+++++++++++&&++++..+.........+++++++&++++++..+++++&&+++++++++&&+++++.+++++++++++++.........+++++++++++++++++++++++++.+++++++++++++++........+++++++++++++++&&+++++++.++++++++.+...........+.+.+++&&+++++++++++++++++&++++++++++++....................................................+...++++...++++++++++++++++++++.....++....++++++++.++++++++++.............++++++++++++++++++++++++++++++XXXXXXXXXXXO@@##############@@@@@@@@OOOOOOOXOOOO@@@@OO@@@@@@@$$$$$@@OOXXXXXXXXXXXXXXXXXXXXXXXXXXXXXXXXOXO@@@@@OOXXXXXXXXXXXXXXXXXXXOOOOO+X+O+O+@@@OO@@OOXOO@@@@OOO@@@@@@@@@@@@@@@$$$$$$$****===-;;;;;;=====$$$$$$$$$$$$$$**=====;;;;;;;;;====**$$$$****=========***$$$$$$$@@OOXXXXXXXXoXooooooooooooooooo               ooXXXOOOO@@@@@@@@@@@@@@@@@@@",
"&&&&&&&&&&&&&&&&&&&&&&&&&&&&&&&&&&&&&&&&&&&&&::::::::::::===::::==:::===::========================================================================================**##@@+XXX.+++XX+++X+X+++@@@@+@++@+@@#$***==**********@$$@@@@@@@@@@@$****@@@@@@@@$#@@@@@@@$$***$@@@@@@$$$*$$$@@@@@@@@OXXXX.o......XX....o............XXXXXXXXXXXXO@@OOO@@@@@@@@OOO@@@@@@@@OOX+@@@@@@OOOOOOOXXXXXXXXXXXXOO++@@@@@XXXXX.XXX.XXXXXXX+XXXX++++XXXX++++++....++.+..................++++....................................................................................++++++..+...++++&&&+++.+++++++&&++&&++.++...........+++++++&++++++++..+++&&+++++++++++++++..++++++++++++++.......++++++++++++++++++++++++++.++++++++++++++++..++++++++++++++++.+++++++++....++++++++................+++++++++++++++++++++++++++++++++++.XXX...ooo...oXXXo...XXXXXXX..XXXXXX.+...................++++.................+.........++.....+++++++..+++++..................++.+++++++++++++++++++++++++++XXXX.XXXXXXXOO@@##****======*****#@@@@OOOO@@@@@@@@@@@OO@@@@@$$$$$$@@OXXXXXXXXXXXXXXXXXXXXXXXXXXXXXXXXXXXO@@@@@OOXXXXXXXXXXXXXXOXXXXXXXXOOOOO+++@@@++@@@@OO@@@@@@O@@@@@@@@@@@@@@@@$$$$$$$****===;;;;;;;====**$$$$$$$$$$$$$**====;;;;;;;;;;====**$$$$***===========**$$$$$$$@@OOOOXXXXXXXXXooooooooooooooo o             .XXXXO@@@@@@@@@@@@@@@@@@@@@@@",
"&&&&&&&&&&&&&&&&&&&&&&&&&&&&&&&&&&&&&&&&&&&:&::::::::::::===:::::=::::=======================================================================*************###$##&&$##@@+XXX..+.+XX++++XX+++@@@@@@++++@@@#$****$$$$**************************##@@@@*************************************$#@OX. .oX..XXXXX..o.............XXXXX.XXXX+@@@@@O@@@@@@@OOOO@@@@@@@@OOXO@@@@@OOXOOOOOXXXXXXXXXXXXOOOXO@@@OXXXXXXXXXXXXXXXXXXXXXX++++XXXX++++++....++++..................+++.+.....+.............................................................................++++++..+...++++&&&+++.+.+++++++++&&++.+.......+.....++++++&++++++++..++++&+++++++++++++++..++++++++++++.+......+++++...++++++++++++++++++++++++++++++++++++++++++++++++++++++++++&+++++++++++@#&&++++++++++++++++++++++&+++++++++++++++++++++++++++++++++++OO@@++OO@@@@@@@@@@@@@@@@@@@@@@@@++++................++++............................+.....++++++++.+++++.................+++++++++++++++++++++++++++++++++++++XX..XXXXXOO@@@@@@@@@@@@@@@@@@@OOOOOOOOO@@@@@@@OOO@@@@@$$$$$$@@OXXXXXXXXXXXXXXXXXXXXXXXXXXXXXXXXXXXO@@@@@OOXXXXXXXXXXXXXXOXXXXXXXXXOOOO+O@@@@OO@@O@OO@@@@@@OO@@@@@@@@@@@@@@@$$$$$$$***====;;;;;;;====*$$$$$$$$$$$$$$**====-;;;;;;;;-====**$$$$****==========**$$$$$$$@@OOOOXXXXXXXXooooooooooooooooo              oXXXXOO@@@@@@@@@@@@@@@@@@@@@@",
"&&&&&&&&&&&&&&&&&&&&&&&&&&&&&&&&&&&&&&&&&:&:&&::::::::==****=:====::==========================================================******&&&&&&&&&&&&&&&&&&@@@@@@@@@@&&&&&@@+XXXX.X++X+++++X+++++@@@@++++++@@@#**$$@@@@$$*************************$@@@@*************************=====**********$@@OXXX.XXXXXX..o..o....o.......XX....XXO@@@@OO@@@@@@@OXX+O@@@@@@@OOOO@@@@@@OOOOOOOOXXXXXXXXXXXO@OXO@@OOXXXX.XXX.XXXXXXXXXXXXXXX++XX++++++++..........................++++++++++++++++++++..++........++..................++......++.+++++++.+++++++++++++++++++++++++++++++++&&&+++++...+.+++++&&++..................+++&+++++.++..+++&+++++++++++++++...++++.+++++++++........++....+.++++++++++&++++++++++++++++++++++++++++++++++++++++++++#&&#&##########*****$$*****%*$$$$****************@@++@@#*****************************==********************@++++++++......+....++++..................................++++++++.+++++..................+.XX...++++++++++++++++++++XX+X++X++XXXXXX.XXXXXXXXXXOOOOOOOOOOOOOXXXXXXXXOO@@@@OOOO@@@@@$**$$**@@XXXXXXXXXXXXXXXXXXXXXXXXXXXXXXXXXXXXO@@@@@OOXXXXXXXXXXXXXXXXXXXX+++O+OOOOOOO@OOOOXOOOOOOOO@@OOO@@@@@@@@@@@@@@$$$$$$****===;;;;;;;;====**$$$$$$$$$$$$$**====-;;;;;;;;-====**$$$$***==========***$$$$$$$@@OOOOXXXXoXXXoooooooooooo                   ooXXXXXOOOOOOOOOOOOOOOOOOOOOO",
"&&&&&&&&&&&&&&&&&&&&&&&&&&&&&&&&&&&&&&&&&&&&&&:::::&&&&*&&&&&&****&&*******=============*********=***************************&&&$$$$&&&&&&&&&&&&&&&&&@@@@+@+@@@@&&&&&@@+XXX+++++++++++++++@@@@@@@+++++@@@#**$$@@@@@$$$$$*********************$@@@@$*******=****=**************==***********%#@OXXXXXXXXX.oo.......o.X..X..XX....XX+@@@OOO@@@@@@@OXXXO@OO@@@@OOOO@@@OOOOOXOO@OOXXXXXXXXXXXO@OXO@@OOXXXXXX.XXXXX..XXXXXXXXXXXXXXX+++++++.........++...............++++++++++++++++++++++++..++++++..............++.+..++++.....+.+++++..++++++++++++++++++++++++++++++++++&&&+++++...+..++++&&++..++..............+++&+++++..+.++++&+++++++++++++++....+++.+++++++++++.+++++++.++++++++++++++++++++++++++++++++&&&&&&&&&&&&&&&&&&&&++++++++++++++@@@######***********************=**=====*==#@++@#******==****=****======*************==**********=***+++++++++.....+++..+++++..................................+++++++..+++++............................++.+..........XX......XX.XXX......XXXXXXXXXXXXOOXXXXXXXXXXXXXXXOXOOOOOOOOOO@@@$$**$$$$@@OXXXXXXXXXXXXXXXXXXXXXXXXXXXXXXXXXXXO@@@@@OOXXXXXXXXXXXXXXXXOOOO++O++OOOOOOOOOOOOXOOOOOOOOO@OO@@@@@@@@@@@@@@@$$$$$$****===;;;;;;;;=====*$$$$$$$$$$$$$**====-=;;;;;;;=====**$$$$***==========***$$$$$$$@@OOXXXXXXoXXXoooooooooo                       oooXXXXXXXXXXXXXXXXXXXXXXXX",
"+++++++++++&&&++++++&&+&+&&&+&&&&&&&&&&&&&::&:::&&:*&&&&&&&&####&&##&&&&#**************&********&&$$*$#$&&$$**$$$$$$$$$$$$$$&&&&&&&&&&&&::::&&&&&&&&@@@+++++++@@&&&&&@@+++++X+O+++++++@@++@@&&@+++++++@@##***$@@@@@$$$$$$*********#@@@@#**$$#@@@@@$*******************************************$@XXXXXXXX..o.........XXXX..XXX...XX+@@@OO@@@@@@@@OOOXOOOO@@@@OOOOO@@OOOOOXO@@@OXXXXXXXXXXX+O+XX+@@@XXXX.XXXXXXXX.XXXXX.XXXXXXX.++.+++++..+++....+++..............++++++++++++++++++++++++++++++++++++++++++++++++++++++++++++++++++++++++++++++++&&+&&&++++++&&&++++++&&&&&&++++++...++++++&&++..................+++++++++..++++++++++++++++++++++++...+++++++++++++++++++++++++++++++++++++++++++&&&&&&&::::::::::::::::::&&&&&&&++++++++++++++++++++++@########$**************===========#@++$**==*********=*******=****=======*******************#++++++++......+++.++++++....................++++...++.....++++++.+.++##+................ .....      ... .......... ...    ..o...o.oo...oooooooooooooXXXoooooooooooXXXXXXXXXXOOO@@@$$**$$$$@@OXXXXXXXXXXXXXXXXXXXXXXXXXXXXXXXXXXXO@@@@OOOXXXXXXXXXXXXXXXXXXOX++OO+OO+OOOOOOOOOO++@@OOOO@@@@@@@@@@@@@@@@@@@@$$$$$****===;;;;;;;;=====*$$$$$$$$$$$$***====-=-;;;;;;-====**$$$$***=========****$$$$$*$@@OOXXXXXXXooooooooooooo  oo    o                         ........oooo   o",
"+++++++++++++++++++++++++++++++++&&&&&&&&&&:&&::&&&&&&&&&&&&&&&&&&&&&&&&&###&&$$$$$$&&&&$&$$$$$$&&$$$$&&&&$$$$$$&&&&&&$$$$$$&&&&@&&&&&:::::::::&&&&&&@@@@@@@+@@&&&&&&@@@+++++++++++++@@@+@@@&&@+@++X++@@##***$@@@@@$$$$$$*********@@@@@@@@@@@@@@@@$*****************************=**************$@OXXXXXX..o........XXXXX.XXXXXXXXX+@@@OO@@@@@@@@OOXXOOOOO@@OOXXOOOOOOOOOOO@@@OXXXXXXXXXXX+OOXX+@@@XXXXXXXXXXXXX.XXXXXXXXXXX+X.+X.++++++.+++.....++...++.............++++.......++++++++++++++++++++++++++++++++++++++&&&&&&&&&&&&&&&&&&&&&&&&&&&&&&&&&&&&&&&&&&&&&&&&&&&&&&++++++...+++.++&&++..+...............++++++++..+++++++++++++++++++++++++....+++++++++++++++++++++++++++++++++++++++++&&&&&&&&&&&&&&&&&&&&&&&&&&&&&&&+++++.+++++++++.+...+++++@@++O@@@@@@@@#$$$$$************===#@++#**===********==******************===***********==*=*@++++++.+..++++++++++++++..............++....++++...++.....++++++..+++&#+..........  ....  .........................................o.ooooooooooo.....o..o.ooooooooXXXXXXXXXXOOO@@@$***$$$$@OOXXXXXXXXXXXXXXXXXXXXXXXXXXXXXXXXXXXO@@@@OOOXXXXXXXXXXXXXXXXXOOXX++O+XX+++OOOOOOOO@@@@@O@@@@@@@@@@@@@@@@@@@@@@$$$$$$***===;;;;;;;======*$$$$$$$$$$$$***=====--=;;;;;;====*$$$$$***=========****$$$$$*$@@OOOXXXXXooooooooooooo o oo                                        oo    ",
"++++++++++++++++++++++++++++++++++++&&&&&&&:&&::&&&&&&&&&&@@@@@@@@@@@@@@@@@@@@@#$$$$$@@@&@@@@@$$&&@@@@&@&&@@$$&$$$&&$&&&$$$$$&&@&&&&&&&::::::&&&&&&&&@@@@@@@@@&&&&&&@@++++XXX++++++++++++@@@@&@+@++++O@@@#***$@@@@@$$$$$$$$$$@$$**@@++@@@@@@@@@@@@$************************==**=********===**==*$@OXXXXX..o........X..XXXXXX.XX.XX+@@@OO@@@@@@@@OOXX++OOO@@@OOOOOO@@@@OOOO@@@OXXXXXXXXXXX+@OOO@@@@XXXXXXXXXXX.XXXXXXX+++XXXX...++++++++.+++...++++...++......................+++..+++++++++++++++++++++++++++++++++++++++++++++++++++++++++&&+++++++++++++++++++++++++++++++++..++.....+++&&++.+..............+++++&+++++..++++++++++++++++++++++++.....++++&&&&&&&&&&&&&&&&&&:&&&&&&&&&&&+++++++++++++++++++++++++++++++++++++++++...++++++++++++++..++++++++++++++++++++@@######********&&++$**********************=****************==*=****==**#@+.+....+++++++++++++++++++..++++++++++++++++++++++++++....++++++...++&#+.........  ..... ...  .. ......   ..  ..    ..      ....oooo....o...o ooo.ooooooooo...oooooXXXXXXXXXOOO@@@$***$$$$@@OXXXXXXXXXXXXXXXXXXXXXXXXXXXXXXXXXXXO@@@@OOOXXXXXXXXXXXXXXXXXXXXX+OOOOOO++++OOOOO@@@@@@@@@@@@@@@@@@@@@@@@@@@@$$$$$$***===-;;;;;;;======*$$$$$$$$$$$$**=========-;;;;;-===**$$$****===========**$$$$$*$@@OOOOXXXXXXoooooooooooo oooo    o                                        ",
"++++++++++++++++++++++++++++++++++++&&&&&&&:::::*&&&&&&@&+++++@@+++O++@@@@@@@@@@@@@@@@@@@@@@@@@@&&@@@@@@&&$$$$#$$$$*$$***$*$$@@@@&&&&&&:::::&&&&&&&&@@@@&@@@@@&&&&&&@@++++XXXXXXXX++++++++@@@@@++O++++@@##***$@@@@@$$$$$$$$$$$$**$@@++@@@@@@+@+@@@**********************=******=*******=**=**==**#@XXXX..ooo.....XXX..XXXX.XXXXXXXO@@@OOO@@@@@@OOOXX++OOO@@@@@@@@@OO@OOXOO@@@@OXXXXXXXXXXOOOOO@@@@XXXXXXXXXXXXXXXXXXX+++XXX....X+++++++++++...++++...+++..++..............................++++++++++++++++++++++++++++++++++++++++++++++++++++++++++++++++++++++++++++++++++.....++....+++&&++...............++++++++++++...+++++++++++++++++++++++.+...++++&&&&&&&&&&&&&&&&&&&&&&&&&&&&&+++..+++++++++++++++++++++++++++++++++++++...++++&+++++++++.+++++++++++++++....XXX+++@@##@@@#$$##&+&&$*=****=***=*****=*****=****************====***===**#O.........++++++++++++++++++++++++++++++++++++++++++++++++++++++++++++&#++............... .. ............................... ....oooo..oooo......o...oooo..o.ooooXXXXXXXXXXXXOO@@@$$**$@$$$@OXXXXXXXXXXXXXXXXXXXXXXXXXXXXXXXXXXOOO@@@@@OOXXXXXXXXXXXX+++XXXX+OOOOOOOO+++++OOOO@@@+@@@@@@@@@@@@@@@@@@@@@@@@@$$$$$***===-;;;;;;;======*$$$$$$$$$$$$**=========;;;;;;;===**$$$****==========***$$$$$*$@@OOOOXXXXXXoooooooooooo oooo    o                                        ",
".+++++++++++++++++++++++++++++++++++&&&&&&&&:::::&&&&&@@++++++XXXXXXXXXO@@@@@@@@@@$$@@@@@@@@@@@@@@@@@@@@@&&$$$$$****$$$$$$&&&&&@@@&&&&&::::&&&&&&&@@&&&&&@@@@@&&@##@@@@+++XXXXXXX++X+++++@@@@@@++++X++@@@#***$@@@@@$$$$$$$$$$$$$$$@@@+@@@@@@+@@@@@$***************************======******==******$@XXX......ooXXXXXXXXXXX...XXXXXO@@@@OO@@@@OOOOOOOOOOOO@@@@@OOOOOOOOOOOO@@@@@@@@@@@@@@@@OOXO@@@@OXXXXXXXXXXXXX..XXXX..++XXX..++++++++.++....+++....+++.+..............................................................................+++..+..........++++............................++&&++................+.++++++++.....+++++&++++.+++++++++...+++.++++++++++++++++++++++++++++++++++...+.+++++++++++++++++......+++......++++..++++++&++++...+++++++++++++++++++....+.++++++++++++&&&&+&**************==**********==******************==****@X........++.+++++++++++++++++++++++++++++++++++++++++++++++++++++..+++&+++..........................................o..ooo..o.....ooooo..ooooo.o..o..ooooooooooooooXXXXXXXXOOOO@@@$***$$$$@@OXXXXXXXXXXXXXXXXXXXXXXXXXXXXXXXXXXXO@@@@@@OXXXXXXXXXXXXXOOOOXXXXXOOOOOOO+++@OO@@OOOO@@@@@OO@@@@@@@@@@@@@@@@$$$$$$$$$***==-;;;;;;;======*$$$$$$$$$$$$$**========;;;;;;;===**$$$****===========**$$$$$*$@@OOXOXXXXXXooooooooooo   ooo                                             ",
"..++....++++++++++++++++++++++++++++&&&&&&&&:::::&&&&&@@@++++XXXX.XXXXXO+@@@@@@@@@$$@@@@@@@@@@@@@@@@@@@$&&$&$$$$****$$$$$$$$&&&@@+@&&&&&&&&&&&&&&@@@&&&&&&@@@@&&@###@@@+++XXXXXXX+XXXX++++@@@@@++O+X++@@@#***$@@@@@#$$$$$$$$$$$$$#@@++@@@@@@+@@@@@$***************************======******==*=***=*@XXX.......o.XXX....X.....XXXXOO@@@OOO@@@@OOOOOOO@OOXOO@OOOOOOOOO@@@@O@@@@@@@@@@@@@@@@@@@OOO@@OOXXXXXXXXXXXXX.XXXXXXXXXXXX..++++++++++++...++++...+++++.....................................................................................+........................................++&&++..+..............+++++++++++....+++&+++++.++++++++............+++++++++++++++++++++++++++++++...+++.++....++++..++.......+++....+.+++..+++++++++++....++++++++....++++++.....+++++++++++++++++++*****=************=*******===****==**=*************$@X............++++...+++++++++++++++++++++++++++++++++++++++++++++.++++&+++..............................................ooo.oo.o..........oXo..........ooXoXoooooXXXXXXXXXXXOOO@@$$***$$$$@@OXXXXXXXXXXXXXXXXXXXXXXXXXXXXXXXXXXXO@@@@@@OXXXXXXXXXXXXXXXXXXXXXXX+OOOOOOOO@@@@@OOOO@@@@@@@@@@@@@@@@@@@@@@@@$$$$$$$***===-;;;;;;-======*$$$$$$$$$$$$$**========;;;;;;;===**$$$****===========**$$$$$*$@@OOXXXXXXXXooooooooooo     o                                             ",
"..++....++++++++++++++++++++++++++++&&&&&&&&&:&&:&&&&&@++++++++X..XXXX+++@@@@@@@@@@@@@@@@@@@@@@@$$@@@@$$@$$$$$$$$$********$$$@&@+++&&&&&&&&&&&&&++@@@@&@@@@@@@&&&&##&@++++++++XX++++X+++++@@@@@@+++++@@@@$****$@@@$$**$$$$****$**$@@O@@@@@@@+@@@@@$*****************==********==******==*===*=***=*$OXXXXXXXXXXXXXXXXXXXXXXXXXXXXX@@@@OOOO@@@OOOOOOO@@OXOOOXXXOO@@@@@@@@@@@@@@@@@@OOOXXXO@@@@@@@@@OXXXXXXXXXXXXXXX++XXXXX+XX..+.++++++++++++++++++...+++++++++..++....................................................................................................................++++&&++..........+......+++++++++++..+++++&&+++++++++++++....++++..++..++++++++.++...++++........+....+..+.+.....+++.....+++++++++++.++.++......++++++++++.++++++++++.+++++++++++...+++++&++++++++++++@*=*===************==*====**=******======*******==**@XX.............+++....+++++..+...++.....++++++++++++++++....+++++++++++#+++.................   ......... .....oo....oo........oo....oXoo..o.ooooooooooXooXXXooXXXXXXXXXXXXXOOOO@@@$$***$$$$@@OOOOXXXXXOXXXXXXXXXXXOXXXXXXXXOXXXXOO@@@@@@@OOOOOOOOOOOOOO@@@@@@@@@@OOO@@@@@@@@@@@@@@@@@@@@@@@@@@@@@@@@@@@@@$@$$$$$$***===;;;;;;;-======*$$$$$$$$$$$$***=====--;;;;;;;;===**$$*****===========**$$$$$*$@@OOOOXXXXXXoooooooooooo   oo                                             ",
"..++++.+++++++++++++++++++++++++++++&&&&&&&&&&&&:&&&&&@++++++.+...XXXXX+++@@@@@@@@@@@@@@@@@@@@@@$$@&@@@$$$$$$$$$$*********$$$@@@+++&&&&&&&&&&&@@+@@@@@@@@@@@@@&&&&&&&@@+++++++++++++++++++@@@@@@+O+@@@@@$$*****$$$****************@@@@@@#@@@@@@@@@****************====********==****=========****=*$@OXXXXXXXXXXXXXXXXXXXXXX.XXXXO@@@@OO@@@@@OOOOOOO@@OOXXXXXOOO@@@@@@@@@@@@@@@@@OOOXXXXXO@@@##@@@@OOXXXXXX+XXXXXX++XXXX..XXXX++++++++++++++++++++++++++++++++..++.....................................................................................................................+++&&++..................++++++++++...++++&&++++++++++++++..............+...................+++++++++++.....++.+.......+.++++.+.........+......++++++++++..++++++++++.++++++++++....+..++&&+++++++++++#****=*************=**=*=**********=====***==***==**@XX....................+......++++++......+++++++++++++......+++++++++++##++...........     . . ... . ...  ..  .........o............oooo....ooooo.oooXXXXXXXXXXXXXXXXXXXXXOOOO@@@@$$***$$$$$@OOOOXXXOOOOOOOOOOOOOOOOOOOO@@@@@@@@@@##$$##@@@@####################@O@@######$$$$###***$$*****$$$@@@@@@@@@@@$@$$$$$****==-;;;;;;;=======*$$$$$$$$$$$$***===----;;;;;;;;-==**$$*****===========**$$$$**$@@OOOXXXXXXXoooooooooooo   oooo                                           ",
"...+.+++++++++++++++++++++++++++++++&&&&&&&&::&&:&&&&&@++++X+.....XXXX++++@@@@@@@@@@@@@@@@@@@&@@$@@$@@$@$$$$$$$$$$********$$$@@@@@++&&&&&&&&&@@@+++@@@@@@@@@@@@@&&##@@++++++++++XXX++++X++@@@@@@@O+O+@@@$#********************************$$#@@@@#***********==**===*=****==***=**=***====**=======*$@@@@@@@@@@@@@@@@@OOOOOOOOOOOO@@@@@@@@@@@@@@@@@@@@@OOOOOOO@@@@@@@@@@@@@@@@@@OOOOOOOOOO@@@##@@@@@@OOXXXXXXXXXXXXXXXXXXXXXXXXXXO++++X++++++++++++++++++.+X+.......X...........................................................++X+++++OO++++++++XXXXX...............................++++&+++.................++++++++++++.++++++&+++++++++++++++++X.........++................++++++++++++++++++++++++++++++++++++++++++++++++++++++++&&++++++.+++.+++++++..++++++++++...+.+++&&++++++++++@#*=**********======*****************====*******==***@XX.....................XXXXXXXXX........X.XXXXXXXoXXXXXX....+.++++++++++#++XXXoXXXXXXXXXooXXXooXXXXXXXXXXXXXXXXXXXXXXXXOXXo oXOOOOOOOOOOOOOOOOOOO@OO@@O@@@@@@@@@@@@@@@@@@@@@@@@@$@$$********$$$$@OO@$$$$$$$$$%%%*************%*****=**=*************************@@@#************====******=****$$@@@@@@@@@@$$$$$***===;;;;;;;;======**$$$$$$$$$$$$***====--=;;;;;;;;-==********===========***$$$$**$$@OOOOXXXXXXXXoooooooooo   ooooo                                          ",
"..++++++++++++++++++++++++++++++++++&&&&&&&&::&&:&&&&&@++++++.....XX.XX+++@@@@@@@@@@@@@@@@@@@@#&@@&@@@@@$$$$$*$$$$*******$$$@@@@@@+&&&&&&&&&&@@@++@@@@@@@@@@@@@&&&##@@+++++X.XXXXXXX++XX++@@@@@@@O+O++@@@$**********************************##@@@#**********===**===******==******==****=***=======***%%****%%***%##%%%%#*#*####@@@@#*$$$$$$$#######$##########@@###@@$$@@@@@@@@##@#@@##@@#******$#@#@@@@@@@@@@@@@@@@@+X.XX@@@@@@@@@@+@++++++++++++++++++++++++++++++++++++++........XX+.................................+.++++++++@@@########@@@@@++++++++++...+.....................++++++++..................++++++++++..+++++&&&++@@###&&&#+++++++++++++..++.......+.....+++.++++++++++++++++++++++++...++++++..+..+++++++++++++++++&+++++.+..+++++++++++.+++++++++++.++++++&&++++++++++@#*=******=****=====*****************====*******==**#@XXXXXXXX+X+++++++++++++++++++++++++....+++@@OOOOOOOOO@@+X......+++++++++##@@@@@@@@@@@@@@@@@@@@@@@######################$#@X.X@######%%$#####%%%*%*%%*****%*****%**************************====**@OO@%=***===================**=*****==*$$$%%********************@O@#**********==*****************$#@@@@@@@@$$$$$***===;;;;;;;;======**$$$$$$$$$$$$***===----;;;;;;;;-=*********===========***$$$$**$$@OOOOXXXXoXXXooooooooooo oooo                                            ",
"+++++++++++++++++++++++++++++++++++++&&&&&&&:::&&&&&&&@@+++++......XXX++++@@@@@@@@@@@@@@@@@@@@@@@@&&@@@&&&$$$***$$*****$*$&$&@@@@@@&&&&&&&&&&@@@@@@@@@@@&@@@@@&&&&&#@@@+++X.XXXXXX++++XX+++@@@@@+++O++@@@#***$@@@@$**************************$@@@$****=*****==****=*******==******==****==****=**===************=****=*==*=*=***#@@$*=====*****=****==****==******************************========*****=**************@@OO@$*****************************$$$$$$$$$$***###############$####$$$###@@###@@@@@@@@@@@@@+++..+++++@@@@##******************$###@@@@@@@@@@@@@@@@@@@@@@@@@@@@@@@@@####@@@@@@@@@@@@@@@@@@@+++++++...++@@@###***********=*****$$#@@@@@@@@+++++....+....+++++++++&&&+++++++++++++++++++++++++++++++++++++++++++++&&&&&&@@@@@@@@#@@#######@@#####$$@@@@@@@@##$#$#@@###+++@#*=******==******==***==***======****==******===****$#$$$$$$$$$$$$$**$$$$**$$$$$$*$****@+++O##**************#@....++++++++++&##%***************=*********=======********===*=%@XoO#*******=*******=*===***=*======*======**=*****========**========**@OO@*=******======********************$@O@@@@@#@#$$$************@@@$==*======*====**=**=====******$$@@@@@@$$$$$$***==-;;;;;;;-======*$$$$$$$$$$$$$$**====;-=;;;;;;;;-=***$*****==========****$$$$**$$@OOOOXXXXXXXXoooooooooo  ooo             ..       .oo  .                 ",
"+++++++++++++++++++++++++++++++++++++&&&&&&&:::&&&&&&&@@+++++......XXX++X+@@@@@@@@@@@@@@@@@@@@@@@@@@@@@@@&$$****$$$$*$*$*$&$&@@@@@@&&&&&&&&&&@@@@@@@@@#&&&&&@@@&&&&#@@@++++XXXXXXX++++XX+++@@@@@+O+X+++@@#***$@@@@$$*****************$******$#@@@$******======*************=******==************===**$@@$$$$$$**********=*******#@@$====*===***=======****==***==**==*******$$$$$$$$$$$******========***=***********=*@OXO#***=*=**===*=====*=====***=====*==**=**===*#@#######$****************************%****##@+++++++###***************************###################%%******%*****==**%*******%%%*%%****&&&&+++++++@###*****==****======***=******#####@@++++++..++++++++++++&&&&&&&&&&&&&&&&&&&&&&&&&&&&&&&&&&&&&++++&&&&&&&&&&&&&&####%#%*****======*=====***********=====****#+++@***===*====******==**===***======****=*******==*****%%%%%=%%%====**==******************#+.+@#****************@.....+++++++++&##****************=***$$$%******===*============%@XoO#***==***=*********=***********==******=***$$$$$$*$$*********==****@OO@*****=*===***===========**=***=***$@OOOOOOOOO@@@@@@$$$$$$**#@@@$*******==*=**=====*****==*=**=*$@@@@@$$$$$$$**===;;;;;;;;=======**$$$$$$$$$$$$$**===;;;-;;;;;;;;==****$$***==========****$$$$**$@@OOOOXXXXXXXXoXoooooooo . oo  o ooooo.ooooooooooooooooooooo              ",
"++++++++++++++++++++++++++++++++++++&&&&&&&&::&&&&&&&&@@+++XXX+....XXX++++@@@@@@@@@@@@@@@@@@@@@@@@@@@@@@@#$$$$$$$$$$***$&$$$@@@@@+&&&&&&&&&&&&&&###&&&&&&&&&&@&&&&&&@@@+XXXX++++XXX+++XX+++@@@@@+++XX+O@@#***$@@@@@$**$$***$$$****@@@@#*****#@@@@$***********=****=*=**=*=**=*==*===******======*****@OOOOOOO@@@@@#$*********===@@@$*=====****==***=****====**====***********$@@@@@@@@@@@@$$*********************=**=*@XO@$********=*****===============****==**==****@@+++++@@@@@@@###*$*****************=*=====#&&&+++##****======*====================*********#@++@@@@#####*%%********==**************==****&&++++++@@$***=*==***===**======******==*==*****%*#@+++.++++.+++++++++++++++&&&&&&&&&&&&&&&&&&&&&&&&&&&&&&&&&&&&&&&&+++++++++@@@@#####*********=====*********=========**++++#*=**==*=*********************=*************=**=****#@@@#######****=*==*****************#+.+@*****************@O...+++++++++@@#********==***===**%@@XXOO@@@##$$%%%%%%=====***=#OXX@%****====*******==***====**===***===******$@@@@@$@@$$$****$$***$$%#@OO#*=**===***==****===*======*=******@OXXXXXXXXXXXXXOOOO@@@@@@@O@@*******=**=**====*****===**===***$$$$@@@$$$****==;;;;;;;;;=======**$$$$@$$$$$$$$**==-;;==;;;;;;;;-==****$$**===========***$$$$**$$@@OOXXXXXoooooooooooooo  ..   o.XXXXXXXXXXX...XXXXXOOOOOOOOXXOOOOXXXXXXXX",
"++..++++++++++++++++++++++++++++++++&&&&&&&&:&&&&&&&&&@@+++.XX.....XXXX+X+@@@@@@@@@@@@@@@@@@@@@@@@@@@@@@@@@$#$$$$$$$*$$$&&$&@@@@@@&&&&&&&&&&&&&&###&&&&&&&&@&@&&&&&&&@++XXXX++X+XXXX+++++++@@@@@@++XX+@@@$***$@@@@@$**$@***$@@$**$@@@@@@#$#@@@@@@********=====******=********=*=*===********======***@OOXXXXXXOOOOO@@@@@@$$$****@@@$*=====****=*****==**===****==**=****===***$$@@@@@O@@@@@@$$**$$@@$$*$**************@OO@$****=**===*******==========*=***===**===**$@O++++XXXXXOOO@@@@@@@@$$$$***********====*#&++++&#***====**==***==**======**====************#@X.X.XXXXOO@@@@@@@#$$*******************=***$++++++@#*************===**======*=****==*==*****=*#@+++.++++++++++++++++++++++++++++++++++++++++++++++++++++++++++++++++++++.+++XX+O@@@@@@@@$$$*****************====***$++++#*=**=**=*****************************=*=*===**=***@OXXXXOOOOO@@@@@@$*******************#+++$****=**=*=====***#@+++++++++++++@********===****===*$OXXXXXXXXXXOOOO@@@@@#$$$%***#XXX@%****====****=*===***====**====**==*******$@@@@@@@@@$$$***$$$@$@@@@OX@$****==****==****==****=====**=****@OXXXXXXXXXXXXXXOXXOOOOOOOO@$*****=*******===*******==**=******$$$@$@$$$****==;;;;;;;;-=======**$$$$$$$$$$$$$**===-;-=;;;;;;;;===***$$$**===========***$$$$**$$@@OOXXXXXoooooooooooooo      .oXXXXXXXXXXXXXXXXXOOO@@@@@@OOOOOOOOOOXXOOOO",
"...++++++++++++++++++++++++++++++++&&&&&&&&&::&&&&&&&&@@++++X.X....XXX++XO@@@@@@@@@@@@@@@@@@@@++++@+++@@@@@@&&&&&&&&$$&&&&&@&&@@@+&&&&&&&&&&&&##@@@#@@#&&&&&&&&&&&&&@@++XXXXXXX+XX+++++++++@@@@@@O+X++@@@#***$@@@@@$*$@@$$$$@@@$#@@@@@@@@@@@@@@@@******=****=***************=**=**==**********=*===**@OOXXXXXXXXXXXXXXXXOOO@@@@@@@@$**==========**=====*==****========***==****$#@@@OOOOO@@@@$**@@@@@@@@@@@@@@@#######@XO@$*******====**==*=**=*****=***=*====***=***#+X+++++........+++.++++++@@@@@@######**##&++++@#****==**********==***=**=*************====**#@...........+..++.++++#&&########%******=*##+++++@#****==***=******==********====*===**=*******#@+++++++++++++++++++++++++++++++++++++++++++++++++++++++++++++++++.+.++.....+......++++++++++++@##########***=******#++++**=*****=************==****===****************=**=*@..............+++++@@@@@########**###++#*==*============*=*$@+++++++++++@#*****=**==*****=***@Xo... ...........XXXXXOO@@##@XXX@*******============****==**==****==*******$@@@@@@@@@$$$**$$@@@@OOOOOX@$***====***====*=====**=====**=****@OXXXXXXXXXXXXXXOXX+++OO++O@$******==****=*=************=******$$$$$$$$$***==-;;;;;;;;========**$$$$$$$$$$$$$**===;;-;;;;;;;;;-=*****$***===========***$$$$**$@@OOOXXXXXXoooXooooooooooooo  ooXXXXXXXXXXXXXXXXOO@@@@@@@@@@@@@@@@@@@@@@@@",
"+++++++++++++++++++++++++++++++++++&&&&&&&&&::&&&&&&&&@@++++XX.X...XXX++XO@@@@@@@@@@@@@@@+@@++++++++++++@@@@&&&&&&&$$$&&&&&@@@++@+@&&&&&&&&&@@@@+++@@@@@&&&&&&&&*&&&#@++XXXXXXXXXX+++++++++@@@@@@++X++@@@#***$@@@@@$**@@$**$@@@$$@@@O@@@@@@@@@@@@******=***********************=****************=*=**@OXXXXXXXXXXXXXXXXXXXXOOOO@@@@$**==*=**==****=====*******==**=====*===*==**$@@@OOOO@@@@@#$$@@@@@@@@@OOOOOO@OO@@@@XXO@$*******====**===*************=*====*******@++.+++............XXXXXXXXXXXXXXO@@@@###@+++++##****************==*********************==***@+.............++....+++++@+@@@@@@@@@##$$$#@@++++###*=**************==**==****====**=====*******#@+++++++++++++++++++++++++++++++++++++++++++++++++++++++++++++++++++...........++..+++++.+..++++@@+++@@@@@@@#####**$@+++@********=************==***=***********==***====***#@..................XXXXXXXXXXOO@@@@@@++++****=**=**=*===*****@+++++++++++@#*******===****==***@Xo..o.    .o.....oooXXXXXXOOX.oX$********=******====********==****===******$@@@@@@@@@$$$**$$@@@@@OXOXO@$=*=====***====***===***=**=**=***$@XXXXXXXXXXXXXXXOXX+++++++O@**********=**=*=********==**=******$$$$$$$$$***==;;;;;;;;;========**$$$$$$$$$$$$$**===-;-=;;;;;;;;-=*********===========***$$$$**$@@OOOXXXXXXoooXoooooooooooo   .ooXXXXXXXXXXXXXXXO@@@@@@@@@@@@@@@@@@@@@@@@@",
"+++++++++++++++++++++++++++++++++++&&&&&&&&&&&&&&&&&&&++++++++.....XXXX+++@@@@@@@@@@@@@@++++++++++++++++@@@&&&&&&&&&&&&&&&&&@+++++@&&&&&&&&&++@@@@@@@@@#&&*:::::==*&#@+++X++XXXXX+++XX+++++@@@@@@+++++@@@#***$@@@@@$$$@@$*$$@@$**@@@@@@@@@@@@@@@@******=************$$$******************************$OXXXXXXXXXXXXXXXXXXXXXXOO@@@@$************====*===****======*=======*===***$@OXOXXO@@@@#$@@@@@@@@@++XXX++X++XXXXX+X@$********===**********==*******===****=***#@...++++...........................+++++++++.+@****===*********====*===****==****=**===******@...............+++++++++++++++.+..++++++++++.++@#******************==**********========***===**#@++++++++++++++++++++++++++++++++++++++++++++++++++++++++++++++..+++...............+++++++++++++++++++...+++++++++##++++#*=*******************==********************=******#X.................................+.+...+************=*******@O.+++++++++@#******==**====*=**%@.....    . ......o............XO$***********=**======*****=****===****==***$@@@@@@@@@$$$**$$@@@@@OXOXO@$******====**========******=**=*=*$OOOOXXXXXXOOXXXOOOOOOOOOXO@@***=*******=*=***=======*====******$$$$$$$$***==-;;;;;;;;=========*$$$$$$$$$$$$$$**===;;;;;;;;;;;;-=*********============**$$$$**$@@OOOXXXXXXXoooooooooo  oo o   .ooooXXXXXXXX.XXXXO@@@@@@@@@@@@@@@@@@@@@@@@",
"++++++++++++++++++++++++++++++++++++&&&&&&&&::&&:&&&&&@++++X++.....XXXX+++@@@@@@@@@@@@@@++++++++X+++++++@@#&&&&&&&&&**&&&&&&@++++++#&&&&&&&&+++@++++@@#&&&:::::::=*&&@+++X++XXXXX+++XX++++@@@@@@@O++O+@@@#***$@@@@@$$$$@$$*$$@$**@@@@@@@@@@@OO@@$*******************$@@@$***************=*********=**$OXXXXXXXXXXXXXXXXXXXXXXXO@@@@$**==********====*===******==*==*==*=***=====*$@@OOXXO@@@@#$@@@@O@@@+++XXX++X++.XXXXXO@********====********=*==********===***=***#O.+................................+++++++.++@#*=*===***************===****==*******==***=**#+...................++++++++++++++++....++++.++###****=*===**=******************======*****===*$+++++++++++++++++++++++++++++++++++++++++++++++++++..+++++++.......................+++++++.++++++++++++....+++++++++++++@#*=****==*****************************************$@X.......................................+********************#@+.++++++++@#******=****===*=**$O...     .. .o...oo............X@**==********========******=***====****==***$@@@@@@@@$$$$**$$@@@@OOXOXO@***=***====**=========******=*****@OOOXXXXXXXXXXXXOOOOOOOOO@O@@***=************========*====******$$$$$$$****==;;;;;;;;;==*======*$$$$$$$$$$$$$$**===;;;;;;;;;;;;-=*********============**$$$$**$@@OOOXXXXXXXoooooooooo  o oo   .oooooooo...o..XXXOO@@@@@@@@@@@@@@@@@@@@@@@",
"+++++++++++++++++++++++++++++++++++&&&&&&&&&::::*&&&&&@++++X+++.XXXXXXXX++@@@@@@@@@@@@@@++++XXXXXX+++++@@&&&&&&&&&&&&&&&&&&&@++++++@&&&&&&&&+++@+@++++&&&:::::::::*&#@+++X++..XXXXXXXX++++@@@@@@@@@@@@@@@$****@@@@$**************$@@@@@@##@@@@@@$*********====*****$@@@@@$**************==*****=**=**$OXXXXXXXXXXXXXXXXXXXXXXXOO@@@***=*=*===**=******===*******************====**@@OOOO@@@@$$$$@@@O@@@@OO+XXXX+XX++XXXXO@***=***=======**=*========****===*==******@X......+...........................++++++++X+#***********=*=**********=*=***==*****==******#@+................++++++++++++++++.........+.++@#*****=******==**********======****=*******====#@++++++++++++++++++++++++++++++..+++.++...+..++++++++.+++++....+++.+.++......+.......++++++..++++++&+++++....++++++++++++@#=**=*===***************$###########@@@#########@@@+.......................................X@*********************@+X++++++++@#****====****====**#O..............................X@*====*******************====****==**====**$@@@@@@@@@$$$***$$$$@@@OOOO@$****=****==****====****=*==*=**=**$@@@@@@@@@@@@@@@@@@@@@@@@@O@@***=*********=***==*******==*******$$$$$$$***==-;;;;;;;;===**=====*$$$$$$$$$$$$$$**===;;;=;;;;;;;;-=*****$***============**$$$$**$@@OOXXXXXXXXoooooooooo    ooo   ooooo ....o.o..XXXXXOO@@@@@@@@@@@@@@@@@@@@",
"+++++++++++++++++++++++++++++++++++&&&&&&&&&:::::&&&&&@++++++++XXXXXXXX+++@@@@@@@@@@@@@@++++XXXXXX+++@@@@&#&&&&****&***&&&&&@++++++@&&&&&&&&+++@+@+++#&&&:::::::::&&#@@++X++X..+XXXXXX++++@@@@@@@@@@@@@@******$$*******************#@@@$$$#@@@@@$********=====*****$@@@@@$**************==****==**=**$OXOOXXXXXXXXXXXXXXXXXXXXOO@@@*******==**==******==*********************==***$@OOO@@@@@$$$$@@@@@@@@OOXXX++XXXX+XXXXO#***=***=======**=========***==*=**==**=**$@X..........+.+.....................+++++++++#***=****==**======************==******==******#@...............+++++++++++++++...............+##**=*=********=*==*****=******************==*==#@++++++++++++++++++++++++++++++++++++++++++++++++++..++.+......++....++.....+.......++++++++.++++++++++++....++++++++...+@#***=====***************@@OOO@@OOOOOOOOOOOOOOOOOOXX........................................X@*********************$+X++++++++@#******==*****=****#O...........o.............o....X#****==******************====***====**===**$@@@@@$@@@$$$***$$$$@@@@OOO@$***==*****=**************====*****$$$$###$$$$###**$********@O@#*************=***==*******=********$$$$$$$**===;;;;;;;;;===**=====*$$$$$$$$$$$$$$**===;;;;;;;;;;;;-=****$$***============**$$$$**$@@OOOXXXXXXXXoooooooo     ooo   oo o    .   .o.oXXXXXXOOOOOOOOO@@@@@@@@@@@",
"++++++++++++++++++++++++++++++++++&&&&&&&&&&&::&&&&&&&@+++++XXXX...XXXX+++@@@@@@@@@@@@@+OXXXXX.++++++++@&&&&*******&&&&**&#&@+++++++&&&&&&&&&@@@@@@@@#&&&:::::::*&&&&@@+++XXXXXXXXX+XO+++@@@@@@@++++@@@@@$*********************************$@@@@$***=**************$@@@@@************=*===***********$@@@@@@@@@OOOOOOOOOOO@@@@@@@@$*****==*=======***===***===******======***==***$@@@@@@@@@@$$$@@@@@@@@OOXOOOXXOOXXXXXX@#***=*===***===************=***===********@+.+.................................++++++++@$*****======*==*****==********=**********=*****@OX...............+++++++++++++++.............+@$*=**=*******=****===*********===*******=*******&++++++++++++++++++++++++++++++++++++++++++++++++++++++++++++++++++++++...............++++++++++++++++++++........++++...+@*******=*=*******==*****@+....++................................................ ..... ....X#**********************#@++++++++@*****====***===*=**@OXXXXXXXXXXXXXXXXXXXXXXXXXXXX..O#****************=********===******======***$$$$$$$$$$$$***$$$***$$@OO@***===****=====***=========***=****************************$@@@#****==*=====****=******==***********$$$$$***===;;;;;;;;==*****====**$$@$$$$$$$$$***====;-;;;;;;;;;-=****$$***===========***$$$$*$$@@OOXXXXXXXXXooooooooooo    o               oo    ooo.ooooXXXXXXXXXXXXXXXX",
"++++++++++++++++++++++++++++++++++&&&&&&&&&&::::&&&&&&@+++++XXXXX.XXXXX+++@@@@@@@@@@@@@@++XXXX++++++++@#&&&&********&&&&*&#&@+++++++&&&&&&&&&@@@+@@@@@#&&&&:::&&&&&&#@@@++++XXXXXXX+XX++++@@@@@@++++@@@@@$****@@@$**************************@@@@$******=***********$@@@@@*************====************$$%$$$$$$$$$$#######$$$$$@@@$*****==========***===***===****=*====****====***$@@@@@@@$$$$$#@@@@@@@@@@@@@@@@@@@+X+X@#***=***=***===****=*******===******=*****@++++X.+++++....+++.+....X.........+.++++++++#******=*************=*********=*=****=*=*******@XX................+++++++++++++++.....++....++@**=***********=***====*********===*********=****&&&&&&&&&&&&&&&&&&&&&&&&&&&&&&&&&&&&&&&&++++&&&++++++++++++++++++&&&&+++++....++......++++++++++++++++++++.......++++++..+@******=*==*******=*****#@.........................+..XXX...................................O#**********************#@++++++++#*****====****===***$@@@@@@@@@@@@@@@@@@@###@@@@#@X..@#******=*********==********===*****======**************************@OO@***===****==***=**=*=====**********$@@@$$******************$@@@*******======************==**********$$$$$***==;;;;;;;;-==*****====**$$@@$$$$$$$$***====;-;;;;;;;;;-=****$****===========***$$$$**$@@OOXXXXXXXXXooooooooooo   oooo                        oooooooooooXXXXXXXX",
"+++++++++++++++++++++++++++++++++++&&&&&&&&::::::&&&&&@@+++++XXXX...XXX+OO@@@@@@@@@@@@@+++++++++XXX+++@#&&&&&&*&&*&&&&&&&&#&@@+++++&&&&&&&&&@@@@++++@+&&&&&&&&&&&&&&&@@@++XXXXXXXXXXXXXX++@@@@@@+++OO@@@@$****@@@@@$************************$@@@*******===*********$@@@@@$************==****=*==*=*****************************$@@**=****=====******====****==****==*=*******===****$$$*$$$*********$$$$$$$$$$$$$$$$@OXX@#***=********==**=====*==**==*************@@@@@@@@@@@@@@@@@@@@@@@@@@@@@@@@@@@@@@@@++++#******************************==*******==****=**@@OO++XXXXXXXXXXXXXXXX+++@@@++++++OXOOOO++++.+@#*************=****=***********************==**=*&&&&&&&&&&&&&&&&&&&&&&&&&&&&&&&&&&&&&&&&&&&&&&&&&&&&&&&&&&&&&&&&&&&&&++++++++++++OOOOO@@@@@+++++@@@@@@@@OO@@@@@@@@@@@@+..+@*=***=*==********=*****#@..........++++++++@@@@@@@@@@@@@@@@@@@@@@@@@@@@@@@@@@@@@@@@@@@@X..X@%**************==*******#++++++++$*****===***=====****$%$%%%%$$******************#O.X@#=******=****========*******=====*===*=****************************#O@@**********=====*******====*=******$@O@@@@@@@@@##$****$*****$@O@*******===**************=======******$$$$$***=-;;;;;;;;==******====**$$$$@$$$$$$$***===;;-;;;;;;;;;==*********===========***$$$$**$@@OOXXXXXXXXXooooooooooooo  oooooo                                        ",
"+++++++++++++++++++++++++++++++++++&&&&&&&&::::::&&&&&&@++++++.X....XXX+OO@@@@@@@@@@@@@@++++X+++X++++++@#&#&&&&**&*&&&&&&&&@@@@++@@&&&&&&&&&&@@@+++@@#&&&&&&&&&&&&##&@@@++XXXXXXXXXXXXXX++@@@@@@+++OO@@@@#****@@@@@@*$**********************$@@@*******===*********$@@@@@$************==****========*$$$$$$$$$*****************$@#**==***===*********===****==***===*********=******$*******************************#X.X@$****************=========***=************#########*#################*$###########+++@#**************************==***=**********=*****######@@@@@@@@@@@@@@@@@########@@@@@@###@++.++@#*******************************=********====****&+++&&&&&&&&&&&&&&&&&&&&&&&&&&&&&&&&&&&&&&&&&&&&&&&&&&&&&&&&&&&&&&&&++++@@@@@@@##@@@@@#############&&################@+..+#*******==****=*********#O..........++++@@#################********************%****%**#+...@#********==****==*******$++++++++******=******====***$$**%%****************===***#X.X@*=*========*==*=====*******=======**********$**********************@O@$*********=====*********===*=*****$$@OOOOOOOOOOO@@@@@@@@@#$@@@O@******====**************========*****$$$$***==-;;;;;;;;==******====**$$@$@$$$$$$$**====;;-;;;;;;;;;-=*********===========***$$$$*$$@@OOOXXXXXXXXooooooooooooo ooo                                            ",
"++++++++++++++++++++++++++++++++++++&&&&&&&:&&&&::&&&&&@++++++..+...XXX+XO@@@@@@@@@@@@@@++++++++++++++@@&&&&&&&&&&&&&&&&&#@@@@@+@@@&&&&&&&&&&&&@&&&&&&&&##&&&&==****&&@++++X+XXXXXXX++XO+++@@@@@OOXO@@@@#$****@@@@@@***$****@$****@@@@##***$#@@@****=***==*********$@@@@@$********************==***=*@OO@@@@@@@#$$$$***********$@$********====***===****===*****===**=**==******==*$@@#$$***************************@OX+@*****==***********==********=*******===**#@####******$$**************************@+++@*****=***********=*******====********************$#######***$$$$$$$$$$$$$$*****$$**$$$$$%#+..X@$*******************=**===*===**********==*******@+++++++++++++++++++++++++++++++++++++++++++++++++++++++++++++++++++++###########*************************************@+..+$*************=*********#X................++++++@@@######****************=*************$X..X#*********=******=*=******@@+++++@*****===**==*******$@@@@@@##$$*********=***==***#XXX@**=*===========*=**==****===***===*****==**$$$$$$$$$$$************$OX@$****==**************************$$$@@OOOXXOOXXOOOOOOOOO@@@@@OO$***==*=====***$@@@#$$******====***=**$$$***===;;;;;;;;==*******====*$$$$$@$$$$$$$**====;;-=;;;;;;;;-=*********===========***$$$$**$@@OOOXXXXXXXXooooooooooooo o  o                                           ",
"++++++++++++++++++++++++++++++++++++&&&&&&&:&&&&::&&&&&@++++++...X..XXXX+O@@@@@@@@@@@@@@@@+++++++O++++@@@&&#&&&&##&&#&&&##@@@@&&@&&&&&&&&&&&&&&&&&&&&&&&**::::=====*&&@++++XXXXXXXXXX++++++@@@@@OXXO+@@@@#****@@@@@@********@$****@@@@@@$$@@@@@@****=***=**********$@@@@@$**************==*=**======*@XXXXXXOOOOO@@@@$$$$******$@$**==*=**====***===****====*****==*==**=*****====*$@@@@@@$$$***********************@XX+@*===*=*********=**==**********=******=***@OO@@@@@@@@@@$$$************************@+++#%****************=*****====*************=****=**@@@@@@@##$$**$***************************#+..+@*******************==********=****=*=***********#@++++++++++++++++++++++++++++++++++++++++++++++++++++++++++++++++++++++++@@@@@@@@@@@#$$$******************************@+.X@$******************=****@X.....................XXXXX+@@@@@@@##$$$********=*********==**$X..X$*********=******=********#@+++++@***=*===*===*****=*@XXXXXOOOOO@@@@@#$$$$********@XXO$*****=*******==*==*==****==****==****=*****$@@$$$$$$$$$$****$$$$$$@OX@$**************=*****$$$$*$$$$$$$$$$@@OOOXXXXXXXXXX+OOOOOOOOOO@$*=*****====***$@@@@@$***=********==**$$$***==-;;;;;;;-==*******====*$$$$$@$$$$$$$**====;;==;;;;;;;;-=********============***$$$$*$$@@OOOXXXXXXXXooooooooooooo                                                ",
"+++++++++++++++++++++++++++++++++++++&&&&&&&&:::::*&&&&&++++XXX...XXXXXXX++@@@@@@@@@@@@@@@@@@@++@@@@@@@@@&########$$@@&&#&@@@&&&&&&&&&&&&&&&&::&==::=:======:======*#@@+++++XXXXXXXXX++++++@@@@@XO+++@@@@$****@@@@@$******#@@@****@@@@@@@@@@@@@@****==*********=***$@@@@@$********==****====*******=*@XXXXXXXXXXoooXXXXX@@@@@@@@$$*====*****==****===***************===*===**=====*$@@@@@@@@@$$$$@@@##$####$$$*%****@O++$*===***==**********==********************@X...++++++++++@@@@@#######$***********$++++$****************===****==**************=*=*****#@++++++++@@@@@#####**********************#+.+@#**********************=***=*********************#+++++++++++++..................++..+..........++++++.+++++++++.+..............+++++++++@##@@@###########**************@+.X@****==************====**@X................................XXX+++++@@@@#######**********#...+*********=*********=*******@@+++@#***=******====****%@.........o....XXXXOO@@@#####X.X@$*******************===**======***$********$@@@@$$$$$$$$$***$$$@@@@OXO@*********==******$@@@@@@@@@@@@@@@@$$@@OOOOXXXXXXXXOOOOO++++OOO@**==*=***===***@@@@@@#*==**********=*$$$$***==;;;;;;;;===*******====*$$$@@@@$$$$$$**===-;;==;;;;;;;;-==***$***============***$$$$**$@@OOOXXXXXXXooooooooooooo oo o                                            ",
"+++++++++++++++++++++++++++++++++++++&&&&&&&::::::*&&&&&++++XXXXXXX+XXXXX+@@@@@@@@@@@@@@@@@@@@@+@@@@@@@@@&@@@$$###@@@@&&#&&&&&&&&&&&&&&&&*=:::::==::::=:=========**#&@@+++++XXXXXXXX+++++++@@@@@XO+X+@@@@$****@@@@@$****$$@@@@****@@@@@@@@@@@@@@****=**********=***$@@@@@$********==****====****=***$@XXXXooXXXXXXooXXXXXXXOOO@@$**===******==****===***************==**===****==**$@@@@@@@@$$$$@@OO@@@@@@@@@@@@@$$$@X++$***=*=*==****==*****=*******************$@X++++..+.....XXX+OO@@@@@@@@@#$$$******@++++****==**=***====**==****==**************=****=**@X+XXXX+++++++OO@@@@@@@@##$***************#+++@#*******=*=*****==****===**=****************=****#X++....++++++++++.+++....++....++....++++..+++++++++.++++.+.......................X+XX++++++++@@@@@######$$$$$***$$***@+.+@****=************=====*$@X........................................XXXXXOO@@@@@@@##$$**%@. .@*********=*********=*******@@+++@#=**=***=**===*****$Oo.. .........o.XXXXXXXXXOOOOX.XO#$$$$$$$$$$$***=****==****==****$@@@@@@@@@@@@@@@$$$$$$$$****$$$@@@@OXO$****=***==******$@OOOOOOOOOOOXXOO@@@@@OOXXXXXXXXXXXO+OO++++@@O@***=*=********$@@@@@@$******==********$$***===;;;;;;;===***$$***====*$$$@@@@$$$$$$**===-;;==;;;;;;;;-==*******============***$$$$**$@@OOOXXXXXXXoooooooooooo  oooo                                            ",
"+++++++++++++++++++++++++++++++++++&+&&&&&&&::::::&&&&&@++++XXXX.XXX+XXX++@@@@@@@@@@@@@@@@@@@@@@@@@@&&@@&&&&&&&&&&&&&&&&&&&&&&&&&&&&&&&&*=::::==::=======***####&&&&@@@+++++XXXXXXXXXX++++O@@@@@OOOOOO@@@$****@@@@@*****$$$@@@$***@@@@@@#@@@@@@@*****=*************$@@@@@$************==*=*====*****$@XXXXooXXXXXXoXooXXXXXXX@@@$$*=*==****=*******==**$####$#**====***====**====**$@@@@@@@@@$$$@@@OO@@@OOXXXXXXOOOOXXX+$*=****=====*=*====*********************#@+++++++++++++++++++++++.+++++++++@@@@##++++#*************=*****************************===*#++++++++++++++++++++++++++&&&&&&&&&&&#&&&&&+++##=*===*****=**=*****************************=***$@.........+++...........................................................................++++++....+++++++++++++@@#@####++++#*****=*****************#@X..XXXXX++++++XXOXXXX+...................................X+++OX..X@**===***==*=**************=*@@++@#******************#O..  ...   .....................++++@+O+O+O@@**=****=*=**=******$@@@@OOOO@@@@@@@@$$$$$$$$****$$$$@@OOO@$**=*=**=**==****$OOOXOOXXXXXOOOOO@@@@OOOOXOOOOOOXOOOOOOOOO@O@O@*****==*==****$@@@@@@$*=****==********$$***==;;;;;;;===***$$$$**====*$$$@@@@$$$$$$$*=====---;;;;;;;;;==***$$***===========***$$$$*$$@@OOOXXXXXXXXooooooooooo ooo     o                                        ",
"+++++++++++++++++++++++++++++++++++&+&&&&&&&::::::&&&&&@++++XXXXXX.X+XX++++@@@@@@@@@@@@@@@@@@@@&#@@#&&&&####&&&&&&&&&&##&&&&***&&&**&&&&*=::::===***&&&&&&&&&&&@&&&@@@++++++XXXXXXXXX++++O@@@@@@OOO@@@@@@*****@@@@*****$@*$$@@$***@@@@@@@##@@@@#*****=*=***********$@@@@@$***********====***===*****#@XXXXooXXXXXXXoooXX.oXXXO@@@#**=*****==*********$@@@@OO@@$**===***===****==***$@@@@@@@@@$$$#@@OO@@@OOXXXXXXXXXXXXX@$******=====*=*******$@@@@@@@@##@@#$$$##@@++++++++++++++++++++++++++..++++++++++@+++@#*****=******=**********$@@@@@@@@@@@@@@#$*******#&&+++++++++++&&&&&&&&&&&&&&&&&&&&&&&##&&&&&++&##=====********=****=***$##@@@@@@@@@@@@##$*******$OX.......+.+............................................................................++++++.....+++++++.XXXX+++XO+@+++++#************************#@@@##@@###########@@@@+....................................XX....X#***===****==**********=**=**#@++@#****====******=*=*#O.         ..........................XX.XXXO@******==****==*****$@@O@OOOO@@@@@@@@@$$$$$$$****$$@$@@OXO@$****=*****=*****@OXXXXOOXXXOOOOOO@@@@@OOOOOOOOOO@@@@@@@@@@@@O@#******=*==****$@@@@@@**=****=*********$***===;;;;;;;===**$$$$$**====*$$$@@@@$$$$$$$*=====-;-;;;;;;;;-==***$****===========***$$$$*$$@@OOOXXXXXXXXoooooooooo   oo                                              ",
"+++++++++++++++++++++++++++++++++++&+&&&&&&&::::::&&&&&@+++++XXXXXXX+XX+++@@@@@@@@@@$@$@&&&&$&$***&&&&&**&&&**&&&&*&&***&*&==*==&&=***&&***&&*###&&&&@@@@@@@@@@@@@@@@@@@@@++XXXXXXXXXXXOOO@@@@@@OO@@@@@@**************************$@@@@@#$$@@@@#*****=*=**********$@@@@@@$**$*****=====*==****=*==**#OXXXXXXXXooXXXXXoXXXXXXXOOO@@**=**=**==*****=*=*@OOOOXXO@$***==****=*****==*=*$@@@@@@@@@$$$#@OOO@@@@+XX+.XXXX....X@******==****=*******#@++++++++++++++++++++++++++++++++++++++++++++++++++++++++++++++@#**********************#@+++++...++++.+++@@####&&&&&&&&&&&&&&&&&&&&&&&&&&&&&&&&&&&&&&&&&&&&&&&&*==*==*********=**=****$@++++++++++++++++@@@#$%%%#+......................................................................................++++++++...++++++++++....++++++++++@#*****=**********=*****=***********************#@++++................................... ..O#***=******===*==****=======**@XX@***==========******@X.........................................XO#****==****=*=*****$@@OOOOOOO@@@@$@@@$$$$$$$$****$$$$@@@OO@************==**%@OOOOOO@@@@@@@@@@$$$$$$@@@@@@$$$$$$$$$$$**#@O@$**=*==**==****@@@@@@@****************$****==-;;;;;;===**$$$$$$**====*$$@@@@@$$$$$$**====;;;;;;;;;;;;-==***$****===========***$$$$*$$@@OOOXXXXXXXXoooooooooooo o    o                                          ",
"+++++++++++++++++++++++++++++++++++&+&&&&&&&&:&&::&&&&&@++++.XXXXXXXXXX+X+@@@@@@&&&&$$*&&&&&********&&*******************=&&*&**&&***&&&&&&&&@@@@@@@@@@@@@@@@@@@@@@@@@@@@@@++XXXX+XXOOOO@@@@@@@@OOO@@@@@$**********************************$@@@#*******==***==****$@@@@@@@$*$*****==*=====******=***#@XXXXXXoXXoXXXXXXXXXXXXXXXX@@$*=**=**====***==**@OOOXXXOO$***==***=****======*$@@@@@@@@@@$$#@@OOO@@OXXXXX..XXXXXXX@*=****==************#@++++++X.X+++.XX+.+++++++++++++++++++++++++++++++++++++++++++++@#*******====****=**=***#O..........++....++@@##&&&&&&&&&&&&&&&&&&&&&&&&&&&&&&&&&&&&&&&&&&&&&&+&#***==************=*==*#+++++++++.+....+XXXX@@###@................+.......................................................................+++++++..+++++++++......++++++&&&&#*=****=**********==****==*===**=======*========*#+++++.....................................@#**********=========**======**#OO@***==========****=*@X.. . ..................................X.XO#****==****==******$@@OOOXXOO@@@@$$@$$$$$$$$******$*$$$@OO#***=************$@OOOO@@@@@@@###$$$%%$$$$$$*****************@O@***=*=***==****@@@@@@@****************$****==;;;;;;;===*$$$$$$$**====*$$@@@@@$$$$$$**====;;;;;;;;;;;;-==**$$****===========***$$$$**$@@OOOXXXXXXXooooooooooo oo                                                ",
"+++++++++++++++++++++++++++++++++++&&&&&&&&:::&&::&&&&&@+++++.X....XXXX+X++@@@@@&&$$$***&&***&*====*===***==***********&*&**&&&&&&#$&&&&@@@@@@@@@@@+@@@O++@@@@@@@@@@@@@@@@@@++XXXO++OOOO++@@@@@@OOOOO@@@@$*****$$***************************@@@$****==**=======***$@@@@@@@$$$****===*=====*****==***$#@@@@@@@@@@@@O@@OO@@@@@@@OOO@**********===*===**@OOOOXOO@$*****====**===***==*$@@@@@@@@@$$$@@@OO@@@OXXXXXXXoXXXXXX@******==**=*********#@++.+++...+++++++.+++++++++++++.....+++++++++++++++++++++++++++@*=*********=****=====**#O.X++.............+++++++++++++++++++++++++++++++++++++++++++++++++++++***=**********=*****=*%#+++++++++++++++++++++++++++++++++++++++++++++++++++++++++++++++++++++++++++++++++++++++++++++++++++++..++..++++++++++++++++++++++++++.....+++++++&+&#*=***=***********==*****====***=========**=====#@+++++++++................................X@%************===******=====***$@O@***========*****==$@XXooXoXXXXXXXXXXXXXOOOOOOXXOOOOOOOOOO@@+XXX@*****==****==******$@@@@@@@@@$$$***********************$@@$*************=**$OOOOOOOO@O@@@@@@@$$$$$$$$*****************#@O@***********==**@@@@@@$**=******=******$****==;;;;;;====*$$$$$$$***==**$$@@@@@$$$$$$**====;;;-;;;;;;;;==****$****===========***$$$$**$@@OOOXXXXXXoooooooooo o ooooo                                             ",
"+++++++++++++++++++++++++++++++++++&&&&&&&&&::::=:&&&&&@++++..X.X.XXXXXXX+O@@@@@@&@$&&&&****&&:::=::::====******&*&&&&&&#&##&&&&&&&&&&@@@@@@@@@@@@++++++++O++@@@@@@@@@@@@@@+++XXX+++@O@@@@@@@@@@+++O+O@@@$****@@@@$*********************=***@@@$****==**=======***$@@@@@@@$$******==*=====******=**=******%$$$$$$$$$$$$$$$$$$#@OO@*********=====*=***@OOOOXXO@$*****====*===****=**$$$@@@@@@@@$$@@@@@@@@OOXXXXXXXXXXX.X@******==**=*********#@+..+++..++.+++++.+++++++++++++.........+++++++++++++++++++++++#*===**********=**==****#@@+++++....+......++++++++++++++++++++++++++++++++++++++++++++++++++++#**********************%#@+++++++++++++++++++.++.++++++++++++++++++++++++++++++++++++++++++++++++++++++++++++++++............++.+++.++++++++++++++...+++++++++.....++++++++++@*****=***********=*******===****=========**====#@++++++++.................................X#***********====******======****@@$=**======*=**=**=*$@@@@@O@@@@@@@@@@@@@@#####################@XX@#**=*==*****=******$$###$$$$******************=********$@@$****************$@OOOOOO@@@@@@@@@@@$$$$$@@@@$$$$$$$********@@@$*=*********==**@@@@@#***=**=*===******$***==;;;;;;-===*$$$$$$$$***==**$$$@@@@$$$$$$**====;;;-;;;;;;;;==****$****===========***$$$$**$@@OOOXXXXXXXooooooooooooooooo                                             ",
"++++++++++++++++++++++++++++@@@@+++&&&&&&&&:::=:=*&&&&@+++++XXXXX.XXXXXXXXOO+@@@@@&#&&******::::&&*&&&****&&&&&&&&&###@&&&@@@@@@@@@@@@@@@@@@@@@@@OXXXXXXXXXOO@@@@@@@@+++@@@+XXXXXOXO+O++@@@@@@@@++XXO@@@@#****@@@@@************************$@@@$****==****====***=*$@@@@@$$************=****==******%$****%%****%%%%%%*******$@OO@******======*******@OOOOOXO@***=********====**=***$$*$$$$$$$*$$$$$$$$$$@@@@@@@@@@OXXO#*********==*********#O+.+++++++++++@@@@@@@@@@@@@++++XXXXX+X+X++++++++++++++++++++..+#*===*==******======**=***$$$$@@@@@OOOX++++++++++++X+++XXX++.+++..++++++..+.....+++++++++.+++++#********************=******#######@@+++++++++&++++++++&&++++&&++&&++&&++++&+&&&+++++++++++++++++++++++++++++++++++++++++++++++++++++++++++++++++++++++++++++XXXXXXX++O++++++$*****=******************===*********=====*==****@@@+@@@@@@@@@@@@@@@@@@@@@@@@@@@@@@@@@@O...+$*===*==******==********=**=**=*$$*=****=*==****=*==*$@#####$$$$$$$$$$$$$*********************#@XO@*****=**=========*$@@@@@@##$$****************==********$@@***********==****$$@@@$$$$$$$$$@@OO@@$$@@OOOO@@@@@@@@@@@@@@@@O@$*=***=*=====***#$#$*****=**=*===******$***==;;;;;;===**$$$$$$$$**===**$$$@@@$$$$$$$**=======-;;;;;;;;-=****$****==========****$$$$*$$@@OOXXXXXXXXoooooooooooo    ooo                                           ",
"+++++++@@@++@@@@+@@+@@@@@@@@@@&&&&&&&&&&&&&&:===**&&&&@++++XXXXXX.XXXXXXXXO++@@@@@&#&&&&****&&&&&&&&&&&&&&&&&&&&&&@@@@@@@@@@@@@@@@@@@@@@@@@@@@@@@+O+OOXOXXX+O@@@@@@@@@++OO++XXXXXXXOXO++++@@@@@@++XXOO@@@@****@@@@@@***$$$$$$******$$$*****$@@@$****==*****====************************=****==*==**$@@@$$$$$****%************$@O@@*=****=======*=***$@OOOOXXO@****==******====**=***$***********************$$$#$$@@XXO#***=******=****=****@O++.++++++++@@#########################@@##@#@+@@@######@#++..+****==*=*=****=====******=******####@@@@@+@@##&####@##@@@@+++++++++++++++++++++++++++++++++++++#***************=***==****=*****#####&&&&&&&&&&&&&&&&&&&&&&&&&&&&&&&&&&&&&&&&&&&&&&&&&&&&&&&&&&&&&&&&&&&&&&&&&&&&&&&&&&&&&&&&&&&&&&&########@@@+++++@++@###@@@@@@@@@@@@&&+++&******=*******************=*=*=********=*********#####################**##****#$$$$$$##@..X+***======*****==***************=**=*******=*****=*==*#OOOO@@@@$$$$$$**************************#@XO#****==**=====*===*$@@@@@@@@@@@@$$$$********************@@$**********==*==****************#@OO@@$$@@OOOOOOOOOOOOOO@@@@OOO@**=*****====*************=*==*====*****$**==;;;;;;-==**$$$$$$$$$**===**$$$@@@$$$$$$$**=======-;;;;;;;;==****$****==========****$$$$*$$@@OOXXXXXXXXXooooooooooo    ooo                                           ",
"@@@@@&&&@@@@@@&&@@@&&&&&@@@@@@&&@@@&&&&&&&&*::::==*&&&@@+X+X..XXX.XXXXXXXXXX++@@@@@@&&&##&&&####&&##@@@@######@@@@@@@@@@@@@@@@@@@@@@@@@@@@@@@@@@OO++XXXXXXOXO@@@@@@@@@@@@@OOXXXXXXXOX+++OOO@@@@@OOO++O@@@$****@@@@@$***$$$$$$$****$@@@@$**$@@@@$*******=======**==****************======**=***=****@OXXXOO@@@###$$%%*********$@OO@******===*********$@OOXOXXO$**==******========***$$$$$$*************************#OXXO#************==******@O+++.+++++++++@@@@@@#######$$$$$**************************@+..+**=***===***************=====**********$$##@########*$$***$$$$$$$$$$$$$$$###$$$$######$$##+X.+@#==****====**=*****==*===****=*********##&&&&&&&&&&&&&&&&&&&&&&&&&&&&&&&&&&&&&&&&&&&&&&&&&&&&&&&&&&&&&&&&&&&&&&&&&&&&&&&&&&&&&&&#########*******************************#+++&***********=*******=*****====***===**=****==****########*******************************@..X@***=*=======*****==*==**************===*********=**=%@X.oXXXXXO@@@@######$$$$*****************#OX@$*************=**=*@@OOOOOOXXOO@@$$$$$$$$*$************$@@$**********=======*************$@OOO@@$$@@OOXXXOXXOOXXXXXXXXXXO@***====****==****************=*********$**==;;;;;;==**$$$$$$$$$$$**==**$$@@@@$$$$$$$**====-;;-;;;;;;;;-==***$****===========***$$$$*$$@@OOXXXXXXXXooooooooooooo   o    o                  .                     ",
"@@@@&&&&@&@@@@&&@@&@&&&&&&&&&&&&&&&&&&&&&&&*::::=**&&&@@XX+..XX.XX..XXXXXXXXX++++@@@@&&&&&&&&&@@&&@@@@@@@@$@@@@@@@@@@@@@@@@@@@@@@@@@@@@@@@@@@@@OOO+OXXXXXXOOO@@@@@@@@@@@@@@OXXXXXXOOO+OOOO@@@@@@@OOOOO@@@$****@@@@@$***$$$$@@$****$@@@@@$$$@@@@$*******=======**==*******=****=***====***==*******$@XXXXXXXXOOOO@@@@@$$$$****$@O@@******==******=***#@OOXXXX@$**==*=**======*==*=*$$@@@@$$$$$*********************#OXX@#****=====***====****#@++++++++++++XXXX++++@@@@@@$$$$***************************$+.X+**=***=*=**********=****===***=**********$#@@@+@@@@@###$$$********************************#+.+@#*=****====**==****==*===****=***==****##&&+++++++++++++++++++++++++++++++++++++++++++++++++++++++++++++++++++++++++++++++++@@&&&########******************************=$+++&**********==**************==****===**=*=***=***$@@@@@@@@@##$***************************@..X#****========******=*==**************==**********=***#O..o.ooooXXXXXXOOOOOO@@@@@@@@##$$$$******#OX@$*****=************@OOOOOOOXXOO@@$@$$$$$$$$$$*****$$$$$$@@************====**********=****$@OOO@@$$@@OOXXXXXXXXXXXXXXXXXXO#****====***==****************=**==***$$$*===;;;;;===**$$$$$$$@$$$*===**$$@@@@@$$$$$$**====--;-;;;;;;;;-==********===========***$$$$$$$@@OOOXXXXXXXoooooooooooooo  o     o               oooo.                   ",
"@@@@@@&&@&&&&&&&@@@@@@$$&&&&$&&&&&$$&&&&&&&*==**&&&&&&++XXX.....XX.....XXXXXXXXX++@@@@@@@@@@@+OO+@@@@@@@@@@@@@@@@@@@@@@@@@@@@@@@@@@@@@@@@@@@@@@@@@OOOXXXXXXOO@@@@@@@@@@@@@@@OXXXXXO+O+OO@@@@@@@@@@OOO@@@@$****@@@@@$***$$$@@@$****$@@@@$$$@@@@@$******==*=**=***================***=****===*******$@XXoooooXXXooXXXXXXOO@@###@OO@$*=**********==****$@@@@@@@$***===*======******=*$$@@@@@@@@@$$$$$$$$$************#OXX@$****======*****=*****$#@#@@@@@@@@@@@@@++..++++++++@@@@#####%********************+.X+**=****=****====**==****====***=****==****$$@@X+++XXXXOO@@@####$$*%***************=======*#X.+@#*=*=**=*****====**==**=*=*****************#@@+.+++++++++++++++++++++++++++++++++++++++++++++++++++++++++++++++++++++.++++++++++++++@@@@@######$$$$****************====*$++@&*******=**==**********************=*=*==*******$OX......++++@@@@########***************@..O#******====***=**********==************=***==**====**#O..  ..  ...... ......X....+XXX+@@@@@@@##+XX@******==***********@@@@@OOXXXXO@@@$$$$$$$$$$$$****$$$$$@@@**************==**********=****$@OOO@@$$@@OOXXXXXXXXXXOOXXXXXX@$******=*****=*****=*********==**=***$$$**==-;;;;-==***$$$$$$$$$$$**==**$$@@@@@$$$$$$**========;;;;;;;;==****$***============***$$$$*$$@@OOXXXXXXoooooooooooo                          oooooooooo    ooooooXXXXXX",
"@@&&@&&&&&&&&&&&$$&&$&&&&&&&&&&&&&$&&&&&&&&***&&&&&&&&++XXXX.XXX........X..XXXXX+++++@+@@@++++X++O@O+@@@@@@@@$@@@@@$@@$$@@@@@$@@@@@@@@@@@@@@@@@@@@OOOXXXXXXOO@@@@O@@@@@@@@@@OXXXXO+O++OO@@@@@@@@@@OOO@@@@#****@@@@@@***$$$@@@$*****@@@@$$$@@@@@$*****===********==*====*========***=****===***=***@OXXoooooXXXooXXooXXXXXXOOOOOO@$*=**==*==***==*****$$$$##$$***==**======******=*$@@@@@O@@@@$$$@@@@@@@@@@$$$$$$*$@OXX@#***=====*=******=******************$##++.+++++++XXXXXXOOO@@@@@#$@#$$$$*********$+.X@$*=***==****====**====************===*******##@++......XXXXXOOO@@@@@#$$$$$***********====*#X.+@#*=****=*****==************************=*****#@+++++++++++++++++++++++++++++++++++++++++++++++++++++++++++++++++++++++++....+..XXXX+XXXX+O@@@@@@@@@$$$$*****************@++@#*******=**===*************************=******=*$XX........XXXX++XXO@@@@@@@@##$********#@..O#******=====**=*******=**===****************=**===***#X..  ..................+......XXXXXXXXXOO+XX@*****===******=***$@O@@OOXXXXXO@@@$$$$$$$$$$$****$$$$$$@@#***************=**********=****$@OOO@@$$@@OOXXXXXXXXXXXOXOOXOX@$************===***====*****===**=****$***==;;;;;==***$$$$$$$$$$$$**==*$$$@@@@@$$$$$$**========;;;;;;;;==********============**$$$$$$$$@@OOXXXXXooooooooooooo                         oooooooooooooooooXXoXXXXXXX",
"@@&&@@$$$&&&&&&&$&&$$$$$&&&&&&&&$$$$&&$$********&&#&@@++...XXX...ooooooo.XXXXXXXXXXXXXXXXXXXXXXXXXXXO@@@@@@@**@@@@@@****@@@@$$@@@@@@@@@@@@@@@@@@@@@OOXXXXXXXOO@@OOOO@@@@@@@@OOXXO+++OOO@O@@@@@@@@O@OO@@@@$****@@@@@$***$$$@@$$*****@@@@$$$@@@@@*****************=======****====*******==****=****$@OXXooooooooooooooXXXXXXXXXXXX@$**=*==**=*=*======**********==**==********==****$@@@@@@@@@@$$$@@@@@@@@@@OO@@@@@@OXXX@**===******=**********==***************@+..+++++++...........XXXX++++@@@#########+.+@*****==***==********=**************=*=********#@+X..................XXXX+@@@#####****==***#+.+@#*=**====**********==*************************$@O.........................................................................................+.....X++++++@##########***##&@++@#****====**==***********===****==**===*****==*=*$..............++++++++...+++++@@@@@@##@+..@#***=**====****=****======***==************==*=====**@X..  ..  .o............++++..............+.O#******==**=*===***#OO@@OXXXXXXO@@@$$$$$$$$$$$$***$$$$$$@@$*******=****************=****=*$OOOO@@$$@@OOOOOOOOOO@@@@@@@@OO@$********===**=***======*====*=******$$***==;;;;==**$$$$$$$$$$$$$$*===*$$$@@@@@@$$$$$$*========;;;;;;;;==***$$***===========***$$$$$*$$$@OOXXXXXoooooooooooooo ooooo    o            ooooooooooooooooXXXXXOOOOOOO",
"&&&&@@@$$$&&&&&&$&&&$$&$$$&&&&&&$&$$&&$$*******&&&#&@@++..........oooooo....oo..XXXXXXXXXXXXXXXXXXXXO@@@@@@@$$@@@@@@****$*$@$@@@@@@@@@@@@@@@@@@@@@@OOXXXXXXXOO@@@@@@@@@@@@@@OOXXOOOO+OOO@@@@@@@@@@@@@@@@#******@@@$$***$**$@$$*****$@@@$$$$@@@@*********==******======******===*******==****==***@@OXXoXXXXXooooooooooooXXXXXXXO@$**==*=**=****===*====*****==****==********=****$$@@@@@@O@@@$$$@@@@@@@@OOXXXOOOOOXXXX@**===****==*****=*==*******************@+..++++++............X..X....XXXO@@@@@@@@+.++*****==****=**=*****=**************=****==*****#@+......................XXXXXXOO@@@@@###$$@X.+@#*=***===**********==**********==**************#@+.................................................................................................++++++++++@@@@@@@@@@@+++##*******=**==***********===*****=**=*******==*=*@..............++.+++++.......XXXXXXXXXX...@$*=*=**====**=*******======**=*=****=**==**========**OX.....   ...............+++................O#******==*****=****@OO@@OXXXXXXO@@$$$$$$$$$$$$$***$$$$$$@@$*******=********=************=*$@O@@$$$$@@@@@@@@@@@@####$$$@OO@*********====***=**=====*==*********$$$$*==-;;;==**$$$$$$@@@@$$$$$*===*$$$@@@@@@$$$$$$*========;;;;;;;;==***$$****==========***$$$$$*$$$@OOXXXXXXooooooooooooo ooooo    o           ooooooooXooooooXXXXXOOO@@@@@@",
"$$&&&$$$$$$$$$$&$$$$$&$***$$$$**$$$$$$&&$******$#&@@@++X.....o........oo...oooooooXXXXXXXXXXXXXXXXXXO@@@@@****@$**@$********@@@@@@@@@@@@@@@@@@@@@@@@OXXXXXXXOO@@@@@@@@@@@@@@@OOOOOOOOO@@@@@@@@@@@@@@@@@@********$$*****************$$$$$**$@@@@*****==**====*=**==*=******====***=**====**====**$@OOXXXXXXXXXXXXXXoXXoXXXXXO@OOO@$**==*=*==***==***=*=******==****==******====***$@@@@@@@@@@@@@@@@@@@@@@+XXXXXXXXXXXXX$*===***==******==*==*==***==***=***=***++.+++++++.........................+........++$**************************==***********==*=*=**#@+X................................+++++++..+@#***=**==***********=*=**********=====***===*****@+..............+...........................................................+.++.+.......+++....++++++++++++..++++++++++++#*****************=*****==*=*****=**********==**$@...................++...................oX@**==***==****=****==*==*=****===******===****====*=*$XX..o..   ...............+++....+X........XX@#******===***=*****@OO@OOOXOXXOO@$$$$$$$$$$$$$*****$$$$$@$********=****==**==*************$@@$$$$$$$$$$$$$*$**********$@O$******=====***===**====******===****$$$**==-;;-=*$$$$$$$$@@@@@@$$$*===*$$$@@@@@$$$$$$$*===-====;;;;;;;;==**$$*****==========***$$$$$$$$@@OOXXXXXXooooooooooooooooooo    o             oooo.ooooooXXXXXXOO@@@@@@@@",
"$$&&$$$$$$$$$$$$$$&&&&$$$$$$$$&$$$$$$&&&&$$$$$#&$&@@++XX......o.......oo....oooo.oXXXXXoXooXXXXXXXXXO@@@@@@***@@**@@*******$@@@@@@@@@@@@@@@@@@@@@@@OOXXXXXXXX+O@O@O@@@@@@@@@@@OOO@@@@@@@@@@@@@@@@@@@O@@@@*********************************$@@@@*****==**======******=*****====**==*=====*=====**$@OOXXXXXXXXXXXXXXXXXXXXXXXO@OOO@$**==**==****==**==*==*===*===***====**======***$@@@@@O@@@@@@@@@@@@@@@@@XXXXXXXX..XXX$*===***===*****==*==*==***************$++...+++...........................++.......++$************************=*************=**==****%#+X..........................................@#***=**===********=***==****====*====*==***=*****#@+.......++....++++................................++..............................+.......+...++++++++++++.........+++++#***********************==******************==**$@....................+...................oX@**=*=**===***=****===******************=****==*==*=*$XX..o...  ..............++++....++........XX@#***=*====*=*=**=*$@O@@@@OOOOXO@@$$$$$$$$$$$$$********$$@$********==***===***********=****$$$$$$**********************$@@$*****=======****=**====******===***$$$$**==-;;==*$$$$$$$$@@@@@@$$$*===**$@@@@@@$$$$$$**========;;;;;;;;==**$$$****==========***$$$$$$$$@@OOXXXXXXoooooooooooooooooo                     o ..oooooooXXXXXO@@@@@@@@",
"$$$$@##$&$$$$$$$$$$$$$$$$&$&$$$$&&$$$$$$$$$$$#@@@@@+XX....o.oo...ooo........oooo..ooooo.oXoXXXXXXXXXO@@@@@@*@@$$*********@@@@@@@@@@@OOOO@@@@@@@@@@OOOXXXXXXXX+OOOOOOOO@@@@@@@@@@@@@@@@@@@@@@@@@@@OO@OO@@@$****$$$$**************=*==******$$@@$**===***==========******=*==**=**=======*****==**$$@@@@@@@@@@@@@@O@@@@@@@@@@@@OOOO$*===******====**=====*=*====******=***=***=****$@@@@@@OOO@@@@@@@@@@@@@@OXXXXXXXX..XO$*****====*****===***==****************#+...++++..........................+.++......X+@**********=****************=*****==**==****=**=*$@X..........................................O#**********=*******=***===************************#++++++...+..+++++.++....++++++..++.+++...+........+++....+............................++++++.....++++&&+++........++++++$*********==******=****************===**********$O .....................................X.oO$*******====*=**===******=====***===*********=*=*=*=*#XXXXXXXXXXXXXXXXXXXXXXXX++XXXXOOO@OOOOOOX.XX#*****===*********=$@@@@$$$$@@@@$$$*********************$$$*******====**==***************$$@@@@@$$$$$$$$$$$%***********$@@$**********===*==***====**=*****=*$$$$$$*====;;=**$$$$$$@@$$@@@@$$$**==**$$@@@@@$$$$$$**====--=-;;;;;;;;==**$$$***============***$$$$$$$@@OOXXXXXXoooooooooooo   o                                  oooXXXOOO@@@@@",
"$$@$@$@$$$$$$$$$$$$$$$$$$$&$$$$$&&$$$$@@@@@@@@@@@+XXXX.....ooo...ooo........oooo...ooo.ooXooXXXXXXXXO@@@@@$****$********@@@@@@@@OOOOXOOO@@@@@@@@@@@OOXXXXXXXXO++OOOOOOOOO@@@@@@@@@@@@@@@@@@@@@@@@@OOOO@@@@*****$@@$*********************=**$$$***===**=*=========*****=====**=**======******==**$$$$$$$$$$$$$$$$$$$$$$$$$$$@@@OO@$***=******===***====*****===******==*=**====**$@@@@@@@@@@@@@@@@@@@@@@@@OXXXXXXXX..XO$******===*****==*=**===****==*********@+X+++.+.............................+++.....++@**********=********==******==*==*==***==***=*****#O..........................................X#**********===****=******==***=****************==*#++++++......+++...++++..++++....++++........+.....++....++...+....++...................+++........+++&++++........+++++&$***************==**==******=************=*===**@X........................................XO$****=****=*****===*******==*****=*=*********=*******#OOO@@@OO@@@@@@@@@@@@@@@@@###@@@#########@XXO#*****==***********$@@@$**$*************===*****==******$$$*******==*=*******$$$$$$$$$$$@@@OOOOO@$$$@@@@@@@@$$$$$$$$$$$@@@*****=******==*=****====**=*=****$$$$$$$**==;;==**$$$$$$@@$$@@@@$$$**==*$$$@@@@@$$$$$$**=======-;;;;;;;;==**$$$****===========**$$$$$$$$@@OOXXXXXXoooooooooooo   o oo                                 ooXXXXXOOOOO",
"@@@@@@@@@@@@@@@@@@@@@@@@@@&@$$@@@@@@@@@@@@@@@@@@@OXXX......o................oooo..o......o.XXXXXXXXXO@@@@@*************@@@@@@OOOXXXXXXOO@@@@@@@@@@@OOXXXXXXXOOOOO+OO+XXOOO@@@@@@@@@@@@@@@@@@@@@@@@OOOOO@@@****$$@@$*****$$$****************$$$*****=******====**==****==**=**===**========**==*$@@$$$$$$$$$$%%%%$***********$@@@@***********==***===********=**=*=====***=====**$$$$$$$$$$$$$$*$$$$$@@@@@@@@@@@@@OXXX@**==***=****==*=**=***=*********==*****@O++++++XXXXXXXXXXXXXXXXXX.oo..XXXXXXX+.....+++@#*********=********==******====***==*******==****#@X.........................................+#***********=******==********==********************#+++++++++++++++++++++++++++++++++++++++++++++++++++++++++++++++++++++++++++++++++++++++++++++++++++++++++....+++++++++&*******==*******==**=***************************@OXXXXXXXXXXXXXXXX+++OXXOOOOOOOOOOOOOOOX..X@*****=**====****=====****************=******=****=**%#@@@@####$$$$$$$$$$$$$$******************@XX@$******************@O@@##$####$*********=*==*=======***$$$**********=**=*=*$@@@@@@OOOOOOOOXXXXOO@@$@@@OOOOOO@@@@@@@@$@@@@@****==**========*****=******=**$$@$$$$$**===;-=*****$$$$$@$@@@@@$$$*===*$$$@@@@$$$$$$$**========;;;;;;;;==**$$$****===========**$$$$$$$$@@OOXXXXXXoooooooooo    o  ooo                                  oooXXXXXXX",
"@@@@@@@@@@@@@@@@@@@@@@@@@@@@@@@@@@@@@@@@@@@@@@@++XX.......oo....  ......oo......o.o........XXXXXXXXXOO@@@@$****$$$*****@@@@@@OXXXXXXXXOOO@@@@@@@@@@@OOOOOOOOOOOOOOOOOOOXOOO@@@@@@@@@@@@@@@@@@@@@@@@OOO@@@$*****$@@$*****$$$***************$$$$*************====*====***=****====****========*$@@@@@@@@$$$$$$%*****************$@$*=**=****====***=*=********=*****=====**==**=****************************$$$$###@XXX@**====*****===***********=******===*=**@@@+++@@@@@OO@@@@@@@@@OOOOO+XXXX+++++++++++++++@#*********=*******===*********************===*****@+..........................................@$*****************=*********==*************=*=**==##&&&&&&&&&&&&&&&&&&&&&&&&&&&&&&&&&&&&&&&&&&&&&&&&&&&&&&&&&&&&&&&&&&&&&&&&&&&&&&&&&&&###&&&&&#&&++&&+++++++++++++++++++&*******==********===**=************************$@@OO@OOOO@@@@@@@@@@@@@@@@@##@@@@######@O..X#*****=**====*=*=****==***************=******==**=***$@@@@@@@@$$$$$$%*******************=******@XX@$***************=*$@OXO@@@@OOO@@@$$*$$***********==****$$$***************=*@@OOOOXXXXXOXOXXXXXOO@@$@@OOOOOOOO@@@@@@@@@@@@$****==*==*==*=******==*****=***$@@@@$$$**===-==***=**$$$@@@@@@@@$$$*===*$$$@$@@$$$$$$$**========;;;;;;;;==**$$$****===========**$$$$$$$$@@OOXXXXXXoooooooooo        o                                     oooooooo",
"@@@@@@@@@@@@@@@@@@@@@@@@@@@@@@@@@@@@@@@@@@@@OOXXXXX...........  ....  .ooo   .........oo.ooXXXXXXXXXXO@@@@$$***$$$****@@@@@@@OOXXXXXXXOOOO@@@@@@@@@@OOOOO@O@@@@@@@@@@@OOOOOO@@@@@@@@@@@@@@@@@@@@@@@OOO@@@$*****$@@$******$$*********$$$*$$$$@$******===***====**==****==**======**====*=*==*$@OOOXXOOOOO@@@@@@##$$$%********=*$$$**=*=**====****=****=====*=******====***==*****$$$$********==*****************$$@XXX@**==**==*****************=************#@++@@@@@@@@@@@@@$$$$$$$$$$$$$$$$$$$$$$$#####@++++##***************====*****************=**=*===*=*$@++++++++@@@@@@@@@@@@@@@@@@@@@@@@@@@@@@@XX.+##**************=*=*===**===************====*=*====#&&&&&&&&&&&&&&&&&&&&&&&&&&&&&&&&&&&&&&:&&&&&&&::&::::&&&:&&&&:::&::::&&&:&&&&&&&###################@@@@@@@@@@@@@++++@&**********==*****=******$####################$$#########$$$$$$$$$$*****$**************#O..O#********==********==*=********=******=*===**======**#OXXXXXXOOO@@@@@@@######%*********=======*@XO@********==*******=$@XXOO@@OXXXXOO@@@$$$$$$$$$*********$@$$***************=*@OOXXXXXXXXXXXXXXXXXOO@$@@OOOOOOOOO@@@@@#$$@@$*=***===*******==*******===*****$@@@@@$$**=====**====*$$$$$@@@@@@$$$**==*$$@@@@@@$$$$$$**=========;;;;;;;=****$$****==========***$$$$$$$$@@OOXXXXXXoooooooooooo     oo                                             ",
"++@@@@@@@@@@@@@@@@@@@@@@@@@@@@@@@@@@@+@@@@OOOOXXXX...o......    .... ..ooo   o........oo..oXXXXXXXXXXOO@@@@$$***$$****@@@@@@@OOOXXXXXXXOOOOO@@@@@@@O@@OO@@@@@@@@@@@@@@@@OOOOO@@@@@@@@@@@#********@@@OO@@@$*****$@@$***********==****$$$$$$@@$$******====**====**==****==**==*=****==*=**==*$@O@@@OOOOOXOOOOOOOOO@@@@$$$$*****$$$$**===***===****=***========***=****==***=****$$@@@@@$$$$$$************=*********@OXX@******==******************************#@+++@@@@@@@@@##$$$$$*$****$*****************##+.+@#***************====******************=*****==***#@@@###&############################**##+X.+@#**********==**=****==************************=**##&&+++++&&&&&&&&&&&&&&&&&&&&&&&&&&&&&&&&&&&&&&&&&&&&&&&&&&&&&&&&&&&&&&&&&&&&&&&&&####****###*************%*****$#@++++&**********==***********$@OXOXXXXXXXXXXXXXXOO@@@@@@####$$$*$$**************************#OXX@$********====****====********===*=**==*==*=**====****@XoooooXXXXXXXXOOOOOOO@@@@@@@$$$$$*******$@X@#********==******=*#OXXO@@@OXXXOOO@@$$$$$$$$$$$$*****$$$@$*****************$@OOXXXXXXXXXXXXXXXXXO@@$$@OOOOOXOOOO@@@@#$#@@$*=****=********====*****====****$@@@@@@$**====**=====*$$$@$@@@@@@$$$**==*$$@@@@@@$$$$$$*==========;;;;;;;=***$$*****==========***$$$$$$$$@@OOXXXXXXoooooooooooo  o   o                                             ",
"++++XXXX++++OOO+@@@@OOO+@@@@OOOOOOOO++++OXXXXXXXXX..o.  . ..     ..   .o..  oooo..o.ooooooo..XXXXXXXXXOO@@@@$***$$$@*@@@@@@@@OOOXXXXXXOOOOOOOOO@@OOO@@@O@@@@@@@@@@@@@@@@OOOOOO@@@@@@@@****====****#@@OO@@$*****$@@$*****************$@$$$$$**********===**===***=*=*====**==*****===****==*$@@@@#@@OOXOOOXXXXXXXXXXXOO@@@$$$$@@@$**===****===*====***====*****==****=********$@@OOOO@@@@@@@@$********************@XXO#******==****===**==***############$*###@++++++++++@@@@@@@@#####%%*******************$@+.+@$**************====********=****==***=**==*=****#@##&&&&&#######*********==*************@O..+@#*******=*******************=****************==*#@++++++++++++++++++++++++++++++++++++++++++++++++++++++++++++++++++++++++############*********=======************#+++&#*******==**********=**$@X.....................XXXXXX++O@@@@#########******************#OXX@%=***=*========*=**==****=====*****************=*=**$@X.......................+++++++++@@@@@@@@OX@#***=*****=**==****@OXXO@@@XXXXOOO@@$$$$$$$$$$$$****$$$$$$*==*********=**=*$@OOOXXXXXXXXXXXXXXXOO@@$$@OOOOOOOO@@@@@@@#@@@$**********=********==**====**=**$@@@@@@$********=====*$$$@@@@@@@@$$$**=**$$@@@@@@$$$$$$*==========;;;;;;-=***$$*****==========***$$$$$$$$@@OOXXXXoooooooooooooooo o                                                ",
"++++XXXX++++XXXX+++++X++++++OO++++XXX++XXXXXXXXX....      ...    ..   ... ..oooo..ooooooooo....oXXXXXXOO@@@@$*$$@@@@$@@@@@@@OOOOOOOXXOOOOOOOOOOO@OOO@@@O@@@@@@@@@@@@@@@OOOOOOO@@@@@@@***======****#@@@@@@$*****$@$$******$$$****************===******===**==*****=**====**==*=****===*****$@O@@@#@OXXXXXXXXXXXXXXXXXXOO@@@$$$$$$$**===***=========***====*****==****=***=****$@OOOOO@@@OOO@@@$$$@@@@@$$$$$$$****$@XXO#**=***====**===**==*#@@@@@@@@@@@@@@@@@+++++++.X.XXXXXXXXXXOO@@@@@#$$$$***************@++.+@$****************=********=***==********=******#@##&&&&#########***********************#@.+XX@#*****==*******************=**************=****#@++++++++++++++++++++++++++++++++++++++++++++....++.......++...++++++++++++++++@@@@@@@@@@##*********==***********@+++&#*******=***=**********#O..........................oo.o.XXXXXXXXOO@@@@@##$$$***********@OXX@*=***=*====*=====******======*****=************=*==*$OX........................+++++XXXXXXXXOOXOX@#*********=**=*****@OXXOO@@XXXXXXO@@$$$$$$$$*$$$****$$$$$$*=*=*******==****@@OOOXXXXXXXXXXXXXXXOO@$$$@OOOOOOO@@O@@@@@@@@@$*********==********==**====**=**$@@@@$@$$*******=====*$$$@@@@@@@@$$$**=**$$@@@@@@$$$$$$*=========;;;;;;;-=****$*****==========***$$$$$$$$@@OOXXXXoooooooooooooooooo                                                ",
"oXXXXXXXXXXXXXXXXXXXXXXXXXXXXXXXXXXXXXXXXX.....o.......   ....     ...   ..o  oooo....o.ooo..XooXXXXXXOO@@@@@$$$$$$$@@@@@OOOOOOOOOOOOOOOOOOOO@@@@@OOOO@@@@@@@@@@@@@@@@@OOOOOO@@@@@@@@$**=====******@@@@@@$*************************============*===*********====***************=********$@@@@@@$$@OOXXXXXXXXXXXXXXXXXXOO@@$$*$$$**==****=******===************==***===******$@OOOOO@@OOOOO@@@@@@@@@@@@@@OOO@@@@@@OXXO#**====****==******=*@++++++++++..+++++..+.+++++.................XXXXXX+@@@@@######**##@X...+##*****=****************=*****======***=*==***#@+++++++++++++++++@@@@######************#+X..++##**************=**=*******=****==***=****=***#@++....++++...+++++...+++++++++.....................................................+..XX+X++O@@@@@@####$*******$++++##*************==*******@X........................  .....................XXX+++OO@@@####OXXO$*=*****==*******=**$**=====**====**====***===*******#+X........................++++.....+......XX@*******==*********$@XXXO@@OOOXXXXO@@$$$$$$***$$$****$$$$$*********===****=*@@OOOOOOOOOOOOO@OOOOO@@@$$@@@@@@@@@@@$$$$$$@@@$********===***$$**=====******=**$@@@@@@$$$$******====*$$$@@@@@@@@$$***=**$$@@@@@@$$$$$$$*========;;;;;;;-=*********===========**$$$$$$$$$@@OOXXXXooooooooooooo   oo                                                ",
"....XXXXXXXXXXXXXXX.XXXXXXX.XXXXX.X.....o......... ...    ....     ...   ..o .oooo....o.oo...XooXXXXXXXOO@@@@$$$$$$@@@@@OOOOOOOOOOOOOOOOOOOOO@@@@@@OO@@@OOO@@@@@@@@@@@@OOXOOOOOOOO@@@@$**===***$$$@@@@@@#********************==*==============**===****=****====******************$$$$$$$@@OO@@$#@OOXXXXXXXXXXXXXXXXXXOO@@$$*$$$****************==****=*******==***===****$$@@OOOOO@OOOOOO@@@$$@@@@@@@OOOOXXXXXOOXXXO#*=====****==********@+++++++.....+++++....++++++++......................XXXX+OOOO@@@@@+X....O@@#$*****************====****====*****=*==***@+++++++++++++++XXXXXXXXOOOO@@@@@@@#$$**%#@+....@@$************==**=*=*****=***===***=****==*=#@+......+......++++....++++++.............................................................XXXXXXXXOOOOO@@@@@@@@@@++++##************=********%@X o..............................................X.....XXXXXXXXX.XO$*=**=**==**********@@$*==*****=****====************%@+X........................+++.....++......XO#*******==*****=***$@XXXO@@@OOXXXXO@@$$$$$$$$$$$$****$$$$$******======****=*$@@@@@@@@@@@##$$@@@@$$$$$$$$$$$$$$$$$%*****#@$*********====**$$***==*********=*$@@@@@@$$****$$$*====*$$$@@@@@@@@$$***=**$$@@@@@@$$$$$$$*========;;;;;;;-=*****$***===========**$$$$$$$$$@@OOXXXXoooooooooooooo                                                    ",
"oo......oo......oo....XXX.....................      ....            .   ........ooo.oooooo.oXXXXXXXXXXXXO@@@@@@@@@@@@@@OOOOOOOOOOOOOOOOOOOOOOOOO@OOOOOOO@O@@@@@@@@@@@@@OXXXXOOOOOOOO@@@$******$$$**$@@@@$*************========================**==****==*=**==**********$$$$$$$$$$@@@@@@@@@@O@@$@@OOXXXXXXXXXXXXXXXXXXXO@@$$**$*****===*==*=****=**===**====*===**====****#@@@OXOOOOOOOOOO@@@@@@@@@@@@@OXXXXXXXXXXXX@$****==****===*==**=#++++++++..+...+++++...+++++++++.....................++....................O+@@#$$***********========*=***********==**$++..+.++++++++.................XXXX++++@@@@+.....++###****====*****====******==**=**==*=**=*==#@+...........................................................................................................++++++++#**********=***********%@X... ..........  ...     ........................................X@**=*************=**$OO#*=**=**********==******===***%@XX.......................+++++....++X.....X@$********=******=**@OXXXO@@@OOOXOO@@@$$$$$$***********$$$$*****===*=*********$$$%%**********%%$%%****$*****************$$$************=**$$*********==*=*=*$@@@@$$$$****$$$$*===*$$$@@@@@@@@$$******$$@@@@@@@@$$$$$*========;;;;;;;-=*****$***===========**$$$$$$$$$@@OOXXXXooooooooooooo                                                     ",
". ........    ..oo.......oo......... ..... .           .                  ......ooo.ooooooooXXXXXXXXXXXOOO@@@@@@@@@@@@OOOXXXXOOOXXOOOOOOOOOOOOXXOOOOOOOOOOOO@@@@@@@@@@@OXXXOOOOOOOOO@@@@*****$@$@**@@@@@$**********========**=============************====*************$$$@@@@@@$@@@@@@$$$@@@@$$$@@OXOXOXXXXXXXXOXXXXOOO@@$$$$$*****========***===*****=====**==**====***$@@@@OOXOOOOXOOOO@@@$$@@@@O@@@OXXXXXXX.XXXX@$==**==***========**#+++++++.......+++++...++++++++......................+++...................XXXO@@@@$$$$*********====**=********=*===**$+..........+....................XX.XXXXXXX++....XXXXO@@#$**********====*=***********==****=*==#@..............................................................................................................++++++***=*******=***********$OX.............. .... ..   .......................................X@**=*******=*****=**$XX@*****=*********==*=**====**=*#@XX........................++++...+++......X@************==*****@OXXXO@@@@@@@@@@#$$*****************$$$*=***===*********=*=****========**%$$$$$%**%*****************#$$**************$$$********=====*=*$@@@@$$$$****$$$$*===*$$$@@@@@@@@$$******$$@@@@@@@@$$$$$*========;;;;;;;==****$$$**===========**$$$$$$$$$@@OXXXXXooXoooooooooo                                                     ",
"                    .........      .    .              ...    ......  ..  ...   ooooooooooXXXXXXXXXXXXXOOO@@@@@@@@@@@OOXXXXXXXXXXXXXXXXXXXXXXXXXXXXXOOO@@O@@@OOO@@@O@OOOOOOOOO@OOOO@@@@@$**$@@@@*************=========================******$********=======************$@@@@@@@@@@@@@$$$$$$$$$$$$$@@@@@@@@@@@@@@@@@@@@@@@$$$$$******=====****===**$$$*****===***======***$@@@OOOOOOOOOOOO@@@$$@@@OO@@@OXXXXXXX.XXXX@$******==========***@++++++...++...++++++++++++++++.................................................XXX++@@######*****==****==*=***=******$+.....................................................++@@@#####**********=****=********==**==#@+........+.....................................................................................................++++#***********************$OX......o.........................................................X#*****=*********===*@..O#***********=****========****#@XXXXXXXXXXXXXXXXXXXXXXXXXXOO++OOOOOOOOXXXXO#************===***$@@@@@@$$$***************************$$*******====************==****==*=*=$@@@@@$$$$$$$$$$$$$*******$@$***************$@@$********==**==*$@@@@$$$$***$$$$$*===*$$$@@@@@@@@@$******$$@@@@@$@@$$$$$*========;;;;;;;==*****$****==========**$$$$$$$$$@@OOXXXXoooooooooooo                                                      ",
"                                                        ...   .....        .   ooooooooXXXXXXXXXXXXXXXOOOO@@@@@@@@@@OXXXXXXXXXXXXXXXXXXXXXXXXXXXXXXXOO@@@@@@@@OOOOOOOOOOOOOOO@@@@@@@@@@@$$$@@@@@$*****========================**==*******************=====*=****=*$$$$**$@@@@@@@@@@@@@@$$$$$$$******$$$$*%*%**$$*$$$$****$**$$$********===****==**$@@$$******=****===***=*$$@@OOOOOOOOOOO@@@@$$@@@@@@@@OXXXXXXXXXXXX@$******====*=====***@++++++.++........+++++.....+++........................+...........................XXXXXXOO@@@@****==***==*=***=******#+..................................................+.+..XXXO+@@@@@###$$*********=*******==**=*#@+.......++.....................................................................................................++++&************=*******=**$OX.......X...........XXXXXXX......................................X#***=*==*==*****=*=*@..X@***=**=****=****=*==*======*#@OOOOOOOOOOO@@@@OOOOO@@@@@@@@@@@@#######@+X@#******************$####$******************************$$$****=**=*==***********==******=*===$OOOO@@$$@@@@@@@@@@@$$$$$$@@$**************$$@@$*==*==**==*=*=*$@@@@$$$$***$$$$$*===*$$$@@@@@@@@@$$*****$$@@@@@$$$$$$$$*========;;;;;;;==****$*****==========**$$$$$$$$$@OOOXXXXoooooooooooo      oooo                                            ",
"                                                                 .          o oooo.o.oXXXXXXXXXXXXXXXXOOOOOO@@@@@@@OOXXXXXXXXXXXXXXXXXXXoXXooXXXXXXXO@@@@@@@@OOOOOOOOOOOOOOOOO@@@@@@@@@@@@@@@@@@***=====================***************=*************=********==*$@@@@**$$$@@@$$@@OOO@@@@@@@@@$$$$$$$$$$%*******************$$$*******===****====*$@@@$****=*=**======**=**$$$@@@@@@@@@@@@@$$$$$$@@@@@@@@@OOOOOOXXXX@*=*====*=**=*==*****@@@+++O+++OOXX++X++++++X.....+........................++...........XXX.......................+@$*=*****====****=*****%@+........................................++.....+.............+++++++@#***==****===****===****#O++++....++.....+....+++++++....+..............................................................................+++++#**********===*******==*$@@@@@@@@@@@@@@@@@@@@@@@@@@@@@XXX..X..............XXXXXXXXXXXXXXX..@#***=****=********=%@...+$*======**====********==****#@@@@@###$$$$$$$$%$$*$***************===*#OO@$******************#@@@@@@#####$$**********************$$$****=****=*=****===***********=*=**@OOOO@@@@@@OOOOOOO@@@@@@@@@@$**************$@@@$***===******==**@@@@@@$$**$$$$$$*==**$$@@@@@@@@@@$$*****$$@@@@@$$$$$$$$*========;;;;;;;-=**********==========**$$$$$$$$@@OOOXXXXooooooooooo oo ooooooo oooooooooooooo.        oooo o              ",
"                                                                      ..    oo ooo...oXXXXXXXXXXXXXXOOOOOOOOOOOOOOOOXXXXXoXXXXooXoXoXooooooooXXXoXXXO@@@@@@@@OOXOOOOOOOOXOOXOO@@@@@@@@@@@@@@@@@@***================******************************************===*@@@@@$****$$$$$@@@OO@@@@@OOO@$$$$@@@$@$$$$$$*************=*$$$*******====***====*$@O@$******=**======**=******$****$*************$$$$$$#####@@@OXXX@***====******===*****#####@##@@@@@@@@@@@+++++++++++....X.................+++.........X+#@O+X.....................X@$*=**==*====****=*===**@+.......................................+++++..+.....................X@***===***====****==****#X++++++..++++..++..+++++++++...++.+++...............................................+++++..++++.+++++....+.++++++++@#**********==***==**=****#########$*#*#####%%********#@X+.++X++XXXXXX++++++OO+++OOO@@@OX..X@****=**************#@...X$*==*==***======*********=*$@@@@@@###$**$****************============$OO@******************$@OXXXO@@@@@@@@@@$$******************$$$*=*******==***====*****====*****=**@OOOO@@@@@@@@OOO@@@@@@@@@@@@$**************@@@@$**====****====**@@@@$@$$**$$$$$$*==**$@@@@@@@@@@$$******$$@@@@@$$$$$$$$*========;;;;;;;-=**********==========**$$$$$$$$@@OOOXXXXoooooooooo o ooooooooooooXXXXXXXXooooooooooooooooooooooooooooo    ",
"                                                                        ....  ooo..XXXXXXXXXOOOOOOOOOOOOOOOOOXXXXXXXXooooooooooXXXooooooooooooooXXXXO@@@@@@@@OOXXXXXXXXXXOOOOOO@@O@O@@@@@@@@@@@$$****=======********@@@@$*****************************====****==*$@@@$*******$$$@@@OO@@@@@OOO@@$$@OOXXOOOOO@@@@@$$$%$*****=*$@$****===*====***===*$@@@@$******=****==**=***$$$$$$$$$********=====*************$$@OXX#******===******====***********************$*###@@@@@@@@@@@@@@@@@@@@@@@@@@@@@@@@OO....@***$$@@OOXXXXXXXXXXoXXXXXXXO@***********===***==*=*$@OOXXXXXXXXXXXXXXXXXXXXXXXXXXXXXXXXXX+...@@@@@@+X+++++...+++++++++..+++@*********====**=**=***$@X+++++++++++.+++++++++++++++++++++++++++++++++++++++++++++++++++X+XXX+++O++XXXXXXXXXO+++XXXXXXXOOOOOOOOOOOOOO+X++++@#**************==**===***=***==****===*=*====*=*******#@@@@####$$$$$$$$$$$$$$$$$$$$$$$$+ooX$**************===*=#X....@#*****=*========******===**@O++O@+@@@@@@@@@##$$$%%******===========*#XX@$*****************$@X..XXOO@@OXXXXXO@$$$$$$$$**********$$$*******==****==************=****==%@OOOO@@$$@@OOOOOO@@@@@@@@@@@***************$@@@$**====**==******$@@@$@$$**$$$$$**==*$$$@@@@@@@@@$$******$$@@@@@@$$$$$$$*=========;;;;;;==**********=========**$$$@$$$$$$@OOXXXXXoooooooooo    ooooo ..ooXXXXXXXXXXXXo.ooXXXXXXXXXOXXXXXXXXXXXXXXXX",
"                                                                    .   ....  ooo..XXXXXXXOOOOOOOOOOO@@OOOXXXXXXXXXXooooooooooXoXXooooXoooooooooXXXXO@@@$$@@@OOXXXXXXXXXXXXXOOOOOOOOOOO@@@$$@@@@@$$$**********$$$$$$@@$$******************************====****==**$$$*******$$$$@@@OO@@@@@OOO@@$$@OOXXXXXXOOOOOO@@@@@$$$$$**$@$***==****===***==**$@@@@$***********==**==**$$@@@@@$$$$$******=====**=*=*=******$@OXO#*****====****=*=====************************$****%*****%%%*%**%%%%%%%$####$##**#@....@***=*%######@@@@@@@@@@@@@@@##***=********==***==****$#######@@@@@@@@@@@@@@@@@@@@@@@@@@@@@++++##**####@+++++++++++++++++++++##********====***=*=**=*@+++++++..+++++++++++++++++++++++++++++++++++++++++++++++++++++@@@@@@#########@@@@@@@@@@@#@@@@@@@#@@@@@@@#####@@++++@#***************=***===**==***==*=*****====***=*====***#**%***************************$X.oX$*******************#X....O#***===**======*********=**@O++XXXOXXXXXOOOOOOOO@@@@@#$$************@XO$%*****************$@X..XXO@@@OXXXXXO@$$$$$$$$$$$$$*****$$*******===****==*=*********=====***$OOOOOO@$$@OOOOOO@@@@@@@@@@@$***************$@@@$**===**===******$@@@$@$***$$$$$**==*$$@@@@@@@@@@$$******$$@@@@@@$$$$$$$*=========;;;;;;==**********========***$$@@$$$$$$@OOOXoXXooooooooo     ooooo . oooXXXXXXXXXXXooXXXXXOOOO@OOOOOOXXOOXXXXXXXX",
"                                                                  . .  .      oooo.XXXXXXOOOOOOOOOOO@@@OOXXXXXXXooooooooooooooooXoooooooooooooooXXXXO@@$$$@@@OXXXXXXXXXXXXXXXXOOOOOOOOOO@@@@@@@@@@@@@@@@$@@@@@@@$$**$***********************$*********====*****=************@@@$@@OOO@@@@@OOO@@$$@OOXXXXXXXXXXXXXXXXOO@@@@@@@@$*********==****==**$@@@@@****====*******===**$@OOOOO@@@@@@@@$$**********=********@OXO$**=****===*==***=*************************$@@@@@#####$$$%****************=*=**=*@X.XO$********************%$%$********===***********=*=****%%%%%******************************#+++@**=====*******###############**=********==*=**==****##++++++++++++++++++++++++++++++++++++++++++++++++++++++++++++++++@@@@######**************************************@O++@#***********************======******************====*#@########$$************======**=$X.XO$***====************@X....X@$***=*======***=*=**====**@@++++++X.XX.X..XXXXooXXXX++++@@@@@@@@@@@XXO$%****************%@OX..XXO@@@OXXXXXO@$$$$$$$$$$$$$*****$$*=******==****======*****=====*==**@OOOOOO@$$$@@OO@OO@O@@@@@@@@$***************@@@@$********==*===**$@@@$$$***$$$$$**==*$$@@@@@@@@@@$$******$$@@@@@@$$$$$$$*========-;;;;;-==**********========**$$$@@$$$$$$@OOOXXXXoXoooooooooo  oooo    ooooooXoXXXXXX..XXXOO@@@@@@@@@@@@O@@@@OOOOOO",
"                                                                       .      ooooooXXXXOOOOOOOOOOOO@@@OOXXXXXXXooooooooooooooooXXooooooooooooooXXXX@@@$$$@@@OXXXXXXXXXXXXXXXXXXXXXXOO@@@@@@@@@@@@@@@@@@@@@@@@@$$*************************************=====****=**********$@@@@$@@OOO@@@@@OOO@@$@@OXXXXXXXXXXXXXOOXXXXOOOOO@@@$*********==****==**$@@@@@$***===********=****$@OOOOOOOOOOO@@@$$$$$$$$$$**********@OX@$*=*****==**====*=******=******************$@OOOOOOOOO@@@@$$$$$$%*******====*****@X.X@$****************************=*=====****************$@@@$$$$%****====*****=****=*********#+++#**==========***======***========**************==***=*#&&&&&&&&&&&&&&&&&&&&&&&&&&&&&&&&&&&&&&&&&&&&&&&&&&&&&&&&++++++.XX+++++@@@####$*************=******=****==*===***@O++##************************====*****************=====**@O+@O@@@@@@@@@@@#$$$*******=====*$X.X@$****==*************OX....oX$***=======***=**=======**##&+@@++++X.XXXXXXXXo.o..XXXX++XXXXXOOOOXXX@$%****************$@XX..XXXO@@OXXXXXO@$$$$$$$$$$$$$****$$$*=******=***=========**=======*==**@OOOOOO@$$$@@@@@@@@@@@@@@@@@$**************$@@@@$********=****=**$@@@$$$****$$$$**===$$@@@@@@@@@@$$******$$@@@@@@$$@@$$$*=========;;;;;-==**********=======***$$$@@$$$$$$@OOOXXXXoXooooooooo   oo        ooooooooooo....XXOO@@@@@@@@@@@@@@@@@@@@@@@",
"                                                                              .ooo.XXXXXOOO@@@@@OOO@@@@OXXXXooooooooo   oooooooXXXXoooooooooooooXXOO@@@@@$@@@OXXXXXXXXXXXXXXXXXXXXXOOOO@@@@@@@OO@@@@@@$$$$$$$$**************$$$$$***************************==**********@@@@@@@@@@OOO@@@@@OOO@@$$@OXXXXXXXXXXXXXXXXXXXXXXXXO@@$$******===***====**@@OO@@$***==*********==****@OOOOOOOOOOOOO@@@$@@@@@@@@@@@@@@@@@+XX@$==*===*****==**===****==******************$++++.........XXXXXO@@@@@###$********#@..O@****====*=**********==********=======*=*******=****$@XXXXXXO@@@@####$%%******************@+X+#*=======*=====*****==*==****=***=*****=*****====***==:&&&&&&&&&&&&&&&&&&&&&&&&&&&&&&&&&&&&&&&&&&&&&&&&&&&&&&&&+++..+..+++++++++&&&&&&&&&&&&&&&##*************=====*=**@+++$***************************==****************====*==*++++++++......XXXX++@@@@######$$#@X.X@*******************$Xo. ....@%*===***===**===*======**#&&&&&&@+++................++++.....++.X.XO@******************$@XX..XXXO@@OXXXXXO@$$$$$$$$$$**$*****$$*=********====*=======*=====***=***@OOO@@@$$$$$$$$$$$$$*****$$$$**************$@#$@$*******====*****$@@@@$$*****$$**====*$@@@@@@@@@@$$******$$@@@@@@@@$@$$$*========-;;;;;;==*********=======****$$$@@$$$$$@@OOXXXoooXoooooooooo                oo  . .oooooXXOO@@@@@@@@@@@@@@@@@@@@@@",
"                                   . ...oo....oo..                            ..oooXXXXXOOO@@@@@@@@OO@OOXXXXoooooooo o  oooooooooXooooooooooooooXXXO@@@@@$@@@OXXXXXXXXXXXXXXXXXXXXXXXOOOOO@@OOOOO@@@@$$$$$$$****************$$$****************************===**=****$@@@@@@@@@$@@OOOO@@@@OOO@@$$@OOXXXXXXXXXXXXXXXoXXXXXXXOO@$$******===*****==**@OOO@@$*=*=******=**=*=****$@OXOOOOOOXOOO@@#$@@@@@@@OOXXXOOO@@+XX@*==*==*=***=****==*=***********************$+++++...........XXXXXXXXOOOO@@@#$$$$@O..O#*************=**===*****=****=======**====***=*=***@Xo....ooXXXXOOOO@@@@@@$$$$$$*********@XX@#**==***=****=*******=*==*******=******==*****===***=#&&++&++++++++++++++++&&+&++++&+++++++++++++++++++++++++++++...++..+++++++++&&&&&&&&@&&&&&#########*#*************@@+@$*********************====******************==***=*=*$+++++++.+.....XXXXXXXXXXXXOOO@@@@X..O#**************=*==*#Xo. ....O#**==****==**==*======*####&&#&&&##++++.XX..........+.++...........O#****************=*#@XX.XXXOO@OXXXXXXO@$$$$$$$$$$$$$*****$**=********=*==*=====****====*=*===*$$$$$$$%****************$$@$***************#@$$$$**********=*****$@@@@$$*******======*$@@@@@@@@@@$$******$$@@@@@@@@@@$$$*========;;;;;;;-=**********===*******$$$@$$$$$$@@OXXXXXooooooooooooo                          .oooXXXOOOO@@@@@@@@@@@@@@@@@",
"                                 ...oo.oXXXXXXXXoo...                         oooooXXXXXOO@@@@@@@@O@OOOOXXXooooooooo o  ooooooooXXooooooooooooooXXXOO@@@@$@@@OXXXXXXXXXXXXXXXXXXXXXXXXXOOOOOOOOOO@@@@@@@@@@@$$*************$$$****************************===*****$@@@@OOOOO@@@$@@OOOO@@@@OOO@@@@@OOXXXXXXXXXXXXXXXoXXXXXXXOO@$*******===*********@OOO@@@$*==******==********$@OOO@@OOXXXOO@@##@@@@O@@OXXXX.X+XX+XX@****==****==****=====**********************#+++++.........................XX+++OXX..@$**==*=**====***=**===************=****==**==*=****#@....................XXX+OOO@@@@@####@+++@#*=**=====*******************************************#+++++++++++++++++++++++++++++++++++++++++++++++++++++++.....+..++++++++++++++++++++++&&&&++++++++++++#+++@####&&#+++@********==***=**==******************==***************#++++++++........................X...O#****************=**@.   ....X@********===*====*====*########&&&&#@@++XXX........+++++++...+++..X@$******************@OXXXXXXOOOOOOXXXO@@$$$$$$$$$$$$******$**=*******=****=************==***=**$*%$$%%****************$$$@$**************$@@@@$*************$$$$$$@@$$$*******======*$@@@@@@@@@@$$******$$@@@@@@@$@$$$$*========;;;;;;;;=****$$$$************$$$$$$$$$$@@OXXXXXoooooooooooooo                           oooooXXXXXXOOOO@@@@@@@@@@@",
"                               ......ooXXXXXXXXXX....                         oooooXXXXXOO@@@@@@@@@@OOOOXXXooooo ooooo  oooooooXXXXoooooooooooooXXXXO@@@@$@@@OXXXXXXXXXXXXXXXXXXXXXXXXXOOO@OOOOO@@@@@@@@@@@@@@$$**********$$$$**********=************=****===****$@@@OOOOOOOO@@$@@@OOO@@$@@O@@$$$@@OOXXXXXXXXXXXXXXXXXXXXOXOO@$$******=*=********$@OOO@O@$******=*===**=*=****@O@O@@OOXXXOO@@@@@@@OO@@OXXXXXXXXX+XX@***====***===****=**=******=***************#+X++..............................XX.o.X@%***=*****====**=****===***************=***********#O......................XXXXXXXXXXXOOO+..+@*****************************=*=********************#+++++++++++++++++++++++++++++++++++++++++++++++++++++++++.......++++++++++++++++++++++&&+++++++++++++++++++++++++++++#*******===*===**==*****************===*=********==*=*@+.++++++.............+.....X...X....@#*=*********=*=*=**#@...... .X@$**=****==**==*=**===*##@@@@@#&&&####@+++X........++++++++++++...+@$******************@@OOXXO@@@@@@@@@@@@#$$***************$$**=***=***=*******************===**$@$@$$$$$$$$$$$$$$$$****$$@@$**************$@@@@@$$$$$$$$$$$$$$@@@@$@@$$$***=***======*$@@@@@@@@@@$$*****$$$@@@@@@@$@@$$$*========;;;;;;;;=*$$$$$$$$***********$$$$$$$$$@@OOXXXXXoooooooooo oo                              oooooXXXXXXXXOOOOOO@@@@@",
"                           ........oXXXXXXOOOOOOXXX.o.                        oooooXXXXOOO@@@@@@@@@@@OOOXXXooooooo  ooooooooooXXXXooooooooooooooXXXXO@@@$$@@OOXXXXXXXXXXXXXXXXXXXXXXXXXOOOOOOOOO@@@@@@@@O@O@@@@$********************======****************==**==*@@@@OOOOOOO@@@@$@@@@$$$$$$$$$**$$$$$$$$$$@@@@@@@@@@@@@@@@@@@@$****===****=*==***$@OOOOOO@***==***====*******%$@O@@OOOOXOO@@@@$$@@O@@@OXXXXXX+XX+XX@********====****==*******=***************=*@++++...................................X$*****==**====***===****==**********************==*%@X.......................................+$********************************************=******##+++....+++++.++++++++....+++++++..+.+++++....++......++......++++&++++...........+++++++++++++++++++++++++.++.+++++++#*****************=******=*****=====************==***$@...++++............................X@$*************=****#O.... . ..X#*=****=*=**==**=====*#@@@@@@@@@######@@XXXXXXXXXXXX++XOXOO@@X..XO$************=*****$@@#@@##$$$$$$*$$$$$******************$$*********====**=**===********==*=*$OOOOOOOO@$$$@@@@@@@@@$$$$$$@@$$$$*********$$@@@@$$$@$$$$@@@@@@@@@@@$$$$$$**==***=======*$$@@@@@@@@$$$*****$$@@@@@@$$@$$$$*========;;;;;;;;-=*$$$$$$$$$*********$$$$$$$$@@OOOXXXXoooooooooooo   oo o                                  oooooooXXXXXXXX",
"                           . ......oXXXXXXO@@@OOOXXX..                        oooooXXXXOOO@@@@@@@@@@@@OOXXXoooooo   ooooooooooXXXXooooooooooooooXXXXO@@@$$@@@OXXXXXXXXXXXXXXXXXXXXXXXXOOOOOOOOOO@@@@@@@@@OOOO@@@********************=======***************==***=*@@@OOOOOOOO@@@@@@@@@$$$$$$$***************%%%%**%%%****$%%@@@$*********======**=$@OOOOOO@$********=====******$@O@@OOOXXOOO@@#$$@@OO@OOXXXXXXXXX..X@**==****====****==******==*****************@++++.....+.............................+$*****==***===****=*****==*****************=*=*****#OX.......................................+$***************==****=**********=******=***********#@++.+..+++++........+......+++++..+++++++.+.+++++.++++++...++.+++&&++++............++++++++......+++................+@#*****************=******=*****======*****=******=***#@........+.........................X+@**************===**#X.... .....@$*****==***=****===**###@@@@@@@@######@@@OOOO@@@@@@@########@..X@$******************$@@@@@##$$*****************************$***********=*********==********=**@OOOOOOOO@$$@@@@@@@@@@@@@$$@@@$@@@@@@$$$$$$@@@@$$$$$$$$**$@@@@@@@@@$$@$$$$**===**=======*$$@@@@@@@@$$******$$@@@@@@$$@$$$$*========;;;;;;;;-=*$$$$$$$$$*********$$$$$$$@@OOOOXXXXXooooooooooo  o o  o                                       ooooooXoX",
"                         . .  oo..ooXXXXOO@@@@@@OXXX.o                         ooooXXXOOOO@@@@@@@@@@@@@OXXXo. .       oo .oooooXoXooooooooooooooXXXXO@@@$$@@@OXXXXXXXXXXXXXXXXXXXXXXXXOOOOOOOOOOO@@@$@@@@@@@@@@$***********$$$$*****======*****************===*=*@@OOOXXXXOOO@@@@@OOO@@@$@@@@$$$$$$$$$%************===*=*=*$@@$**********=====***$@OOXXXOO$**=*****=*********=*$@@@@@@@@@@@@$$$$@@@@@@OOOOOOOOOX+XO@**=*==***=******==**=***==*****=====******$@+++++.++.+............................X@******==**********************************====****#@X.......................................X@***********=****===**************=******=******=*=**#+.+++++++++++.................+..++++..++++++++++++++++++.+++++++++++..............++++++...........................+@#*****************=******=*******====*****======*****@O........++XXX...XXXXXXXXXXXXXXXX.XX@$**********=***=***$@X..........O#*****====*==****==**$#*#****************$$$$$$$***********#@X.O@*******************$@OXXXX@@@@####$$**********************$************===******%**%******$$@@OOOOOOOO@@$@@@OOOO@@@@@@@@@@$$$@@@@@@@@@@@@@$$$$$$$$$$**$@@@@@@@@$$$@@@$$**===**=======*$@@@@@@@@$$$*****$$$@@@@@$$$@$$$$**=======-;;;;;;;==*$$$$$$$$$$*******$$$$@@@@@OOOXXXXXXoooooooooooo  o o                                                   ",
".                             oo..oXXXXXOO@@@@@@OOXXXo                         ooooXXXOOO@@@@@@@@@@@@@@OXXXo. .      oo   ooooooooXoooooooooooooXXXXO@@@$$@@@OXXXXXXXXXXXXXXXXXXXXXXXXXOOOOOOOOOO@@@$@@@@@@@@@@$**********$$$$$$****==********$$$$$$$$$$$*******$@OOOOXXXXOOO@@@@@OOO@@@$@@@@@$$$$@@@@@@$$$$$$$*****=******@@@******====*=====***$@OOOOOOO@***=***==***==***=***$****$$$$$******$$$$$$########@O+XO#**=*====********==**=***==****==*==***==**$@+++++++++.............................X@******==*****************************===***===***$@O........................................X#****************===********************************$@+++++++++++++...............................+..+.+..+++++++++++++++++..............++++++............................@#************************=*******=====***==========**@O.......X++++X.XX+X++++XXX+O@@@@@+X@#****==**=*****==***$OX...... ...X@*****===**===*******#$***********************************$#@X.O@*******************$@OXXXXXOO@@@@OO@@@@@$$**$*************$******$%%$$$$$$$$$@@@@@@@@@@@@@OOOOOOOOOOOO@$$@@@OOOO@@@@@@@@@@@$$$#$@@@@@@@@@@@$$****$$$$$$@@@@@@@@@$$@@@$$**===***======*$@@@@@@@$$$$*****$$$@@@@@$$$@$$$$*========-;;;;;;;==*$$$$$$$$$$******$$$$$@@@@OOOOOXXXXXooooooooooooo oo o                                                  ",
".                           ..ooooooXXXXO@@@@@@@@OXX..                      oo oooooXXOOO@@@@@@@@@@@@@@@XXoo  ooo        ooooooXoXXoooooooooooooXXXXO@@$$$@@@OXXXXXXXXXXXXXXXXXXXXXXXXXOOOOOXXOOO@@@@@@@@@@@@@**********$$$$$$$$********$$$$$$$$$$$$$$@@@@@@@@@$@@OOOOXXXXOOO@@@@OOXOO@@@@OOO@@@@@XXXXXXOOOOO@@@@@$$$*****$@@@$*********=*===****$@OOOOOOO@$******==******************************************#@XX@#**=*==******=*******=*********====****====*@@@@@@@@@@@@@@OOOXXXXOOOOOOOOOXXXXXXX..O#*******===*****=***********==********************@OXXXXXooXXXXXXoooo.oooXoooooooooo...oo....O#**********=****==*==*******====***==********=*****#@++++++++++++++.............................................++++++++...XXXX.........++#++XX..X...XXXXXX.XXXXXXXXXX....+@#**************************=*=***====**========*=****#@@@@@@@@@@@@@@@@##$$$$$$$$$$$$**#++@#***===*************$X........ ...+$*****===*===******@@@@@@@@#####$************************$#O.XO#$******************$OX..XXXXO@@OOXXXOO@@@$$$$$$$$$$$*****$$$$$$$@@@@@@OOOOOOOOOOOOOOOOOOOOOOOOOOOOOOO@@$$$@@OOOO@@@@@@@@@@@@$@@#$$$$@@@@@@@@@$$$$$$$$$@@@@@@@@@@@$@@$$$**===****====*$@$@@@@@@$$$$*****$$$@@@@@@@@@$$$**=========;;;;;;;=**$$$@@@@$$$$$$$$$$$$@@@OOOOOXXXXXoooXoooooooooooooo o                                                   ",
".                            .ooooooXXXXO@@@@@@@@OOX..                      oo ooooXXXOO@@@@@@@@$$$$@@@OXXoo  oooo      oooooooXXXoXooooooooooooXXXXO@@$$$@@@OXXXoooXXXXXXXXXXXXXXXXXXXOOOOOXXXXO@@@@$$$@@@$***********$@@@@$$$$$*$$$$$$$$$$$$@@$$$$$@@@@@@@@@@@@@OOXXXXXXOOO@@@@@OOOO@@@@OOO@@$$@OOXXXXXXXXXXOOOOOO@@@@$$@@@@$******************$@OOOOOOO@$*******=*=**********$$$$$$$$$$********===*******=*#@XX@#**=*==***********=**==***=****==******==***$#*********$$##########$$##########@X..@#**==****===****=**********==************=*******$#@@@@@@OOOOOOOOXXXXXXXXXXXXXXXXXXXXXXX... .@#***************=******==****==**=*==**********==**#+++++++++++++++.............................................++++++++++++++X+++++++++++#++++++++++@@@@@@@@@@@@@@@@@++.++@*************************=*=*****====**======**==********%*************====***********@++@*===*==*************@X........  ...@***====**==*******@OOOOOOOO@@@@@@#$$#@@@@@@@$$$$$$$****$$@OXX@#*******************#OX..XXXXO@@OOXXXXXO@@$$$$$$$$$$$$****$$$$$$$@OOOOOOOOOOOOOOOOOOOOOOOOOOOOOOOOOOOOO@$$@@@OOOO@@@@@@$@@@@@@@@@@@@$@@@@@@@@@@@@@$$$$$$@@@@@@@@@@$@$$$$*=====********$@@@@@@@@$$$$*****$$$@@@@@@@@@$$$**====--===-;;;;;;=**$$$@@@@$$$$$$$$$$$$@@OOOOOOXXXXooooXoooooooooooooooo                                                   ",
"                             ..ooooXXXXXO@@@@@@@@OXX.o                      oooooooXXXOO@@@@@$$$$$$$@@@OXXooo ooooo     oooooooXXXXoooooooooooooXXXXO@@@$$@@@OXXXoooXXXXXXXXXXXXXXXXXXXOOOOOXXXXO@@@$$$*******===*****$$@@@@$$$$$$$$$$$$$$$$$@@@@@@@@@@OOOOOOO@@@OOOXXXXXXOOO@@@@@OOOO@@@@OOOO@@@OXoooooooooXoXXXXXXXXXX@@@@@$******************%$@OOOOOXXO@********==**********$@@OOOO@@@$$$*****************#@XX@*=*===****==****======****=*=**********=***$$####***********************===****@X.X@***===***==****==****===***==***************=****%%%%%%**%%****%$*%*%%%$$$$$$$$$$@#$$##@@X..X@********=**************==*****=******=**=*****=**##++++++++++++++++++...........................................+++++++@@@#########****###****************************#+XXO$*************************====*****==***==*******=****$$%**********===***============**@++#*========***********@X......... ...@#***===**********#OXX+...XXXXX+O@@##@XXXXXXXXX+O+@@@@@@@@@X.X@#$$$############@@@#@XX..XXXXO@@OXXXXXXO@@$$$$$$$$$$$$**=*$$$$*$$@@O@@O@OOOOOOOOOOOOOOOOOOOOOOOOOOOOOO@$$$@@OO@OOOO@@@$$$$$@@@@@@@@@@@@@#$$@@@@@@@@$$$$$@@@@@@@@@$$$$$$**=====*$$$$$$$$@@@@@@@@@@$$*****$$$$$$$@@@@@$$$**===========-=--==*$$$$$@@@$$$$$$$$$$@@@@OOOXXXXXXXXXooXooooooooooo  oo                                                    ",
".                           ....oooXXXXXO@@@@@@@@OXX.o                       ooooooXXXOO@@@@@$$$$$$$@@@OXXoo oooooooo o ooooooXXXXXoooooooooooooXXXXO@@@$$@@@OXXooooXXXXXXXXXXXXXXXXXXXOOOOOXXXXO@@@$$$******==*****$$@@@@@@@@@$$$$$$$$$$$$$@@OO@@@@@@@@OOOOOO@@@OOOXXXXXXOOO@@@@@OOOO@@@@OOOO@@@@XXoooooooooooXXXXXXXXXXOOO@$$$$@@@@@@@@@@@@@@@$@OOOOOXXOO@$$***************$**$@OOOOOOOO@@$$$$$$$$$$$$$*****#@XO@*=*===****=****=====*=*=**===************=*@@O@@@@@@@@@@$$$$$********=====****$@X.+#***==*==*************==****=****=************%$@@@@@@##$$%%************===*************%@...X$********=**************==***********=*******=*=**@@+...++++++++++++++.............................................+++++XO@@@@######*******=====***=***=====*==========#+XX@$*************************=====*********==***********$@@O@@@@###$$$*********==========*@+@#*========***********@.X...... .....O#***===*********$@XXX..X.XXX..XXX@@#@XXoooooXXXXXX++XXXXX+X+XXXOOOOXXXXXXXXXOOOOO@@XX..XXXXXOOOXXXXXXO@@$$$@$$$$$$$$*==*$$$$$$$@@OOOOOOOOOOOOOOOOOOOOOOOOOOOOOOOOOOO@$$$@@OOOOOO@@@@@@$@@$$@@@@@@@@@@@@@$@@@@@@@@@@$$$@@@@@@@@@$$$$$$**=====*$$$$$$$$@$@@@@@@@@$$$***$$$$$$$$$@@@$$$$**============*===**$$$$$@@$$$$$$$$$$$@@OOOOOOXXXXXXXXXoXoooooooooo   o                                                     ",
"                              oo..oXXXXXOO@@@@@@@OXXoo                        ooooooXXOO@@@@$$$$$$$$@@@OXXoooo        oo ooooooXXXXooooooooooooooXXXO@@@$$@@@OXXXXXooXXXXXXXXXXXXXXXXXXXXOOOXXXXOOO@@@@@$$$$****$$$@@@@@@@@@@@$$$$$$$$@@@@@@OOOOOO@@@@@@@@OOOO@@OOOXXXXXXXOOO@@@@@OOOO@@@@OOO@@@@@OXooooooooXXXXXXXXXXXXXXO@@@@@@@OOOOXXXOOOO@@@@@OOOOOXOOOOO@@@@@@@@@@@@@@@@@@@@@@OOOXXXO@@@$$$@@@@@@@@@@@###@@X+@#******==********====******************===*#X+.+++.X....XXO@@@##$$%%%%*%******$OXX+#*===****=***=****************=***************#@XX..XXXXXO@@@@@##$$%%******==***********#@..X@$**********************************=****==******&+++++++++++++.++++++........................................................X+X+++++@@@@#####*************=**=******=*@XX+@*****************************=**********=**********=%@X........XXX+++@@@@@@@#######%%##@+&&::&======**********#@+.............XO##########@###@@XXXXXX......oo..X+++XX..o.......++++.....++...............+++++@++XX.X..XXXOOOXXXXXXO@$$$$$$$$$$$$$**=*$$$$$$@@@@@@OOOOOOOOOOOOOOOOOOOOOOOOOOOOOOOO@@$$@@OO@@OOO@@@@@@@@@$$@@@@O@OO@@@@@@@@#$$$$@@@@$@@@@@@@$$$$$$$$**=====*$$$$@@@@@@@@@@@@@@@$$$$$$$$$$$$$$$$$$$$$$$*=======****$*****$$$$$$$$$$$$$$$$@@OOOOOOXXXXXXoXXXoooooooooooooooooo                                                    ",
"                              oooo.XXXXXOO@@@@@@@OXXoo.                       ooooooXXOO@@@@$$$$$$$$@@@OXXoooo        oooooooooXXXoooooooooooooooXXXO@@@$$@@@OXXXXXXoXXXXXXXXXXXXXXXXXXXXOOOXXXXOOOO@@@@@@@@$$$$@@@@@@@$$$$$$$$$$$$$@@@@@@@@OOOOO@@@$$@@@@@OOO@@OOOXXXXXXXOOO@@@@@OOOO@@@@OOOO@@@@OXoooooooooooooXXXXXXXXXOOOOOOOOOOOXXXXXOO@@@@@OOOOXXXXXXOOOOO@@@@@@@@OOOOOOOO@OOOOXXXOO@@@$$$@@@@@OOOOOOO@@OOXO@@@@@@####$$$$$$***********************====*@X++..........XXXXOOOOOO@@@@@$$$$$$#OXXX@#***==*******************************==*****$@X........ooXXXXXOOO@@@@@$$$$%%%%%%*%*****$@..X@$*******************===*******=*******====*****#++++++++++++++.++++++..............................................................XXXXXX+@@@@@@@@@@@$$$$$$$$%%%******%@.XO#****************==****==**=**=**===*********====****#@X.............XXXXXOOOOOOOO@@@@@@X++&&&&#*#*********#$##@X++........... ..XXXXXXXXXXXXXXXX...XXX............X.X.o...........++.....+................+++X+@++XXX..XXXXOOXXXXXXXO@$$$$$$$$$$$$$**=*$$$$$$@@@@@OOOOOOOOOOOOOOOOOOOOOOOOOOOOOOOOO@@$$@@OOOO@O@@@O@@@@@@@$$@@@@@@@@OOO@@@@@#$$$$$$$$@@@@@@@$$$$$$$$**=====*$$$$@@@@@@@@@@@@@@@@@@$$$$$$$$$$$$$$$$$$$$***********$$$***$$$$$$$$$$$$$$$$@@@OOOOOXXXXXXXooXXoooooooooooooooooo                                                    ",
"                              oooo.XXXXXOO@@@@@@@OXXoo.                       ooooooXXOO@@@@$$$$$$$$@@@OXXoo .    o  ooooooooooXXXXooooooooooooooXXXO@@@$$@@@OXXXXXXXXXXXXXXXXXXXXXXXXXXXOOXXXXXXXOOOOOOOOO@@@$$@@@@@$$$$$$$$$@@@@@@@OOOO@@@OOOO@@@$$$$@@@@@OO@@OOOXXXXXXXOOO@@@@@OXOO@@@@OOOO@@@@XXoooooooooooooooXoXXXXXXXXXXXXXXXXooooXOO@@@@OOOOOXXXXXXXOOOO@@@@@@OOOOOXXXOOOOOOOXXXOOO@@@$@@@@@@O+XXXXXXXXX++++XX++XX++XXOO+++@+++++++++++++@@@@@@@@@#@@@+...++.......................XXOO@@@....X+@@##$%******************===************$##@O......................XXXXXXO@@@@@@@##$####+..X+@##$***************************==******==***#&++++++++++++++.+.+++++.....................................................................+++++....XXXX++++++@@@@@@@####O..+##***********#%%%*%*%%%%%########################@@@@+X.. .................+++++++...+++.+++&&&&&&&&&&&&&&&#@+@++++++.................................X.Xoo.......................+++.....+................++XX++++XXXX..XXXO@OXXXXXXO@$$$$$$$$$$$$$*==*$@@$$$@@@@O@@OOOOOOOOOOOOOOOOOOOOOOOOOOOOOOO@@$$@@@OOO@@@@@@O@@@@@@$@@@@@@@@@@OOOOO@@@@$$***$$$@@@@@@@@@@@$$$**=====*$$@@@@@@@@@@@@@@@@@@@@@@@@@@@@$$$$$$$$$$$$$**********$$$$$*$$$$$$$$$$$$$$$$@@OOOOOXXXXXXXXooXXooooooooooo o                                                         ",
"                              oooooXXXXXOO@@@@@@@OXXXo                          ooooXXOO@@@$$$$$$$$$@@@OXXoo    ooo oooo ooooooXXXoooooooooooooooXXXO@@@$$@@@OXXXXXXXXXXXXXXXXXXXXXXXXXXXOOXXXXXXXXOOOOOOOOO@@$$$$$$$$$$$$$$$@@@@@@@OOOOO@@@@OOOO@@@$$$@@@@OO@@@OOOXXXXXXXOOO@@@@OOXOO@@@@OOOO@@@OXooooooo  ooooooooooooXXXXXXXXXXXooooooXOO@@@@OOOOXXXXXXXXXXXOOOOOOOOOOXXXXXXOO@OOOOXXOOO@@@$@@@@@@O+XOXXXXXXX+++XXXXXXXXXXXXXX++@+++++++++++XXXXXXXXXXXXXXX....++........................oo..XX. ....XXXO@@@@@$$$$%**********%*%%***$$$$$$@@@@OXX.......................o.oooooXXXXXXOOO@@@@X....XXO@@@$$**************===*****************###@++++++++++++++.+++++++.....................................................................+++++...X....XX.XXXXXXXXXXX@@OX...+@@@@@@@@@@@@@@@@@@@OOOOOOOOOOOXXXXXXXXXXXXXXXXXX.ooo.. ...................++++++++++++++++++&&&&&&&&&&&&&&&&#+++++++...................................Xo..............   .......++++....+................+++X++++XXXX..XXXO@OXXXXXXO@$$$$@$$$$$$$$*==*$$$$$$@@@@@@@@OOO@OOOOOOOOOOOOOOOOOOOOOOOOOO@@$$@@@OOO@@@OOOO@@@@@$$@@@@@@@@@@@@OOO@@@@@@$$**$$@@@@$$@@@@$$$$**=====*$$$@@@@@@@@@@@@@@@@@@@@@@@@@@@@@@$$$$$$$$$$*******====*****$$$$$@$$$$$$$$$@@OOOOOOXXXXXXXoooXXooooooooooooo                                                         ",
"                             .ooooXXXXXXO@@@@@@@OOXXooo                         ooooXXO@@@@@$$$$$$$$@@@OXXoo    ooo      ooooooXXXXoooooooooooooXXXXO@@@$$@@@OXXXXXXooooXXXXXXXXXXXXXXXOOOOOXXXXXXXOXXXXOOOO@@$$$$@@@@@@@@$@@@@@@@@@OOOOO@@@@OOOO@@$$$@@@@OOO@@@OOXXXXXXXXOOO@@@@OXXOO@@@@OOOO@@@OXooooo    ooooooooooooooooooooooooooooXXXOO@@OOOXXXXXXXXXXXXOOOOOXXXXXXXXXXXXOOOOOOOOOOOO@@@$$@@@@@X+XX+++..X+XXXXXX+XXX++X+++++++++++++++++++..........++.......+..+.++++..........  ...... ...............XX.XXXOO@@@@######@@@@@@OOOXXXXX.....................  .......................+.............X+@@#######%%%%%%******###########+++++++++++++++++++.+..+++++......................................................................++++.............+.+....+++++....+++++++++................................  ......... ........ .............+++++++++++++++++++&&&&&&&&&&&&&&&&&&&@+++........XX..........o.............................. . .......++++....++...............++++++@+XXXX.XXXXO@XXXXXXXO@$$$$@@$$$$$$$*==*$$$$$$$@@@@@@@OOOOOOO@@OOOOOOOOOOOOOOOOOOOOOO@$$@@@@OOOO@O@OO@@@@@$$@@OOO@@@$$$@@@@@@@@@@@$$$$@@@@@$$$$@@$$$$$*======*$$$$$@@@@@@@@@@@@@@@@@@@@@@@@@@@@@@$$$$$$$$$****==========*$$$$@$$$$$$$$$@@OOOOOXXXXXXXXXXXooooooooooooo                                                           ",
"                            .oo.oXXXXXXOO@@@@@@@OOXXXoo                         ooooXXOO@@@@$$$$$$$$@@@OXXoo            oooooooXXXXooooooooooooXXXXXO@@@$$@@@OXXXXXXooooXXXXXXXXXXXXXXXXOOOOXXXXXXXOXXOOOOOO@@$$@@@@OOOOO@@@@@@@@@@@OOOOO@@@@OOOOO@@@@@@@@OOO@@@OOXXXXXXXXOOO@@@@OXXOO@@@@OOOO@@@OXoo oo    ooo oo ooooooooooooooooooooXXXXXOOOOXXXXXXXXooXXXXOOOXXXXXXXXXXXXXXOO@OOOOOOOO@@@$$$@@@@OXX+XX+.XXXXXXX++++XXXX++X++++++++++++++++++...........+..........++++..........................................oooXXXXXXXXXXXXXXXXXXX....................................  ....................... .....XXXOOO@@@@@@@@@@@@@@@@@@@OO++++++++++++++++++++++++...+++++.....................................................................+++++............++......+++++....+++++++++....................................... ....... ....................++++++++++++++++++&&&&&&&&&&&&&&&+++#+++++......X++++X.......................... ..........    ......++++....++... ...........++++++@+XXXX.XXXXO@OXXXXXXO@$$$@@@$$$$$$$*==*$$$$$$$@@@@@@@@OO@OOO@@@OOOOOOOOOOOOOOOOOOOOO@$$@@@@@O@@@@@@@@@@@@@$@@@O@O@@@$$$@@@@@@@@@@$$$$@@@@@$$$$@@@$$$$*======*$$$$$@@@@@@@@@@@@@@@@@@@@@@@@@@@@@@@@@@@@$$$$**==-;;;;;-==*$$$$$$$$$$$$$$@@OOOOOOXXXXXXXoXoooooooooooooo    o                                                      ",
"                            .ooooXXXXXOO@@@@@@@@OOXXXooo                      ooooooXXO@@@@@$@$$$$$$@@@OXooooo     o    oooooooXXXoooooooooooooXXXXXO@@@$$@@@OXXXXXXooooXXXXXXXXXXXXXXXXXOOOXXXXXXXXXOOOOOO@@@@@@OOOOOOOO@@@@@O@@@@@@OOOO@@@@OOOO@@@$$@@@@@@O@@OOOXXXXXXXXOOO@@@@OOOOO@@@@OOOO@@@OXo  oo  oooo  o o . . .oooooooXoooXXXXXXXXXXOOXXXXXXXXXXXXXXXXOXOXXXXXXOOXXXOO@@@@@@@OO@@@$$$$@@@@OXXXXX+XXXXXXXX++XXXXXXXXX++++++&&+++++++++++....................+++......... .................................   .............................................  ... ...................+..... .....................................++....++++++++++++++++++++++++++.....................................................................+++++++....+++++++++++++++++++++++++++++++++++++++++..................................  .. .....................+++++++++++++++++++&&&&&&&&&&&&&&&@++++++++++++++XX+++.................o....... .........     ......++++....++...............++++++@+XXXXXXXXOOOXXXXXXXOO@@@@@@$$$$$$$*==*$$$$$$$@@@@@@@@@O@@O@@@@@OOOOOOOOOOOOOOOOOOO@@$$@@@@OO@@@@@@@@@@@@@@@@@@@@@@@@$$@@@@@$$$$$$$$$@@@@@@$$$$$$$$$$*======*$$@$$@@@@@@@@@@@@@@@@@@@@@@@@@@@@@@@@@@@@@$$$$*==;;;;;;;;==*$$$$$$$$$$$$$@@OOOOOOXOXXXXXooooooooooooooooo  ooo                                                     ",
"                            .oooXXXXXOOO@@@@@@@@OOXXoooo                      oooooXXXO@@@@@$@$$$$@@@@@OXoooooo     o   oooooooXXXXoooooooooooooXXXXO@@@$$@@@OXXXXXoooooXXXXXXXXXXXXXXXXXOOOXXXXXXXXXXOXOO@@@@@OOOOOOOOOOO@@OOOO@@@@@OOOO@@@OOOOO@@$$$@@@@@@O@@OOOXXXXXXXXOOO@@@@@OOOO@@@@OOOO@@@OXo  ooooooooo.        .oooooXXoo..oXXXXXXXXXXXXXXXXXXXoooXXXXXXXXXXXXXXXOOOOOO@@@@@@@OOO@@@$$@@@@@XXXXXX...XXXXXX.XXXXXXXXX++++++&&&++++++++++++............+......++........ . ....................................  ...................................... ..... .....................+.+.................................................++.+++..++++++++++...+++++.....................................................................+++++++.+++.+++++++++++++++++++++++++++++++++++++++++++++++..................... ......  ....  ............+++...+++++++++++++++++++++&&&&&&&&&&&+++++++++++++++++++++X........o........o......  .........    ....+..+++....++...............++++++@@XXXXXXXXXOOXXXXXXXOO@@@@@@$$$$$$$*==*$$$$$$$@@@@@@@@@@@@@O@@@@@@@@@@@@OOOOOOOO@OO@@$$@@@@@O@@@@@@@@@@@@@@@@@OOO@@@@@@@@@@@$$$$$$$$$@@@@@$$$$@$$$$$$*======*$$$$$@@@@@@@@@@@@@@@@@@@@@@@@@@@@@@@@@@@@@@$$$*==;;;;;;;;==*$$$$$@$$$$$$$@@OOOOOOXXXXXXXoooooooooooooooo   ooo                                                     ",
"                           oooo.XXXXXOOO@@@@@@@@@OXXoo                    oooo  ooooXXO@@@@$$$$$$$$$@@OOXooo o        oo  oooooXXXXooooooooooooooXXXO@@$$$@@@OXXooooXXXXoXXXXXXXXXXXXXXXXOOXXXXXXXXXXOOOOO@@@@@OOOOOOOOOOO@@OOO@@@@@@OOOO@@@@OOO@@@$$$$@@@@@O@@OOXXXXXXXXXOOO@@@@OOOOO@@@@OOOO@@@OXoooooooooooo   ooooooooooooooooXXXXXXXXXXXXXXXXXXXXXoXXXXXXXOXXXXXXXXXXXOXXOO@@@@@OOOOO@@@@@@@@@@XXX.XX...X+++++XXXXXXXX+XXXX++++&&++++++++++.................+++.......................................................  ...++++++++++++++++++++++++.....  ...........................++.............................................................+++++++....++++........................................................++...........+++++++++++&&&&&&&&&&&&&&&&&&&&&&&&&&&&&&&&&&&&&&&&&&&&&&++++................................... ...........+++....++++++++++++++++++&+&&&&&&++&+&++++++++++++++@+@++++++.X........oooo............ .....  ..  ......++......................+++++++++XXXX.XXXOOXXXXXXXXO@@@@@@@@@@$$$**=*$$$$$$@@@@@@@@@@@@@@@@@@@OO@OOOOOOOOOOOOO@@@@@$$@@@@@@@@@@@@@@@@@@@@@@@@@OO@O@@@@@@@@@$$$**$$$@@@@@@@@@$$$$$$**======*$$@$$$@@@@@@@@@@@@@@@@@@@@@@@@@@@@@@@@@@@@$$$$*==;;;;;;;;==*$$$$$$$$$$$$$@@OOOOOOXXXXXXXXooooooooooooo   oo oo o                                                   ",
"                          oooooXXXXXXOO@@@@@@@@@@OXXoooo                  oooo  ooooXXO@@@@$$$$$$$$$@@OOXXoo o        oooooooooXXXXoooooooooooooooXXO@@@$$@@@OXXoXXooXXXoXXXXXXXXXXXXXXXXXOXXXXXXXXXOOOOOO@@@@@OOOOOOOOOOO@@OOOO@@@@@OOOOO@@OOOOO@@$$$$$@@@@@@@OOXXXXXXXXXOOO@@@@OOOOO@@@@OOOO@@@@Xooo ooo    oo  ooooooXXooooXXXXXXXXXXXXXXXXXXXXXXXXXXXXXXXXXOXXXXXXXXXXOOOOOOO@@@OOOOOOO@@@@@@@@OXXXXXX...XXXXXXXX+XXXX++++XX+++&&&++++++++++....+.........+..++.............................................................++++&&&&&&&&&&&&&&&&&&++++..............................+++...................++..........................................++++++....++++.......................................................++++..........+++++++++&&&&&&&&&&&&&&&&&&&&&&&&&&&&&&&&&&&&&&&&&&&&&&&++++...................................  .... .......++++......++++++++++++++++&+&&&&&+++&&++++++++++++@@##@@@@++++........o..o............  ....  ..  .....++++.....................++X+++++XXXX.oXXXOOXXXXXXXXXOOOOO@@@@@@@$$***$$$$$$@@@@@@@@@@@OO@@@@@@@@@@@@@@OOOOOOOO@@@@@$$$@@@@@@@@@@@@@@@@@@@@@@@@OOOO@@@@@@@@@@$$$$$$$$@@@@$$@@@$$$$$**======*$$$$$$$@@@@@@@@@@@@@@@@@@@@@@@@@@@@@@@@@@@$$$$*==;;;;;;;;==*$$$$$$$$$$$$$@@OOOOOOXXXXXXXXooooooooooooo   o  o  oo                                                  ",
"                          oooooXXXXXXOO@@@@@@@@@@OXXoooo                    ooo ooXoXXOO@@@$$$$$$$@@@@OOXXo oo        oo ooooooXXXXoooooooooooooXXXXO@@@$$@@@OXXXXXXXXXXXXXXXXXXXXXXXXXXXXOXXXXXXOOOOOOOO@@@@@@@OOOOOOOOO@@@@OOO@@@@OOOOOO@@OOOOO@@@$$@@@@@@O@@OOXXXXXXXXXOOO@@@@OOOOO@@@@OOOO@@@OXoooooooooooooooXoXXXXXXXXXXXXXXXXXOOOOXXXXXXXXOOOOXXXXXXXXXOOOXXXXXXXOOO@OOOOO@@@@OOOOO@@@@@@@@OOXXXXXXXXXXXXXXXX++++XX++XXXX+++&&&++++++++++.............+...++.............................................................+++++++++&++&&&&&&&&&&++++............................+++++.................+++++.........................................+++++...++++++.......................................................+++++.........+++++++++++++++++++++++++++&+++++++&++++++++++++++++++++++.................... ..... .. .  .... ...   .......+++++.....++....++++++++++++&&&&&&&++&&&&+++++@+++++@@@@@@@@++XX................  . ..  ....  . . ......+++....+................X+XX++++XXXXXXXXXOOXXXXXXXXXXXXXOOO@@@@@@$$$$$$$$$$@@@@@@@@@@@OO@@@@@@@@@@@@@@@@OOO@OO@@@@@$$$@@@@@@@@@@@@@@@@@@@@@@@@@@@@@@@@@@@@@@$$$$$$$$@@@@@@@@@$$$$$**======**$$$$$$@@@@@@@@@@@@@@@@@@@@@@@@@@@@@@@@@@@@$$$*==;;;;;;;;==**$$$$$$$$$$$$@@OOOOOOXXXXXXXXoooooooooooooo      o                                                     ",
"                          ooo.oXXXXXOO@@@@@@@@@@@OXXoooo                    ooo ooXXXXOO@@@$@$$$$$@@@@OOXXo oo        oo oooooooXXXoooooooooooooXXXXOO@@$$@@@OXXXXXXXXXXXXXXXXXXXXXXXXXXOOOXXXXXXXOOO@@O@@@$@@@OOOOOOOOOO@@@OOOO@@@@OOOOOO@@@OOOO@@@@@@O@@@@@@@OOXXXXXXXXXOOO@@@@OOOOO@@@@OOOO@@@OXXooooooooXXXXXXXXXXXXO@@OOOO@O@@@@@OOOXXXXXXXO@@@OOOOXXXXXXXXXXXXXXXXO@@@@OOOO@@@@@@@@@@@@@@@@OXXXX.XXXXXXXXXXXXX++++XX++XXXX+++&&+++++++.+++.........++..++.................................................................++++++++++++++++++++++++..............................++++..................++++++........................................+++++.+.++++++.......................................................++++++........++++++..+..+++++++++++++++++++++++++++++++++++++++++++........................    .. ....  ... ....    .......+++++++...+.....+.+++++++&+&&&&&&&&&&&&++++++@+++++++@+@@@@@@+XXXXX.........           ....  . . ......+++...++...............+XXXX++@+XXXXXXXXXXOXXXXXXXXXXXXXOOOOOO@@@@@@@@$$$$$@@@@@@@@@@@@@@@@@@@@@@@@@@@@@@@OOOO@@@@@$$$@@@@@@@@@@@@@@@@@@@@@@@@@@@@@@@@@@@@@@$$$$$$$$$$$@@@@$$$$$$$**======*$$@$$$$$$$$$$@@@@@@@@@@@@@@@@@@@@@@@@@@@@@@$$$*==;;;;;;;;-=**$$$$$$$$$$$$@@OOOOOOXXXXXXXXoooooooooooooo        o                                                   ",
"                           oooXXXXXXOOO@@@@@@@@@@OXXXo.                 ooo  oooooooXXOO@@@@@$$$$$@@@@OOXXo              oooooooXXXXooooooooooooXoXXOO@@$$@@@OXXXXXXXXXXXXXXXXXXXXXXXXXXOXXXXXXXOOO@@@@@@@@$$@@OOOOXXOOOO@@OOOOOO@@@OOOOOO@@OOOOOOOOOOO@@@@@@@@@OXXXXXXXXXOOO@@@@OOOOO@@@@OOOO@@@OXXoooo oooooooooooXXXXXXOOXXOO@@@@OOOXXXXXXXXX@@@@OOXOXXXXXXXXXXXXOOOO@@@@OOOOO@@@@@@O@@@@@@@@@OXXXXXX..XXXXXXXX+++XXX++XXX++++++&&&++..+++++++........++.++.................+............................................. .................+.....................................++++...................+++++..........................................++++....+++++.......................................................++++++........++++.......................++++++++++..+.......+.................................    .......    .    ..........+++++....+.......+++++++++++++&&&&&&&&&&&&+++++++++++++++++@+XXXX.XX.......          ...... ..  ......+++...+++...  ...........XXX++++XXXX.XXXXXXXXXXXXXXXXXXXXXOOOOO@@@@@@@@@$$@@@@@@@@@@@@@@@@@@@@@@@@@@@@@@@@@@@@OO@@@$$$@@@@@@@@@@@@@@@@@@@@@@@@@@@@@@@@@@@@@$$$$$$$$$$$$$$$$$$$$$$$**======*$$$@$$$$$$$$$$$@@@@@@@@@@@@@@@@@@@@@@@@@$$@$$$*==;;;;;;;;-=*$$$$$$$$$$$$$@@OOOOOOXXXXXXXXoooooooooooooo  oo                                                        ",
"                          ooooXXXXXXOO@@@@@@@@@@@OXXXo..                     oooooXXXXOO@@@@@$$$$$$$@@OOXoo              oooooooXXXXooooooooooooooXXOO@@$$@@@OXXXoooooXXoooXXXXXXXXXXXXXOXXXXXXXOO@@@@@@@@@$@@@OOOOXXXOO@@@OOOOOOO@OOOOOOOOOOOXOOOOOO@@@@@@@@@@@OXXXXXXXXXOOO@@@@OOOOO@@@@OOOO@@OOXXoooooo o  oooooooXXXXXXXXXXXOOOOXXXXXXXXXXXXO@@@OOXXOXXXXXOOXOOOOOOOO@@@OOOOO@@@@@OOO@@@@@@@OXXX.X.X..XXXXXXXX++XXXXX+XXX+++++++&&++...++++++.........+..+................++................................... ......... .......................................................+++....................+++++...............................++++..+....++++....+++++................++++......++++++.++..................+.+++++.......++++++...............................++....++..................................................  ..... .. ........++++++++.....++.++++++++++++++&&&&&&&&&&&+++++++++++++++++++XX............          .....      ...+..+++....++...  ..........X+XX+++OXXXXXXXXXXXXXXXXXXXXXXXXOOOOOOOO@@@@@@@@@@@@@@@@@@@@@@@@@@@@@@@@@@@@@@@@@@@@@@@O@@@$$@@@@@@@@@@@@@@$@$@@@@@@@@@@@@@O@@@@@@@$$$$$$$$$$@$$$$$$$$$$$$**======*$$$@@$@$$$$$$$$$$@@$@@@@@@@@@@@@@@@@@@$@$$$$$$*==;;;;;;;;-=*$$$$$$$$$$$$$@@OOOOOOXXXXXXXXoooooooooooooo  oo                                                        ",
"                         oo..oXXXXXXOO@@@@@@@@@@@@XXoo..                      oooooXXXOO@@@@$$$$$$$$@@@OXXo              ooooooXXXXXXoooooooooooXXXXOO@@$$@@@OXXooooooooooooXXXXXXXXXXXXXXXXXXXXO@@$$$@@@@@@@@@OOOOXXXOOOOOOOOOOOO@@@OOOOOOOOOXOOOO@@@@@@@@@@@@@OXXXXXXXXXOOO@@@@OXXOO@@@@OOOOOOXXoo.ooooooo ooooooXXXXXOOOXXXXOOXXXXXXXooXXXXXXO@@@OOXXXXXXXXXOOOOOOOOOOOO@OOOOO@@@@@OOOO@@@@@@XX.X.X..X.XXXX.XX+++XXXX++XXX++X++++++++....+++++.........+..+.............++++.................................... .........................................................................................+++........................+++..+++++++++++++++++++....++++................++..+++.....++...+++++....+++.......+..+.+..........++++................................................................................................ ...    .......+++++++++++++.+++++++++++++&&+&&&&&&&&&++++++++++++++XXXXXXXX.............      .........    ...+++++.....++...  .........X+++X+++XXXXXXXXXXXXXXXXXXXXXXXXXXXOOOOOO@@@@@@@@@@@@@@@$$$@@@@@@@@@@@@@@@@@@@@@@@@@@@@@@@@$$$$@@@@@@@@@@@@$$$$$$$$$@@@@@@@@@@@@@@@@$$$$$$$$$@@@@$$$$$$$$$$**======*$$$$$@@$$@@@@$$$$$$$$$$@@@@@@@@@@@@@@$$$@@$$$$*=-;;;;;;;;==*$$$$$$$$$$$$$@@OOOOOOXXXXXXXXoooooooooooo    oooo                                                      ",
"                         ooo.oXXXXXXOO@@@@@@@@@@@@XXoo..                      ooooXXXXOO@@@@$$$$$$$$@@@OXoo             oooooooXXXXXXoooooooooooXXXXOO@@$$@@@OXXoooooooooooooXooXXXXXXXXXOXXXXXOO@@$$$@@@@@@@@@OOOOXXOOO@OOOOOOOOO@@@OOOOO@OOOXXO@@@@@@@@OO@@@@OOXXXXXXXXXOOO@@@@OXXXO@@@@OOXXXXXXoo  oooooooooooXXXXXXXXXXXXXXXXXXXXooooooXoXXXOOOOXXXXXXXXXXXXXOOOOOOOOOOOOOOOO@@@@@OOO@@@@@@OXX.X.XXXXXXXX..X..+XXXXX++XXXXXX+++++++++...+++++.......................+++++...................................................................................................................................................................++++++++++++++++....++++......................................................................++..............................................................................................  .....   ........++++++++++++++++++++++++++&&&+&&&&&&&&++++++XXX...XXXXXXXXXX............       . .......    ...++++++...++..... ..........++XXX+XXXXXXXXXXXXXOXXXXXXXXXXXXXOOOOOOOOO@@@@@@@$$$@@$$$$@@@$@@$$$@@@@@@@@@@@@@@@@@@@@@@@$$$$@@@@@@@@@@@$$$$$$$$$@@@@@@@@@@@@@@@@@$$$$$$$$$@@@$$$@@$$$$$$**======*$$$$@@@@@@@@@@@$$$$$$$$$$$$$$$$@@@$@$$$$$$$$$$*=-;;;;;;;;==*$$$$$$$$$$$$$@@OOOOOOXXXXXXXXoooooooooooo    oooo                                                      ",
"                         .ooooooXXXXO@@@@@@@@@@@@OXXoooo                o o     ooXXXXOO@@@@$$$$$$@$@@@OXoo            oooooooXXXXoooooooooooooooXXXOO@@$$@@@OXXoooooooooXooooXXXXXXXXOOOOOOXXOOO@@$$$$@@@@@@@@OOOOOOOOO@@OOOOOO@@@@@@OOO@@@OOOOO@@@@@@@@@@@@@OOXXXXXXXXXXXOOO@@@OOOOO@@OOXXXoooooooooooooooooXXXXXXooooooooooooXXXXXXXXXXXXXXXXXXXXXXooXXXXXXXXXXOOOOOOOOO@@OOO@@@@@@OOOO@@@@@OXXXX...XXXXXXXXXXXXX++++++XXXXX+++++&++++++..+++..........+............++++........................................ ............................................................................................................................+++++++++++++++.....++++..............................................................................................................................................................  ............      ......+++++++++++++++++++++++++&&&&&&&&&&&&&&+++..............o...XXXXX...... ...   ..  .....   . ....+.+++...+++..... ..........XXXX+XXX.XXXXXXXXXXXXXXXXXXXXXXXOOOOOOO@@@@@@@@$$$$$$$@@@@$$$$$$$$$$$$$$$@@@@$$@@@@@@@@@$@$@@@@@@@@@@@@@@$$$$$$@@@@@@@@@@@@@@@@@@$$$$$$$$$$$$@$$@$$$$$$$$**======*$$$$$$$@@@@@@@@$@$$$$$$$$$$$@@@@@@@@@@@$$$$$$$*==;;;;;;;;==*$$$$$$$$$*$$$@@OOOOOOXXXXXXXXoooooooooooo    oo                                                        ",
"                         .ooooooXXXXO@@@@@@@@@@@@OXXooo                 o      oooXXXOO@@@@@$$$$$$@@@@@OXXo            oooooooXXXXoooooooooooooooXXXOO@@$$@@@OXXooooooooXXooooXXXXXXXXOOOOOOXXOOO@@$$$@@@@@@$@@OOOOOOOO@@@@@@OO@@@@@@OOOO@@@OOOOOO@@@@@@OOOOOOOOXXXXXXXXXXXXOO@@@OOXXOOOOOXoooooooooooooooooooooooooooooooooooooXXXXXXXXXXXXXXXXXXXXXXXXXXXXXXXXXXXOOOOOOOO@@OOO@@@@@@OOOO@@@@@OXXXX...XXXXXXXXXXXXXXXX+++XXXX+++++++++++++..+++....................++++......................+++.......................... ...............................................................+++++++++++++........................+.+++.+.+++++++++++&+++++++++++.....++++............................................................................................................................................................... .............      .......++++++++++++++++++++++++&&&&&&&&+&&&+++...............o....XXXXXXX... . .   .   . ..      ......+++...+++....  ..........X+X++XXX.XXXXXXXXXXXXXXXXXXXXXXXXOOOOOOOO@@@@@$$$$$$$$$$$$$$$$$$$$$$$$$$$$$$$$$@$@@@@@@$$@$@@@@@@@@@@@@@@$$$$$$$@@@@@@@@@$@@@@@@@$$$$$$$$$$$$@$$$$$$$$$$$**=====***$$$$@@@@@@@@@@@@@@@@@@$$$$$$@@@@$$@@@@@$$$$$$*==;;;;;;;;==*$$$$$$$$$**$$@@OOOOOOXXXXXXooooooooooooooo   oo                                                        ",
"                         .oooooXXXXOO@@@@@@@@@@@@OXXoo         o              ooooooXXO@@@@@$$$$$$@$@@OOXoo o             oooooXXXXXoooooooooooooXXXOO@@$$@@@OOXooooooooXoooooXXXXXXXXOOOOOOXXOOO@@@$@@@@@@@$@@@O@@@@@@@$@@@@@@@@@@@@OOOO@@@OOOOO@@@@@@@OOOOOOOOXXXXXXXXXXXXO@@@OOXXXXXOXXoooooooooo oooooooooooooo ooooooooooooooXoXXXXXXXXXXXXooXXXXXXXXXXXXOOOXXOO@OOOO@@@OOOO@@@@@OOOO@@@@OXXXXX...X.XXXXXXXXXXXXX++XXXXX+++++++++++++...+++..................++++++..............++++++++++++++........................................................................................++++++++++++++.+++++++++++++++++++++.++++++++++++++++++++++++++++++.....++++..........+.............++.....+++++++++....+.+++++.......+.........++++.........................+++++...........................................+......................  ....       ......++++++++++++++++++++++++++&+&&+++++++++........       o......o...... .                  ....+..++....+++... ............++X++XXX..XXXXXXXXXXXXXXXXXXXXXXXOOOOOO@O@@@@$$$$**$$$$$$$$$$$$$$$$$$$$$$$$$$$$$$@@$$$$$$$$$$@$@@@@@@@$@@$$$$$$$$$$@@@@$$$$$@@@@$$$$$$$$$$$$$$$$$$$$$$$$$**=====***$$$$$$$$$$$$$$@@$$@@@@@@$$$$$$$$$$$$@@$$$$$$$*==;;;;;;;;==*$$$$$$$$$*$$$@@OOOOOOXXXXXXXoXoooooooooooo                                                             ",
"                         .oooooXXXXOO@@@@@@@@@@@@OXXoo                o       ooooooXXO@@@@@$$$$$$@$@@OOXooo o         o  oooooXXoXXXooooo ooooooXXXO@@@@$@@@OXXoooooXXXoooooooXXXXXXXOOOOOOXXXOOO@@@@@@@@@@$$@@@@@@@$$$$$@@@OO@@@@@OOOOOO@OOOOO@@@@@@@OOOOOOOOOXXXXXXXXXXXOOO@@OOXXXXXXXXoooooooooo   ooooooooooo  oooo  ooooooooXXXXXXXXXoXXXXXXXXXXXXXXXXXOOOOOXOOOOOOO@@@@OO@@@@@@OOO@@@@@@XXXXX...XXXXXXXXXXXXXXX++XXXXX++++++++++++....++++............++..+++..++..............+++++++++++++++.........................................................................................+.................+++.++++++++++++..+.......+....++++++++++++++++.....++++..........+........................++................................+++.......................+++++++++..........................................++..........................        ......+++++++&&&+++++++++++++++++&+++++++++.......       o o....   ........                 ........++....+++... ...........+++XX+XXX...ooXXXXXXXXXXXXXXXXXXXXOOOOOO@@@@$$$$$*=;-=*$$$$$$$$$$$$$$$$$$$$$$$$$$$$$$$$$$$$$$$$$$@@@@@$$@@@$$$$$$$$$@@@@@$$$$$$$$$$$$$$$$$$$$$$$$$$$$$$$$$**=====***$$$$$$$$$$$@@@@@@@@@@@@@@@@$$$$$$$$$$$$$$$$$$*==;;;;;;;;==*$$$$$$$$$*$$$@@OOOOOXXXXXXXooXoooooooooooo                                                             ",
"                          .ooooXXXXO@@@@@@@@@@@@@OXXooo              o      ooooooooXXOO@@@@$$$$$$$$@@OOXoo oo         o  oooooXXoXXooooooo oooooXXXOO@@$$$$@OXXXXXoooooooooooooXXXXXXXOXXXXXXXOOO@@@@@O@@@@@@@@@@@$$$$$$@@@OOOO@@@OOOOOOOOOOOOO@@@@@@OOOOOOOOOOXXXXXXXXOOOOOO@@OOOOXXXXXXooo o         oooo       ooo  ooooXXXXXXXOO@OOXXXXXXXXXXXXXXXXXXXXXOOO@OOOOOOOOO@@@@OO@@@@@@OOOO@@@@OXXX....XXX.XXXXXXXXXXXXXX++XX+++++++++++++....++++............++..+++..+++++........+++++++++++++++++.......................................+++.................................................................................................+.+++++..+++++++.....++++................................................................................................+++++++++...................++++..................+++....................   ...       . ....++++++++++++++++++++++++++++&+++++++...........      ooooo..o.o.......      ..     .   .......++.....+...............XX+++++XXX...ooooXXXXXXXXXXXXXXXXOOOOOOO@@@@@$$$$$*=-;;;-===***$$$$$$$$$$$$$$$$$$$$$$$$$$$$$$$$$$@@@@@@$$$$@@@$$$$$$$$@@@@$@@@$$$$$$$$$$$$$$$$$$$$$$$$$$$$***=====*$$$****$$$$$$$$$$$$$@@@@@@@@@@$$$$$$$$$$$$$$$$**==;;;;;;;;==*$$$$$$$$$*$$$@@OOOOOOXXXXXXXXoXoooooooooooooooo                                                        ",
"..                        .ooooXXXXOO@@@@@@@@@@@@@XXXooo              ooo     ooooooXXOO@@@@$$$$$$$$@@OXXoo oo         o  oooooXXoXXoooooooooooooXXXOO@@$$$$@OXXXXXooooXoooooooXXXXXXXXXXXXXXOOOOOO@@@@O@@@@@@@@@@$$$$$$@@OOOOOOOOOOOOOXOOOOOOO@@@OOOOOOOOOOOOOOXXOOOOOOOOOOOOOOOOO@@@OOXXooo       o               oo  oooXXXoooXXXOOOOXXXXXXXXXXXooXXXXXXXXOOO@OOOOOOOO@@@@@@O@@@@@@OXOO@@@@OXX.....XXX.XX.XXXXXXXXXXX++XX++X++++++++++....++++.............+..++++++++++........+++++++++++++++++.........................................+.........................................................................................+..++..++..++...++++++++.....++++.................................................................................................+++++++++.................++++++..................++++.................. . ...         ......+++++++&++&&++++++++++++++++++++++...........  oo oo.o..ooo.........      .     .    .......++..........  .........X.X++++XXX...oooooXXXXXXXXXXXXXOOOOOOOO@@@@$$$$$$$**==-;;;;;;-=====*$$$**$$$$$$$$$$$$$$$$$$$$$$$$$@@@$$$$$$@@@@$$$$$$$$$$$$$$$$$$$$$$$$$$$$$$$$$$$$$$$$$$$***=====*$$********$$$$$$$$$$@@@@@@@@@@$$@$$@$$$$$$$$$$**=-;;;;;;;;==*$$$$$$$$$*$$$@@OOOOOOXXXXXXXXoXooooooooooooooo                                                         ",
"...                      .oooooXXXXXO@@@@@@@@@@@@@XXXXoo                 oo   ooooooXXO@@@@@$@$$$$@@@@OXXooooo        oo ooooooXooXoXooooooooooooXXXOO@@$$@@@OXXXXXoooXXoooooooooXXXXXXXXXXXOOOOOOO@@@@O@@@@@@@@@@@@@@@@@OOOXOOOOOOOOOOOOOO@@@@@@@@@@@@@@@@OOOOOXXXOOOOOOOOOOO@@@@##@@@XXoooo       o         o         ooooooooooooXXXXXXXXXXXXXXXXXXXXXXXXOO@@@@@OOOOO@@@@@@OO@@@@@@OXOO@@@@OXX...XXXXXXXX.XXX..XXXXXX++XXXXXX+..+++++.....++...........+.....+++...........+.++++++++++++++++++++........................................++++++++++++++++++++............................++++..........++++++++++++++++++++.....++++++++++++++.++...++++++++.....++++.................................................................................................++++&&&+++.................++++++.................+++++........................  .    .......+++++&+&&&&&&+++++++++++++&&++++++............oo.........oo   ..  ....    ..    .   .......++++......... ..........XXX++X+XXX...oXooXXXXXXXXXXXXXXOOOOOO@@@@@@$$$*****======-;;;;;;;;;===***$$$$$$$$$$$$$$$$$$$$$$$$$$$$$$@@$$$@$$$$@@@@@@$@@$$$$$$$$$$$$$$***$$$$$$$$$$$$$$$***=====*$$***********$$$$$$$$$$$$$$$@@@@@@@@@@$$$$$$$$**=;;;;;;;;;==*$$$$$$$$$*$$$@@OOOOOXXXXXXXXXoooooooooo  ooooo                                                         ",
"...                      .oooooXXXXOO@@@@@@@@@@@@@XXXooo                 oo   ooooooXOO@@@@@$@$$$$@@@@OXXooooo        oo oooooXXoXXoooooooooooooXXXXOO@@$$@@@OXXXXXoooXXoooXoooooXXXXXXXXXXXXOOOOOO@@@@O@@@@@@@@@@@@@@@@OOOOXOOOOOOOOOOOO@@@@@@$$$@@@@@@@@@OOOXXXXXXOOOOOOOOO@@@@#$#@@OXoooo     o oo        oo           oooooo ooooXXXXXXXXXXXXXXXXXXooXXXOOOOOOOOOOOOO@@@@@@O@@@@@OOXOO@@@@OXX...XXXXXXXXX.XX..XXXXXX+XXXXXXX...+++++....+++...........+...++.............+++++++++++++++++++++++.......................................++++++++++++&&&&&&&+++............+....+++++++++++++++++++++++++++++++++++++++++++++++++++++++++++++++++++++++++++++.....++++..................................................................................................++++&&&+++................+++++++..................+++........................ ...............++++++&&&&&&+++++++++++++++++++.............. .........oooo     ....      .         ...+.++++....+.... ....o....XXXX++XXXXX..ooXXXXXXXXXXXXXXXXXOO@@@@@@@@$$$**=============-;;;;;;;;;;--==*%$$$$$$$$$$$$$$$$$$$$$$$$$$$@$$$$@$$$$$@@@@@@@@@$$$$$$$$$$$$$$$*$$$$$$$$$$$$$$$***=====*$$$*****************$$$$$$$$@@@@@@@@@@@@$$$$$$**=;;;;;;;;;==*$$$$$$$$$*$$$@@OOOOOOXXXXXXoooooooooooo  oo                                                            ",
"Xo.                      ooooooXXXXOO@@@@@@@@@@@@OOXoo                        ooooXXXXO@@@@$$$$$$$@@@@OOXoo           ooooooooXXXXXXooooooooooooXXXXO@@@$$@@@OXXXXoooooXXooooooXoXXXXXXOOOOOXXXXOO@@@@@@O@@@$@@@OOOOOOOOOOXOOOOOOOOO@@@@@$$$$$$@@@@@@OOOOOOOOOOOOOOO@@OOXXXXOOO@@@@@OOXXXooo    o              o         ooo  oooooooooXXXXOOOOOXXXXXXXXXXXXXOOOOOOOOOOOOOOOOOOOO@@@@@OOOO@@@@OXXX..XXXX.X..XXXXXXXXXXXX++XXXX....++++++....++++.............++.............++++++++++++++++++++++++........................................++++++++++++++++++++..........++++++++++++&+&++++&&&&&+&&&&&&&&&&&&&&&&&&&&&&&&&&&&&&&++&&&&&&&&&&&++++++++++++++++.....++++....................................................................................................+++&&&++.................++++++++.................++++......................  ...      .......++++&&+++&&++++++++++++++++++.........o.......oo....      ......                . .....+++....++... ...oo....XXXX+++XXXXX.XXXXXXooXXXXXXXXXXXXXOOO@@@@$$$$$$**=====-==========;;;;;;;;;;;===**********$$**$$$$$$$$$$$$$$$$$$$$$$$$@@@@@@$$$$$$$$$$$$$$$**$$$$$$$$$$$$$$$$$*======*$$$*********************$$$$$$$$@@@$@@@$$$$$$$$*=-;;;;;;;;==*$$$$$$$$$$$$$@@OOOOOOXXXXoooooooooooooooo    oo                                                        ",
"Xo..                     ooooooXXXXXO@@@@@@@@@@@@OXXoX.o                     oooooXXXXO@@@@$$$$$$$@@@@OOXoo           oooooooooXXXXXooooooooooooXXXXOO@$$$$@@OXXXXXooooXXooooooXXXXXXXXXOOOOXXXOOOO@@@@OOO@@$@@OOOOOOOOOOOOOOOOO@@@@@@@$$$$$@@@@OOOOOOOO@@OOOOOOOOOO@OOOXXXXOOOOOOOOXXXXXooo                  oo o       oo   ooooooooooXXXOO@OOOXXXXoXXXXXXXOOOOXXOOOOOOOOOOOOO@@@@@@OOOO@@@@OXXX..XXXXX...XXXXXXXXXXXX++XXX++X+.++++++.....+++..........+++++.............+++++++++++++++++++++++.....................++++++...............+++++++++++++++++............++++++++++++++++++++++&&+&++++++&&&&&&++++&&&&&&&&&&&&&&++&&&&&&&&&&&+++++++++++++++......++++................+...................................................................................+++&&&++++...............+++++++++.................++.......................... .     ........++++&&++&&&&+++++++++++++++++............oo...ooo.                          ..    .....+++....++... ....o.....XX+@@+XXXXXXXXXXXXoXXXXXXXXXXXXXOOOOOO@@@@$$$$$$**==-;;-===========;;;;;;;;;;;-==********$$***$$$$$$$$$$$$$$$$$$$$$$$$@@$@$$$$$$$$$$$$$$$$*$$$$$$$$$$$$$$$$$**=====*$$*************************$$$$$@@@$@@$$$$$$$$**=-;;;;;;;;==*$$$$$$$$$$$$$@@OOOOOXXXXXoooooooooooooooooo                                                            ",
"X....                     ooooXXXXXXO@@@@@@@@@@@@OOXXXooo                     ooooooXXOO@@@$$$$$$$@@@@OOXoo  oo       oo  oooooXXXXXooooooooooooXXXXO@@@$$$@@@OXXXXXoooXXXooXXXXXXXXXXXOOOOOXXOOOOO@@@@OOO@@@@@OOOOOOOOOOOOOO@@@@$$$$$$$@@@@OOOXXXOOOOOOOOOOOOO@@@@OOOXXXXXXXXXXXOOXXXXXXoooo   o     oooo     oooo   ooooooooooooooooooXXXXXOOOXXXooooXoXXXXXOOOOOOOOOOOOOOO@@@@@@@@@OOXO@@@@OXXX.....XXX..XXXXXXXXXXXX+XX++++++X.+++++.....+++..........+.+............+++++++++++++++++++++++++....................+++++++++..............................................++++++++++++++++++++++++++++++++++++++++++++++++++++++++++++++++++++++++++++++++++.....++++.............+++++..................................................................................++++&&&&++................+++++++++.................++...............................   ........++++++&&&++++++++++++++++...........o.oo.o.....                                 .....+++....++..............XX+@@@@+XXXXXXXXXXoXXXXXXXXXXXXXXXOOOOOO@@@@$$$*****===;;;;;=========-;;;;;;;;;;;;==*************$$$$$$$$$$$$$$$$$$$$$$$$$$$$$$$$$$$$$$$***$$$$$$$$$$$$$$$$$**======*********************=**=***$$$$$@@@@@$$$$$$$$**=;;;;;;;;;==*$$$$$$$$$$$$$@@OOOOOOXXXXooXoooooooooooooo                                                             ",
"XX...                    oooooXXXXOOO@@@@@@@@@@@@OOXXXooo                     ooooooXXOO@@@$$$$$$$@$@@OOXoo           o   oooooXXXXooooooooooooooXXXO@@@$$$$@@OXXXXXXXXXXXXoXXXXXXXXXXXOOOOOOOOOOOO@@@OOOOO@@@@OOOOOOOOOOOO@@@@$$$$$$$$@@@OOOOOXXXOOOOOOOOO@@@@@@@OOXXXXXXXXXXXXXXXXXXXXXoooo   oo   ooo oo    oooooooooooooooooooooooooooXXXXXXXXXoooooXXXXXXOOOOOOO@OOOOOO@@@@@@@@@@OOOO@@@@OXXX.....XXX..XX.XXXXXXXXXXXX++++X+XX.++++.....++.......................+++++++++++++++++++++++++.......................++&++++.......................................................++++++++++++++++++++.+++++++++++++++++++++..+++++++++++++++++.+++++++++++++.....++++.............+++++++................................................................................++++&&&&+++...............+++++++++...................................................  ........+++++&&&&&+++++++++++++++........... .oo oo.                                    .....+++....++.... .........XX+@@@@OOOOXXXXXoXXXXXXXXXXXXXXXXXXOOOOOOO@@@@@$*******=;;;;;;;----=====;;;;;;;;;;;;-===**********$$$$$$$$$$$$$$$$$$$$$$$$$$$$$$$$$$$$$$****$$$$$$$$$$$$$$$$**======****$******************=====*$$$$$@@$@$$@$$$$$**=;;;;;;;;;==*$$$$$$$$$$$$$@@OOOOOXXXXXXoXooooooooooo                                                                ",
"XX...                     ooooXXXXOOO@@@@@@@$@@@@OOXXXooo                ooo  ooooooXXOO@@@@$$$$$$@$@@OXXoo              oooooooXXoooooooooooooooXXXOO@@$$$$@@OXXXXXXXXXXXXXXXXXXXXXXXXOOOOOOOOOOOO@@@OOOOOO@@@@OOOOOOO@@@$$$$$*$$$@@@@OOOOXXXXXXXXOOOOO@@@@@@@@OOOXXXXXXXXXXXXOXXXXXXXXXXooo oo    oo   o o ooooooooooo ooooooo     ooooooXXXXXXXoXooooXXXXXXOOOOOOOOOOOOO@@@@@@@@@@@OOOO@@@@OXXX....X.XXXXXXXXXXXXXX..XXX+++XXX....+++.....+..................++..+++++++++&&&++++++++++++++......................++++++++............................................................++...+++++..++++++++++++++++....++.....................+..++++++++++++++....+++++...........+++++++++...............................................................................++++&&&&&&++...............++++++++..................................................... ...  ....++++++++++++++++++++..............o... o  .     ..                          . .....+++....++......  ......XXX@@@@@OOXXXXXXoXXXXXXXXXXXXXXXXXXXOOOOOO@@@@@@@$*******==;;;;;;=;--=====-;;;;;;;;;;;;;===***********$$$$$$$$$$$$$$$$$$$$$$$$$$$$$$$$$****$$$$$$$$$$$$$$$$**========***$**********************=*$$$$$$@@@@$$$$$$$*==;;;;;;;;;==*$$$$$$$$$*$$$@@OOOOOXXXXXooooooooooooo     oo                                                          ",
"XXX...                    oooooXXXOO@@@@@@@$@$@@@@OXXXoooo            oooooo  ooooooXXOO@@@@$$$$$$@$@@OOXoo               ooooooXXoooooooooooooooXXXOO@@$$$$@@OXXXXXXXXXXXXXXXXXXXXXXXOOOOOOOOOOOO@@@OOOOOOO@@@@OOOO@@@@$$$***$$$$@@OOOOXXXXXXXXXXXXXXOO@@@@@OOOOOXXXXXXXXOOOOOOOXXXXOOXXXooo oo    o    oo oooooooooooo ooooo       oo oooXoXooXoooooooXXXXXXOOOOOOO@@OOOO@@@@O@@@@@@OOOO@@@@OXXX....XXXXXXXXXX.XXXXXXXXXX++XXX.....+++........................++.+++++++++++++++++++++++++........................+++++++..................................................+.......+++++.++++++++.+++++++++..+++++..+++++......................+++++++++++++++...+++++++..........++++++++++..............................................................................+.+++&&&&&+++...............++++++................................................................++++++++++@@@@+++++++.............o. .ooo o     ..                          . ......++....++......   .....XXXO@@@@OOXXXXXXoXXXXXXXXXXXXXXXXXXXXOOOOOOO@@@@@@@$$**==***=;;;;;;;;--======-;;;;;;;;;;;;-===***********$$$$$$$$$$$$$$$$$$$$$$$$$$$$$$$***$$$$$$$$$$$$$$$$$*========***$************************$$$$$$$$$$$$$$$$$**=;;;;;;;;;==*$$$$$$$$$$$$$@@OOOOOXXXXXooooooooooooo o o o                                                           ",
"+XX...                    oooooXXXOOO@@@@@$$$@@@@@OXXXoo                  oo    ooooXXO@@@@@@@$$$$@@@@OOXoo               oooooXXXXooooooooooooXoXXXOO@@$$$$@@OOXXXXXXXXXXXXXXXXXXXXXXXOOOOOOOOOOO@@@OOOXOOO@@@@@@@@$$$$$$*$$$@@OOOXXXooXXXXXXXXXXXXXXXOO@@@OOOOXXXXXOOOOOOOOO@@OOOOOOOOXXoo       ooo  ooo ooooooooooooooooooo o    oooooooooooooooooooXXXXXXOOO@@@@@@OOOOOOOOO@@@@@@OOOO@@@@OXXX....X...XXXXXX...XXXXXXXXXXXXX...........................++...++++++++++++&+++++++++++++........................++++++++++....+++++..++++++..++++.+.+++++++++++++++++++++++++++++++++++++++++++++++++++++++++++++++++++++++++.................++++&&+++++++++++..+++++++......+.+++++++++++.+.........................................................................+++.+++++&&&&&&++...............++++++.................................................................++++++++++++++++++++X....... . .     ooo o       .                         . ...+.+++....++...... .o.....XXXO@@@@@@OXXXXXXXXXXXXXXXXXXXXXXXXXXOOOOOOO@@@@@@@@@@$$******==;;;;;;;;;-======-;;;;;;;;;;;;;==************$$$$$$$$$$$$$$$$$$$$$$$$$$$$***$$$$$$$$$$$$$$$***========***$$**********************$$$$$$$$$$$$$$$$$$**=;;;;;;;;;==*$$$$$$$$$$$$$@@OOOOOXXXXXXoooooooooooo ooooo                                                           ",
"+XX...                    oooooXXXOOO@@@@@$$$@@@@@OXXXoo                   o    ooooXXO@@@@@@$$$$$@@@@OOXoo            ooooooooXXXXXoooooooooooXoXXXOO@@$$$$@@OOXXXXXXXXXXXXXXXXXXXXXXXOOOOOOOOOOO@@@@OOXOO@@@@@@$$$$$$$$$$$@@OOOXXXXXoooXXXXXXXXXXXXXXOOOOOOXXXXXXXOO@@@OOOOO@@OOXOOOOOXXoo       ooo   o ooooooooooooooooooooooo   oooo ooooooooooooooooXXXOOO@@@@@@@@OOOOOOOOO@@@@@OOOO@@@@OXXX......XXXXXXXXXXXXXXXXXXXXXX..........................+++++++++++++++++++++++++++++++++.........................+++&&+++........++++++++++++++++++++++++++.+++++++++++++++++++++++++++++++++++++++++++++++++++++++++++++++++...................++&&&&+++++++++++++++++++++++++++++++++++++++++++++++++++++++++++......+++.++++............++++++....++...+++++++++++++++++++++&&&&&&&++...............++++............................................. .. .................+.+++++++++++XXXXXXX......            o..         .                       . . .....+++....++......ooo.o...XXXO@@@@@@OXXXXXXXXXXXXXXXXXXXXXXXXXXXOOOOOOOO@@@@@@@@@$$$**==***=;;;;;;;;;--=======;;;;;;;;;;;;;-===************$$$$$$$$$$$$$$$$$$$$$$$***$$$$$$$$$$$$$$$***=======****$$$$******************$$$$$$$$$$$$$$$$$$$$*==;;;;;;;;;==*$$$$$$$$$$$$$@@OOOOOXXXXXXoooooooooooo o o o                                                           ",
"++XXo.                    ooooXXXXXOO@@@@@@$$$@@@@OXXXoo.                   oo oooooXOO@@@$$$$$$$$$@@@OOXooo         o    ooooXXXXXXoooooooooooXXXXXOO@@$$$$@@OOXXXXXXXXXXXXXXXXXXXXXXOOOOOOOOOOOO@@@@OOOO@@$$$$$$***$$$@@@OOXXooooooooooXXXXXXOXXXXXXOOOOXXXXXXXXXOO@@@@@OOOO@@OXXOO@@OXXooo        o  oooo   oooooooooooooooooooooooooooooooXooXoXooooooXXXXO@@@@@@@@OOOXXXXOOO@@@@@OOOO@@@@OXXX...XX...XXXX..XXXXX.XXXXX.....+.......................++++++++++++++&&++++++++++++++...................+......++++++++..........++++++&&&+++....................................+.....+.++++++++++++++++++++.+....++++++.......................+++&&&&&&&&&&++&+++&&&&&&&&++++&&+++++&&&&&&&+&+&&&+++++++++++++++++++++++++++++++++++++++++++++++++++++++++++++++++++++++++++++++++++++...............................................................  ... .. .............................oo.....               o...                                    .....+++....++.......oXXXOX++XXOO@@@@@OOXXXXooXXXXXXXXXXXXXXXXXXXXXXXXOOOOOO@@@@@@@@@$$$$**=***==;;;;;;;;;;=======-;;;;;;;;;;;;;;==%****************$$$$$$$$$$$$$$$*****$$$$$$$$$$$$$$$$**======***$$$$$$$$***************$$$$$$$$$$$$$$$$$$$$*==;;;;;;;;;==*$$$$$$$$$$$$$@@OOOOXXXXXXXXooooooooooooooo                                                             ",
"++XX.o..                  ooooXXXXXOO@@@@@@$$$@@@@OXXXoo.                   ooooooooXOO@@@$$$$$$$$$@@@OXXooo          o   ooooXXXXXooooooooooooXXXXXOO@@@$$$@@OOXXXXXXXXXXXXXXXXXXXXOOOOOOOOOOOOOO@@@@OOOO@@$$$$***$$$@@OOOOOXXooooooooooXXXXOOOOOOXXXXOOOXXXXXXXXXOO@@@OOOXOO@@XXXOO@@OXXooo       oo   o o    ooooooooooooooooooooooooooooooXXXXXXXXoXooXoXXO@@@@@@@@@OOXXXXOOO@@@@@OOOO@@@@OXXX...XX...XXXX...XXX..XXXX.+..XX+................+.....++++++++++++++&&&+++++++++++++..........................++++++++...........+++++&&&&++...................................................++++++&&&&++.+..................................++++&&&&&&&&&&&&++++++&&&&&&++++++++++++++++++++&&&&&&&&&&&&&&&&&+++++++++++++++++++++++++++++++++++++++++++++++++++++++++++++++++++++++................................+++++.................................................................o......                                                       .....+++.....+.......ooXO@@@@@OOOOOOOOOXXXXXXXXXXXXXXXXXXXXXXXXXXXXXXXOOOOOO@@@@@@@@@@@$$$$$******==;;;;;;;;;;-======;;;;;;;;;;;;;-===**************$$$$$$$$$$$*$*******$$$$$$$$$$$$$$$$*======****$$$$$$$$$$$$*************$$$$$$$$$$$$$$$$$$*==;;;;;;;;;==*$$$$$$$$$$$$$@@OOOOOXXXXXXooooooooooooo  o                                                             ",
"++XX....                  oooooXXXOOO@@@@@$$$$@@@@OXXXoo.             oo    ooooooooXOOO@@@$$$$$$$@$@@OXXooo          o   ooooXXXXXooooooooooooXXXXXOO@@@$@$@@OOOOOXXOOOOXXXXXXXXXXXXOOOOOOOOOOOOO@@@@OOOO@@$$$$$$@@@OOOOOXXXoooooooooooXXXXO@@@@@OOOXXXOXXXXoooXXXXXXOOXXXXXOO@OXXO@@OOXoooo       ooooo  oo ooooooooooooooooooooooooooooXXXXXOOOOOOOXXooooXOO@@@@@@@@@OXXXXXOOO@@@@@OOXO@@@@OXXX..XXX..XXXXXX...XXXXXXX+++++++++.....+..+.....++++++++++++++++++++&&+++++++++++++.................++++++.+..++++++++..........+.++++&&&&++..................................................+++++++&&&&&++.+....................................++++++++++++++++++++++++++++++++++++++++++++++++++++++++++++++++++++++++++++++...+++++.++++++++.+..+++++++.....+++&&&&++++++++++++.................................+++++++++++.............+++++..++++....XXXXXXXXXXXXXXXXX.....................  . ..         .                           . .          . ......++...............XX@@@@@@OXXXXXXXXXXXXXXXXXXXXXXXXXXXXXXXXXXXXXXXOOOOOO@@@@@@@@@@@@@@$$********=;;;;;;;;;;;-=====-;;;;;;;;;;;;;-===*=*******====******$************$$$$$$$$$$$$$$**======*****$$$$$$$$$$$$$$$*********$$$$$$$$$@$$$$$$$**==;;;;;;;;;=**$$$$$$$$$$$$$@@OOOOOXXXXXoooooooooooooo                                                                ",
"+XXX...                    ooooXXXOOO@@@@@$$$$@@@@OOXXoo.            ooo    ooooooooXOO@@@@$@$$$$$@$@@OXXooo           o  ooooXXXXXooooooooooooXoXXXOO@@@$$$@@OOOOOOOXOOXXXXXXXXXXXXXXXOOOOOOOOO@O@@@@OOOO@@$$$$@@@OOOOOXXXXoooooooooXXoXXXOO@@@@@@OOXXXOXXXooooooooooooXXXXXOO@OXXO@@OXooooo       ooooooooooooooooooooooooooooooooXooXXXXXOO@@@@@@@OXXooXoXOO@@@@@@@@OOXXXXOOO@@@@@@OOXOO@@@OXXX..XXX.XXXXXXX.X.XXXXXX.+++++++.......++.++.+..++++++++++++++++++++++++++++++++++............................+++++++.............+++&&&&+++..................................................+++++++&&&&+++.........................................++++++++++++++++++++.+++++++++++++++++++++..++++..++++++++++..+......++.....+..........+++++................+++&&&&&++++++++++++................................+++&&&&+++++...........++++++++++....................XX......      .              ....  .  ..                           ...          . ......++................XO@@@@@OXXXXXXXXXXXXXXXXOOOOXXXXXXXXXXXXXXXOXOOOOOOOOO@@OOO@@@@@@@@@$$$$***=***==;;;;;;;;;;;-====-;;;;;;;;;;;;;;-==****====---=====***********=**$$$$$$$$$$$$$$**=======**$$$$$$$$$$$$$$$$$$$********$$$$$$$$@$$$$$$$**==;;;;;;;;;=**$$$$$$$$$$$$$@@OOOOOXXXXXXoooooooooooo                                                                 ",
"XXX.o                       oooXXXOOO@@@@@$$$$@@@@OOXXXoo               ooo   ooooooXOOO@@@$$$$$$$@@@@OXXoo             oooooooXXXXXXoooooooooooXXXXOO@@$$$$@@OOXXXXOOOXXXXXXXXXXXXXXXXXOOOOOOOO@@@@@@OOOOO@@@@@OOXXXooooooXooXoooXXXXXXXXOOO@@@@@OOOXXXXXXXooooooooooooXXXXXOO@OXXOOOXXooo oooo    ooo   oooooooooooooooooooooooooXXXXXXOOO@@@@@$@@@OXXXoXXXOO@@@@@@@@OOOOOXOOO@@@@@@OOXOO@@@OXXXXX.XX..XXXXXXXXX..XXXXX.++++++++++....++++.X++++++++++++++++++&&&++++++++@++++.......o........+++++++++++++++++++...............++&&&&++++...........................................+....++++++++&&&&&+++.......................................+..++..++++++....................++++++++++..................+...............................................+++&&&&&&&++++++++++................................+++&&&&&&&++...........+++++++++..........  ........... ...         ..   ...       .        ..                                        . .....+++................XXO@@@@OXXXXXXXXXXXXXXXXXXOOXXXXXXXXXXXXXXXOOOOOOOOOOOOO@OO@@@@@@@@@@@@$$$****=***=-;;;;;;;;;;;--===-;;;;;;;;;;;;;;=======;;--;;;-====********=**$$$$$$$$$$$$$***========*$$$$$$$$$$$$$$$$$$$$$$$$$$$$$$$$$$$$$@$$$$$**==;;;;;;;;;=**$$$$$$$$$$$$$@OOOOOOOXXXXoooooooooooo  oo                                                              ",
"XXXoo                      oooXXXXOOO@@@@@$$$$@@@@OOXXXooo  o           oooo  ooooooXOOO@@@$$@$@$$@@@@OXXoo o           oooooooXXXXXXooooooooooooXXXOO@@$$$$@@OOXXOOOOOOOXXXXXXXXXXXXXXXOOOO@@@@@@@@@@OOOOOOOOOOOOXXXoooooooooooXXXXXXXXOOOOOOOOOOOXXXXXXXXXoo oooooooXXXXXXXOOOOXOOOXXXooo oooo  oo oo   ooooooooooooooooooooooooooXoXXXXXOO@@@@@@@@OXXoooXXOO@@@@@@@@OOOOOOOOO@@@@@@OOXOO@@@OXXXXX.X...XXXX.XXXX.XXXXXX+++++++++++++++++++++++++++++++++++++++++++++++++++++++....................+++++++++++++++.............+++&&&&&++...............................++++++++++++++++++++&+++++&&&&&++++........................................................................+++++++..+...................+..............................................+++&&&&&&&++++++++++.................................+++&&&&&&+++++++.........++++++.................... .  ..                         .      ....                                          .....+++.................XXXO+OXXXXXXXXXXXXXXXXXXXXXXXXXXXXXXXXXXXXOOOOO@@@@@OOOOOOO@@@@@@@@@@@@$$$$$$**=****=;;;;;;;;;;;;-====-;;;;;;;;;;;;;-==========-----==*******=**$$$$$$$$$$$$****==-=====*$$$$$$$$$$$$$$$$$$$$$$$$$$$$$$$$$$$$$$$$$$$$*==;;;;;;;;;=**$$$$$$$$$$$$$@OOOOOOXXXXXooooooooooo   oo                                                              ",
"X.ooo                      oooXXXXOOO@@@@@$$$$@@@@OOXXXXoooooo       o   o    ooooooXOOO@@@@$$@@$$@@@@OXXoo o          ooooooooXXXXXXXoooooooooooXXXOO@@$$$$@@OOXXOOOOOOOXXXXXXXXXXXXXXXOOO@@@$$$$$$@@OOOOOOOOOOOOXoooooooXXXXXXXXXXOOOOOOOOOOOOXXXXXXXXOXXXoo oooooXXXXXXXXXXXXOXXOXXXoooo oooo oooo o ooooooooooooo oooooooooooooooooooXXXO@@@$$@@@OXXXoXXXOO@@@@@@@@OOOOOOOOO@@@@@@OOXOO@@@OXXX..........XXXXX.XX....+++++++++++++++++++++++++++++++++++&&&++++++++++@+++XXX...............++++++++++++++++++..++....++.....+++&&&&&+++..............................+++++++++++++++++++&&&++++&&&&&&++++.....................................+++++++++++++...+.+..+.++..+++.......+++++...++.++++.++.......++...............................................+++&&&&&&&+++&&&&&++++++.............................+++&&&&&&&++++++++++......+++++..... .....     ....     ...       .                      ...                                           .....+++.................XX.XXXXXXXXXXXXXXXXXXXXXXXXXXXXXXXXXXXXXXOOOOO@@@@@@@@@@@OOOO@@@@@@@@@@@@@@$$$$***==**==;;;;;;;;;;;;-====-;;;;;;;;;;;;;;;;=============****====***$$$$$$$$$*****===-====*****$$$$$$$$$$$$$$$$$$$$$$$$$$$$$$$$$$$$$$$$*==;;;;;;;;;=**$$$$$$$$$$$$$@OOOOOOXXXXooooooooooooo  oo                                                              ",
".....                     oooooXXXOOO@@@@@$$$$@@@@OOXXXXoooooo    oooo  o     ooooooXXOO@@@@$$$@$$@@@@OXXoo o         oooooooooXXXXXXXoooooooXoooXXXOOO@@$$$@@OOXXOXOXOOXXXXXXXXooXXXXXOOO@@$$$$$$$$@@OOOOOO@@@OOOXXooooooXXXXXXOOOOOOOOOOOOXXXXXoooXXXXOXXXoo oooooXXXXXXXXXXXXXXXXXXoooooooooooooooooooooooooooo      ooooooooooooooooXoXXOO@@@$@@@OXXXoXXXOO@@@@@@@@OOOOOOOOO@@@@@@OXXOO@@@OXXX..........X....XX....X.+++++++++++++++++++++++++++++++++&&&&+++++++++++++..X..X............+++&&&&&&&&&&&&++++...+.........+++++&&&&++++..............................+++++++++++++++++++++++++&&&&&&&++++....+.....................++++++++++++++++++++++++++++++++++++++++++++++++++++++++++++++++++++++++++++++++.+++..............++..........+++......+...+++&&&&&&+++&&&&&++++++++++..........................++&&&&&&&&+++++++++.......+++++..........     ....  . ...   .......               ....    .                                           .....+++.....................XXXXXXXXXXXXXXXXXXXXXXXXXoooXXXOOOOOOOOOOOOO@@@@@@@@@@@OO@@@@@@@@@@@@@@@$$$$$$**=****=;;;;;;;;;;;;;-====;;;;;;;;;;;;;;;;===========****=====**$*$$$$$$$****====-=====*****$$$$$$$$$$$$$$$$$$$$$$$$$$$$$$$$$$$$$$$*==;;;;;;;;;=**$$$$$$$$$$$$$@@OOOOOXXXXooooooooooooo  oo                                                              ",
"...                        oooXXXXXXO@@@@@$$$$@@@@OOXXXXoooooo            ooooo ooooXXOO@@@@$$$$$$@@@@OOXoo          oooooooooXXXXXXXXXoooooooXXooXXOO@@$$$$@@OOOOOOOOOXXXXXooXXXXXXXOOOO@@$$$$$*$$$@OOOXXOO@@@@@OOOXXXXXXOOOOO@@@@@@@OOOOXXXXXXooooooXXXXXXXoooooXXXOOOXXXXXXXXXXXXXoooooooooooooo oooooooooooooooooooooooooooooooooooooooXOO@@$$$@@@XXXoXXXOO@@@@@@@@OOOOOOOOOOO@@@@OXXXO@@@@XX...XXXXXX...XXXXXXX....++++++++++++&&&&++++++++++++++++++&++++++++@@#@++XXXX.XX.............+++&&&&&&&&&&&&++++.............++++&&&++++++++...++++++.................++++++.........+++..+.+++++&&&&&&++++.+++++++++++++++++++++++++++++++++++++++++++++++++++++++++++++++++++++++++++++++++++++++++++++++++++++++++++++++++.++++++.++++++++++.++++.+.+..........++&&&&&&&&+&&&&&&&&&&+++++++....................+++++++&&&&&&&++++++++...+...++++++++.......................................          .                                                   .....+++.................o.X.XXXXXXOO@@OOXXXXXXXXXXXXoooXXXXXXOOOOOOOOOOOOOO@@@@@@@@@@@@@@@@@@@@@@@@@@@@$$$$$$*=======;;;;;;;;;;;;;===--;;;;;;;;;;;;;;;==========**======***$$**$*$$$****=========****$$$$$$$$$$$$$$$$$$$$$$$$$$$$$$$$$$$$$$$**==;;;;;;;;-=**$$$$$$$$$$$$$@@OOOOXXXXoooooooooooo    ooo                                                             ",
"...                       ooooXXXXXXO@@@@@$$$$@@@@OOXXXXoooooo            oooo  ooooXXOO@@@@@$$$$$@@@@OOXoo          oooooooooXXXXXXXXooooooooXXooXXOO@@$$$$@@OOOOXXXXXXXXXXoXXXXXXXOOOOO@@$$$$$$$$@@OOOOOOO@@@@@@OOOXXXOOOOOO@@@@@@@OOOXXXXXXooooooooXXXXXXXooooXXXOOOOXXXXXXooXXXooooooooooooooooooooooooooooooooooooooooooooooooooooooooXO@@@$@$$@@XXXoXXXOO@@@@@@@@OOO@@@@@@O@@@@@OXXXO@@@@OXX..XXXXXX......XX......++++++++++++&&&&++++++++++++++++++++++++++@@@+++XXXXXXXXXXX..........+++++++++++++++++++.........++++++++&&&+++++++++++++++++.++++++..........++++++..........++..++++++&&&&&&++++..++++++++++++++++++++++++++++++++++++++++++++++++++++++++++++++++++++++++++++++++++++++++++++++++++++++++++++++++++++++++...+.+++++....................++&&&&&&&&+++&&&&&&&&&&&&#+++.................++++++++++&&&&&&&+++++++..++....++++++++.....................................                                                               .....++...................oo...XXXXO@@@@OOOXXXXXXoooooooXXXXXXXXXXXXXXOOOOOOOO@@@@$$@@@@@@@@@@@@@@@@@@@@@$$$$$$$*=======;;;;;;;;;;;;;-=-==;;;;;;;;;;;;;;;;-==============***$$****$$$****==-===;==*******$$$$$$$$$$$$$$$$$$$$$$$$$$$$$$$$$$$$**==;;;;;;;;;=*$$$$$$$$$$$$$$@@OOOOXXXXoooooooooooo      o                                                             ",
"                          oooooXXXXXO@@@@@$$$@@@@@OOXXXXoooooooo          oo    ooooXXOO@@@@@$@$$$@@@@OOXoo          ooo oooooXXXXXXXXooooooooXXoXXXOO@@$$$$@@OOOXXXXXXXXXXooXXXXOOOOOO@@@$$$$$$$$$@@OOOOOO@@@$$@@@@OOOOO@@@@$$$@@@OOXXXXXXoooooooooooXXOOXXXXXXXXXXOOOOXXXXoooooXXXXXXXXXXXXXXoooooooooooooooooXoooooooooooXooooooXoooooooXO@@@$$@@@@XXXoXXXOO@@@@@@@@OOO@@@@@@@@@@@@OOXXO@@@OOXX........................++++++++++++++++++++++++++@+@@&#+++++++@@@@++XXXXXXXXXXXXXXXXXXXXXX++++++++++++++++++++++++++++....++++++++++++++++++++++++.++++++.......++++++++...............++++++&&&&&&++++++++++++++++++++++++++++++++++++++++++++++++++++++++++++++++++++++++++++++++++++++++++++++++++++++++++++++++++++++..++......................++..........++&&&&&&&&++++++++++&&&&&&&+++................+++++++++++&&&&&&&++.+++++..+.....++++++................ .      .     .                                                                     .....++...................oo...XXXXOO@@@@@OOXXXXXXoooooooXXXXXXXXXXXXXXXXXOOOOOOO@@@$$$@@@@@@@@@@@@@@@@@@@@$$$$$$$**=======;;;;;;;;;;;;;-=---;;;;;;;;;;;;;;;;;-===========**************===----===********$***$$$$$$$$$$$$$$$$$$$$$$$$$$$$$$$**==;;;;;;;;;=*$$$$$$$$$$$$$$@OOOOXXXXXoooooooooooooo                                                                  ",
"                          oooooXXXXXO@@@@@$$$@@@@@OOXXXXXoooooo oooo      oo    ooooXXOO@@@@@@@@$$@@@@OOXoo          oooooooooXXXXXXXXoXoooooooXoXXXOO@@$$$$@@OOXXXXXXXXXXXXXXXXOOOOO@@@$$$$$$$$$$@@OOOOOO@@$$$$$$@@@@@@@@$$$$$@@@OOXXXoooooooooooooooXXXXXXXXXXXXXOOOOOXXXooooooXXXXXXXXXXXXXXXXXXXXXXXXXXXXXXXXXXXXXXXXXXXXXXXXXXXXXXXXXXXOO@@$@@@@@XXooXXXOO@@@@@@@@OOOOOOO@@@@@@@@OOXOO@@@OOXX........................++++++++++&&++++++++++++++@@###@+++.+++@@@+XXXXXXXXXXXXX..XX..XXXX+++@@@@+++++++++++++++++++++...........++++++++++++++++++++++++++......++++++++...............+++++&&&&&&&++++++++++++++++++++++++++++++++++++++++++++++++++++++++++++++++++++++++++++++++++++++++++++++++++++++++++++++++++++....+...++....+..........++++++++.....+++&&&&&&&&&++++++++++++++&&&+++................+++++++++++&&&&&&&&++++............++++++..................                                                                                 .......+....................XX.XXXXXO@@@@@OOXXXXooooooooooXXXXXXXXXXXXXXXXXOOOOOOOO@@@@$$@@@@@O@@@@@@@@@@@@@@$$$$$$$$*====*==;;;;;;;;;;;;;;;==-;;;;;;;;;;;;;;;;;;===========************===-;======*************$$$$$$$$$$$$$$$$$$$$$$$$$$$$$**==;;;;;;;;;=*$$$$$$$$$$$$$$@OOOOXXXXXXoooooooooooo                                                                   ",
"                         ooooooXXXOXO@@@@@$$$$$@@@@OXXXXXooooo  oo           oooooooXXOO@@@@$$@$$$@@@@OOXooo          o ooooooXXXXXXXooooooooooooXXXOO@@@$$$@@OOXXXXXXXXXXOOOOOOO@@@$$$$$$$$$$$$@@@OOOOOOO@@$$$$$$@@@@@@$$$$$@@@OOXXXXooooooooooooooooXXOOOOOOXXOOOOOOOXXXoooooooooXXXXXXXXXXXXXXXXXXXXXXXXXXXXXXXXXXXXXXXXXXXXXXXXXXXXXXXXXO@@@$@@@@@XXooXXXXO@@@@@@@@OOOXXXXOO@@@@@@OOXXO@@@OXXX..........................X+++++++++++++++++++@@@@@@@@@@XXXX+@@@@OOXXXXXXXOOXXXXXXXXXXXO++XXO@@@@@@OXXXXXX++..++++++++.......................+++++++++&++++..+++++++++++..............++++++&&&&&&&&+++++++++++++++++&+++++++&+++++++++++&&&&&&&&&&&++&&&+++&&&&&&&&&&&&+++&&&&&&&&&&&&&&&&&&&&&&&&&&&&&&&&&&&+++++++++...+++++++++++++++++++++++++++&&&++++++&&&&&&&&&&&&&++++++++++++++&&&++................+++++++++++&&&&&&&&&+++++++..........+++++...................                                                                                ...............................XXXOO@@@@@OOXXXoooooooooooooXXXXXXXXXXXXXXXXXXXXOOOOOO@@@$$$@@@@@@@@@@@@@@@@@@@$$$$$$$$**=======;;;;;;;;;;;;;;-=--;;;;;;;;;;;;;;;;;;==========**********==========***************$$$$$$$$$$$$$$$$$$$$$$$$$$$$**==;;;;;;;;;=*$$$$$$$$$$$$$$@OOOOXXXXXXXoooooooooooooooo                                                              ",
"                         ooooooXXXOXO@@@@@@$$$@@@@@OXXXXXoooo   oo           oooooooXXOO@@@@$$$$$$@@@@OOXooo          o oooooXXXXXXXXoooooooooooooXXOO@@@$$$@@OOXXXXXXXXXXOOOO@@@$$$$$$$$$$$@@@@@OOOOOOOOOO@$@$@@@@@@$$$$$$$@@OOOOXXXoooooooooooooooooXXOOOOOOOOOOOOOXXXXXoooooooooXXXXXXXXXXXXXXXXXXXXXXXXXXXXXXXXXXXXXXXXXXXXXXXXXXXXXXXXXO@@@$@@@@@XXooXXXXO@@@@@@@OOOOXXXXOO@@@@@@OXXXO@@@OXXX....................o.........+++++++++++++++++++@@@@@@@++X+O@@@OOOOOOOOOOOOOOOOXXXXX+OO++XXO@@@@OOOXXXXXX.++++++++++++++++...XXXX....+...+++++++++++&&+++++++++++++++++..............++++++++&&&&&&&&&&&&&&&&&&&&&&&&&&&&&&&&&&&&&&&&&&&&&&&&&&&&&&&&&&&&&&&&&&&&&&&&&&&&&&&&&&&&&&&&&&&&&&&&&&&&&&&&&&&&&&++++++++++++++++++++++++++++++++++++++++&&&&&&&&&&&&&&+++&&&&&&&+++++++++++++&&&++++..............++++++++++++&&&&&&&&+++++++....................................       . ..                                                                   ......+........................XXXXO@@@@@OOXXXooooooooooooooXXXoXXXXXXXXXXXXXXOOOOOOOOO@@$$$$$$@@@@@@@@@@@@@@@@@$$$$$$$$**=======;;;;;;;;;;;;;;----;;;;;;;;;;;;;;;;;;============*******=========****************$$$$$$$$$$$$$$$$$$$$$$$$$$$**==;;;;;;;;-=*$$$$$$$$$$$$$$@OOOOXXXXoXXoooooooooooo ooo                                                              ",
"                          ooooXXXXOXO@@@@@@$$$$@@@OOXXXXoooo    o   oooo      ooooooXXOO@@@@$$$$$$@@@@OOXooo            oooooXXXXXXXXooooooooooXooXXOOO@@@@$@@OOXOOOOOOOOO@@@@$$$$$*$$$$$$@@OOOOOOOOOOOOOO@@$$$$$$$$$$$$@@@@OOOXXXXoooooooooooooooooXXOO@@@@@@@OOOXXXXXXXXoooooooooXXXXXXXXXXXXXXXXXXXXXXXXXXXXXXXXXXXXXXXXXXXXXXXXXXXXXXXXXOO@@$@$@@@XXooooXXOO@@@@@@OOOOXXXXOO@@@@@@OXXXOO@@OXXX..........X..................X....XXXX++XXXXXX++++++@@@@@@@@@@@@@@@@@@@@@@@@@@@OOOOXOOOOXXXXO@@@OOOOOOOOO+++++++++++++++++++++++++++++++++++++++++++&&&+++++++++++++++++........+++++++++++++++&&&&&&&&&&&&&&&&&&&&&&&&&&&&&&&&&&&&&&&&&&&&&&&&&&&&&&&&&&&&&&&&&&&&&&&&&&&&&&&+++++++++++++++++++++++++++++++++++++++++++++++++++++++++++++++++&++++&&&&&&++++++++++&&&&&&&&&++++++++++++++++++++++..+.......++++++++++++++&&&&&&++++++++....................................o  ....... .                             .                                    .......+....++...................XXOO@@@@OOXXXooooooooooooooooooXXXXXXXXXXXXXXXXXXOOOOOOO@@$$$$$$@@@@@@@@@@@@@@@@@@@@$$$$$$*========;;;;;;;;;;;;;;;----;;;;;;;;;;;;;;;;;;-=========****===-;;;;===****************$***$$$$$$$$$$$$$$$$$$$$$$**==;;;;;;;;-=**$$$$$$$$$$$$@@OOOOOXXooXooooooooooo    oo                                                              ",
"                          ooooXXXXOXO@@@@@@@$$@@@@OOXXXXoooo        oooo     oooooooXXOO@@@@$$$$$$@@@@OOXooo           ooooooXXXXXXXXooooooooooXooXXOOO@@@@@@@OOOOOOOO@@@@@@$$$$$**$$$$$@@@OOOOOOOO@O@O@@@@$$$$$****$$$@@@OOOOXXXoooooooooooooXXooXXOO@@@@@@@@OOXXXXXXXXXXoooooooooXXXXXOOOOOOOOXXXXXXXXXXXXXXXXOOOOOOXXXOOOOOOOOXXXOOOOXXXXO@@@$$$$@@XXooooXXOO@@@@@@@OOOXXXXOO@@@@@@OXXXOO@@OOXo......o.XXXoooX.o..XX.......XX..X.XX.XXXXXXXXX+++XX+++@@@@@@@@@@@@@@@@@@@@@@@@@@@@@OOOXXXXXXO@@@@@@@@@@@@+++++++++++++++++++++++++++++++++++++++++++&&+++++++++++++++++++....+..++++++++++++++++++++++++++++++++++++++++++++++++++++++++++++++++++++++++++++++++++++++++++++++++++++++++++++++++++++++++++++++++++&&&&&&+++++++++++++++++++++++++++++&&&&+++++++++++&&&&&&&&&++++++++++++++++++++++++++++++++++++++++++++++&&++++++++++++...................................... ...... ...                     .......       .                             .............+..................XXXOO@@@@OOXXXooooooooooooooooXXXXXXXXXXXXXXXXXXXXOOOOOOOOOO@@$$$$$@@@@@@@@@@@@@@@@@@$$$$$$$$$*=======;;;;;;;;;;;;;;;;---;;;;;;;;;;;;;;;;;;;-=======**====;;;;;;;==********************$$$$$$$$$$$$$$$$$$$$$**==;;;;;;;;==**$$$$$$$$$$$$@OOOOOXXXXXoooooooooooo     o                                                              ",
"                         oooooXXXXOOOO@@@@@$$$$@@@OOXXXXoooo      oo   ooo      ooooXXOO@@@@@$$$$$$@@@OOooo         ooooooooooXXXXXXXXXoXooooooXXXXXOOOO@@@@@@@@@@@@@@$$@$$$$$$$$$$$$$@@@OOOOOOOO@@@@@@@@@$$$*****$$$@@@OOXXXXooooooooooooooXXXXXOOO@@@@@@@@OOXXXXXXXXXXoooooXXXXXXXXOOOO@@@@@OOOOXXXXXXoXXoooooXXXXXXXXXXXXXXXXXXXXXOOXXXXXOO@@$@@@@@OXXoXXXXOO@@@@@@@OOOXXXXO@@@@@@@OXXXXO@@OXXXoo.....o...o...............XXXXXX.XXXXXX++++XX+XXXOOOOOO@@@@@@@@@@@@#@@@@#####*$#@OOOOXXXXXXOOOOO@@@@@+++++X++++++++..+++++++++++++++++++++&#++++++&&&++++&&&+&++&&&+++++.+++++++++++++++++++++++++++++++++++++++++++++++++++++++++++++++++++++++++++++++++++++++++++++++++++++++++++++++++++++++++++++++++++++++&&&&&&&&&++++++++++........++++++++++&&&+++++&+++&&&&&&&&&&&&&++++++++++++++++++++++++++++++#++&&&&&&&&&++++++++++++++++X+...X...................................    ...........  ......       .                                           .........X+..................X..XXOO@@@@OOXXXoooooooooooooooooXXXXXXXXXXXXXXXXXXXOOXXOOOOOOOO@@@$$$$$@@@@@@@@@@@@@@@@@$$$$$$$$$*========;;;;;;;;;;;;;;;;-=-;;;;;;;;;;;;;;;;;;;;-=========;;;;;;;==********************$$$$$$$$$$$$$$$$$$$$$**=;;;;;;;;;==*$$$$$$$$$$$$$$@OOOOXXXXXooooooooooooo   oo                                                              ",
"                         oooooXXXXOOO@@@@@@$$$@@@@OOOXXXoooo o  oooo   ooo      ooooXXOO@@@@@$$$$$$@@@OOooo  o      oooooooooXXXXXXXXXXoXXXXoXXXXXXOOOO@@@@@@@@@@@@@@$$$$$$$$$$$$$$$$$@@OOOOOOOOOO@@OOOO@@$$$***$$$$@@OOOXXXoooooooooooooXXXXXXXOO@@@@@@@@OOOXXXXXoooooXooooooooXXXXOO@@@@@@@@OOOOOOXXXXoooooooooooooooooooooXXXoooXXXXXXXXXOO@@$$@@@@OOXoXXXXOO@@@@@@@OOOXXXXO@@@@@@@OXXXXO@@OXXXo......o...................XXXXXX.XXXXXXXXXX+++++OOOOOOO@@@@@@@@###%====-;;;;;-*@@OOOXXXXXXXXOXXXXXXXX+X++++++++++++++++++++++++++++++++++&&++++++&&&&++++&&&+&&&&&&++++++++++++++++++++++++++++++++++++++++++++++++++++++++++++++++++++++++++++++++++++++++++++++++++++++++++++++++++++++++++++++++++&++++++++++&&&&&&&&&&++++++++........+++++++++++&&&&++++&&++&&&&&&&&&&&&&&+++++++++++++++++++++++++++++++++++++++++++++...+..++++++X++X.XX...................o....o.......................    ...         .                                           ..........+++................X..XXXO@@@@OOXXXooooooooooooooooXXXXXXXXXXXXXXXXXXXXOXXXXOOOOOOOOO@@@$$$$$$@@@@@@@@@@@@@@@$$$$$$$$$$**=======;;;;;;;;;;;;;;;;;==;;;;;;;;;;;;;;;;;;;;;=======;;;;;;;-===*******************$$$$$$$$$$$$$$$$$$$$*==-;;;;;;;;==*$$$$$$$$$$$$$$@OOOOXXXXoooooooooooooo   oo                                                              ",
"                          oooooXXXOOOO@@@@@$$$@@@@@OOXXXooooooo oo    ooooo oooo oooXXOO@@@@@@$$$$@@@@OOooo        ooooooooooXXXOOOOOXOXXXXXXXOOOOOOO@@@@@@$$$$$$$$$$$$$$$$$$@@@@@@@@OOOOOXXXXOOOOOOOOOOO@@$$$$$$$@@OOOOXXooooooooooooooXXXXXXOO@@@@@@@OOOXXXXXXXooooooooooXXXXXXOOOO@@@@@@@@@@@@@@@OXXXooooooooooooooooooooooooooooooooXoXXOO@@$$$$@@XOooXXXXO@@@@@@@@OOOOXXOO@@@@@@@OXXXXO@@OXXXXo....X...X.................XX..XXXX++XXXXXX++++++OOO@@@@@@@@@$$$%=;;;;;;;;;;;=$@OOOOOXXXXXXXXXXXXXXXXX.+++++@&#++++++++++++++++++++++++#&&++++++@&&&&+++@#+++++++&&+++++++++++++++++++&&&&&&&++++++++++++++++++++++++++++++++++&++++&+++++++&++++&&&&+++++++++++++++++++++++++++++++++++.+++++++++++++++++++++++&&&&&&&&&&++++++++++++++++++++&+++++++&&&&&++&&++&&&&&&&&&&&&&&&&&&&&++++++++++++++++++++++++++++++++++++.++....+++++++O@@@@@+XX..................o..o.o.........o.........                                                                ... .......X++..........X....X.oXXXO@@@@OOXXoooooooooooooooXXXOOOOXXXXXXXXXXXXXXOOXOXXXXOOOOOOOOOO@@$$$$$$$@@@@@@@@@@@@@@$@$$$$$$$***=====*==-;;;;;;;;;;;;;;;--=-;;;;;;;;;;;;;;;;;;;;-===;;;;;;;=====**********************$$$$$$$$$$$$$$$$**=-;;;;;;;;==*$$$$$$$$$$$$$$OOOOOXXXXooooooooooooooo  oo                                                              ",
"                          oooooXXXOOOO@@@@@$@$@@@@OOOOXXoooooooooo    oooooooooo oooXXOO@@@@@@$$$$$@@@OOooo ooo   ooooooooooXXXXOOOOOOOOOOXXOOOOOOOO@@@@@@$$$$$$$$$$$$$$$$$$@@@@@@@OOOOXXoooooXOOOOOOOOOOO@$$$$$@@@@OOOOXXooooooooooooooXXXXOOO@@@@@OOOOXXXXXXooooooooooooooXXXXO@@@@@@@@@@OOO@@@@@@@OXXooooooooooooooooooooooooooooooooooXXOO@@$$$$@OXOooXoXXO@@@@@@@@OOOOOXOOO@@@@@OOXXXXO@@OXXXXo....XX...o.o..............XX..XXXX++XXXXXOOO++OO@@@@@@@@@@@$$==;;;;;;;;;;;=%@@@@OOXXXXXXXXXXXXXXXXXXX+++++##&++++++@@@++@+@@@@+++++++&&&+++++++@&&&@+++@@@++++++++++++++++++++++++++&&&&&&&&&&&&&&&&&&&&&&&&&&&&&&&&&&&&&&&&&&&&&&&&&&&&&&&&&&&&&&&&&&&&&&&&&&&&&&&&&&&++++++++++++++++++++++++++++++++++++++++++&&&&&&&+++++++++++++++++++++&+++++++&&&&&&+&&+&&&&&&&&&&&&&&&&&&&&&&&&&&&&&&&&&&&&++++++++++++++++++++++++.......+.XXX@@@@@@+XX.X......XX.X.....o........   ...                                        ..                                ..    ......++++.......XX......XXXXX@@@@OOXoooooooooooooooXXOO@@@@OXXXXXXXXXXXXXXXXXXXXXOOOOOOOOOOOO@@$$$$$$$$@@@@@@@@@@@@@@@@$$$$$$****====*==;;;;;;;;;;;;;;;;;--;;;;;;;;;;;;;;;;;;;;;;;;;;;;;;======************************$$$$$$$$$$$$$**=;;;;;;;;;==*$$$$$$$$$$$$$@OOOOOXXXXoooooooooooooo   o                                                               ",
"                          oooooXXXOXOO@@@@@$@$$@@@OOXXXXoooooooo      ooooooooooooooXXOO@@@@@@$$$$$$@@OOooo  oo    ooooooooXXXXOOOOOOOOOOOOOOOOOOOOO@@@@@@@@@@@@@$$$$$$$$$@@@@@OOOOOXooooooooooXXXXXXXOOOO@@@@@@@@@@OOXXXoooooooooooooXXOOOOO@@@@OOOXXXXoooooooooooooXoXXXXXXXOO@@@@@@@@OOOOOO@@@@@@OXXXooooooooooooooooooooooooooooooooooXXO@@@@@@$@@XXooXoXXO@@@@@@@@OO@@OOOO@@@@@@OOXXXXOOOOXXX......XX.....................X..XXX+++XXXXXOOOOOOO@@@@@@@@##$%=;;;;;;;;;;;;=#@@@@@OOOXXXXXXXXXXXXXXXXXX++++##++++++++++++++++++++++++++&&+++++++&&&&@++++++++++++++++++++++++++++++++++&&&&&++&&&&&&&&&&&&&&&&&&&&&&&&&&&&&&&&&&&&&&&&&&&&&&&&&&&&&&&&&&&&&&&&&&&&&&&&&&&&&++++++++++++++++++++++++++++++++++++++++&&&&&&&&&&+++++++++++++++++++++++++++&&&&&&+++&&&&&&&&&&&&&&&&&&&&&&&&&&&&&&&&&&&&&++++++++++++++....+++++.......X.XX+@@@@@@@XX..X.....XX.X.o........o..     ....        ..                                                                ...  ........+++.....X.......XXXXO@@@@OOXoooooooooooooooXXO@@@@@OOOOOXXXXXXXXXXXXXXXXXOOOOXXOOOOOOOO@@$$$$$$$$@@@@@@@@@@@@@@$$$$$$$$$****=======;;;;;;;;;;;;;;;;;;=--;;;;;;;;;;;;;;;;;;;;;;;;;-=========******************$$$$$$$$$$$$$$***=-;;;;;;;;==*$$$$$$$$$$$$$@OOOOXXXXXooooooooooooooo                                                                  ",
"                          oooooXXXOOOO@@@@@@@$$@@@@OXXXXooooo oo      ooooo oo  ooooXXOO@@@@@@$$$$$@@@OOooo   oo  oooooooooXXXXOOO@@@@@@OOOOOOOOOOOOOOOOOO@@@@@@@@@$$$$$$@@@OOOOXXXoooooooooooooXXXXXXXOOOOO@@@@@@OOOOXXoooooooooooooXXOOOO@@OOOOOOXXXXXooooooooooooXXXOXXOOOOO@@@@@@@OOXOOO@@@@@@OOOXXXooooooooooooooooooooooooooooooooooXXO@@@@@@@@@XXooXoXXOO@@@@@@@OO@@@OOOO@@@@@OXXXXXOOOOXXXo.XXX.XX.o..o................XXX.XXX++X+XXOOOOOOOO@@@@@@#$$$=-;;;;;;;;;;;=%@@@@@OOOOOOXXXXXXXXXXXXXXX+++++#++++++++++++++++++++++++++++&#++++++&&&&&@+++++++++++++++++++++++++++++++++++&+++++&&&&&&&&&&&&&&&&&&&&&&&&&&&&&&&&&&&&&&&&&&&&&&&&&&&&&&&&&&&&&&&&&&&&&&&&&&&&&++++++++++&&+++++&&+&&&&&&&++++++++++++++&&&&&+++++++++++++++++++++++++++++++&&&&&&+++&&&&&&&&&&&&&&&&&&&&&&&&&&&&&&&&&&&&&&+++++++++++........+.+.......X..XX@@@@@@OXXXX......XXXX............o     oo..  o.......        ..          ..                                          ...    .......X+++........XX..ooXXO@@@OOXXooooooooooooooXOO@@@$$@@@OOXXXXXXXXXOOXXXXXXXXXXXXOOOOOOOOOO@@$$$$$$$$$@@@@@@@@@@@$$$$$$$$$$$****========;;;;;;;;;;;;;;;;;;---;;;;;;;;;;;;;;;;;;;;;;;-=========*******************$$$$$$$$$$$$***=-;;;;;;;;==*$$$$$$$$$$$$$@OOOOXXXXXooooooooooooooo                                                                  ",
"                          ooooXXXXOOO@@@@@@@$$$@@@OOXXXXXoooo                   ooooXXOO@@@@@@$$$$$$@@OXoooo  oo    oooooooXXXOOO@@@@@@@@OOOOOOOOOOOOOOOOOOOXXXOOOO@@@@@@OOOXXXXoooooooooooooXoXXXXXoXXXXOOOOOO@@@OOXXXXooooooooooXXXOO@@@@OOOOXXXoooooooooo ooooXXXXOOO@@@@@@@@@@@@@OOXXXOO@@@@OOOOXXXXooooooooooooooooooooooooooooooooXoXXOO@@@@@@@@XXooXoXXOO@@@@@@@OO@@@@OOOOOO@OOXXXXXXOOXXXXXXXXXXX.o.............XX......XXXXXXXXXXX+++OOOOO@@@@@@$$$%=;;;;;;;;;;;-%$@@@@@@@@OOOXXXXXXXXXXXXXXXX++++&&+++++++++++++++++++++++++++&#++++++@&&&&@++++++++++++++++++++++++++++++++++++++++++++&&&&&&&&&&&&&&&&&&&&&&&&&&&&&&&&&&&&&&&&&&&&&&&&&&&&&&&&&&&&&&&&&&&+&&&&&+++++++++++&&&&&&&&&&&&&&&&&&&&&&++++++++++&&&&&++++++++++++++++++++++++++++++++&&&&&&&&&&&&&&&&&&&&&&&+++++&&&&++++++++&&&&&&&+++++++++++..........X++..X..X..+@@@@@@OXXX.XXX.....X.Xo......o.o..  .    ... oo....      .......   .. .    ..  .                                 ........  .........X+++X.....XXX....XXOO@OOXXXooooooooooooooXXXO@@@@$$$@@OOOOOOOXXXXXXXXXXXOXXOOOOOOOOOOOOO@@@@$$*$$$$$@@@@@@@@@@@$$@@@$$$$$$$***========;;;;;;;;;;;;;;;;;;=-;;;;;;;;;;;;;;;;;;;;;;;;-=========******************$$$$$$$$$$$***=;;;;;;;;;==*$$$$$$$$$$$$$@OOOOXXXXoooooooooooooo                                                                    ",
"                          ooooXXXXOOO@@@@@@@$$@@@@OOXXXXXoooooo        o        ooooXXOOO@@@@$$$$$$$@@OXoooo oo     oooooooXXOOO@@@@@@@@OOOOOOOOOOOOOXOOOOOOXXXXOOOO@@OOOOOXXooooooooooooooooXoXXXXXoXXXXXOOOO@O@@OOXXXXoooooooXoXXOOO@@@@OOOXXXooooooooooooooooooXXOOO@@@@@@@@@@@@@OOXXXXOOOOOOOOOXXXXXooooooooooooooooooooooooooooooooXoXXO@@@@@@@@@XXooXoXXOO@@@@@@@OOO@@@OOOOOOOOOXXXXXXXXXXXXXXXXXXXXX.............XXXX....XXXXXXXXXXX++++OOO@@@@@@$$$*-;;;;;;;;;;;%#@@@@@@@@@OXOOOOXXXXXXXXXXXXXX++++&+++++++++++++++++++++++++++&&+++++++&&&&&@++++++++++++++++++++++++++++++++++++++++++++++++++&&&++++&+++++&&&&&&+++++&+&&++++&&&&+++++&&++++++++&+&&++++++++++++++++++++++++++++++++++++++++++++++++++++++++&&&+&&&+++++++++++++++++++++++++++++&&&&&&&&&&&&&&&&&&&&&&&&&+++&&&&++++++++++++++&+++++++++++.........XX++..X.....XO@@OOXXXXXXXX......X.Xooo..oooo.oo. o    ..o.o....o..............  ....  ........  oo....                        .......oo............X+++X....XX....XXOO@OOXXXooooooooooooooXXXXOO@@@$$$@@@OOOOOXXXXOOXXOOXXOOXXOOOOOOOOOOOOO@@@@$$$*$$$@@@@@@@@@@@$@@@@$$$$$$******=======;;;;;;;;;;;;;;;;;;;;-==;;;;;;;;;;;;;;;;;;;;;;--==========*************$$$$$$$$$$$***=;;;;;;;;;==*$$$$$$$$$$$$$@OOOOXXXXooooooooooooo                                                                     ",
"                          ooooXXXXOXOO@@@@@$$$@@@@OOXXXXXoooooo oo             oooooXXOO@@@@@@$$$$@@@@OOoooooo    ooooooXooXXXOO@@@@@@@@OOOOXXXXoooooooooooooooXXXXOOOOXXXXooooooooooooooooooXXXXXXXXXXXOOOOOO@@@OOOXXXoooooooXXOOO@@@@OOOXXXoooooooo o ooo   oooXXXXOOOOO@@@@@@@@@OXXXXXXOO@OOOXXXXXXooooooooooooooooooooooooooooooooooooXXOO@@@@@$@@OOoooXXXOO@@@@@@@OOO@@@OXXXXXXXXXXXXXXXXXXXXOOOXXXXX...Xoo......XX.....XXXXXXXXXX+XX+O@@OOO@@@@@@@$#%;;;;;;;;;;==$@@@@@@@@OOOOOXXXXXXXXXXXXXXX++++++++++++++++++++++++++++++++++&&++++++++&@&&&++++@+@++++++++++++++++++++++++++++++++++++++++++++++++++++++++++++++++++++++++++++++++++++++++++++++++++++++++++++++++++++++++++++++++++++++++++++++++++++++++++&&&&&&++++++++++++........+++++++++++&&&&&&&&&++&&&&&&&&&&&&&&&+++&&+++++++++++++++++++++++++@+X.........XX+++XX....XXXXXXXXXXXXX.XXXXXXXXXXX....oooo.....o      o.o.o........o.ooo.ooooo.......ooo.oo....oooo....  oo                oo.....................XX++XXX....XXXXXXOOOXXXXoooooooooooooooXXXXOO@@@@$$@@@@OOXOXXXXOOXXXOOOOXOOOOOOOOOOOOOOOOO@@@$$$$$$$$$@@@@@@@@@@@$$$$$$$$$$$***========;;;;;;;;;;;;;;;;;;-=-;;;;;;;;;;;;;;;;;;;;;;;;;;========*************$$$$$$$$$$$*==-;;;;;;;;==*$$$$$$$$$$$$$@OOOOOXXXoooooooooooo                                                                      ",
"                          ooooXXXXOXOO@@@@@$$$@@@@OOXXXXXooooooooo o     o   ooo  ooXXXO@@@@@@$$$$@@@@OOoooooo  ooooooooooXXXXOO@@@@@@@@OOOOXXooooooooooooooooooooXXXXXXXXXXoooooooooooooooooXXXoooXXXXXOOOOO@@@OOOOXXXXoooooXXOOO@@@OOOXXXXoooooooo    oooo  oooXXXXXOOO@@@@@@@@@OOXXXXXXOO@OOOXXXXXoooooooooooooooooooooooooooooooooooooXXOO@@@@@@@@OOoooXXXOO@@@@@@@@OO@@@OXXXXXXXXXXOOOOOOO@OOO@OXXXX....XoX..X.X.......XXXXXXXXXX+XXXOOO@OO@@@@@@$$$=;;;;;;;;;=%#@@@@@@@@@@OOOXO+XXXXXXXXXXXXXX++++@&&&&+++&&&&&&&&++++&&&&+&&&&&&&++++++++@@@&&+++@&&&@+++++++++++++++++++++++++++++++++++++++++++++++++++++++++++++++++++++++++++++++++++++++++++++++++++++++++++++++++++++++++++++++++++++++++++++++++++++++++&&&&&&++++++++++++++++....++++++++++++&&&&&&&&++&&&&+&&&&&&&&&&++&+++++++++++++++++++++++++++++XXX.......XX++++X...XXXXXXXXXXXXXXXX......XXXXX..oooo...... . .  oooo.o......X...oo....oo.o....oooooooo..o.ooooooo.oooo..              oo.......o.o............XX++XXX..XXXXXXXOOOXXXoooooooooooooooooXXXXXOO@@@$$$$@@@OOXXOOOOOOXXOOXOOOOOOOOOOOOOOOOOOO@@@$$$$$$$$$@@@@@@@@@@@$$$$$$$$$$$$****=======;;;;;;;;;;;;;;;;;;;---;;;;;;;;;;;;;;;;;;;;;;;;;;-========*********$$$$$$$$$$**==-;;;;;;;-==**$$$$$$$$$$$$@OOOOOXXXoooooooooooo                                                                      ",
"                         ooooooXXXXXOO@@@@@$$$@@@@@OXXXXXooooooooooooo  oo ooooo oooXXXO@@@@@@$$$$@@@@OOooooooo ooooooooooXXXXOO@@@@@@@@OOOXXXooooooooooooooooooooooooooooooooooooooooooooooooXXXXXXOOOOOOO@@@@@OOOOXXXXoooXXXOO@@OOOOXXooooooooooooooo  oooo  oooooXXXXXOO@@@@@@@@OXXooXXOO@OOOXXXXXooooooooooooooooooooooooooooooooooooooXOO@@@@@@@@OOXooXXXOO@@@@@@@OOO@@OOXXXXXXOOOO@@@@@@@@@@OOOXXXX....XXX....X...X.XXXXXXXXXXXXXXXXXOO@@O@@@@@@$*=;;;;;;;;=%$$@@@@@@@@@OOOOOOOXXXXXXXXXXXXXXXXX++++##&&&&++#&#+++&&&&&&&&&&&&&&++++++++++&&&&@+++&&&&&++++++++++++++++++++++++++++++++++&&&+&&&&&&&&&&&&&&&&&&&&&&&&&&&&&&&&&&&&&&&&&&&&&&&&&&&&&&&&&&&&&&&&&&&&&&&&&&&&&++++++&&++++++++++++++++++++++++++++++&&&&&&+++++++++++++.++......++++++++++&&&&&&&&&&&&&&&&&&&&&&&&&&+++++++++++++++++++++++++++++++++X........XXXX+++X..XXXXXXXXXXOXXXXXXXXXXXX.............       .ooo.X..XX.oXXXXX........XXXXX...oo..XX....XXooXX..ooooo......o    .ooo......oooooo.o..........o.XXXXX...XXXXXXOOOXXoooooooooooooooooooXXXXXXOO@@@@$$$@@@OOOOOXXXXXOXXOXOOXOOOOOOOOOOOOOOOOO@@@$$**$$$$$@@$@@@@@@@@$$$$$$$$$$$$$**========;;;;;;;;;;;;;;;;;;;----;;;;;;;;;;;;;;;;;;;;;;;;;======*=********$$$$$$$$$**==;;;;;;;;===*$$$$$$$$$$$$$@OOOOXXXXooooooooooooo oo                                                                  ",
"                         ooooooXXXXXOO@@@@@@$$@@@@OOXXXXXooooooooooooo  oooooooo oooXXXO@@@@@@$$$$@@@@OOooooooo ooooooooooXXXXOO@@@@$@@@OOOXXXooooooooooooooooooooooooooooooooooooooooooooooXXXXXXXXOOOOOO@@@@@@OOOOOXXXXXXXXOOOOOOOXXooooooooooooooooooooooooooooooXXXXXXXOO@@@@@@OXXoXXXOO@OOOXXXXXoooooooooooooooooooooooooooooooooooooXXOO@@@@@@@@OXXooXXXOO@@@@@@@OOOOOOXXXXXXXOO@@@@@@@@@@OOOXXXXXX....X.....XXXXXXXXXXXXXXXXXXXXXXXXOO@@@@@@@@$*=;;;;;;;%%###@@@@@@@@@@OOOOOXOXXXXXXXXXXXXXXXXX.+++++++++++++++++++++++++++++++++++++++++&&&@+++@&&&&++++++++++++++++++++++++++++++++++&&&&&&&&&&&&&&&&&&&&&&&&&&&&&&&&&&&&&&&&&&&&&&&&&&&&&&&&&&&&&&&&&&&&&&&&&&&&&&&&&&&&&+&&&&&&&&&&&&&&&&&&&+++++++++++++++&&&&&&&&++++++++++++++.+++..++++++++++&&&&&&&&&&&&&&&&&&&:&&&&&++++++++++++++++&&&&&+++++++++++@++X........XXXOO+XXXXXXXX.XXXXOOOXXXXX...XXX..........o.    ....  .XX..XXXXXXXXXX+XXXXXXXXXXXXXXXXXXXXXXXXXXXXXXXXXXXXXXXXXXoo.   o.......oo.ooooooo.....o...ooo..XXXXX.XXXXXXXOXXXXooooooooooooooooooooXXXXOOOO@@$$$$$@@@OOOXXXXXXXXOXXXXOOOOOOOOOOOOOOOO@O@@@$$$$**$$$$$@@@$@@@@@@@@$$$$$$$$*****========;;;;;;;;;;;;;;;;;;;;---;;;;;;;;;;;;;;;;;;;;;;;;;-======******$$$$$$$$$$**==;;;;;;;;===*$$$$$$$$$$$$@@OOOOXXXXoooooooooooo   o                                                                  ",
"                          ooooooXXOXOO@@@@@@$$@@@@OOOXXXXoooooooooooooo    ooo  ooooXXXOO@@@@@$$$$$@@@OXXooo  ooooooooooooXXXOO@@@@@$@@@OOOOXXooooooooooooooooooooooooooooooooXooooooooooooXXXXXOOOOOOOO@@@@@@@@OOOOOOXXXXXXXOOOXXXXooooooooooooooooooooooooooooooooooXXXXOOO@@@@@OOXXooXXOO@@OOXXXXXXXoooooooooooooooooooooooooooooooooooXXOO@@@@@@@@OXXoooXXOO@@@@@@@OOOOOXXXXXXOOOOOOOOOO@@@OOXXXXXXXX...XX..XXXXXX.X...XXXXXXXXXXXXXOOOOOO@@@@@@$%;;;;;;;=%$$@@@@@@@@@@@@OOOOOOOXXXXXXXXXXXXXXXXXXX+++++++++...+++++...++++++.+++++.+++++++&&&&@++@&&&&@++++++++++++++++++++++++++++++++++++++++++++++++++++++++&&&&&&+++&&&+&&&+++++&&&&+++&+++++++++++++++++++++++++++++++++++++++++++++++++++++++++++++++++++++&&&&&&&&&&++++++++++++++++..++++++++++&&&&&&&&&&&&&&&&&&&&&&&&&+++++++++++++++++++&++++++++++++@@@+X.......XXX+O++OOXXXXXXXXXOO@OOXXXXXXXXXX............ooo........XXXX..XXXXXXX++++++OOOOOOOOOOOOOOOOOOOOXXXOXXXXXXXXXXXXXXo.o..o ....oooo...o.oooo.....ooo.o.o...XXXXXXXXXXXXXXXXoooooooooooooooooooooooooXXXOOO@@$$$$$$@@OOOOOOXXXXXXXXXXOOOOOOOOOOOOOOOOOO@@@@$$$**$$$$$@@@@@@@@@@$$$$$$$$$$$****=========;;;;;;;;;;;;;;;;;;;;==-;;;;;;;;;;;;;;;;;;;;;;;;;-===*******$$$$$$$$$***=;;;;;;;;-==*$$$$$$$$$$$$@@OOOXXXXXoooooooooooooo                                                                    ",
"                          ooooXoXXOXOO@@@@@@$$@@@@OOOXXXXXoooooooooooo    oooo  ooooXXXOOO@@@@$$$$@@@@OXXXoo    oooooooooooXXOO@@@@$$@@@OOOOXXoooooooooo  oooooooooooooooooooXXoooooooooooXXXXXXOOOOOO@@@@@@@@@@OOOOOOOOXXXXXXXOXXXoooooooooooooXXXXXooooooooooooooooXXXXXOO@@@@@@@OXXooXXOO@@OOXXXXXXXoooooooooooooooooooooooooooooooooooXXOO@@@@@@@@OXXXooXXOO@@@@@@@OOOXXXXXXXXOOOXXXXXOO@@OXXXXXXXXXX...XX..XXXXXX.....XXXXXXXXXXXXXOOOOO@@@@@@$=;;;;;;=%#@@@@@@@@@@@@@@OOOOOOOOXXXXXXXXXXXXXXXXXX++++++++++++++++++++.+++++.++++++++++++@@&&&@@@@@&&&#@++++++++++++++++++++++++++++++++++++++++++++++++++++++++++++++++++++++++++++++++++++++++++++++++++++++++++++++++++++++++++++++++++++++++++++++++++++++++++&&&&&&&&&&&&&&++++++++++++++++++++++++++&&&&&&&&&&&&&&&&&&&&&&&&++++++++++++++++++++++++++++++++@@+XX.......XXOO@@@OXXXXXXXXOOOOOOOXXXXXXXXX........oo..oo..........XXXXXXXXXXXXXXXXXXXXXXXXXXXXXXXXXXXXXXXXXXXXXXXXXXXXXXXXo...oooo..o.ooooo.....oo....oooooooo..oo.XXXXXXXXXXXXXXooooooooo  oo  oooXooooooooXXOOO@@@$$$$$@@@OOOOOXXXXXXXXXXOOOOOOOOOOOOOOOOOO@@@@@$$$***$$$$@@@@$$@@@$$$$$$$$$$$$$****========;;;;;;;;;;;;;;;;;;;;=-;;;;;;;;;;;;;;;;;;;;;;;;;;-===******$$$$$$$$***=;;;;;;;;-==*$$$$@$$$$$$$@@OOOXXXXooooooooooooooo                                                                    ",
"                           oooXXXXOXOO@@@@@$$$@@@@OOOOXXXXoooooooooo      o oo ooooooXXXOOO@@@@$$$@@@@OXXooo   oooooooooooXXXOO@@@@@@@@@OOOOXXooooo  ooo ooooooooooooXXXoooooooXoooooooXoXXXXXOOOOOO@@@@@@@@@@OOOOOOOOOOXXXoXXXXXXoooooooooooooXXXXXXXXXXXXXXXoooooXXOOOOO@@@@@$@@@OXXooXXOO@OOOXXXXXXXoooooooooooooooooooooooooooooooooooXXOO@@@@@@@@OXXXoXXXOO@@@@@@@OOXXXXXXXXXXXXXXXOO@@@OOXXXXXOOXXXXXX....XXXX.......XXXXXXXXXXXXXOOOOO@@@@@@*;;;;;=*$$$$@@@@@@@@@@OOOOOOOOOOOOXXXXXXXXXXXXXXX++++++++++++.....+++....++++++++++++++++@@&&&&@@@@&&&&&@+++++++++++++++++++++++++++++++++++++++++++++++++++++++++++++++++++++++++++++++++++++++++++++++++++++++++++++++++++++++++++++++++++++++++++++++++++++++++++&&&&&&&&&&&&&&+++++++++++++++++++++++++&&&&&&&&&&&&&&&&&&&&&&&&&+++++++++++++++++++++++++++++++@@+OXX......XXXOOO@OXXXXXXXXOO@OOOOOOOOOOXXXXXXX..oooo...o........oXXXXXXXXXXXXXXXXXXXXXXXXXXXXXOOOOOOOOOOOOXOOOOOOOOOXXXXXXXXXXXXXXX...oo...X....oooooooooooooooo.o..oXXXXXXXXXXXXXoooooooooooo  ooXoXXooooooooXXXXOO@@$$$$$$$@@OOOOOOOOOXXXXOOOOOOOOOOOOOOOOOOOOO@@@@$$$***$$$@@$@@@@@@@$$$$$$$$$$$$*****========-;;;;;;;;;;;;;;;;;;;---;;;;;;;;;;;;;;;;;;;;;;;;-===*****$$$$$$$***==;;;;;;;===*$$$$@@@$$$$$@@OOXXXXXoooooooooooooo                                                                     ",
"                          ooooXXXXOXOO@@@@@$$$@@@@OOOOXXXXoooooooooo    oo   oooooooooXXOOOO@@@$$$@@@OOXXooo   ooooooooooooXXOOO@@@@@@@@OOOOXXooooo oooo  oooooooooooXXXoooooXooooXXXXXXXXXXXOOOOOO@@@@@@@@@OOOOXOOOOOXXXooooXXXXXoooooooooooooooXXXXXXXOOOOXXXXXXXOO@@@@@@@@@@@@@@OXXoXXXOO@OOXXXXXoXoXooooooooooooooooooooooooooooooooooXXOO@@@@@@@@OXXXoXXXOO@@@@@@@OOXXXXXXXXXXXXXXXOO@@@OXXXXXXOOXXXXXXXX..XX.........XXXXXXXXXXXXOOOOO@@@@@#*=;;;;%$$$$$@@@@@@@@@@OOOOOOOOOXOOXXXXXXXXXXXXXX+++@@@++++++++++++++++++++++++++++++++++++@@&&&&@@@&&&&&&@++++++++++++++++++++++++++++++++++++++++++++++&&&+++++&&&&++&+++&&&&&+&&&&+&&+&&&&&&&&&&&&&&&&&&&&&&&&&&++&&++++&&&&+++++++++++++++++++++++++++++++++++++++++&&&&&&&&&&&&&++++++++++++++++++++++++&&&&&&&&&&&::&&&&&&&&&&&&&&&&&&&&&&&&&&&&&&&+++++++++++++@@OXXX......XXOOXOXXooXXoXXOO@@@@OOOOOOOOXXXXXXo.oooo............ooXXXOXXXXXXXXX+O+@@@@@@@@@@@@@@@@@@@@@@@@@@@@@@@@@@@@@@@@@@@@@OOOXXXoXo..XXX...ooo.oooooooooo  o..ooooXXXXXXXXXXooo  oooooooo  ooooooooooooooXXXXOOOO@@$$$$$$@@OOOOOOOOXOOOOOOOOOOOOOOOOOOOOOOOOOO@@@@$$****$$$$$@@@@@@@@@$$$$$$$$$$$$$****========;;;;;;;;;;;;;;;;;;;;--;;;;;;;;;;;;;;;;;;;;;;;;-===****$$$$$$***==;;;;;;;===*$$$@@@@$$$$$@@OOXXXXooooooooooooo o                                                                     ",
"                           ooooXXXOOOO@@@@@@$@@@@@OOXXXXXXXXoooo       oooooo   ooooooXXXXOO@@@@$$@@@OOXoooooooo  ooooooooooXXOO@@@$@@@@OOOOXXoooooo   o oooooooooooooooooXXooooXXXXXXXXXXOOOOOO@@@@$$$@@@OOOXXXXXXXXXXooooooXOOXXoooooooooooooooooooXXXOOOOOOXXXXOO@@@@@@@@@@@$@@@OXXXXXXOOOOOXXXXXXXooooooooooooooooooooooooooooooooooooXXOO@@@@@@@@OXXXXXXXOO@@@@@@OOOOXXXXXXXXXXoXXXOO@@OOXOXXXXXXOXXXXXXXXX.......XXXXXXX.XXXXXXXXXOOOO@@@@#*=;;;=*$$$$@@@@@@@@@OO@OOOOOOOOX+XXOXXXXX+++++X++++@&&&&++++++++++++++++++++++++++++++++++@@@&&&&@@@&&&&@@++++++++++++++++&+++++++&&&++&++&&&&&&&&&&&&&&&&&&&&&&&&&&&&&&&&&&&&&&&&&&&&&&&&&&&&&&&&&&&&&&&&&&&&&&&&&&&&&&&&&&&&&&&&&&&&&&&&&&&&&&&&&&&&&&&&&&&&&&++&&++++++&+++++++++++++++++++++++++++++++++++&&&&&&&:::::&&&&@&&+&&&&&&&&&&&&#&#&#&&+&&+++++++++++++++@@++XX....XXXXXXXXXXo...XXOO@O@@@OOXXOO@OOXXXX......ooo.oo........XXXXOOXXXXXXXXXXOOOO@@@@@OOOOOOOOOOOOOOOOO@OOOOOOOOOOOOOOOOXXXXXXXXXXXXXXXXXoooooXoooooooooooooooooooooooXXXXXoooooooo oooooooXooooXoXooooooooXXXOOOOO@@$$**$$@@OOOOOOOOOOOOOOOOOOOOOOOOOOOOOOOOOOOO@@@$$$*****$$$$@@@@@@@$$$$$$$$$$$$$*$$**========;;;;;;;;;;;;;;;;;;;;;;;;;;;;;;;;;;;;;;;;;;;;;;==*****$$$$$***==;;;;;;;==**$$$@@$$$$$$$@@OOXXXXooooooooooooo                                                                       ",
"                           ooooXXXOXOOO@@@@@$$@@@@OOXXXXXXXXoooo      oooooooo  ooooooooXXXO@@@@$$@@@OOXooooooooo ooooooooooXXOO@@@$@@@@OOOOXXXXooooo  o  ooooooooooooooXXXXooooXXXXXXXXXXOOO@@@@@@$$$@@@OOOXXXXXXXXXXooooooXXXOXXoooooooooooooooooooooXXXOOOXXXXOOO@@@@@@@@@@@$@@@OXXXXXXOOOOOXXXXXXXoooooooooooooooooooooooooooooooooooXXXOO@@@$@$@@OOXXXXXXOO@@@@@@@OOXXXXXXXXXXXXXXXOO@@@OXXXXXXXXOXXXXXX.XX......XXXXXXXXXXXXXXXXOOOO@@@@@@*=;;-=$$$$@@@@@@@@@@OO@OOOOOOOOX+XX+XXXXXX+++++++++@@&&&+++++++++++++++++++++++++++++++++++@&&&&&@@@@@@&@@@+++++++++++++++++++++++++++++++++++++++++++++&&++++&+&&&&&&++&+++&&&+++&&&&&&&&&&&&+++&&&&+++&&++++&&&&+&++++&+++++++&&+&++&&+++++++++++++++++++++++++++++++++++++++++++++++++++++++++++++++++++++++&&&&&&&::::::&&&&&&++++++&&+++++++++++++++++++++++++++++++@@+XX....XXXXXXXXX.o...XXOO@O@@@@OOOOOO@@OXXXX.o...ooo.oo.o.......oXXXOXXXXXXXXXXXXXXXXXXXXXXXXXXXXXXXXXXXXXXXXXXXXXXXXXXXXXXXXXXXXXXXXXXooXoXXooXXXXoo.ooooooo..ooooooooooXXXXoooooooo  ooooooooXXXXXXoooooooXXXXXOOOO@@$$$$$$$$@@OOOOOOOOOOOOOOOOOOOOOOOOOOOOOOOOOOO@@@@$$*****$$$$@@@@@@@@$$$$$$$$$$$$$$$$***========;;;;;;;;;;;;;;;;;;;;-==;;;;;;;;;;;;;;;;;;;;-==%**$$$$$$***==;;;;;;;==**$$$@@@$$$$$$@OOOXXXXoooooooooooo                                                                        ",
"                           oooooXXOOOO@@@@@@$$@@@@OOXXXXXXXXoooooo        ooooooooooooooXXXO@@@@@@@@@OOXoooooooooo oooooooXoXXO@@@@$@@@@OOOOXXXXooooo  o  ooooooooooooooooXXooXXXXXXOOOOOO@@@@$$$$$$$$@@OOOXXXoooXXXXoooXXXXOOOOOXooooooooooooooooooooooXXXXXXXXOOOO@@@@@@@@@@@@@@@OXXoXXXOOOOOOXXXXXXXoooooooooooooooooooooooooooooooooooXXXO@@@$$$$$@@@@@@@@@@$$$$$@@@OOOOOOOOOXXXXXXXOOO@OOXXXXXXXXXXXXXXXXXXXXXX......XXXXXXXXXXXXXXOO@@@@@*=;;=%@@$@@@@@@@@OOOOOOOOOOOOOOXXOX++XX+X++++++++++@@@@@@++++++++++++++++++++++++++++++++++&&&&&&&@@@@@&@@@++++++++++++++++++++++++++++++++++++++++++++++++++++++++++++++++++++++++++++++++++++++++++++++++++++++++++++++++++++++++++++++++++++++++++++++++++++++++++++++++++++++++++++++++++++++++++++++++++++++&&&&&&&::::::&&&&@++++++++++++++++++++++++++++++@+++++++++@@OXX...XXXXXXXoooooooXXXOOOOO@@@@OOOOO@OOXXXXo...XXo.oooooo.ooo...XXXO+XXXXXXXXXXXXXXXXOOXXXXXXXXXXOOXXXXXXXXXXOOXXXXXXXXXXXXXXXXXXXXXXXX....oXXXXXXoo.ooo...        ooooooXXoooooooooooooooooooooooooooooXXoXOOOOOOOOO@@@$$$$$$$$@@OOOO@@@@@@OOOOOOOOOOOOOOOOOOOOOOOOO@@@$$$*****$$$$@@@@@@@@@$$$$$$$$$$$$$*****=======-;;;;;;;;;;;;;;;;;;;--=-;;;;;;;;;;;;;;;;;;;=%*$$$$$$$$**==;;;;;;;==*$$$$@@@@$$$$$@OOOXXXXoooooooooooo                                                                        ",
"                           oooooXXOOOO@@@@@@$$@@@@OOOOXXXXXXooooooo        ooooo oooooooXXXO@@@@$@@@@OXXooooo   o    oooooXoXXO@@@@$@@@@OOOOOOXXoooooooooooooooooooooooooXXXXXXXXXXXOOOO@@@@@$$$$$$$@@@OOOXXXoooooXXXoXXXXOOOOOOOXooo ooooooooooooooooXXXXXXOOOOOOO@@@@@@@@@@@@@@@@OXXXXXXOOOOOOXXXXXXXXooooooooooooooooooooooooooooooooooXXOO@@@$@$@@@@@##$%%**%%***$$$$$@@@@@@@@@OOOOOOO@@@OXXXXXXXXXXXXXXXXX.X......XXXXXXXXXXXXXXXXO@O@@@@%=;;=$@@@@@@@@@@@@OOOOOOOOOOOXOOXOXXO+X++X++###+++@@&&@+@@&&@+++++++++++++++++++++++++++++&&&&&&&&@@@@@@&&@@++++++++++++++++++++++++++++++++++++++++++++++++++++++++++++++++++++++++++++++++++++++++++++++++++++++++++++++++++++++++++++++++++++++++++++++++++++++++++++++++++++++++++++++++++++++&+++++++++++++++&&&&&&&&:::::&&&&@@+@++++++++++@+++++@++++++@@++++++++++++@@@OXX.XXXXXXXooooooooooXXOOO@@@@@OOOOO@@OOXXXXo.XXXo.oooooooooo..XXXX+OOOXXOOXXXOOOOOOOOOOOOO@@OOOOO@@@@@@@@@O@@O@@@@@@@@@OOOOOOOOOXXXXXXXXXXXXXXXXXXoooooooooo.       oooooXoooooooo   o oooooooooooXooooXXXOO@@OOOOOOO@@@$$$$**$$@@@OO@@$$#@@OOOOOOOOOOOOOOOOOOOOOOOOOO@@@@$$$****$$$$@@@@@@@@@$$$$$$$$$$$$$$$$***=======;;;;;;;;;;;;;;;;;;;;-===;;;;;;;;;;;;;;;;-==*$$$$*$$**==;;;;;;;==*$$$$@@@@$$$$$@OOOXXXoooooooooo o                                                                         ",
"                           oooooXXXXOO@@@@$$$$@@@@OOOOXXXXXXoooooooo    o ooooooooooooooXXXO@@@@$$@@@OXXooo     oo oooooooXoXXO@@@$$@@@@@OOOOOXXooooooooooooooooooooooXoooXXXXXXOOOOO@@@@@$$$$$$@@@@@OOOXXoXooXXXXOOOOOOOOOOOOOOOXooooooooooooooooooXXXXXOOOO@@@@@@@@@@@@@@@@@@@@@@OXXoXXXOOOOOOXXXoooXXooooooooooooooooooooooooooooooooooXXOO@@@@@@@@OOOOOOO@@@$$$***==*********$$$$$$$$$$$@@OO@@#@@@@O@OOOOXXXXXXXXXXXXXXXXXXXXXXXXXOOO@@@@*;;;=$@@@@@@@@OOOOOOOOOOOOOOOXXXXOOXXXX++X+&::#@+@&#&&&&&&&&&&+++++++++++++++++++++&&++++++++@&&&&&+++@@&&&&@++++++++++++++++++++++++++++++++++++++++++++++++++++++++++++++&&&+++++++++++++++++++++++++++++++++&+&&+++++++++++++++++++++++++++++++++++++++++++++++++++++++++++++++++++++++++++++++++++++++++++++++++++&&&&&&:::::&&++&+@@@@+++++++@++++++++++++++++++++++++++@@@@XXXXXXXXXXooooooooooXXXOOO@@@@OOXXOO@@OXXXXXXXXXo..oo.ooooooo...XXXXOOO@@@@@@@@@@@@@@@@@@@@@@@@@@@$$@@@@@$$$$$$$$$@@@@$$$$@@@@@@@@OOXXXXXOXXXXXXXXXXXXooooooo.      oooooooooooo  oooooooooooooooooooooXXXO@$$$@@OOOOOOO@@$$$$**$$$@@@@$$$$@@@OOOOOOOOOOOOOOOOOOOOOOOOOO@@@@@$$****$$$$$$@@@@@$$$$$$$$$$$$$$$$$$**========-;;;;;;;;;;;;;;;;;;;;-=--;;;;;;;;;;;;;;;;==%*******==;;;;;;;==*$$$@@@@@$$$$$@OOOXXoooooooooo   oooo                                                                     ",
"                           oooooXXXXOO@@@@$$$@@@@@@OOOOOXXXXXXoooooooooooooooooooooooooXXXOO@@@@$@@@OOXooo  o       ooooooXoXXO@@@$$@@@@O@OOOOOOXooooooooooooooooooooXXXXXXXXXXOOOO@@@@@$$$$$@@@@@@OOOOOXooXXXXXXXOOOOOOOOOOOOOOXXooooooooooooooooooXXXXXOO@@@@@@@@@$$@@@@@@@@@@@@@OXXooXXOO@OOOXXXXooXoooooooooooooooooooooooooooooooooooXXOO@@@$@@@@OOOOXOOO@@@@$$$$$$************====****$@@O@$**=*****%#########@@@@@@@@@@@@@OOOOOOOO@@@$=;=*@@@@@@@@@@OOOOOOOOOOOXXXXXXXXXXXXXX+++#:::&++@@@#&&&&&&&&&+++++++++#&&&&&&&&&&&&&++++++++@&&&&@+@@@@@&&#@+++++++++++++++++&&&&&&&&&&&&&&&&&&&&&&&&&&&&&&&&&&&&&&&&&&&&&&&&&&&&&&&&&&&&&&&&&&&&&&&&&&&&&&&&&&&&&&&&&&&&&&&&&&&&&&&&&&&&&&&&&&&&&&&&&&&&&&&&&&&&&&&&&&++++++&&&&&&&&&&&&&&&&++++++++++++++++++++++++&&&&&&:::::&&&&&&@@@@+++@@++@@+++++++++++++@@+++++++++++@@@OOXXXXXXXXooooooooooXoXXOO@@@@OOXXOOO@@@OXXXXXXX.oo...ooooooo...oXXXXOO@@@@@@@@@@@@@@@@@@@@@@@@@$$$$$$$$$$$$$$$$$$$$$@$$$$$$@@@@@@OOXXXXOOXXXXXXXXXXXXXoooooooo     oooooooooooooooooooooooooooooooooooXXX@@$*$$@@OOOOOOO@@$$$$***$$$@@@@@$$$@@@OOOOOOOOXXXXOOOOOOOOOOOOOO@@@@$$$****$$$$$@@@@@$$$@@$$$$$$$$$$$$$$****=======;;;;;;;;;;;;;;;;;;;;;;==;;;;;;;;;;;;;;;;-====***==;;;;;;;==*$$@@@@@@$$$$$@OOOXXooooooooo    oooo                                                                     ",
"                           oooooXXXXOO@@@@$$@@@@@@@OOOOOXXXXXXXXXXXooooooooXooooXoooXXXXXXOO@@@@@@@@OOXo    o       ooooooXoXOO@@@@$@@@@@@@OOOOOXXooooooooooooooooooXXXXXXXXOOOO@@@@$$$$$$$$@@@@OOOOXXXXXXXXXXOOOOO@@@@@OOXXXXXXXXXooooooooooooooooXXXXXOO@@$$$$@@@@$$$$@@@@@@@@@@@OXXoXXXOO@OOOXXXXooooooooooooooooooooooooooooooooooooooXXOO@@$$@@@@OXXXXXXXOO@@@@@@@@@@@@$$$*******===*=*$@OO@$**=======*****===========*************$***===*$$$$$$$@@@OOOOOOXOOOXXXXXXXXXXXXXXX+XX@#:#&+++@@+++@@&&@&@+++++&&&&&&&&&&&&&&&&&+++++++++++&&&#@@@@@@&@##@++++++++++++++&&&&&&&&&&&&&&&&&&&&&&&&&&&&&&&&&&&&&&&&&&&&&&&&&&&&&&&&&&&&&&&&&&&&&&&&&&&&&&&&&&&&&&&&&&&&&&&&&&&&&&&&&&&&&&&&&&&&&&&&&&&&&&&&&&&&&&&&&&&&&&+++++&:::&&&&&&&&&&&&+++++++++++++++++++++++++&&&&&&*=::&&&@&&&@@@@@+@@@@@@@@@@@@@+@+++@++@+++++++++++@@@@OOXXXXXXooooo.ooooooXXOO@OOOOXXXOOO@@@OXXXXXXXXX.X..XXo.XXoo..XXXXXXXOOO@@@@@@@@@@@@@@@@@@@@@@@@@@@@@@@@@@@@@@@@@@@@@@@@@@@@@@@OOOXXXXXXXXXXXXXXXXXXXoooooooooo oooooooo oooooo.oooooXXXXXXOXXXXooooooXX@@$$$$$$@@@OOOOOOO@@$$$$*$$$$$@@@@$$#@@OOOOOOOOXXXOOOOXXXXOOOOOOOOO@@@@$$$***$$$$$@@@@@@@@$$$$$$$$$$$$$$$$$****=======;;;;;;;;;;;;;;;;;;;;-===--;;;;;;;;;;;;;;==***=;;;;;;;;==*$$@@@@@@@$$$$@OOOXXooooooooo    oooo                                                                     ",
"                           oooooXXXXOO@@@@$$@@@@@@@@OOOOOOXXXXXXXXXXXXXXXXXXXXXXXXXXXXXXXOOO@@@@@@@@OOoo    o       ooooooXoXOO@@@@@@@@@@@@@OOOOXXooooooooooooooooooXXXXXXXOOOO@@@@$$$$$$$$@@@OOOOOXXXXXXXXXXOOO@@@@@@@OOXXXoXXoXXooooooooooooooooooXXXOO@@@@$$@@@@@$$$$@@@@@@@@@@@OXXoXXXOO@OOOXXXXooooooooooooooooooooooooooooooooooooooXXXO@@@@@@@OOXoXXoXXOOO@@@@@@@OOOOOO@@@$$$$$******$@OO@$**====*===*==**======*****========******=====**=**%$$@@@OOOOXXXXOXXXXXXXXXXXXXXXX+X+####++@@@+++++++++++++++&&&&&&#&&&&++++++++++++++&+++&&&@@@@@@@@@@@@++++++++++++++++++++++++++++++++++++++++++&&&+++&&&&&&&&&&&&&+&&&&&&&&&&&&&&&&&&&&&&&&&&&&&&&&&&&+&&&&&&&+++&&&&&&&&+++++&&&&+++++&&++++&++++++++++++++++++++++++&&&++++++++++++++++++++++++++++++++++++++&&&&&&&&::&&&&&&&&@@@@@@&&@@@@@@@@@@@@@@+@@@@@@++@++@++OO@@@@OXXXXXXooooo.ooooooXXXOOOOXXXOOOOO@@@OOXXXXXXXXXXXXXXX.ooo..oXoXXXXXXXXXOOOOOOOOOOOOO@@@@@@@OOO@@OOOOOOOOOOOOOOOOOOOOOOOOOOOOOOOXXXXXXXXXXXXXXXXXXXoooooooooooooooooo   oooooooXXXXO@@@@@##@OXooooooooXO@$$$$$$$$@@OOOOOOOO@@$$$****$$@@@@@@@@@OOOOXXXXXXXOOOXXXOOOOOOOOOOO@@@@@$$$****$$$$@@@@@@@@@$$$$$$$$$$$$$$$$$$**=======;;;;;;;;;;;;;;;;;;;;-=====-;;;;;;;;;;;;;====;;;;;;;;==$$@@@@@@@@@$$$@OOOXXoooooooooo  oo                                                                        ",
"                            ooooXXXXOO@@@@@$@@@@@@@@OOOOOOOOOOOOOOOOOOOOOOOOOOOOOOOOOOOOOO@@@@@@@@OOXXoooooo    oooo   oooXXXOO@@@$$@@@@@@@@@OOOXXoooooooooooooooooXXXXOOOO@@@$$$$$$$$$@@@OOOOOOOOXXXXXXOOOO@@@@@@@@@@OOXXXXoooooooooooo    oooooooXXXOO@@@$$@@@@@@@$$$$@@@@@@@@@@OOXXXXXXOOOOOOXXXXXoXooooooooooooooooooooooooooooooooooooXOO@@@$@$@@OXXXoXXXOOO@@@@@@@OXXXXXXOOO@@@@@$$$$$#@@O@$***==*====***=**====**==**========****=****====*===**$OOOXOOOXXOOOOXXXXXXXXXXXXXXX+++@++@@++++++++++++++++++&&&&++++++++++++++++++++&&@&#@@@@@@@@@@@@@@++++++++++++++++++++++++++++++++++++++++++++++++++++++++++++&++++++++++++&&+++++++++++++++++++++@@@@@#####$############@@#@@++++++++++++++++++++++++++++++++++++++++++++++++++++++++++++++++++++++++++++++++&&&&&&&&&:&&&@@@@@@@@@@@&&&@@@@@@@@@++++++++++@@@+++++++@@@@@OOXXXXXXooXoooooooXXXXOOOOOOO@@@OOOOOXXXXXXXXXXXXXXooooooooXoXXoooXXXXXXXXXXXXOOOOOOOOOOOOOOOOOOOOOOOOOOOOOOOOOOOOOOOOOOOOOOOOXXXXXXXXXXXooooooooXXXXXoooooXXXXXXOOOOOOO@@@@@$$$$********%@XXoXooooXXXOOO@@@$$$$$$@@@OOO@@O@@@$$$****$$$@@@@@@@@OOOOOOOXXXXXOOXOOOOOOOOOOOOOOOO@@$$$****$$$$@@@@@@@@@@$$$$$$$$$$$$$$$$$$**=======-;;;;;;;;;;;;;;;;;;=========;;;;;;;;;-===;;;;;;;;==*$@@@@@@@@$$$@OOOOXooooooooooo                                                                            ",
"                            ooooXXXXOO@@@@@$$@@@@@@OOOOOOOOOOOOOOOOOOO@@O@@@@@@@@@@@@@@@O@@@@@@@@OOXXooooooo    oo o  ooooXXXOO@@@$$$@@@@@@@@OOOXXooooooooooooXXXXXXXXOOOO@@@$$$$$$$$@@@OOOOOOOOXOXXXXOOOO@@@@@@@@@@OOOXXXoXoooooooooooooooooooooooXXOO@@@@$$$$$$@@@@$@@@@@@@@@@@@OOXXXXXXOOOOOOXXXXXoXooooooooooooooooooooooooooooooooooooXOO@@@@@@@@OXXXXXXXXOOO@@@@OOXXXXXXXXOO@@@@@@@@@@@@@O@$******===****=**===**===**========****=****=====*===*$OOXXOOOXXXOOXXXXXXXXXXXXXXXX++++++++++++++++++++++++++&&&++++++++++++++++++++&&&&&##@@++@@@@@@@@++++++++++++++++++++++++++++++++++++++++++++++++&&&&&++&+++&&&++++++++++++&&+++++++++++++++++++&&&######*********#**#########&&#+++++++++++++++++++++++++++++++++++++++++++++++++++++++++++++++++++++++++++++&&&&&&&&&:&&&@@@@@@@@++@&#&@@@@@@@@@@++@+@+@+@@@@+++++++O@@@@@OOXXXXXooooooooooXXXXOOOOO@@@@@OOXXXXXXXXXXXXXXXXXXXooXooXXXXXXXoXXXXXXXXXXXXXOOOOOOOOOOOOOOOOOOOOOOOOOOOOOOOOOOOOOOOXXXOOOOXXXXXXXXXXXXXXXXXXoooXXOOOOO@@@#####$$%%%%%*****=****==*****$OXooXoooooXXXOOO@@@$$$$$$$@@@@OOOO@@@@$$$***$$$@@OOOOOOOOOXXXXXXXXXXXXXXXXOOOOOOOOOOOO@@@$$$****$$$$@@@@@@@@$$$$$$$$$$$$$$$$$$$***=========;;;;;;;;;;;;;;;;====***%===-;;;;;;===-;;;;;;===*$@@@@@@@@$$$$OOOOXXoooooooooo                                                                            ",
"                            ooooXXXXOO@@@@@$$$@@@@@OOOOOOOOOOOO@OOO@@@@@@@@@@@@@@@@@@@@@@@@@@@@OOOXXXoooooo        o  ooooXXOOO@@@$$$@@@@@@@@@OOXXooooooooooooXXXXXOOO@@@$$$$$$$$$@@@@OOOOOXXXOOOOOOOOOO@@@@@@@$@@@@OOXXooXXXXXoooo ooooooooooooooXXOO@@@$$$$$$$$@@@$$@@@@@@@@@@@@OOXXoXXXOOOOOXXXXXXooooooooooooooooooooooooooooooooooooooXOO@@@@@@@@OXXXXXXXOO@@@@@@OOXXXXooXXXX@@@@@OOXXOOOOO@$****=*==****==***========*==**====**=*==****======***$OOOOOOXXXXXXXXXXXXXXXXXXXXXX++++++++++++++++++++++++++&&&+++++++++++++++++++&&&&&&&&+++++@@@@@++++++++++++++++++++++++++++++++++++++++@@&&&@@@@@&&&&&&@@@@@@######&&####&&&&@@+++++&&++++&#&####****========*=****===========****$#####@++++++++++++++++++++++++++++++++++++++++++++++++++++++++++++++++++++++&&&&&&&&=**&&@&&@@@@@@@&&###$@@@@@@&@+@@@@@@++@@@@@@+++O@@@@@@OOXXoo.ooooo.ooooXXXXOOOO@@@@@OXXXXXXXXXXXXXXXXXXXXXXXoXXXXXXXXXXXXXXXXXXXXXXXXXXXXXXXXXXXXXXXXOOXXXXXXXXXXXXXXXXOOOOOOOOOOOOOOOOOOOOOOO@@@@OXXO@$****************===*********=********@XXooooooooXoXXXOOO@@$$$$$$$$@@@@O@OOO@@@$$$$**$$$@OOOOOOOOOOOXXXXXXXXXXXXXXXXXXXOOOOOOOOO@@@$$****$$$$$$$@@@@$@@@@@@@@$$$$$$$$$$$$**============--;;;;;---====*$$$$$$*===---======-----==*$$@@@OOO@@$$$@OOOOXoooooooooooo o                                                                         ",
"                            oooooXXXOOO@@@@$$$@@@@@OOOOOOOOOOOO@O@@@@@@@@@@@@@@@@@@@@@@@@@@@@OOOOXXXooo               oooooXOOO@@@$$$@@@@@@@@@OOXXooooooooooXXXXOOOO@@@@$$$$$$$$@@@OOOOOOOXOOOOOOOO@@@@@$@@@@$$@@@@OOOXXooXoXXXoXoooooooooo ooooooXOO@@@$$$$$$$$$@@@$$@@@@@@@@@@@@OOXXoXXXOOOOOOXXXXXooooooooooooooooooooooooooooooooooooooXOO@@@@@@@@OOXXXXXXXOO@@@@@OOXXXXXXoXXXOOO@OXOXXXXXOO@$****==************===***====****==**=*==****==*====**$@OOOOOXXXXXXXXXXXXXXXXXXXXXX+++++++++++++++++++++++++&&&+++++++++++++++++++&&&&&&&&&+++++++++++++++++++++++++++++++&++&&&&&&&&&&&&&&&&&&&&&############*###*****##*#****####&#&&&&&&&&&&&&##**==========*===********=====*=====*=***####&&&&++++++++++++++++++++++++++++++++++++++++++++++++++++++++++++++++++@&&&**&&***&&&&&&&&@@@@&&&##&@@&@&&&@@@@@@++++@@@@@@@++++@@@@@@OXXooXooooo.ooooXXXXXOOO@OO@OOXXXXXXXXXXXXXXXXXXXXXXXXXXXXXXXXXXXXXXXXXXXXXXXXXXXXXoXXXXXXXXXXXXXXXXXXXXXXXXXXOOOOOOOOO@@@@@@@@@@@#@##$$$**@XX@$*****=***************=*===******===**$OXoooooooooooXXXXOOO@@$$$$*$$$@@@@@@@OO@@@@$$$$**$$@@OOOOO@@@@OOXXXXXXXXXXXXXXXXXXXOOOOOOOOOO@@$$$****$$$$$@@@@@@@@@@@@@$$$$$$$$$$$$******===============****$$$$$$$$$$$$*===============**$$@@@OO@@$$$@@OOOXoooooooooooooooo                                                                        ",
"                             ooooXXXOOO@@@@@$$@@@@OOOOOOOOOOOOOO@@@@@@@@@@@@$$$@$$@$$$$@@@@@OOOXXXoooo              o oooooXOOO@@@@@$@@@@@@@@@OOOXooooooXXXXOOOO@@@$$$$$$$$$$@@@OOOOOXXXOOOOOOOO@@@@@$$$$$@@@@@@@@OOOOXooooXXXXXXXXoooooooooooooooOO@@$$$$$$$$@@$$@$@$$@@@$$@@@@@@OOXXooXXOOOOOOXXooXooooooooooooooooooooooooooooooooooooooXOO@@@$@$@$@@@@OOOOOOO@@@@OOOOOXXXXXXXXOOXOXXXXXXXXXO@%==***********==**===***===********========*=======*=*$OOOOXOX++OOOX++OOOOO++++++++@@@@@@##@@#############&&&&#++++++@+########&&&&&&&&&&&&&@++++XXXX+++++++#&&&&&&&&&&&&&&&&&&&&&&&&&&&&&&&#&###***==================*==*============*&&&&####***===**=***============*==*=*=====*=====****=**&&&&&+++&&++&&&&&&&&&&&&&&&+++&&++++++++++++++++++++++++++++++++++++++++&&&&&#*#&&&&&&&@&&&@@@&&#&$@@@@&@&&&&@@@@+@+@@@@@@+++++@@@@@@OXXoooooooooooooooXXXOOOOOOOOOXXXXXXXXXXXXXXXXXXXXXXXXXXXXXXXXXXXXXXXXXXXXXXXXXXXXXXXXXXXXXXXXOOOOOOOOOOOO@@@@@##@$$$$$***********=**======@XO#**********==***=====****============**@OoooooooooooooooXXXXOO@@@$$$$$$$$@@@@O@OO@@@@$$$$$*$$@@OOOO@@@@OOXXXXXXXXXXXXXXXXXXXXXXOOOOOOOO@@@$$$$$$$$$$@$@@@@@@@@@$$$$$$$$$$$$$$$$$***********==*****$$$$$$$$$$$$$$$$$*************$$$$$@@@OOO@@@@@@OOXXoooooooooo    oo                                                                        ",
"                             ooooXXXOOO@@@@$$$@@@@OOOOXOOOOOOOOOOO@@@@@@@@@@@$@@$@@@@@@@@@@OOOXXXooo              ooo ooooXXOO@@@@$$$@@@@@@@@@OOOXXoXXXXXXXXOO@@@@$$$$$$$$$@@@OOOOOXOOXXOOOOOO@@@@@@$$$$$$$@@@OOOOOOOOXXoXXXOOOOOXXXooooooo  ooooXOO@@@$$$$$$$@@$@@$@$$$@@$$@@@@@@OOXXXoXXOOOOOOXXooXoooooooooooooooooooooooooooooooooooooXXOO@@@$@$@$@@###$$$%$$$$$$$@@@@@@@OOOOOOOOOXXOOOXXXXX@%==***********=**====*****===******========**========*$@@@@+@@+@@@@@+@@@@@@@@@@@@@@@@@@#########&&&###&&##&##+@+++++++++@++++++++++++++&&&&&@@+++++X++++++++++++++#+&&&&&&&#++#########@@#&&&&###@########****************=*=========##++++####*======*===*====****====**==****=****=**=***==**&&&+#&#&&&&+&&&&++++++++++++++++++++++++++++++++++++++++++++++++++++++++@&&#&&$$&&&&&&@@&&&@@@&&#&@@&@&&@&&&&@@@@@@@@@@@@@++++++@@@@@OXXooo.ooooooooooooXXXOOOOOOOOXXXXXXXXXXXXXXXXXXXXXXXXXXXXXXXXXXXXXXXXXXXXXXXXXXXXXXXOOOOOO@@@@@@@@####$$*$**%*%%******==================**OXO$*****===*===**==****==**====*===**=**$OXoooooooooooooooXXXXXOOO@@$$$$**$$@@@@@OOOOO@@@$$$****$@@OOOO@OOOXXXXXXXXXXXXXXXXXXXXXXOOOOOOOOOO@@@$$$$$$$$$$@@@@@@@@@$$$$@@@$$$$$$$$$$$$$$$**************$$$$$$$$$$$$$$$$$$$$$$****$$$$$$$$$@@@O@@@@@@@OOXooooooooooo    oo                                                                        ",
"                             oooooXXOOO@@@@@$$$@@@OOOOXXOOOOOOOOOO@@@@@@@@@@$$$$$$$$@@@@@@OOXXXoooo            ooo oooooooXXXOO@@@$$@@@@OO@@@@@OOXXXXXXXOOOO@@$$$$$$$$$$@@@OOOOOOXXXXXOOOOO@@@@@$$$$$$$$$@@@OOOOOOOOOOXXXXXXOOO@OOOXXoooooo  oooXXOO@@$$$$$$$$$$@@@@@$$$@@$$@@@@@@OOXXXXXXOOOOOXXXooXooooooooooooooooooooooooo  oooooooooooXOO@@@@@@@@OOOOO@@$$$*********%%$$$$$$$$$$$$@$$@@@OXO@$*=*=*********===========**======**==********========*@@@@@@@@@@@@@@@@@@@@@@@@@@@@@@@++++++++++++++++++++++++++++++++++++++++++++++++++++++++++++++++++++++++++++++++++++++++++++++++++++++++++++++++@@+@@@&&&&&########*************&@++@#******==****====********=***====****==****==*=====*#++++++++++++++++++++++++++++++++++++++++++++++++++++++++++++++++++++++++@&&#&$$$#$#&@@@@@@@@@@@@@@@@@@@@@@&&@@@@@@@@@@@@@@@@@@+OOO@@OOXXooooX.o.ooooooooooXXOOOOOOOXXXXXXXXXXXXXXXXXXXXXOOOOOOOOOOOOOOXXOOOOOO@@@@@@@@@@@$$$$**********====*****$@@@@@@@@@@@@@@@$$$$$$$$$$$$$$$$OO@*=*********==*===***=****===**=**====*@XXooXoXXoooooooooooXXXXXOOO@@$$$$$$$$$@@@@@O@OO@@@$$$$**$$@OOOOOOOXXXXXXXXXXXoXXXXXXXXXXXXXXOOOOOOOOOO@@@$$$$$$$$$@@@@@@@$@@@@$$$$$$$$$$$$$$$$$$$$$$$$$$*****$$$$$$$$$$$$$$$$$$$$$$$**$$$$$$$$$$@@@@@@@@@OOOoooooooooooooo                                                                            ",
"                             oooooXXOOO@@@@@$$$@@@OOOOOXOOOOOOOOO@@@@@@@@@@@$$$$$$@@@@@@@OOOXXoooo             o  ooooooooXXXOO@@@@$@@@OOOO@@@@OOOXXXXXXOO@@@$$$$$$$$$$@@OOOOOOOXXXXXOOOOO@@@@@@$$$$$$$@@@@OOOOOOOOOOOOOXXXXOOO@@@OXXoooo    ooooXOO@@@$$$$$$$$$@@@@@$$$@@$$@@@@@OOOXXXoXXOOOOOXXXooXoooooooooooooooooooooooooo oooooooooooXOO@@@@@@@@OOXXXXOOO@@$$$$$$***********=*==******#@OO@**=***********=*===***==***======*************=**==***$@@@@@@@@@@@@@+++@@@@@@+@+@+@+++++++++++++++++++++++++++++++++++++++++++++++++++++++++++++++++++++++++++++++++++++++++++++++++++++++++++++++++++++++++@@@@@@@@@@@@@$####$***$##+++&##=*======**********==***===****==****==*******==****@++++++++++++++++++++++++++++++++++++++++++++++++&&&&&&&&&&++++++++++++++@@@&#$$$$$@@@@@@@@@@@@@@@@$@@&@@@@@@@@@@@@@@@@@@@@@@@@@@OOOOOXXXoooooo.oooooooooooXXOOOOOOOOXXXXXXXXXOOXOOXXXOOO@@@@@@######@@OO@#$$$$$$$******=====***======**=*==*=***@@OOOOOOOOXXOOOOOOOOO@OOOO@@@@@@OO$***=*******==*===****==*=====******=*$@XooXoXXXXXooooooooooXXoXXXOO@@$$$$**$$$@@@@@OOOO@@@@$$$$**$@OOOOXXXXXXXXXXXXooXXXXXXXXXXXXXXOOOOOOOOOOOO@@@$$$$$$$$@@@@@@@@@@@@$$$$$$$$$$$$$$$$$$$$$$$$$$$$$$$$$$$$$$$$$$$$$$$$$$$$$$$$$$$$$$$$$@@@@@@@@OOOOXooooooooooooo  oo                                                                        ",
"                            ooooooXXOOO@@@@@@@@@@@OOOOOXOOOOOO@@@@@@@@@@@@@$$$@@@@@@@@@@OXXooo                   ooooooooooXXOO@@@$$@@@@OOO@@@OOOOOOOOO@@$$$$$$$$$$@@@OOOOOXXXXOOOOOOO@@@@$$$$$$$$$$$@@@OOOOOXOOOOOOOOOOOOOO@@@@@@OXooooooo  oooXXOO@@$$$$$$@@$$@@@$$$$$@@@@@@@@@@OOXXooXXOOOOOXXXXXooooooooooooooooooooooooooo oooooooooooXXO@@@@@@@@OXXXooXXOOOO@@@@@@@@$$*****==========**@OO@****=************====**==****==*=**=======*=======*==*$@@@@OO@OO@@@OO@@@OOOOO++@@++++++++++++++++++++++++++++++++++++++++++++++++++++++++++++++++++++++++++++++++++++++++++++++++++++++++++++++++++++++++++++++++++++++&&&&+@@@@@#+++++#**===*=****===***============**====****=***==***=**=*#@+++++++++++++++++++++++++++++++++++++++++++++++&&&&&&&&&&&#@+++++++++++++@@#####$$$$$$$@@@$$$@@$$$@$$$$$$$$$@@@@@@@@@@@@@@@@@@@@@@@OOXXXXXXXXXXXXXXXXOOOOOOOO@@@@@@@@@@@@@@@@@$$$$$$$$$$%%**$$$$%****$$@$****===******====****=====*==****===*=*$@OXOXXXXXXXXXXXXXXOOXXXOXXXXOOOO@*=*==********====***==*=*******====*=*#XXXoooXooXXXooooooooooooooXXXOO@@@$$***$$$$@@OOOOO@@O@@@$$$$@OOXXXXXXXoXXXoXXXXoXoooXXXXXXXXXXXXXXXXOOOOOOO@@$$$$$$@@@@@@@@@@@@@@$$$$$$$$$$$$$$$$$$$$$$$$$$$$$$$$$$$$$$$$$$$$$$$$$$$$$$$$$$@@@@@@@@OOOOOOOOXXoooooooooooooooo                                                                          ",
"                            ooooooXXOOO@@@@@@@@@@@OOOOOOOOOOO@@@@@@@@@@@@@@@$@@@@@@@@OOOXXooo                      ooooooooXXOO@@@$$@@@@O@@@@@@OOOOOO@@@$$$$$$$$$$@@OOOOOOXXXXXXXOOO@@@@@@$$$$$$$$$@@@@OOOOOXXXXOOOOOOOOOO@@@@@@@OOXooooooo  oooXXOO@@$$$$$$@@$@@@@@$$$$@@@@@@@@@@OOXXXoXXOOOOOXXXXoooooooooooooooooooooooooooooooooooooooooXO@@@@@@@@OXXXoXXXOOOO@@OOOOOOO@@@@$$$$*********%@OO@*=***********==**====**==****====***======*====*=====*$@@@@@@####@@@@@@@@@@@@@@@@@@@+++++++++++++++++++++++++++++++++++++++++++++++++++++++++++++++++++++++++++++++++++++++++++++++++++++++++++++++++++++++++++++++++++++++++@++@+++++&#*==***=****===***======***===**====***===**==********@++++++++++++++++++++++++++++++++++++++++++++++++&#@@+&&&&&++++++++++++++++@#*************####**#$$*$$*$*****$$$$$#$$###$@@@@@@@####@@@@OO@@@@@@@@@@@####$##@@@@$$$$$$$$%%%%*****========***%%%$*$*****$$$**************=====**==========***======%$@OOXXXXXXXOOOOOXOOOOOOXXOXXOOO@$************=====**=====*=**======****@XoooooXooXXXooooooooooooooXXXXOO@@@$$$***$$@@@O@OOOO@@@@@$$$@OOXXXXXXXoXXXoooooooooooXXXXooXXXXXXXXXXOOOOOO@@$$$$$$@@@@@@@@@@@@@@$$$$$$$$$$$$$$$$$$$$$$$$$$$$$$$$$@$$$$$@$$$$@@$@@@@@@@@@@@@@@O@OOOOOOOOOOOXooooooooooooo oo                                                                           ",
"                             oooooXXXXOO@@@@@@@@@@OOOOOOOOOO@@@@@@@@@@@@@@@@@@@@@@OOOXXXooo                           ooooXXXO@@@@@$@@@O@@@@@@@@@@@@@$$$$$$$$$$@@@OOOOOXOOOOOOOOOO@@@$$$$$$$$$$$@@@OOOOOOOXXXXXXOOOOOOO@@@@$$@@@OOXXoooooooo oooXXOO@@$$$$$@@@@@@@@@@$$$@@$$@@@@@@OOXXXoXXOOOOOXXXXooooooooooooooooo  ooooooooooooooooooooooXO@@@@@@@OOXooooooXXOOOOOOOOOXXXXOOOO@@@@@@#$$$$#@OO@***=****=======*******=====**********================**********************$$##$####@@@@@@@@@@@@@@@@@@@@@@@@@@@@@@@@@@@@+++@@@@@@@@+++++++++++++++++++++++++++++++++@++++++@++++++++++++++++++++++++++++++++++++++&+&&&&&&&++&&++++++&&**==********==********==****=*********==****=====****#@++++++++++++++++++++++++++++++++++++++++++++++++++++++++++++++++++++@+@@@@@#$********************************************************$%*****************=***@@@@@$$$$$$$$$$$$$$$*********$****$*$%*=**$$$******=***========****==**=====*=*===***=%$@OOOOOOOOOOOO@@@@@@@@@@@@@@@@@***************==****=====*==*==**=***$XoooooooooXXXXXXooooooooooooXXXXXOO@@@$$$***$$$$@@@@@@@OO@@@@OOXXoXXXXXXoooooooooooooooXXooXXXXXXXXXXXXOOXOO@@@$$$$@@@@@@@@@@@@@@@@@@@@@$$$$$$$$$$$$$$$$$$$$$$$$$$$@@@@$@@@@@@@@@@@@@@OOOOOOOOOOOOOOOOOOOOXXXooooooooooooooo                                                                            ",
"                             oooooXXXXOO@@@@@@@@@@OOOOOOOOOOOO@@@@@@@@@@@@@@@@@OOOOOXXXo                              ooooXXXO@@@@@$@@OO@@@@@$$$$$$$$$$$$$$$$@@OOOOOOOXXXOOOOOOO@@@@@$$$$$$$$$@@@OOOOOOOOOXXXXXXOOOOO@@@@@@@@@OOOXXooooooooo oooXXOO@@$$$$$@@@@@@@@@@$$@@@$$@@@@@@OOXXXoXXOOOOOXXXXXooooooooooooooo    ooooooooo  ooooooooooXO@@@@@@@OOXXooooXXXOOOOOOOXXOOOOOOOXXOOOOO@@@@@@OOO$***********************===*******=**====**=*====******************=======************########*******************########@@@@@@@@@@@@@@@@@@@@+++@@@@@@++@@@+@@@@@+@+&@@@@@&@@@+++&++&+&+++&&&&&&&&&+++&&+&&&+&&++&&&&&&&+&+++++&++++&&&#**===***=**===************************==****===*=*=**#+++++++++++++++++++++++++++++++++++++++++++++++++++++++++++++++@@@@@@@@@###@####$$***************************************************************************@OOOO@@@@@@@@OOOO@@@@@@@@$$$$$*=======****$$$*******=*=========****==**=====*======****$@@@@@@@@@@@@@@@@@@@@@##@@@@@@$****************=**=*=*============***$XoooooooooXXXXXXXXXooooooooooooXXXOOO@@@$$****$$@@@@O@OO@@@@@OXXXXooooXoooooooooooooooooooXXXoXXXXXXXXXXXXOOO@@$@$$@@@@@@@@@@@@@@@@@@@@@@@$$$$$$$$$$$$$$$$$$$$$$$$$@@@@@@@@@@O@@@@@@OOOOOOOOOOOOOOOOOOOOXXoooooooooooooo ooo                                                                            ",
"                             oooooXXXXOO@@@@@@@@@OOOOOXXOOOOOOOOOOOO@@@@OOOOOOOXXXXooo                               ooooooXOO@@@@@$@@@OO@@@@$$$$$$$$$$$$$@@@OOOOOOOOXXXOOOOO@@@@$$$$$$$$$$$@@@OOOOOOOOOOOOOOOOOXOOO@@@@@@@@OOOOXXXoo   o ooooooXXOO@@@$$$$@$@@@@@@@@@$@@@$$@@@@@@OOXXXoXXOOOOOXXXXXoooooooooooooooo ooo ooooooo o    oooooXOO@@@@@@@OXXoooooXXXOOOOOOOOOOOOOOOOXXXOOOOOOO@@@OO@$***====*******=******==****=******=*******=========***$$$$$*************************$$$$$**********=====*****==********#####################@#########&&&&&#&&&&&&&&&&&&&&&&&&&&&&&&&@&&&&&&&#####&&&&&&&&&&&&&&&#&#&&&&&&&&&&&&&&&&&#****====*====***********===**********====*====***=****@@@@@@@@@@@@@@@@@@@@@@@@@@@@@###&#@#&####$#####$#$#$###########************************************************************#@@@$*****************************%@XXXXOO@@@@OOOXXXXXXXXXOOOO@@$=-;;;;;-==*$@@$*==********========**===**====**======*****$@@@@@@@@@@@@@@@@@@@@@@@@@@@@$***********==**=*****=*==========****#@oooooooooooXXXXXXXXoXXXoooooooooXXXXOOO@@@$$****$$$@@@@@@@OOOOXXXooooooooooooooooooooooooooXXXXooXXXoXXXXXOOO@@$$$@@@@@@@@@@@@@@OOO@OO@@@@@@@@@@@@$$$$$$$$$$$$$$$$@@@@@@@OO@@@@@OOOOOOOOOOOOOOOOOOOOXXXXXXoooooooooooooo                                                                                ",
"                             oooooXXXXOO@@@@@@@@OOOXXXXXXXOOOOOOOOOOOOOOOOOOOXXoXoooo                                oooooXXOO@@@@$$@@@@OO@@@$$$$$$$$$$$$@@OOOOOXXXXXXXOOO@@@@@@$$$$$$$$$$$@OOOOXXXXOOOOO@@@@OOOOOO@@@@@@@@OOOOOXoooo       oooooXOO@@@$$$$@$@@@@@@@@@$@@@$$@@@@@OOOXXXoXXOOOOOXXXXXoooooooooooooooooooo  ooooooo     ooooooOO@@@@@@@OXXXooXXXXXOO@@@@@@@@@@@@@@@@@@@OOO@@@@OOOO$$$*******************==****===*************=*=*==*****$$$$$$$$$******************$$@@@@@@$$$*******===================******#####@@@@$$#####$$$########&&&#######&&&&&&###&&&&&####&&#########******#***=**************####&&&:&&&&&##***==****====*=********======*=*=****========*******===##############****########***==*##&&#=================*=====**===*===*****====*****=**$##@#$$$$$$*************************@OO@$*******************====******%@XXXXOOOO@@@@OOXXXXXXXXOOOOO@@$=;;;;;;;;==$$$*=*****=***=======****=***====****====*****$$$@@@@@@@@@@$$$$$$$$$$$$@@@$*************=====****=====***********#Oooooooo ooooXXXXXXXXXXXXXoooooooooXXXXOO@@@$$$****$$$@@@@@OOOOXXXXXXoooooooooooooooooooooooXXXXooXXXXXXXXXOXO@@@$@@@@@@@@@@@@@@@OOOOOOOO@@@@@@@@@@@@@$$$$$$$$$@@$@@@@@@@OOOO@@@@OOOOOOOOOOOOOOOOOOOOXXXXooooooooooooo oo                                                                                ",
"                             oooooXXOOOO@@@@@@@@OOXXXXXXXXXXXXXXXXXXXXXXXXXoooo                                     oooooooXOOO@@@$$@@@@OO@@$$$$$$$$$@@@OOOOOXXXOOOOOOOO@@@@$$$$$$$$$$$@@@OOOXXXOOOOO@@@@$$$@@@OOO@@@@@@OOOXXXXXXoooo       ooooXXOO@@$$$$$$$$@@@@@@$$$@@@@@@@@@@@OOXXXoXXOOOOXXXXXXoooooooooooooooooooo     ooo oooooooooooOO@@@@@@@OOOOXXOOOOOO@@@@@@@$$$$$$$$**********$$$$$$$$$*******************=*****==****====******===*******=****************************$$$$$$$****============================****$$*$$$$$$$@$$$$$$$$$********************=*================================================================***===******====****========**====******==******======================================**#*============**===========*=*****==**********=****@@OOO+OOO@@@@OO@@@@@@@@@@@#####$$$$#@+.X@$*********************==*===**$@XXXXXXOOOOOOXXXXXXXXXXXOOOO@@@%=;;;;;;;;==*******=*=****====*******=**===******====*==************************=**$*************==*==******====**********##OooXXXoooo oooooooXXXXXXXXXXXXooooooXXXXXXOO@@@$$$****$$$$@@@OOOOOXXXXoooooooooooooooooooooooXXXooooXoXXXXXXXXOO@@$$@@@@@@@@@@@@@@OOOOOOOOOOOOOOO@@@@@@@@@@@@@$$$@@@@@@@O@@@OO@OOOOOOOOOOOOOOOOOXXXXXoXXXXoooooooooooo   oo                                                                               ",
"                             oooooXXXOO@@@@@@@@@OOXXoooooXXXXXooXoooooooooooo                                       oooooooXOOO@@@$$@@@@@O@@$$$$$$$@@@OOOOOOXXXXXXOOOOO@@@$$$$$$$$$$$$@@OOOOOOOOOOOO@@$$$$$$@@@O@@@@@@OOOOOXXXXXXoooo       oooooXOO@@$$$$$$$$@@@@@@$$$@@@@@@@@O@OOOXXooXXOOOOXXXXXXoooooooooooooo ooooo    ooooo ooooooooooXO@@@@@@@OOOXXXOOO@@@@@@@@$$$$$$$********===========================******==***===****===============**============================================*==***===**===***=======================================;====;;;;;;;;;;;;;;;;;;;;;;;;;;=;;;;====;=;;;==;;;;=======================;;;===*==****=*****====***========***=====***************===================================*$###*=*=====*******==========****==******************@XXXOXXXXXXXXXXXXXXXXXXOOOOO@O@@@@@@OX.O#%***************====*===*****=$@XXXXXXXXXXXXXXXXXXXXXXXXXXXO@O@@#*=*======*=****=********=********===*====******===*=***===***==================***=****=****===*=*===***=======**$$$$@@@OooooXXXXoo   oooooXXXXXXXXXXXXXoooooooXXXXXXOO@@@$$$****$$$@@@OOOOXXXXooXoooooooooooooooooooooooooooooXXXXXXXXOO@@$$@@@@@@@@@@@@@OOOOOOOOOOOOOOOOOOO@@@@@@@@@@@@@@@@@@@@@O@@OOOOOOOOOOOOOOOOOOOOXXXXooXooooooooooooooo   oo                                                                               ",
"                             oooooXXXOOO@@@@@@@@OOXXoooooooo    oooo                                               ooooooooXOOO@@@@@@@@@@@@@$$$$@@@OOOOOOOOOOOOOOOO@@@$$$$$$$$$$$$@@@OOXXXXXXOOO@@@@$$$$$$@$@@OOOOOOOOOOXXXXXXXXXooooo    ooooooXXOO@@$$$$$$$$$@@@@@$$$@@@$@@@@O@OOOXXoooXOOOOOXXXoooooooooooooooooo  oo   o  oooooo    ooooXO@@@@@@@OOOoooooXXX@@@@@#$$**%%%**************=======================*=*******==*****=***=====================;;;;;;;;=;;;;;;;;;;;=-===========***********===******======****==****=====================;;;;;==============================================================================*****=***======***==*=====*=************************####&&&&&&&#########*************#&&@#***==*=****===**************==******************#OX.XXX.X.XXX...XXXXX...........XXXX..oX@*******************************$OXXXXXXXXXXXXXXXXXXXXXXXXXOXXOOOOOO@@@@####*****=****=*****==*=*=***==*==********==**=*=****=*===***=*==***=====*$$*=*=**=****=*****=*==*==*****$@@@OXXXXXooXooooXXXXooo oooooooXXXXXXXXXXXXXooooXXXXXXXXOO@@@$$$****$$$@@@@OOOXXXXXXoooooooooooooooooooooooooooXXooXXXOOOO@@$$$@@@@@@@@@@@@OOOOOOOOOOOOOOOOOOOOOOO@@@@@@@@@@$$@@@@@O@@OOOOOOOOOOOOOOOOOXXXXXXXXXooooooooooooooooooooo                                                                               ",
"                              ooooXXXOOO@@@@@@@@OOXXooo                                                            ooooooooXOOO@@@@@@@@OOO@@$$$$@@OOOOOOOOOOOOOOOO@@@@$$$$$$$$$$$$@OOOOOXXXXOOO@@@$$$$$$@@@@@@OOOOOOOOOOXXXXXXXXooooooo   ooooooXXOO@@$$$$$$$$@@@@@@@$$@@@@@@@@O@OOOXXoooXOOOOOXXXoooooooooooooooooo  oo   o  oooooo    ooooXO@@@@@@@OOXXXooooXXOOOOOOO@@@@@$$$$$********************$$$$******=***=**=*==**=******=========**********==================================******==********==*=***=======****==*=**********$**$$###$$$$****$$$$$##$$$$$#####$##$$$#####$$$#####$*$#*******************==========*==**##***=****=*****=*==****===***=*****==*******************@@@@@@@@@@@@@@@@@@@@@@@@$######$$$#@@#****==*=***====*******=***====******************$@XX.XXX...............................XO$*******************************$OXXXXXXXXXXXXXXXXXXXXXXXOOOOOOOOO@@@@@@@@@@$****=****=**=*****=*=*=*=*====*******===*=**$@$$$$$$$$$$$$$$*******$$@@$=*****$$$$***=***=====***=*#OXXXXXoooooooooooooXXXooo  oooooXXXXXXXXXXXXXXXooooXoXXXXXOOO@@@$$*****$$@@@@OOXXXXXXoooooooooooooooooooooooooooXXoXXXXXXOO@@$$@@@@@@@@@@@@@OOOOOXXOOOOOOOOOOOOOOOOOOOO@@@@@@$$$@@@@@@@OOOOOOOOOOOOOOOOXXXXXXXXXooooooooooooooooooooo                                                                                ",
"                              ooooXXXOOO@@@@@@@@OOXooo                                                            oooooooooXOO@@@$$$@@OOOO@@@@@@@@OOOOOOOOOOOO@@@@@$$$$$$$$$$$$$@OOOXXXOOOOOO@@@$$$$$$$$@@@@@OOOOOOOOOOOXXXXXXXXooo oooo   o oooXXOO@@$$$$$@$$$$@@@@@$@@@@@@@@@O@OOOXXoXXXOOOOOXXXXooooooooooooooooooooooo  oo oooooooooooooXO@@@@@@OOOXooooooooooooXXXXXXXOOO@@@@@@#$$$****************$*$$$@@@%***=*=***=*=*****==**$$@@@@@@@@@@@@@@@@@@@@@##@@@@@@@@@@@@@@@@@@@@@***==***************==========******=====*===**@@@@@@@@@@@@@@@@@@@@@@@@@@@@@@@@@@@@@@@@@@@@@@@@@@@@@@@@@@@@+++@+######@##&&&&#&#&&##########&#@@$********=***=====************==**************==*=**=*#@++++++++++++++++++++++++++++++@#@+++#**=**=*=***********=*=**************************$OX............................XX......O@*****************=**=*==****==**$@OOOOOOOO@@@@@@@@@@$$$$$$$$$$$$$$****$@OO@$*************=****==*=*=======*==***=*==***=$OXXXXXXXXXXXOOOO@O@OOOOOXXO@#@@@@@OOO$*=*=***======****@Xooooooooooooooo  ooXXXooo ooooooooXXXXXXXXXXXXXoXXoooXXXXXXOOO@@@$$$***$$$$@@@OOOXXXXXXXooooooooooooooooooooooooXoXXXXXXOO@@@@@@@@@@@@O@@@@OOOOXXXXXOOOOOOOOOOOOOOOOOO@@@@@@@@@@@@@O@@OOOOOOOOOOXXXXOOXXXXXXXXXoooooooooooooooo o oo                                                                                ",
"                              ooooXXXXOO@@@@@@@OOOXooo                                                            oooooooooXOO@@@$$$@@OOOOO@@@@@@OOOOOOOOOOOOO@@@@@$$$$$$$$$$$@@OOOOXXXOOOO@@@$$$$$$$$$$@@@@OOOOOOOOOOOXXXXXXXXXooo ooo       oooXOO@@$$$$$@$$$$@@@@@@@@@@@@@@OO@OOOXXoXXXOOOOOXXXXoooooooooooooooooooooooo  o o ooo oooooooXOO@@@@@OOXXooooooooooooooXXXXXXXOOOOOOOOO@@@@@$$$$$$***********$@O@$***********==*****=**#@@######@@@@@@@@@@@@@@@@@@@@@@@@@@@@@@OOOOO@#*=====******=*******==*******************====**#@@@@OO@@@@@@@@@@@@@@OOOO@@@@@@O@@@@@@@@@@@@@@@++++@++++++++++++++++++++++++++@++++++@@@@@@@@#@@#********==***=====**************#########***$*********#@++++++++++++++++++++++++++++++++++++$*****=*********=***===**************************@XX............................Xo......@$*****************==*=*=*****==**$@@##$##$$$$$%$$$$%%**************====*@O@@$*********************=**=====**===**====***=$OXXXXXXXXXXXXXXXXXXXXXXXXXXOOOOOXXXOO$*=*=**==*===****$XXoo o     ooooo.o.oooXXXXoooo  ooooooXXXXXXXXXXXXXXooXXXXXXXXOOO@@@@$$$****$$@@@OOOXXXXXXoooooooooooooooooooooooooooXXXXXOO@@@@@@@@@@@@OO@@OOOOXXXXXXXXOOXXOOOOOOOOOOOOOO@@@@@@@@@@OOOOOOOOOOOOOOXXXXXXXXXXXoXXXooooooooooooooo                                                                                      ",
"                              ooooXXXXOO@@@@@@@OOOXooo                                                            oo ooooooXXO@@@$$@@@OOOOO@@@@@@@OOOOOOOOOOO@@@$$$$$$$$$$$$@@OOOOOOOOOO@@@$$$$$$$@$$@@$@@@OOOXXOOOOOOOXXXXXXXXXooooooo o     ooXOOO@@@$$$$$@@@@@@@@$$@@@@@@@@@@OOOOXXXXXXOOOOXXXXoooooooooooooooooooo  oo    oo  ooooooooooXOO@@@@@OOXXooooooooooooooooooooooooooooooooXXXXOO@@@@#$$$%%****@OXO$*********=****=*==***#@@@@@####$$$$$$$$$$$$#@@@@@@@@@@@@@@@@OOOOO@$****=*****=*==****====********************====*$@@@O++++O++++++OOO++OOOO++++OOOOO+++++++++++++++++++++++++++++++++++++++++++++++++++++++++++++@&***=**********====*******###&&&@++++@@@@@@@@@@##$$$**#@+++++++++++++++++++++++++++++++++++++**=***=*************=****************************@XXXXXXXXXXXXXXXXXXXXXXXXXXXXXOOOOXXXXO$****************======**=****===*$@@@@@####$$$$$$%***************======%@OO$************=************====**=========*****@XXXXXXXXXXXXXooXXXXXXXXXXXXXXXXXXXoX@*=**====***=*****@Xo  o      .oooo..o.. ooXXXooo oooooooXoXXXXXXXXXXXXoooooXoXXXoXXOOO@@@$$*****$$@@@OOOXXXXooooooooooooooooooooooooooXXXXXXOO@@@@@@@@@@@@OOOOOOOOXXXXXXXXXXXXXOOOOOOOOOOOOOO@@@@@@@@@@OOOOOOOOOOOOOOOXXXXXXXoooooooooooooooooooo                                                                                       ",
"                              ooooXXXXOO@@@@@@@OOOXooo                                                            oo ooooooXOO@@@$@@@@OOOOOO@@@@@@@OOOOOOOO@@@@@$$$$$$$$$$@@OOOOOXOOOO@@@@$$$$$@$$$$$@@@@@@OOOXXOOOOOOOXXXXXXXXXoooooo  o     ooXOOOO@@$$$$$@@@@@@@@$$$@@@@@@@@@OOOOXXXXoXOOOOXXXXoooooooooooooooooooooo o  oooo  ooooooooooXOO@@@@@OOXXXoooooooooooooooooooooooooooXXXXXXXXXXXXOOOO@@@@#$$$@OXO$**********=*****===**@OOOOOOOOO@@@@@@$$****$$$$$$**$$*$$$*$@@OOO@$****==*****====****==**********************=====*@@OOOO++OOOX++XXOXX+XXXO++++XXXXXXXX++++++++++++++++++++++++++++++++++++++++++++++++++++++++++@#******====****====****=*$@@+@@++++++++++@@@@@@@@@@@@#@+++++++++++++++++++++++++++++++++++++#**********************==*************************#@@@@@@@@@@@@@@@@@@@@@@@@@#######@OX.O@*******=********=====*====****===*$@OXOOOOOOOOO@@@@@@$$$$$$$$***********@OO@$*****=***********$$*$*$$**==============****%@XXXXXXXX.XooooooXXXXXXXXXXXXXXOOXXoX@*=**=*======****$Oooooo      ...oo..oo. oooXXXXooo oo ooooooXXXXXXXXXXXXooooooooXXXXOOOO@@$$$****$$$@@@OOOXXXoooooooooooooooooooooooooXXoXXXOO@@@@@O@@@@@OOOOOOOOOXXXXXXXXXXXXXXOOOOOOOOOOOOO@@@@$@@@@OOOOOOOOOOOOOOOXXXXXXXoooooooooooooooooooo                                                                                        ",
"                             ooooooXXXOOO@@@@@@OOOXXoo                                                               ooooooXOO@@@@@@@@OOOOOO@@@@@@@@@@@@@@@@$$$$$$$$$$$$@@OOOOOOOOOO@@$$$$$$$$$$$$@@@@@@@@OOXXXXOO@@@OOXXXXXXXXXooo      o    ooXOOO@@$$$$$@@@@@@@@@$$$@@@@@@@@@OOOOXXoXXXOOOOXXXXoooooooooooooooooo  oooo  oooo oooooooooooXOO@@@@@OOXXoooooooooooooooooooooooooooooooooooXXXXXXXXXXXOOO@@@@XXO$*********==*******==*@OXXXXXXXXXXXOOO@@@@@$$$$$*******=****$@OOO@%****====**====****===**************==*********==*#@OO+O++OOOO++XXO+++++OOO+++X+++X+XX++++++++++++++++OO@@@@@@++@@+@@@@@@@@@@@@@@@@@@@++++++++++@#*=*****=====**********=*##+++++++++++++++++++++++@@@##++++++@@++++++++++++@@+@+++@@+@++++++&*******===****************************************$$%%%%%%******%$%%%%%*$$$$*****$@OXX@#************************===***==**#OXXXXXXXXXXXXXXOOOOOOOOO@@@@@@@@@@@@@OXO@%*********==*****$@@@@@@@@*****===***=======*@XXXXXXXXXXXXXXXXXXXOOOOO@@@@@@@##@OX@#***=****===*****@X o.   o       oooo.o. .oooXXXXoo      oooooXXXXXXXXXXXXXXXooooooooXXOOOO@@@$$$***$$$@@@OOOXXXXoooooooooooooooooooooooXooXXOO@@@@OOOO@@@OOOOOOOOOXXXXXXXXXXXXXXXXOOOOOOOOOOO@@@$$@@@@OOOOOOOOOOOOOOXXXXXXXXoooooooooooooooooooo                                                                                        ",
"                             ooooooXXXOOO@@@@@@OOOXXooo                                                              ooooooXOOO@@@@@@@OOOOOO@@@@@@@@@@@@@@$$$$$$$$$$$$$@OOOOXXXOOOO@@@$$$$$$$$$$$$@@@@@@@OOOXOXXOO@@@OOOXXXXXOXXooo      o   oooXOOO@@$$$$$$@@@@@@@@$$$@@@@@@@@@OOOOXXooXXOOOOXXXXooooooooooooooo     ooo   ooooooooooooooooXXO@@@@@OOXXooooooooooooooooooooooooooooooooXXXXXXXXooXXXXXOXXXOOXXX$******=*===****=*****@OXXXXXXXXXXXXOOOOOOOO@@@@$$$$$*****=*#OXX@$***==*==***=====**************===***==************$@@OOO++OOOO++XXO+++++XOO+++++++++X+++++++++@@@@@@@@@@@#@@##@@#########@@@###@###########+++++@#********==**************##++++++++++++++&&&&&+&&&&&&@##+&&&&#&###&###&&#&#######&####&&#++@&****=**==*******==*******************************$%*#$%**************************$OXXX@******=*************=***===****==**@OOXXXXXXXXXXXXXXXXXXXXXXXXXOOOOOOOOOOOX@#******=***==*****$@XXXXXX@*=*********=======*@XXXXXXXXXXXOOO@@@@@@@@##$$$$##***#OX@%**==**=*===****%OX. ooo o.  o.  oooooo. . oooXXXXoo       oooooXXXXXXXXXXXXXooooooooXXXXOOO@@@$$*****$$$@@@OOXXXoooooooooooooooooooooooXooXXOO@@@@OOO@@@@OOOOOOOOOXXXXXXXXXXXXXXXXXXOOOOOOOOOO@@$$$@@@@@OOOOOOOOOOXXXoXXXXXooooooooooooooooooooo                                                                                        ",
"                             ooooooXXXOO@@@@@@@OOOXoooo                                                            oooooooXXOOO@@@@@@@OOOOOOO@@OO@@@$$$$$$$$$$$$$$$$@@OOOOOOOOOO@@@@$$$$$$$$$$$$$@@@@@@@@OOOOOOO@@@@@OOXXXXXXOOXooooo   oo   oooXOOO@@$$$$$$$$@@@@@@@$@@@@@@@@@OOOOOXXooXXOOOOXXXXXooooooooooooo      ooooo   oooooooooooooooXO@@@O@OOXXoooooXXXXXXXXXXXXXXXXXXoXXXXXXXXXXXXXXXXXXXXXXXXXXXX.oXX@******=***=********=*@XXXXX.XXXXXXXXXXXXXXXXXXXOOO@@@@@@@@#@XXX@*****====****==****=*************==**==**=*==*=**==*#@OXOOOOOOOOXXXX+++++XX+OXXXXXXXXX+XXX++++@@@@@########******=*==************************+@++#*****==**=******==****=**#@@@@@@@@@++@++++##&&&#######*************=*******************##++@#******==*******=====**=*************************#@@@@@@@@@@@#######**************@XXO@$=*******************=*******=****=*@OXXXXXXXXXXXXXXXXXXXXXXXXXXXXXXXXXXXXOO@******************@+XXX..O@****==****=*==****$@@@@@@@$$$$$$$********************@OO$****=*******=**%$Xo      o       oooooooooo..oooXXXXooo      ooooXXXXXXXXXXXXooooooXXooooXXXOOO@@$$*****$$$@@@OOOXXooooooooooooooooooooooooXXOO@@@@@OO@@@@OOOOOOOXXXXXXXXXXXXXXXXXOXXXXOOOOOOOO@@$$$$@@@@OOOOOOOXXXXXXXXXoooooooooooooooooooo                                                                                            ",
"                             ooooooXXXOO@@@@@@@OOOXoooo                                                            ooooooooXOOO@@@@@@@OOOOOOO@@OOOO@$$$$$$$$$$$$$$$@OOOOOOOOOO@@@@$$$$$$$$$$@@@@@@$$$$@@@OOOOOOO@@@@@OOXXXXXXOXXooooo   o    oooXOOO@@$$$$$$$$@@@@@@@@@@@@@@@@@OOOOOXXoooXOOOOOXXXXooooooooooooo      ooooo  ooooooooooooooooXO@@@OOOOXXooooXXXXO@@@@@@@OO@OOOOOOXXXXXXXXXXXXXXXXXXXXXXXXXXXXXXX#%*****=***=**********@XXXXX..XXXXXXXXXXXXXXXXXXXXXXXOOOOOOOOXX@$*****====****==****=*****************===*===******=*#@OOOOO++++++++++++++O++X+XXX++++++++++++++++@@@@@@@@@@@@@#$$***********=****************@@+@$********==*******=********########@&@#&&@+@@#@@@@@#&&#######$**************************##++@#***************=*==*****************************@@OOXXXXXXXXOOOOO@@@@@@@@@@#$$$$@@XX@#*=*****************==******===******@OXXXXXXXXXXXXXXXXXXXXXXXXXXXXXXXXXXXXO@$*=****************@XXXXXXO#**=*==******===***$@@###$$$$$$$$********************$@O@*****===*****=**%@oo              ooooooooo   oooXXXXXoooo    ooooooXXXXXXXXXXXXXoXXXoooooXXXXOOO@@@$$*****$$@@@@OOOXoooooooooooooooooooooooXXOO@@@@@OO@@@@OOOOOOOOXXXXXXXXXXXXXXXXXXXXOOOOOOOOO@@@$$$@@OOOOOOOOXXXXXXXXXXoooooooooooooooooooo                                                                                            ",
"                              oooooXXXOOO@@@@@@OOOXXoo                                                            oooooooooXOO@@@$@@@@OOOOOOOOOOOOOO@@$$$$$$$$$$$@@OOOOOOOOOO@@@$$$$$$$@$$@@@@$$@$$$$$@@@OOOOOOO@@@@@OOOXXXXXOOXoooooo  o    oooXXOO@@$$$$$$$$@@@@@@@$@@@@@@@@@OOOOOXXoooXOOOOOXXXXoooooooooooo o oo ooooo    oo oooooooooooXXO@@@O@OOXXooooooooXXOOO@@@@#$$$$$$$$$$$$@@@@@@@@@@@@OOOOOOXXXXXXXX#%*=***=****==********@XXXXXXXXXXXXXXXXXXXXXXXXXXXXXXXXXXXXXXXX@*****=*===****==******$$$$#$$$$$*******=***=*******=*$@@@@++O+++O+OOOO+++++O++++++X+++++++++++XX+++++++++++++@@@@@@@@@@@###$******************@@+&$******==*******=*=******=*******%******@@@@@@+++++++@+@@@@@@@@@@@@@##$$*****************@@@#********=**======********************************@@+X+++XXXXXXXXX.++++++++++++++O+XXO@************==***$$$***=*=***==*=****@OOXXXXXXXXXXXXXXXXXOXXXXXXXOOOOOOXXOOO@$*************=***#O.+++.X@*========****==*=*$@@@@@@@@@@@@@@@@@@@###########$$*$@OO#***=======******#Oooo    o   ooooooooooo       oooXXXXXXoooo  o  oooooXXXXXXXXXXXoXXXXooooXXXXXXOOO@@@$$****$$$$@@OOOOXXXXoooooooooooooooooooXOO@@@@OOO@@@@@OOOOOOXXoooooXoooXXXXXXXXXXOOOOOOOOO@@@@@@@@OOOOOOOOXXXXXXXoooooooooooooooooooooo                                                                                             ",
"                              oooooXXXOOO@@@@@@OOOXXoo                                                            ooooooooooOO@@@$@@@@OOOOOOOOOOOOOOO@$$$$$$$$$$@@OOOOOOOO@@@@@$$$$$$@@@@@@@@@$$$$$$$$$@@@@OOOOOOOOOOOOOXXXXXOOXooooo        oooXOOO@@$$$$$$$$@@@@@@$$@@@@$@@@@OOOOOXXoXoXOOOOOXXXXoooooooooooo oooooooooo    oooo  ooooooooXXO@@@O@OOXXooooooooooooooXXO@@@@@$$$%$*******$$$$$$$$$###@@@@@@OXXX$%*=**==****==********@XXXXXXXXXXXXXXXXXXXXXXXXXXXXXXXXXXXXXXXX@*******===****=====*$$@@@@@@@@@@$$************===*****@@@+++++++++OOO+++++++++++++++++++XX++++++++X+++XXOXO+++@+@@@@@@@@@@@@@@$$$***$$********@@+&****************===***********************$###+++++++++@@@@@@@@@@@@@@@@@@@@@@$$$$*$$****#@@@#************=**=*********************************@@+++++X++++++++XXX++++++++X++XX+.X@$***********==**=$@@@*=*===***====****@OXXXXXXXXXXXXXXXXXXOOOOOOOOOO@@@@@OOO@@**************=**$@X++++X+@***======*********@OOOOOOOOOOOOOOOOOOOOOOOOOOO@@@@@@@OO@%=**=======******@Xoooooo     ooXXXXXXXooo      oooXXXXXXXooo      ooooooXXXXXXXXXXXXXXXXXXoXXXXXXXOO@@@@$$****$$@@@@OOOXXXXXXooooooooooooooooXOO@@@@OOO@@@@@OOOOOOXXoooooooooXXXXXXXXXXXOOOOOOOO@@@@@@@@OOOOOOOOXXXXXXoooooooooooooooooooooo                                                                                              ",
"                             oooooooXXOOO@@@@@@@OOXXoo                                                            oooooooooXOOO@@$$@@@OOOOOOOOOOOOOOOO@@$$$$$$@@OOOOOOOOO@@@@$$$$$$$@@@@@@@@$$$$$$$$$$@@@@@@OOOOOOO@OOOOOXXXXOXXooo o         oooOOO@@$$$$$@@@@@@@@@@$$@@@$@@@@OOOOOXooooXOOOOOXXXoooooooooo    ooooooooo    ooo     oooooooXXO@@@@@OOXXooo  oo   ooooooooXXXXOO@@@@$$$$****************$$$$@OX@$***********===*=****$@OOOOOXXXXXXXOXXXXXOOOXXXXXXXXXXXXXXXXXX@#*******=******=====*@@OO@@@@@@@@@$****==*******==*****#@@@@@@@@@@@O@++++OOOOOOOO+++++XX++++++++++++++++++++++++++++++++++++++++++@@@@@####$$**@@@&************==*******************************%###@++++++++++++++++++++++++++++++@###&#&#@@++##**************==*********************$$$$********#@@+++++++X+++++++++++++++.X++++X@#************=**=*#OO@*=*********====**@@OOO@@@@@@@@@@@@@@@@@$$$$$$$$$***#@OO@#*****************$@O++OOO@**============**=*$@XXXXXXXXXXXXXXXXXXXXXXXX.X.X.XXXXXXO#****====*====***$OXooo        oooXXXXXXXX..oo...oooXXooooooooo       ooooooXXXXXXXXXXXXXXXXXXooXXXXXXOOOO@@@$****$$$@@@@OOOOOOXXXoooooooooooooXOO@@@@OOO@@@@@OOOOOOXXXXooooooooXXXXXXXXXXOOOOOOOO@@@$$@@@OOOOOOOOXXXXXooooooooooooooooooooooooo                                                                                            ",
"                             oooooooXXOOO@@@@@@OOOXXoo                                                             ooooooooXOOO@@$$@@@OOOOOOOOOOOOOOOOOO@@@@@@@OOOOOOOO@@@@@@@$$$$@@@@@@@@$$$$$$$$$$$$$$$@@OOOOOOO@@@OOOOOXOXXXXooo o         oooOOOO@@$$$$@$$@@@@@@$$$@@@@@@@@OOOOXXooooXOOOOOXXXoooooooooo    o ooooooo     oo      ooooooXXO@@@@@OOXXooooooooooooooooooXXXXXXOOOOO@@@$$$$$***************$@O@$********=====**=*****#@@@@@@@@@@@@@@@@OOOOOOOOOOOOOOOOOXXXXXX@#**===*******=**=**=*$@@@@@@@@@@@$****==*********=******$@@@#####@@@@@@@@@@@@@@@@@@+@#######&#@@@+@+++++++++++++++++++++++++++++@++@@@@@@@@@@@@@@#&*************************=*=******************####&&&&+++++++++++++++++++++++++++++++@@@@@++####@@#@####$$***********************$$@@@********=*#@@+++++++++++++++++.X+++X++++X+@#***=********=**=$@OO@*=***************$####$##$$$$$$$$$*****************#@OO@$==***************@XXXXXX@#****===*==**==*=*$@OXXXXXXXoXXXXXXXXoXXXXXXXXXXXXXXXXXX@******=======***%@oooo           ooo.oXXXX..ooo.o.ooXXooooooXoooo       oooooXXXXXXXXXXXXXXXXXoooXXXXXXXOO@@@@$$$***$$@@@@OOOOOOOXXXXXooooooooooOOO@@@OO@@@@@@OOOOOOXXXXooooooooooXXXXXXXXXOOOOOOO@@@$@@@@OOOOOOOOXXXXXoooooooooooooooooo o ooo                                                                                             ",
"                             oooooooXXOOO@@@@@@OOOXXooo                                                              ooooooXOOO@@@$@@@OOOOOOOOOOOXXXXXOOOOOOOOOOOOOOOO@@@@@@@@@@@@@@@@@@$$$$$$$$$$$$$$*$$@OOOOXXOO@@@OOOOXXOXXXXooooo       oooooOOOO@@$$$$@$$$$$@@@@$$@@@@@@@OOOOOOXooooXOOOOXXXXoooooooooooo o      oo        o     oooooooXO@@@OOOOXXoooooooooooooooXoooXXXXXXXOOOO@@OO@@@@##$$$$*********@O@$*******=======****=**#@@@@@#@##$$$$$$$$$$$$$@$$$$@@@@@@@@OOXX@$*===**=****=****===***************=***=*===**********=****================**#########=:::::::::::&&#++++++++++++++++&&&&&&&&&&&&&&&&&&&&&&&&&&&&##********************************************=======::&&&&&&&&&&&&&&&&&&&&&&&&&&&&&&&&&&&&&&&&&&&&&&&&&&&&#**===*******************&&$$********===*@@OOXXXXXXXXXXXXXOOOOO@O@OOOO@$*****=*******=***@O++$*=***==***==*****$$#$*$****$$*************=**===*=*#@XO@*=*******=********@OO@@@@$***===*******==***@OOXX......................oXXXXXXXX.O#******==**==****#Oooo              .   oooo  o..ooooooooo oooooooo        ooooXXXXXXXXXXXXXXXXXoooXXXoXoXXOO@@@@$$*****$@@@@@@@@@OOOXXXooooooooXXOO@@@OOO@@@@@@@@@@OOXXoooooooooooXXXXXXXXXXOOOOOO@@@$$@@@OOOOOOOXXXooooooooooooooooooooo   o o                                                                                             ",
"                             oooooooXXOOO@@@@@@OOOXXooo                                                              ooooooXOOO@@@@@@@OOOOOOOOOOOXXoXXOOOOOOOOOOOOOOOOO@@@O@@@@@@@@@@@$$$$$$$$$$$$***=*$@@OOOXXOO@@@@OOOXXXXXXXXooo o         oooXOO@@@$$$$@$$$$$@@@@$$@@@@@@@OOOOOOXXoooXOOOOXXXoooooooooooo  o      oo        o    o ooooooXO@@@OOOOXXooooooooooXoooooooXXXXXXXXOOOOOO@@@@@@@@@@@@@@$$*****@O@$**=****=======*******@OOOOOO@@@@@##$******************%##@OXO@%**==**===**=****=*=****************=***=*=*****===*************=******==***##@@@+@@@@###&####::::::&@++++++++@++&&&&::::::::::::::::::::::::::::::=****************************=*****************=====::::::::::::::::::::::::::::::::::::::&&&&&&&&::::&&&&**********************=*****====*****==*#@@OO+++++++@@@@@@@@@@#@@@+XO@***=**=***==******@O++$*=*****=====****$@@@@@@@@@@$$$$$$$$$$$%************#OX@$*=*******==*******$$$$%********==******==**$@XXXXXXX...oX..............XXXXXXXXXX@#**********==****@Xoo                    oo       .      ooooooooooo       ooooooXXXXXXXXXXXXXXXXXXoooXXXXXXXOO@@@$$$****$$$@@@@@@@@OOXXoooooooooXOOOOOOOO@@@@@@@@@@@OOXooooooooooooXXXXXXXXXOOOOOO@@@$$@@@OOOOOOOXXXooooooooooooooooooooo   o                                                                                               ",
"                              ooooooXXOOO@@@@@OOOOOXXooo                                                            ooooooooXO@@@@$@@@OOOOOOOOOOOXXXooXXXOOOOOOOOOOOOOOO@OOO@@@@@@@@@$$$$$$$$$$$**==*$$@OOOOOOOOO@@@@OOOXXXXOXXoooo   oo      oooXOO@@@$$$$$@@@@@@@@$$$@@@@@@@OOOOOOXooooXXOOOXXXXoooooooo        oooooo     o  oo       ooooXOO@@@@OOXXoooo ooooooooooooooXXXXXooXXXoooXXXXXXXXXXXXXXOO@@###@@@$=*********====**==***@OXX.X+X++++++@###*****************=#OXX@*====*********=====*$@@@@$$$$$$$$$*************=**=**==*$$$$$$*$$***$@@@@@@@@@@@O+++++++++++++++&&&&&++++++++++@&&&::::::&&&&::::::::::::::::&&&&&&##*==**************************************===*=*===:=::::::::::::::::::::::::::::::::::::::::::::&&&&&&&&::==******************==*****====***===***$$@@@@$$$$$$**********#@++@$**=*****=********@+++@**=**=***====****$@OOOXOOOOOOOOOOOOO@@@@@@##########@OO@**********==********************=****=*****$@@@OXXOOOOOOXXXXOXOOOOO@@@@@@$$$$$$@OX@*******==**==***#Xoo    o              oo      o       oooo   ooooooo         ooooXXXXXXXXXXXXXXXXXXoooXXoXXXXXOO@@@@$$$****$$$$$$$@@@OXXoooooooXXXOOOOOOOOOOOOO@@@@@OOXooooooooooooooXXXXXXXXOOOOO@@@@@@@@@OOOOOXXXXoooooooooooooooo  oooo                                                                                                  ",
"                              oooooXXXOOO@@@@@OOOOOXXooo                                                            oooooooXXO@@@@$@@@OOOOOOOOOOOXXXoooXXOOOOOOOOOOOOOOOOOO@O@@@@@@$$$$$$$$$$$**====$$@OOOOOOOOO@@@@@OXXXXXXXXXoooo           oooXOO@@@$$$$$@@@@@@@@$$$@@@$@@@OOOOOOXXooooXOOOXXXXoooooooo  oo    oooo      oo ooo       ooooXOO@@@@OOXXoo    ooooooooooooooooooooXXXXXoXXXXXXXXXXXXXXXXXXOO@@@#$****=*=***===***===*%@OX.X.++++X+++@@@@@@@@@@$$$$$$******#OOO$*====*********====**$@@@@@@@@@@@$$***********====*=**=**$@@@@@@@@$@@@@@@@@@@@@@@@++++++++++++++++@#&&#@@@+@####&&&::&&&&&&&&&&&:&:&&&&&&&&:::&&&&&&##********************************==********==****==:::::::::::::::&:::&&&&:::&&&&:::::&&&:::::&&&&&&&&&&&#:*=****************$**==*=***====**====************************@O+@@***=*********=****@++O@*==**=***=**=****$@OOOXXOO@OOOOOOXXXXXXOOOOOOOOOOO@@OO@#***********=****=***************=*********$$@@@@@@@@@@@@@@@@@@###$$$$$%%**%%%*$@O@$***=****=**==***@Xo     o             oo               oooo    ooooooo         oooooXXXXXXXXXXXXXXXXXooooooXXXXOOOO@@$$$$$******$$$$@@OXXXXoXXXXXXXOOOOXXXOOOOOOO@@@@OOXoooooooooooooooXXXXXXXOOOOO@@@@$@@@OOOOOOXXXoooooooooooooooooo  ooo o                                                                                                ",
"                              ooooooXXOOO@@@@@@OOOOXXoooo                                                            ooooooXXO@@@$$@@@OOOOOOOOOOOXXooooXXXOOXXOOOOOOOOOOOOOO@@@@@@$$$$$$$$$**=====*$$@OOOOOOOOOO@@@@@OXXXXXXXXXooo              oXOOO@@$$$$@@@@@@@@@@$$@@@@@@@OOOOOOXXooooXOOOXXXooooooooo  oooo   o      ooooooooo ooooo oooXOO@@@OOOXXoooooooooXXXXXOOOOOOOOOXOXXXXXXXXXXXXXXXXXXXXXXXXXXXO@@@$****=*****=*********%@X..+.+++++++&&&++++++OOOO@@@@@@####@XXO$***=*==*=*=====*==*$@@@@@@@@@@@@$$****===**======*=*==*$@@@@@@@@@@@@@@@@@@@@@@@+++++++++++++++++++@&##@@@####&&&&&:::::::::::::::=:=::::=::::::::::::**************************************=**********===::::::::::::::::::::::::==:=::======::::::::::::::::::==****************&&*===**========**==************************@O@#$***=*********=***#O++O#************==***$@O+@++OOOOOOOX++XXXXXXXXXXXXXXXXXXOO@$=*********==****==****==****==**=*********$@@@##@#########$*******************$@O@*****=*********=#Oo        oooo                                o o ooooo          oooooXXXXXXXXXXXXXXXoooooooooXXXXOOO@@@@$$$********$$@@OOXXXooXXXXOOOOXXXXXOOOOOOOOOOXXoooooooooooooooooXXXXXXOOOOO@@@$@@@OOOOOOXXXooooooooooooooo  oo  o oo                                                                                                ",
"                              ooooooXXOOO@@@@@@OOOOXXoooo                                                            ooooooXXOO@@$$@@@OOOOOOO@@OOXXXXooXXXXXXXXOXOOOOOOOOOOOO@@@@$$$$$$$$**======*$$@@OOOO@@OOOOOO@@@OXXXXXXXXXooo              oXOOO@@$$$$@@@@@@@@@@$@@@@@@@@OOOOOOXXoooXXOOOXXooooooooo   oooo  oo       oooooooo ooooo oooXOO@@@OOOXXoooooooooXXXOOO@@@@@@@@@@@OOOOOOXOXXXXXXXXXXXXXXoXXXXXXX#****=****==*********%@XX..+++++&&&&&&++++XXXXXXOOXXOO@@@OOXXO$*****=============*$@@@@@@@@@@@@$$*=**===*=======*=**=*$$@@@@@@@@@@@@@@@@@@@+@++++++++++++++++++++++@+++++++@+@&&::::::::;;;:;;;;;;;===;;:;::::::::::*=************************************==***********=::::::::::::::::;:::;;;;;;::::==:===::==::::::::::::=:==**==************@&**==*========********$@@@@@$$$$$********$@@O@#*=**=***=******=**@X++@#*****************$@O+@++OOOOOOOO+XXXXXXXXXXXXXXXXXXXOO@***********===***==****==**====***********$@@@@@@@@@@####******************$%*$@OO#****************@Xo         ooo.ooooooo             oo              ooooooo       oooooooXXXXXXXXXXXooooooooooooXXXXOOOO@@@$$$$*******$$@@OXXXooXXXXOOOOXXXXXXXXOOOOOOXXooooooooooooooooooXXXXOXOOOOO@@@@@@@OOOOOOXXoooooooooooooooo  oo  o                                                                                                   ",
"                               ooooXXXOOOO@@@@@OOOOXXoooo                                                            ooooooXOOO@@@@@@@OOOOOOO@OOOXXXoooooXXXXXXXOOOOOOOOOO@@@@$$$$$$$$$$*======**$$$@@@@@@@OOOOOOOO@OOXXXXXXXXXXoo  oo   o   o  ooOOO@@$$$$@$$@@@@@@@$@@@@@@@@@OOOOOXXoooXXOOOXXoooooooo      oo  oo    oooo   ooooooo  oooooXOO@@OOOOXXooooooooooooXXOOOO@@@###$$$$$$$$$@@@@@@@@@OOOOOOOOOOXXX@#%***********===******@O++++++&&&&&&&+++++++X+XX+XXXOOOO+X+.O@$***==********==**=*$@@@@@@@@@@@$$$*=*****==========*==*$$@$@@@@@@@@@@@@@@@@@+++++++++++++++++++++++++++++++++++&:::::::::::::::::==============::::::******************************====**==*********=****:::::::::::::::::::::::::::===================::::::******==***=*******#+&&*==****==****##@$#$$@@@@@@@@@@@@@@@@@@@@@@@#***********=****=*@++++@#****==*=***=******@+@@@O++++XXXXOOOXXXXXXXXXXOOOXOOXXO$%*******=***=**======*=***=====*****===***@OOXXXXXXXX++#&&&&&@+@@@@@@@@@@@@@@@@OX@$*****=*********$Xo. o         XXXXoo.oo.           oooooo              oooooooo       ooooXXXXOOOOXXXXXXooooooooooooXXXOO@@@@@$$$******$$@OOXXoXXXXXOOOOXXXXOOXXOOOOOXXXoooooooooooooooooXXXXXXXOOOOO@@@$@@@OOOOOOXXooooooooooooooo   o   o                                                                                                   ",
"                              ooooooXXOOOO@@@@@OOOOXXXooo                                                            ooooooXXOO@@@$@@@OOOOOOOOOOOXXXoooXXXXXXXXXOOOOOOOOOO@@@$$$$$$$$$*=======**$$$$@@@@@OOOOOOOOOO@OOXXooXXXXXooo  o       ooooooOOO@@$$$$@$$@@@@@@@@@@@@@@@@@OOOOOXXooooXOXXoooooooooooo    oo   o    oooo   ooooooo  oooooXOO@@OOOOXXoooooooooooooooXXXOOOOOO@@$$$$%****%$$$$$$$$#####@#@@XX+@%**==********===*****@@++++++&&&&&&&+++++++@@@@@@#@#@@@@@@+@#****====**=**======*$@@@@@@@$$@@$$$****=**=*======***==*$$$$$$@@$$@@@#####*==##@+++++++++++++++++++++++++++++++&&:::&&&&&&&:::&&&&****====****==::::##*************=**********=********=****==************#::::&&&&&&&::::::::::::=================*****##&&##******************#@++@*==**********&@@@@$$$@@++++@@@@@@@@@@@@@+@@***=*=************$@X+++@#****==******==****@+@@O@++++XOOXOOXXXOOXOOOOO@@@@@OXX@$***==***=**==*=======**==***====*****==**@OXXXXXXXXX++++&&&&&++XXOXOOOOOOXXXXOXXO@***************%@Xo            o..ooooo..o.           oooo               ooXXXooo      ooooooXXXXOOXXXXXXooooooooooooXXXXOOO@@@@@@$$*****$$@OXXXXXXXXOOOXXXXXOOXOOOOOXXoooooooooooooooooooXXXXXXXOXOOO@@@$@@@OOOOOOXXoooooooooooooooo                                                                                                          ",
"                              ooooooXXOOOO@@@@@OOOOXXooo                                                             ooooooXOOO@@$@@@@OOOOOOOOOOOXXXooXXXXXXXXXOOOOOOOO@@@@$$$$$$$$**=======**$$$$$$@@@@OOXXoooXOO@@OOXXooXXXXXooo ooo       oooooOOO@@$$$$$$@@@@@@@@$$@@@$@@@@@OOOOXooooooooooooo  o ooooo    o   oo   o      ooooo    o oooXOO@@OOOOXXooooooooooooooXooooooXXXXXOO@@@@$$$$$%**********=***$@XO@********=***====*****#@++++&&&&&&++++++@@@@##################==***=****====*====**$$@@@$$$$@@@$***===******=*====*=**$$@@@@@@@@#@@##=;;;;;:#@+@+++++++++++++++@++++++++++++&&:::&&&&&&&&&&&&&&&&&&&&&&&&&&&::::&&&#*************==*******=*************==****=*==******==:&&&&&&&&&&&&&&&&&&&&&&&&&&:&&&&&&&&::&##*#&&&&&#*******************#@++&&*=****&&&***&&@@&#**@+++++++++++++++++++@#*=***=**==*=***=**@O++++@*****=******==*****&+@@@@@@@@@@@@@@@@@@@@@$$$$$$$$@@OO#*****=****====*=*=***********====********@OXXX.X.......+++&&::&+++++++...+++++XXX@$******=********#Ooo.            ooo .oooo.oo           oo                ooXXXXXoooooo    oooXXXXXXOXXXXXXXoooooooooooXXXXXOO@@@@@@@$$$$$$@@OOOXXXXXOOOOOXXXOOOOOOOOOXXoooooooooooooooooooXXXXXXXOOOOO@@@@@@@OOOOOOXXooooooooooo   oooo                                                                                                        ",
"                              ooooooXXOOOO@@@@@OOOOXXooo                                                             oooooooOOO@@$@@@OOOOOOOOOOOOXXXXXXXXXXXXXOOOOOOOO@@@@$$$$$$$$*=======****$$$$$$@@OOOXoooooXOOOOOOXXoooXXXXooo oo        oooooOOO@@$$$$$@@@@@@@@@$$@@@$@@@@@OOOOXooooooooooo          oo       oo          o        oooooXOO@@OOOOXXooooooooooooooooooooooooXXXXXOOOOO@@@$$$$$****======$@XO@*******==***====*=***#@##&&&&&&&&@+@+@@@@@@@@################****==****===**====**$$$$$$$$$$@$$**===**=******====*=**$$$$#$###$##$%=;;;;;=#@+++++++@+++++++++++++++++++++++&&:::&&&&&&&&&&&&&&&&&&&&&&&&&&&&&&&&&&&**=**********=*******************=**==****=*==****=*==&&&&&&&&&&&&&&&&&&&&&&&&&&&&&&&&&&&&&&&&##&&&&&&***************=****#@++@&*=****&&&***&&@@&#**&@++++++++++++++++++@#**==****==*==**=*$@O++++@*************==**=*&&&######$*********************#@X@#**=*******====***=********======********@@XXXXXX....XXXX+++&&::&++++.....+X..X+XO#*******=********@X.o.o  .            ...oo.oo                              ooXXXXXooooo     ooooXXXXXXXXXXXXXooooooooooooXXXOO@@@@@@@@@@@@@@@OOOOOXXXOOOOOXXXOOOOOOOOOXXoooooooooo  ooooooooXXXXXXOOOOO@@@@@@@OOOOOOXXoooooooooo    oooo                                                                                                        ",
"                              ooooooXXOOO@@@@@@OOOOXXXoooo                                                        oo ooooooXXOO@@@@@@OOOOOOOOOOOXXXXOXXXOOOOOOOOOOOO@@$$$$$$*****====-====***$$$$$@@OOOOoooooooXOOOOOOooooXXXXXooo            ooooOOO@$$$$$$@@@@@@@@@$$@@@@$@@@OOOOOXooooo       ooooo  oo  oooo        oooo ooo    ooooo o oXO@@@@OOOXXXXooooXXoooXXoXoooooXooXoXoooXXoXXXXXOOO@@@##$%%****$@XX@*******==***====**=**@@+&&&&&##*##*$$$$$$$$$$$$$$$$@@@@@@@OO@*=*=****===*****===**$@$##*$#%%#$$**=***======****=*==**===========;;;;;;;=*#@@@++++++++++++++++++++++++++++&&&&:::&&&&&&&&&&&&&&&&&&&&&&&&&&&&&&&&&&&&&=************=******===*****=**********===********==&&&&&&&&&&&&&&&&&&&&&&&&&&&&&&&&&&&&&&&&&&&&&+@#********************@@++@&$*****&*****&&&@&$**@@@@@+@@++@@@@@@++O@$*********==*==*==*@+@++OO$****=*******==*=*==::&&**************************$@OO@****=**====*=********===***======*****#@OX++X.X..++.++++++++++&::&&++++XXXXXO+OXX@#********==*****$XXoo.                o  ooooo              o                 oooXXXXXooo     oooooooXXXXXXXXXXXXXooooooooooXOO@@@@@@@OOOOOOOOOOOOOOOOOOOOOOXXXXOOOOOOOXooooo ooo  ooooooooooXXXXXXXOOOO@@@@@@OOOOOOOXXoooooooooo  ooo                                                                                                           ",
"                              ooooooXXOOOO@@@@@OOOOXXXoooo                                                        ooo oooooXXOO@@@@@@OOOOOXOOOOOOOXXOOOOOOOOOOOOO@@@@@$$$$$$***===--====****$$$$@@OOOOOXXoooooooOOOOOOoooooXXooooo            ooooOOO@$$$$$@@@@@@@@@@$$@@@@$@@@OOOOOXooo           ooo  o   ooo         oo o ooo    o ooo o oXO@@@@OOOXXXXoXXoXXoXoXXoXoooXXXXXXXXXooooooooooXXXXXXOOO@@@@@#@XXX@*******==****===*****@@+&&&&&###***********************%#@OO@*******====***======*$$%%==;;;;;-====***======*********=;;;;;;;;;;;;;;;;;=##@@@@+++++++++++++++++++++++++++++&&::::&&&&&&&&&&&&&&&&&&&&&&&&&&&&&&&&&&&&&****==*******==*****====*******==******===***=****==:#&&&&&&&&&&&&::::::::::::&&&&&&&&&&&&&&&&&&++@#********************@++++@@************&&@$$**$###@@@@@####@@@++@@*********===**===*#@+@++O@$=***=********=*===*&&&&##**$$#$**$$$$************#@XO$******=*=******=**=**===***=====*****#@@+XX+++.....+XX+++++++++&&:&&++++++@@@@@XO@******=*********$XXoo.  .. .             ooooo              o                  ooXXXXXXoooo    ooooooXXXXXXXXXXXXXXoooooooooXOO@@@@@@@OOOXXXXXXOOOOOOOOOOOOOXXXXXXXOOOOXooooo ooo ooo ooooooooXXXXXXOOOO@@@@@@OOOOOOOXXooooooooo   oo                                                                                                            ",
"                              ooooooXXOOOO@@@@@OOOOXXXooo                                                          o oooooooXOO@@@$@@OOOOOOOOOOOOOXOOOOOOOOOOOO@@$$$$$$$*$***===---====*****$$@@OOOOOOXXoooooooXOOOOOXooooooooooo             ooooOOO@@@$$$@@@@@@@@@@@@@@@@$@@@OOOOOXooo                oo                    ooo           oXOO@@@@OOXXooXXXXXXXOXOXXXXXXXOOOOXXXXXoooooooooooooo.oooXXXXXXXXXX@****=********===*****++&&&&++++@@@@@@#####%******======*$@OO@*=*=****=====*======*%=-;;;;;;;;;;-=*************====**=;;;;;;;;;;;;;;;;=%@@#@@@+++++++++++++++++++++++++++++&&&::::::::::::::::::::::::::::::::::::::&&::******=****=************=***===*==****===*=******===::::::::::::::::::::::::::::::::::::::&&&&++@*********************@@@@@&#*==***=*******$******************#@@@@**=********==****=*$@@@@@@@*******===********&&&&&&&+@@@@@@@@@@@@@@@@@@@@@@@@OXX@$=*****=*************===****==*******$@@+XXXXXXXXXXXXXOOOOOO@@@@@&*=*##@@#$$$*#@O@$****=****=*****$@Xoo.......o  ..          oo.o  oo          o                   oXXXOOOXXooooo     ooooXXXXXXXXXXXXXooooooooXXO@@@@@@OOOOXXXXXXXXXXOOOOOOOOXXXXXXXXXOOXXoooo   oo ooo oooooooXoXXXXXXOOO@@@@@@OOOOOOOXooooooo     ooo                                                                                                            ",
"                              ooo ooXXOOOOO@@@@OOOOXXoooo                                                          o ooooooXXOO@@@@@@OOOXXXOOOOOOOOOOOOOOOOOOO@@$$$$$$$$$$**==-;;-===*****$$$@@@OOOOOOOOoooooooXOOOOOXoooooooooo               oooOOO@@@@$$@@@@@@@@@@$@@@@@@@@@OOOOOXooo                                      oo            oXOO@@@OOOXXoXoXXXXXXOOOXXXXXXOOOOOXXXoooooooooooooooooooooo.oooXXXX@**=*=*********==*****&&&&&&+++XXXXXOOOOOO@@@@@@$$$$$***=$@OO@***=****=====*=====**=;;;;;;;;;;;;;=*************=****=;;;;;;;;;;;;;;;;=#@#@@@@@++++&&&&&&&&&++++++++++++++++&&&::::::::::::::::::::::::::::::::::::::::::======*********************===**==****=*=******=====:::::::::::::::::::::::::::::::::::::::&&+++#*****=***************######*********======*******************@@@@#***=*******===********=*=*********===***=****&&&&&&&&@@@@@OOOOOOOOOOOOOOOOOOOXXO@*=**************==***===*************$#@++@@O@@@@@@@@@@@@@@#####&&&:===*******#@O@*****=***==*****@O.oo.......oooo..          oo.  ooo                             ooXXXOOOOXoooo       ooooXXXXXXXXXXXXXooooooXXO@@@@@@@OOOXXXXXXXXXXXXXXOOOXXXXXXXXXXXXXooooo          ooooooooXXXXXXXOOO@@@@@@OOOOOOOXoooooo      oo                                                                                                             ",
"                                ooooXXOOOO@@@@@OOOOXXXooo                                                         oooo oooooXOO@@$@@@@OOOOOOOOOOOOOOOOOOO@@@@$$$$$$$**$$$**===-=====****$$$@@@@@OOOOOOOOXoooooXXOOOOXXoooooooooo                ooOOO@@@$$@@@@@@@@@@@$@@@@@$@@@O@OOOXooo                                     o o    oo    o oXOO@@@OOOXXooXXXOOOOOOO@O@@@@@@@@OOOOOOXXXXXXXXXXXXooooooo..oooX..X@**=*=************=*=#&&&&&&+++X++XXXX.....XXXXXXXOO@@@@#@@XO@****==**======*======;;;;;;;;;;;;;=*=*******=****=****=;;;;;;;;;;;;;;;=#@@@@@@@@@@+#&::::&:::&&+++++++@@@#@#&&&&::&:::::::::::::::====:===============:::&::======********************==**=**=****==****=*==*#::::===*::::============:=========**&&&&+++@******==*************@@@@@@@#&*=******=======**=**************@@@@****=****=*****==***==*=*===****=***==*=**=***&&&&&&&&++++++++++++++++XX+++XXXXX@$*=****==*****************===**********#@@@@@#######************===**=====**==#@O@$==*===*********$@X.......o.ooo....         ... ooooo                             ooooXXXOOXXXoo        ooooXXXXXXXXXXXXXXoXoXXOO@@@@@@OOOXXXXXXoooXXXXXXXXXXXXXXXoooooooooooo    o     ooooooooooXXXXXOOO@@@@@@OOOOOOOXooooooo    ooo                                                                                                             ",
"                                ooooXXOOOO@@@@@OOOOXXXooo                                                         oo o oooooXOO@@$$$@@OOOOOOOOO@OOOO@@@@@$$$$$$$$$$$$$$**=========****$$$$@@@OOOOOOOOOOOXXooooXXOOOOXooooooooooo                ooOOO@@@@$@@@@@@@@@@@$@@O@$$@@@OOOOOXooo                                            oo  ooo oXOO@@OOOOOXXXXXOOOOOO@@@@@@@@@@@@@@@@@@@@OOOOOOOXXXXXXXXooo..ooXo.X@**=*=************=*=*&&&&&+++....X....+XXXXXXXXXXXXOOOOOOXXO@****==**======****==;;;;;;;;;;;;-==***====**=***==**=*=-;;;;;;;;;===%#@@@@@@@@@@+++&&&&&&&&&::&+++++++@@@@@&&&&&&&&&::::::=====:=:====================:::&&&&##****======******=*=********====****==**=***==##&&&:====::::========================&*&&++@#********************$@++++@++@#*********====*****************@@O@#****=**********=***==***=*******==****==******&&&&&&&&++++++++++++XXX+XX++X.XXXX@*==***********=***$$*****======********#@@@@@@@@@@@@@@###@@@@#$*##***=====**##@OO@%=**************#XX..........oo....          .    ooo    oo                        ooooXXXXXXXXoooo       ooooXXXXXXXXXXXXXXXXXO@@@@@@@@OOXXXXXooooXXXXXXXXXXXXXXooooooooooooo   oo    oooooooXXooXXXXXOOO@@@@@@OOOOOOOXoooooooo   oo                                                                                                              ",
"                                oooooXOOO@@@@@@OOOXXXoooo                                                          o  oooooXXOO@@$$$@@OOOOO@@@@@$@$$$$$$$$$$$$$$$$$$$$**=========****$$$@@@@@@@@@@@@@@@OOXXoooXOOOOOoooo                        ooOOO@@@@@@@@@@@@@@@@$$@@@$$@@OOOOOOXooo                              oo      o     ooo o oooXOOO@@OOOOXXXXXOOOOOOO@@@@@@@@@@@@$$$$$$$$$$$$$#@@@@@@@@@O@OOOOOXXX@**=*===****==**=*===#&&&&++++++XX+XX.....XX++++XXX++++XXX+XO@**********====****=-;;;;;;;;===***=*=*========***==*****%%******$$$#@@@@@@@@@@@@+@+@++++++&&&&&+++++++++++++++&&&&&&&&&&&&&&##&#&:##::==============*=*=&&&&&&++#&#####*#**#*********==**********=****=====*&&&&&&&&&*&&&&:::=======================&&++@#********************#@++++++++&&===========*$$$#############@@++@********=******=****=**=*=**=*=*===************#@&&&&&&&++++@OOOOOOOOOOOOOOOXXXO@$**=**********=***@@@#*****=======******#@@OXX+X+XXXX+++X+X+++X++++++++&&:::&+++X@$*=*************$@XXX...X.oX........ o..          oooooooooo                          oooXXXXXXXXXooo       oooooXXXXXXXXXXXXXXXOO@@@@@@@OOXXXXXooXXooXXooooXooXooooooooooooooo   ooo ooooooooXXXXooXXXXOOO@@@@@OOOOOOOOXooooooo    o                                                                                                               ",
"                                oooooXOOOO@@@@OOOOOXXoooo                                                            ooooooXXOO@@$$$@@OOO@@@@@$$$$$$$$$$$$$*$$$$$$$$$**=======******$$@@@@@@@@@@@@@@@@@@OOOXXXXOOOXooooo                        ooOOO@@@$$@@@@@@@@@@@$$@@@$$@@@OOOOOXooo                                      oo   o o  oooooXOOOOOOOOOXooXXOOOOOOOOO@@@OOOOOOOOO@@@@$$$$$******%%%%$$$$#$$#@OXX@**=*===**======*====*&&++++XXXX..XXXXX+XXXX+++XXXXX+++XXX+XO@*****=******==****=;;;;;;;=%$$$$$**=**=*======**===*=**$#@@@@@@####@@@@@@@@@@@@@+++@+++++&&+&&+++++++++++++++++++++++++&&&&&&&&&&&##&&&###***###**##**##&&&&&&&+++@@@@@@##@@@####$$***==*********=****==**=*&&&&&&&&&&&&&&&&&&&&&***&&&&#&**********&&++@#****=*==************#@+++++++++&&===========##@@$$#@@@@@@@@@+++@$*=*****==***==****==**==***==*=====********=***&@&&&&&&&+++++@@@@@OO@@@@@@@@@+XO@**********==*****$@O@#*******=======****#@O+++OO++OO+++++XX++++++++++++++&&::&++O@$***************#OXXX.XXX.XX........oo......      oo    o.o                            oooooXXXXXXXXoo       ooooXXXXXXXXXXXXXXXOO@@@@@@@OOXXXXXooXXooooooooooooooooooooooo oo    ooooooooooooooXoooXXXXOOO@@@@@@OOOOOOOXooooooo   oo                                                                                                               ",
"                                 ooooXXOOOO@@@@OOOOXXooo                                                             oooooooOOO@@@$@@@@@O@$$$$$$$$$$**********$$$$$$**=======***$$$$@@@@@@@@@@@@@@@@@@@@@@@OOXXXoooooooo                        ooOOO@@$$$$@@@@@@@@@@$$@@@@$$@@@@OOOXooo                                          o       o oXOOO@OOOOXXXooXXOOOOO@@@@@OOOXXXXXXXoooXXOOO@@##%%%%%********%*$@XX@%*=====**=====*****=*##@@@@@@@@OOOOOOOOOOOOOOXXXXXXXXOOXXXXX@$*=*******==****==%-;;;;;=*$$$$$****==******=*=*==*=**$$$@@@@@@@@@@@@@@@@@@@@@@+++++@++++++++++++++++++++++++++++++++++&&&&&+++&&&&&&&&&&&&&&&&&&&&&&&&&&&&&++&&&&++&&+&&&&&++++@&##***=******======****===*&+&&&&&&&&&&&&&&&&&&&&&&&&&&&&&&&&&&&&##&+++@#******==************@+++++++++++#&#&##*=*=##@@++@@##@+++++++@+@#********===****====*******====****=****===*=****#@@+&&&&&&&&@@@@@@$$$$$$$$$**@OXO$*****************@@@@#*====*******====**#@+++++++++++++++++++++++++++++++++&&:&+@#*******=*******$@OXX.XXXXX............oooo.     .      ooo                               ooooooooooooo           oooXXXXXXXXXXXXOO@@@@@@@OOXXXXoXXXXooXoXXXooooooooooooooooooo      oo  oooooooXXXoooXXXOOOO@@@@OOOOOOOXXooo   oo                                                                                                                   ",
"                                 ooooXXOOOO@@@@OOOXXoooo                                                             oooooooOOO@@$$$@@@@@@$$$$$$$$$**********$$$$$***=======***$$$@@@@@@@@@@@@@@@@@@@@$$@@@OXoooooooo oo                        ooOOO@@@$$$@@@@@@@@@@$$@@@@$@@@@@@OOXooo                                                  o oXOOO@O@OOXXoooXO@@@@@@OOOOOXXXXoXooooooooooXXXXOOO@$$$$$$%*%***$@XX@%*=*===*=**==*======*###############@@@@@@@@@@@@@@@@@OOOO+OX@$*====****====***==;;;;;-%$$$$$$****==*****==****===**$@@@@@@@@@@@@@@@@@@@@@@O++++++++++++++++++++++++++++++++++++++++++&&&&+++&&&&&&&&+&&&&&&&&&&&&&+&&&&&&++&&&&++&+++&&&&+++&&&@#**==****=*=======***=*=*&+&&&&&&&&&&&&&&&&&&&&&&&&&&&&&&&+&&@@@#&+++@*******=************#@++++++++++@@@#&########@@@+@@@#@@++++++++@******==**===****==*********==****==****=*=*=****#@&&&&&&&&&&**$$***********=*@OO@$*****=**==******$@@@@#*=====****=***==**$@@++++++++++++++++++++++++++++++++&&&:&##***********==**@XXXXXXXXXX....XX......oo...     .                                         oooooooooooo            ooooXXXXXXXXXXOO@@@@@@@OOXXXXoXXXXooXXXXoooooooooooooooooooo    oooo  oooooooooXooXXXXOOO@@@@@OOOOOOOXXooo                                                                                                                        ",
"                                oooooXXOOOO@@@@OOOXXoooo                                                                ooooOOO@@@$$@@@@$$$$$$$************$$$$$***=======**$$$$@@@@@@@@@@@@@@@O@@@@@$$$@@OXoooooooo                            ooOOO@@@$$$@@@@@@@@@@@@@@@@$@@@@@OOOXXoo                                                  o oXOOO@OOOOXXXoXXO@@@OXXXXooXoooooooo        .  oooXXXXOO@@@@#$$$#OXX@$***=********==******@@++O@@@##$$%*************$$$$$$$$$$@@O@$**====**=======**=-;;;;=$$$$$$$$***==*****=**=*===***@@@@@@@@@@@@@@@@@@@O@@++++++@++++++++++++++++++++++++++++++++++++++++++++&&&&&&&&+++++&&&&&&&#@@@+@+++++++++++&&++++&+++++&&@#*====***====**==****===*++++&&++&&&&&&++++&&&&&&&&&&&&&&&&&&&&++&++@#****************=***@@++++++@@@@@++@@@@@@@@@@@@@@@@@@@@@@@+++O@********==*************===**====********==***=****#@##&&&&::&&*****************@OO@***********=*****#@@@@#*=**=***====****=**@@+++++++++++++++++++++++O++@+@@@@@&&::=*******=*******#@XXXX..XXXXXX...XXX......o.o..                                                                       ooooXXXXXXXXOO@@@@@@@OOXXXXoXooXoooXooXoooXXXXoooooooooooo o   o    ooooooooooXXXXXXOOO@@@@@OOOOOOOXXooo o                                                                                                                      ",
"                                oooooXXOOOO@@@@OOOXXoooo                                                            oo  ooooOOO@@@$$@@@@@@$$$$$***********$$$***=======****$$$$@@@@@@@@@@@@@OOOO@@@@$$@@OOOooooooooo                            ooOOO@@$$$$@@@@@@@@@@@@@@@@@@@@@@@OOXooo                                                  o oXOOO@OOOOXoooooXOXXXXXoooooooooooo oo        oooooooooXXXXOOOOOXX.X@%***=********======*$OXXXXXXXOOO@@@@@$$******======*******#@@#*******=======****=;;;=%$$$$*$*****====**=***==**=**$@@@@@@@@@@@@@@@@@@+O++++++++++++++++++++++++++++++++++++++++++++++++++++++&&++&++++++++&&&&&##&&&&&&&++&&&++&&&&++&&&&++&&&&@**===****==****==****===$++++&&&&&&&&&&&&&&&&&&&&&&&&&&&&++&+&&&+&++&*****************==**@+++++++++@@@@@@@@@@@@@@@@@@@@@######++++@#**********************==****===*********==*=******@@##&&&&&&&&##$$$*$$$$$$$$$$#@O@$*************==**@@#@@@*=**==**====****=**#@+@@+++++++++++XX++++++++@@@####&&&&&:==****=*******=*@OXXXX..XXXXXXXX..X.......X.......                                                                    oooooXXXXOOOOO@@@@@@@OOXXXoooooooooXooooXXXXXXooooooooo    o  oo     ooooooooXXXXXXXXOO@@@@@OOOOOOOXXoooo                                                                                                                       ",
"                                o oooXOOOOO@@@@OOOXXoooo                                                         o o   oooooOOO@@@@@@@@@@@$$$$$$******$$$$$****=====******$$$$@@O@@@@$@@@@@@OOO@@@@@@@@OOXooo   oo                              ooXOO@@@@@@@@@@@@@@@@@@@@@@@@@@@OOOOXoo                                                   o oXOOOOOOOOoooooooooooooooooooooooooooo   o  ooo oooo    oooo.o.oXXXX@*==*=********==**===$OX..XXXXXXXXXXXXOOO@@@@#$*****=======$@O@******=====********====**************==========*****#@@@@@@@@@@@@@@@@OO++O+++++++++++++++++++++++@+++@++++++++++@@@@+++@@@@++@@@@+++@@@+@+@&++&&&==******$###@@@@@@@@@@@@@@@@@@@@$*==**==**====**===**===*#@@&++@++@@@@@@&@&&@@@@@@@@@@&&@@@@@+&&&&&&@&**********==*****=***@@@@@@@@#$$$$$$$$$$$$***%***********#@@++@$******************************=**********=********@@@+++&&&&&&&&++@@@@++++@+OOOXO@***************=*$@@#@@@****==*=**==****==*#@@@@@@@@@@@@@@@@@@@@$$*********==*#@&&::=***********##OX+XXX..XXXX......XXXX.......... .                                                                       oooXXXXXOOO@@@@@@OOXXXXooooooooooooXXXXXXXXoooooo        oooo     ooooooooooXXXXXXOO@@@@@@OOOOOOXXooooooo                                                                                                                    ",
"                                  oooXOOOO@@@@OOOOXXoooo                                                             oooooooOOO@@@@@@@OOOO@@$$$$$$$$$$$$****=======****$$$$$@@@@@@@@$@@@@@@@@@@@$@@@@OOOXXooooooo    o                          ooXOO@@@@@@@@@@@@@@@@@@@@@@@@@@@@OOOXoo                                                   o ooOOOOOOOXooooo  oooooooooXXXXXXXooooooooooooooooo.o    .....ooo..XX@*==*=*********==***=$OX..XXXXXXXXXXXXXXXOOOOOO@@@@@@$$$***$@@@*==****===*****************==******=========*===***$@@@@O@@OOOOO@OOOOOOO+OO++++++@++++++++++@++@@@@@@@@@@@@@@@@@@@@@@@@@@@@@@@@@@@@@@@@@@@@++++#========*=*****########&#########**=**=*=**====**==**=*==*#@@@+@+++&&&&&&&&&&@@@@&&&&&&&&&&&&&&&&&&&&&&**********===*****=**#####*******================*=*******@@+@$***********==*********=**==**====******************@@++++++&&&&&&&+++++++XXXXXXXX@#*******=*********@@@#@@@****==*=*=***=***==*###*##***%%*******====*==========*@+&&::==*$****$$$@@@XX+XXX..XXXX......XXXXXX......o.oo.                                                                       oooooXXXOO@@@@@@OOXXXXooooooooooooXXoXXXXXoooooo         ooo     ooooooooooXXXXXXOOO@@@@@OOOOOOXXoooooo o                                                                                                                   ",
"                                  ooooXOOOO@@OOOOXXXooo                                                            o oooooooXOO@@@@@@@OOOOOO@@$$$$$$$$$***========**$$$$$$$$@@@@@@@$@@@@@@@@@@$$$@@OOOXXoooo oooo   ooo                         ooXOO@@@@@@@@@@@@@@@@@@@O@@@@@@OOOOOXo                                                    o ooXOOOOOOXoo        oooXXO@@@@####@@@@OOOOOOXXXXXXXXXXXXooXX.....XXX@**=*==*****==**====*$OX..XXXX....XXXXXX+++XXX++XXOOO@@@@@@@@O@#**==***=====**=**======**===*****=====************@@@@OOOOOOOOOO++OOOO+OOOOOOX++++++++++++++++@@@@@@@@##$$##$$******$*******************###@@@*============**********************==****=**===***********###&&&###$#$$***********************=***:::&&&**=*****=**=********#@@@@@########***********************#@@@@******====**====*****===*****=======*********=*=****@@++++++&&&&&&&&++++++++++++XX@$****************#@@@@@@@***===*=****=======*#@@########*##******************#@++&&&&:::&+++@++XX+++++.XX..XXX...XX....XXXXXX.....ooo..                                  oo                                   oooooXXXOO@@@@@OOXXXXooooooooooXooXXXXXXooooooooo               oooooooooXXXXXXXOOO@@@@OOXOOOOXXoooo                                   o                                                                                   ",
"                                  ooooXOOOO@OOOOOXXXooo                                                              oooooooXOO@@@$@@OOOOOOOO@@@$$$$$$$*========**$$$$$$$$$$@@@@@@@@@@@@@@@$$$$@@@OOOXXooooo ooo    ooo                         ooXOOO@@$@@@O@@@@@@@@@@@@@@@@@@@OOOOXo                                                    o ooXOOOOOOXooo       o  oooXXOOO@@###%%%%%%%%####@@@@@@@OOXXXXXXXX.XX@****==*=*======*===*$OXXXXXXXXXXXXXXXXX+++XX+++OOOOOOOOOO@@@O@@**==***=====**==*=**=***==****=**======***********@OOOOOOOOOOOOO+XOOXXXXOXOXXX+@++XX+++++++++++X@O@@@@@@@@@#$***==========================##@@*=***=*****=================*=*=**=****===**====******==**$#####*****============================*&:::##**===***=**********$@O++OOOO@@@@@@@@@@@@$$$$$$$$$*$$*****@@@@#****=*=**=======****====*****=======********==*=****@O++++++&&&&&&&&++++++++++++X+@*****************#OO@@@@@**====*=****========#@@+@@@@@@@@@@@@@@@@@@@@@@@@@@@@@O++++++&&::&+++++++++++X+XX..XXX..XXX...XXXXXXXX...X.....o ..                             oooo                                     ooooXXOO@@@@OOXXXXooooooooooooXXXXXXXooooooooo          oo    ooooooooXXXXXXXOOO@@@@OOOXOOOXXoooo                               oooooo                                                                                  ",
"                                  ooooXOOOOO@@OOOOXXoo                                                            ooooooooooXOO@@@@@@OOOOOOOOOOOO@@@$$**======**$$$$$$$$$$$$@OOO@@@@@@@@@$$$$$@@OOOXXooooooooo  oooo                            ooXOOO@@@@@@@@@@@@@@@@@@@@@@@@@@OOOOXoo                                                    oooXOOOOOXXoo         o    oo oooooXXXO@@#$$%%*%***%***%%%$$$$$@@@OXX@*****==****========*$@XXXXXXXXXXXXXXXXXOXXO+O++++OOO@OOOOO@@@@@$***=*====********===*******==**===***==*===*****@OOOOOO+OOOOOO++XXXOXXXX++XXO+@+O++++XOXX+++++++++@++@@@@@@@@@@@$$**********=============*$@#****======***===****==****==******======******===***=*=*****$$$$$**$$$************==============**&&::******************=**@@+++++++++++++XX++++++++++@@@@@@@@###@+@$*******=*=***=*==*******%**$$$#$$**===****===***==**$@@++++++++&&&&&&&+++@@OOOO.XXO$*****************@OO+@@@#**==***=*****=====:::&+++++++++++++++++++++++++++++++++++++++&&::&++++++++.+XXXXXXXX....XX.........XX..X..........                             oooooo                                     oooXXXOO@@OOXXXXXooooooooooooooXXXooooo o ooo           oo  oooooXXXXXXXXXXOOO@@@@OOOOOOXXoooo    o                         oooooooooooo                                                                              ",
"                                  ooooXXOOOO@OOOOOXXoo                                                            ooooooooooXOO@@@@@@OOOOOOOOOOOO@@$$$**====**$$$@@@$$$$$$$$@OOOO@@@@@@@$$$$@@@@OOXXoooo  oooo  oooo                            ooXOOO@@@@@@@@@@@O@@@@@@@@@@@@@@OOOOXo                                                     oooXOOOOOXXoo                  ooooooooooXOOO@@@$$$%*********=*%*#@XX@***==**==**=*=******$@XXXXXXXXXXXXXXXXXXXXXO+++++O+OO++OOOO@@@@@***====*******=************===*===***==*****=**#@OOOOOOOOOOOOO++XXXOOXXX++XXO++XX+++++XXX++++++++++O@@@@@@@@@@@@@@@@@$********************###****=***==***===****==****==****========******===*=***==*$*$$$@@@@$$$$$$$$$$$$$****************$$$&&&:=********************@++++++++++++++++++++++++++OOOO++@@@@@@@#*********=******=**$@@@@@@@@@@@@@@**==******==*=*****$++++++++++&&&&&&&&@@@@@@#@+XX@*****************$@XX++@@#*=*=*************=:::&&+++++++++++++++++++++++++++++++++++++++&&&:&&+++++++.XXXXXXXX+..XXX....XX....XXXX...XX...o.o                             oooooooooo                                 oooXXXOOOOOXXXXXoooooooooooooXXXXooooooo oooo           o ooooooooXXXXXXXXOOO@@@@OOOXOOOXoooo                              oooooooXooooo                                                                             ",
"                                  ooooXXOOOOOOOOOOXXoo                                                             o  o ooooXOO@@@@@@OOOOOXOOOOOOO@@$$$****$$$@@OOO@$$$$$$$@OOOOO@@@@$$$$$@@@OOXOXXooooo   oooo o                               ooXOOO@@@@@@@@@@@OO@@@@@@@@@@@@@OOOOXo                                                     oooXOOOOOXooo                              ooooXXOOO@###$$$%*****%@XX@****==******====*==*$@XXXXOOO@@@@@@@@@@@@@@@@@@O@@@@@@@@O@@@@@@@#**==*===***************=**=*********==*==*==*$@OOOOOOOXXXXOOOOXXXXXX++XX++XX++XXX++++++++++++O++++@@@@@@@@@@@@@#@@##@#########**#*******###***************===***==*====**=======*********====*===***$#$$@#@@@@@@@@@@@@@@@@@@@@@@@@@@@@@@###@@@&&&:==***=**************#@+++++++++++++++++++++++++++++++++++++@@**==***==*=****=***#@++O+++++XXOXO@*=*=*****=======***$@@@@@@@@@@@###&&*********#OXO@***************=*@OXX+++@@********$$########&&::&&++++++++++++++++++++++++++++++++++++++++&&:&&+++++++.++XXX+X+.XXXXX.XX+X..XXXXXX..XXX....o......                        oooooooooooooo                              ooooXXOOOXXXXXXXXooooooooooXXXXoooooooo oo              oooooooooXoooooXXXOO@@@@OOOXOOXXoooo                              ooooooXXXXoooo                                                                            ",
"                                  ooooXXOOOO@OOOOOXXoo                                                           o o    ooooXOO@@@@@@OOOXXXXXOOOOO@@$$$$*$$$$$OOOOO@$$$$$$$@OOOOO@@@$$$$@@@@OOXXXXoooooo  oooo  o                               ooXXOO@@@@@@@@@@OOOO@@@O@@@@@@@OOOOOXo                                                      ooXOOOOOXooo                            ooooooooooXXOOOO@@@@$$$$$@XX@%****************=**$@XXXXXXOOO@@@#####$$#*$$$$######@@@@@@@@@@@@$**=**=***=************=*==*******====*====*$@OOOOOOOOXXXXXXXOXXXXXXXOXXXXXX++XXXX+++++++++++OO+++@@@@@###########*=======================****************====**========**====********=***==****==****############***#*##****#############@@@@&&&:=****=***=**********#@++++++++++++++++++++++++++++++++++++@#**====**=====***==*$@O++OO++++XXXX@#***=*****===**===***$*%*******=========******@OX@#**===**=**==****$@XXXXX+O@**$#@@@@@@OOOO@@++++&::&&+++++++++++++++++++++++++++++++++++++++&&&:&&++++++XXXXXX++++XXXXX.X+++XXXXXXXX..XXXX....o......o                         ooooooooooo                               ooooXXXXXXXXXXXXXXXXXXXXXXXXXXooooooo   o               ooooooooooooooXXXOO@@@@OOOXOOXXoooo                             ooooooXXXXXXXooo                                                                           ",
"                                  ooooXOOOOOOOOOOOXXoo                                                               oooooooOOOO@@@@@OOOXXXXXOOOOOO@@@$$$@@OOOOOOOO@@$$$$$$@OOOOO@@@$$@@@OOOXXoXooooooooooooooooo                               oooOOO@@$$@@O@@@@@@@@@@OO@@@@@@@OOOOXooo                                                    ooXOOOOOoooo                                  .ooooo..o.oXoXXXXOOXXX@#$************=*****$@XXXXXXXXXXXXOO@@@@##$$*******=***********@@@$***===***********=***===************=*****@@OOXOXXOXXXXXXXXXXXXXXXXXXXXXXX++XX+XXX++XO++++OO@OO+@@##==:::;;;;;;;;;;;;;;;;;;;;;;;;;;;;;;;=***********====******===========***********====******======:::::::=::::::::::::::::::::::::::=#&&&&&&&&=**=*=****==*=******@@+X++++++++++@@@O+++@@@@@@@@@@@@@@+@@@#**=***===***====***@@O+++++++++X++@#=**=======*=*******$####$*#******=========***@OO@#*********$###@@@+XXXXXXXXO@@@O@OOO@O++++++++++&&::&&&++++++++++++++++++++++++++++++++++++++&&&::&+++++++++++++XXXXXX..XXXX..XXX...XXXXX..............                         oooooooXXooo                              ooooXXXXXXOOOOOOXXXXXXXXXOXXXoooooooo       o         oooooooooooXooXXXXOO@@@@OOOXOOXXXooo                              oooooXXXXXXXXoooo                                                                         ",
"                                  o ooXOOOOOOOOOOOXXoo                                                                ooooooXOOO@@@@OOOXXXXXXXOOOOOO@@@@@OOOOOOOXOOO$$$$$$$@OOOO@@@@@@@@OOOOXXXXoooooooooooooooooo                              oooOOO@@$$@@O@@@@@O@@@@OO@@@@@@@OOOOXooo                                                     oXXOOXXoo           o              oo       .. ooooooooooXooXoXXXooO@@@@@@@@#$$$********$@XXXXXXXXXXXXOOOOOOO@@@@@@$$*****========**@@$$***************===*====*=*****===**===**@@OOOXXXXXXXXXXXXXXXXXXXXXXXXXXXXX+XX++XXX+XO++++OOO@@@@#=;;;;;;;;;;;;;;;;;;;;;;;;;;;;;;;;;;;;==**=********====******===*==*====*******=***====*****==;;;;;;;;;;;;;;;;;;;;;;;;;;;;;;;;;;;;;;;::&&&&&&&&=*********==*=*=***$@@++++O++OOO@@@@@@@@@@@@@@#######@@@@@#*==***==*=***=====*$@OO+++++++++++X@#********=*==*=====*@OOO@@@@@@@@@@#####*****@@@OO@@@@@@@@@@OOOOXXXXXXXXXXXXXX++++@OOOOO++++++++++&&&::&&+++++++++++++++++++++++++++++++++++++++&&&::&++++++++++++++XXXXX++XXXXXXXX...XXXXXXX..XX.........oo...                    oo o ooXXXooooo                            oooXXXXXOO@@@@@OXXXXXXXXOXXXXoooooo                   oooooooooXooXXXXOO@@@OOOOXOOXXXooo                             ooooooXXXXOXXXXXooo                                                                        ",
"                                  ooooXOOOOOOOOOOOXXoo                                                               oooooooOOOO@@@@OOOXXXoXXXOOOOOOOOOOOOXXXXoXXXOO@$$$$$@@OOOO@@@@@@OOXOXXXXooooooooooooXXXooooo                              ooOOOO@@$$@@OO@@@OO@@@@OO@@@@@@OOOOOXXooo                                                    ooXXXoooo           oo               oooo   ooooooo...........o.X....XX.XXXXXXXXXOO@@@@##XXXXXXXXXXXX+++OOO++OOOOO@@@@@@@@#$*********$$$===***=***=***===******==*=**=======**$@@OOOOXXXXXXXXXXXXXXXXXXXXXXXXXXXX++XX++XXOOOOOO+O@@@@@@@#*===;;;;;;;;;;;;;;=======;===;;======************=*===****======**=*==****===*==****====**===;;;;;;;;;;;;;;;;;;;;;;;;;;;;;;;;;;;=====*#@@@#&&#=====*=****=*=*=***$#@#@@@@@@@@@###$$$$$$$**********=$@@@#*=========*****===**@OO+++++++++++++@$==========*****==**@OO+++++++++++@++++@@@@@@++++@@XOXOXXXXXXXXXXXXXXXXXXOOOO+@@@@@@@@+++++++++++++&&&:&&++++++++++++++++++++++++++++++++++++++++&&::&&++++++++++++++XX++++X+++XXXX...XXXXXXXX.X.X.............                         oXXXXooooo                            oooXXXXO@@$*$$@@@@OOOOOOOOXXXoooooo             o     o ooooooooXXXXXOOO@@OOOOXOOXXXooo    o                        oooooooXXOOOOOOOXXoo                                                                       ",
"                                  ooooXOOOOOOOOOOOXXoo                                                               oooooooXOOO@@@@OOOOXXoXXXOOOOOOOOOOOOXooooXXXOO@$$$$$@@OOOO@@@@@OOOXXXXoXooooooooooXXXXXXooooo                             ooOOOO@@@@@@OO@@@@OOO@@OOO@@@@@@OOOOXXoooo                                                   oooXXooooo oooo    ooo          ooo        o....oo.oo.........X......XX..XXXXXXXXXXXXXXXOXXXXXXXXXXXXXXXOOOOOOOO@@@@@@@@@@@@@@@$$$***$$*=;;==********====******===*=**=*===*$@@OOOOOOXXXXXXXXXXXXXXXXXXXXXXXXXXXXX+XXX+XOOOOOOO+O@@@@#*########***********===***=*=**=*****###***=********=**=****=====******==****====*=*****==*****=================================%%****#*$#####&&#=======***==*=******#*#*****%%**=====***=============*#@@*==========*****=*=*$@O@+++++++++++++@$******$$$$$$$@@#@@@@++++++++++++++++++&&&&&@@@@@@@O@X+X+++XOXXXXXXXXXXXOOOOO@@@@@@@@@@++++++++++++&&&&:&&+++++++++++++++++++++++++++++++++++++++&&&::&+++++++++++++++++++++X++++++...XXXXXXXXXXXX.......oo....o..   . o                 ooXXXXoooo                           ooooXXXO@@$****$@@@@@@OOOOOXXoooooooo                   oooooooXXoXXXOOO@@OOOOOOOXXXooo   ooo                       oooooooXXOOOOOOOOXXoo                                                                      ",
"                                 ooooooXOOOOOOOOOOXXoo                                                              ooooooooXOO@@@@@OOOXXXoXXXOOOOOOOOXXooooooooXXOO@$$$$$@@OOOOO@@OOOOXXXXoooooXXXXXXXXOOOOOOOOXXXooo                          oooOOO@@@@@@OO@@@@OO@@@@OO@@@@@@OOOOOOOOXXoooo                                                ooooooooo ooo             o    ooo     ooo..................oo....XXXXXo.....X.XX.XXXXXXXXXXXXXXXXXXXOOO++OOOOO@@@@@@@@@@@@@@@@@$$**$*%;;;;;=%=**========******========**#@@OOOOXXXXXXXXXXXXXX+XXXXXXXXXX+XXXXXXX+XXXX++OOXX++@O@@@#******===============================*******************====***==*===***=======**********=**********************************=*==************#@####=====****===*******@@@@#@@@#@#####$**********=======*#@@**=====************##@++++++++++++++OO@@@@@@@@@@@@+OOO@@+O+++++++++++++O++++++@@#&&&@@@@@@@@@@@@@@@@@OOXXXXXXXOOOO@@@@@@@@@@@@@@+++++++++++&&&&:&&++++++++++++++++++++++++++++++++++++++++&&&:&&+++++++XX+XXX++++XXXXX+++.XXXXX.XXX...XXXXXX..........oo.  oo                 o  ooXXXXXXooo                          ooooXXOO@$******$$@@@@OOOXXooooooo                    ooooooooooooXXOOO@@OOOXXXOOXoooo                             oooooooXXXXOOOOOOOOXo                                                                      ",
"                                 ooooooXOOOOOOOOOOXXoo                                                             oooooooooXOO@@@@@OOXXXXXXXXOOOOOOOXXXooooooooXXOO@$$$$$@@OOOOOOOOOOXXXXoooooXXXXXXXOOO@@@@@OOOOXooo                           ooOOO@@@@@@OO@@@@@O@@@@OO@@@@@@OOOOOOOOOOXooo                                                ooooooooo   o     oo          oooo. ..oooo........o...oo...ooo....XX.Xoo..X.XX..XXXXXXXXXXXXXXXXXXOOOOOO++OOOO@@@@@@@@@@@@@@@@@@$$****=;;;;;;;======*=====*=======****$@@@@OOOOOXOXXXXXXXXXXXXXXXXXXXXXXXXXXXXXXXXXXX+++OOXX+O@@@@@##@@@#******================================**************===***==*==**=*==*==*==**********************====================================**#@####*====****===**===*$@OOO+OOOOOO@@@@@@@@@@@@@@@@$@$$$$$##@#*******$$$$###@@#@@@@++++++@+++++++XXO@@@++++@@++OO+O++++++++++XX++++OO+++++++@@@#&###@@@@@@@@@@@@@@@O+XXXXXXO@@@@@@@@@@@@@@@@@+++++++++++++&&&:&&+++++++++++++++++++++++++++++++++++++++&&&&::&+++X+XXXXXX++++XXXXXX+++.XXXX..XXXX..X.XXXXXX............ oo .                  oooXXXXXXoooo                         oooXXOO@$***$$$$$@@@@OOOXXooooooooooo         oo    oooooooooooooXXOOO@@OOOXXXOXXoooo                             oooooooXXXXOOOOOOOOXooo                                                                    ",
"                                 ooooooXOOOOOOOOOOXooo                                                             oooooooooXOO@@@@OOOXXooooXXOOOOXXXXXXooooooooXXOO@$$$$$@@OOOOOOOOXXXoooooooooXXXXOO@@@@@@$@@@@OXXo                            ooXOO@@@@@OOO@@@@OO@@@OOO@@@@@@@OOOOO@@@@OXoooo                                              oooooooooo        oo           .oo  oooooooo....oo.......o.ooo........o.ooXX.XXXXXXXXXXXXXXXXXXXXXXOOOOOOOOOOOO@@@@@@@@@@@@@@@#$$$**%=;;;;;;;;-==***$$****$$$$$$$$##@@@OOOOOOOXXXXXXXXXXXXXXXXXXXXXXXXXXXXXXXXXXXXXXXX+++OOX++@@@@@@@@@@@@@@@@@@@$$$$*****===================*******************==*=**====********====**********$$$$$$$$$$$$$$$$$$*****************************###**###:==*************##@++++++++++++++OO++++++@@@@@@@@@$#$##@@@@@@@@@@@@@@@@@@@@@@++++O+@@@+O++++O++++++++++O++++++++++++++XX++++XXO+++++++++@@@@@@@@@@@@@@@@@@@O@OO+XXXXXO@@@@@@@@@@@@@@@@@@++++++++++++&&&&:&&+++++++++++++++++++++++++++++++++++++++&&&&::&++++++++++++++++X+XXXX+XXX++..XXX.......XXXXXX............o. ..                ooooXXXXXXXoooo                        oXXXO@$$***$$@@@@@@OOOXXXooooooooooooooooooo oooooooooooooooooooXXOOO@@OOOXXXXXXooo                     oo       oooooooXXXOOOOOOOOOOXooo                                                                   ",
"                                 ooooooXOOOOOOOOOOXooo                                                             o o oooooXOO@@@@OOOXXooooXXXOXXXXXXooooooooooXXO@$$$$$$@@OOOOOOOOXooooooooooXXXXOO@@@@@$$$$@@@OXXo                            ooXOO@@@@@OOO@@@@@O@@@OOO@@@@@@@OOOOO@@@@OOoooo                                               oooooooo         oo         . ooo  oooooooo....ooooooooooooooo......o...oXXXXXXXXXXXXXXXXXXXX+XXX+OO++OOOOOO@O@@@@@@@@@@@@@@@$$****=;;;;;;;;;=***$$$$$$$@@@@@@@@@@OOOOOOOOXXXXXXOXXXXXXXXXXXXXXXXXXXXXXXXXXXXXXXXXXXXXXXOXXOO@@@@#@@@@@@@@@@@@@@@@@@@@@$$@$$$$$$***********$$$****************=============*=****===********$$$$$$$@@@@@$$$@@$$$$@@@@$$$$$@@@@$@$$$$$@$$@@$@$#@@@###&##===*$@@#@@@@@@@@@@++++++++++++OO++O++++@@@@@@@@@@$===%#@@@@@@@@@@@@@@@@@@@@++++++OOOOOO+O+++++++++++++++++++++++++++++++++XX++++++++++++@@@OO+O+O++OOOOOOOOOOOOOXXXXOO@@@@@@@@@@@@@@@@@@++++++++++++&&&&&&&+++++++++++++++++++++++++++++++++++++++&&&&::&+++++++++++++++++XXXX+++X++++XXX........XXXXX...XXXX.....ooo.o                 ooooXXXXXXXXoooo                  o  ooXXXO@@$***$@@@@OOOOOXXXoooooooooooXXXXXooooooooooooooooooooooooXXOOO@@OOOXXXXXXoo                   ooooooo     oooooooXXOOOOOOOOOOOXoo                                                                    ",
"                                 oooooXXOOOOOOOOOOXooo                                                                  ooooXXOO@@@OOOXXoooooXXOOOXXXXXXooooooooXXO@$$$$$$@@OOOOXoooooooooooooXXOO@@@@$*$**$$$$@@OXoo                           oooXOO@@@@@OOOO@@@OO@@@OOO@@@@@@@OOOOOO@@@OOXoooo                                            oooooooooooo       o           ....ooooooo.oo....oooo....oooooooooo.......oX..XXXXXXXXXXXXXXXX+XXX+X+OOOOOOOOOO@@@@@@@@@@@@@@$$****%=;;;;;;;;;==**$$$$@@@@@@@@@@@@@@@OOOO++OXXXXXOOXXXXXXXXXXXXXXXXXXXXXXXXXXXXXX++XXXXXXXXXOO@@@@@#@@@@@@@@@@@@@@@@@@@@@@@@@@@$$$$$$$$$$$$$$$@$$$$$$$$********====**==============**********$$$$@@$@@@@$$$@@@@@@@@@@@$@@$@@@@@@@@@@@@@@@@@@@@@@@@@##&@+&&::&&++++++++++++++++++++++++++++++++++@@@@@@@@@@$=;;=##$***#@@@@@@@@@@@@@@@++++@@@++O++++++++++++++++++++++++++++++++++++++++OOOOOOO@++@@++OOOO++XOOOXXXXOOOOOOOOXXXOO@@@@@@@@@@@@@@@@@@+++++++++++&&&&&&&&++++++++++++++++++++++++++++++++++++++++&&&::&+++++++++++++++++++X+XXX++XXXX++XXXX........XXX.X........ooo.ooo               oooooXXXXXXXXooo                oooooooXXO@$*****$@@OOXXXXXXooooooooooXXXOOOOOOOXXooooooooooooooXXooXXXOOO@@OOOXXXXXXoo                    oooooo       ooooXXXOOOOOOOOOOOOOXoo                                                                  ",
"                                 oooooXXOOOOOOOOOOoooo                                                                  ooooXXOO@@@OOOXooooooXXOOOXXXXXoooooooooXOO@$$$$$$@@OOXXoooooooooooooXXXOO@@@$$$****$$@@OXoo                            oooXOOO@@@@OOOO@@@OO@@@@OO@@@@@O@OOOOOO@@@OOXXoooo                                           ooooooooooooo      oo    o     ......oooooooo....oooo....oo..........o....oXX.XXXXXXXXXXXXXXXXXXOO+++OOOOOOOOOO@@@@@@@@@@@@@$$$****=;;;;;;;;;;%***$$$$@@@@@@@@@@@@@@@OOOOOOOOXXOOOOXXXXXXXXXXXXXXXXXXXXXXXXXXXXXXXXOOXXXXXOOO@@@@@#@@@@@@@@@@@@@@@@@@@@@@@@@@@@@@@$@@@$$$$$$$$$$$$$$$$$$$**********************************$$$$$$$$$@@@@@$@$$@@@@@@$$$$@@$#$@@@@@@@@@@@@@@@@@@@@@@@@&&&+&&::&&++++++++++++++++++++++++++++++++++@@@@@@@@@@#=;;;=%$$**$##@@@@@@@@@@@@@++++@@@@@+++++++++++++++++++OO++++++++++++++++++++++OOOO@@++@@+++OOO++OOOOXX++OOOOO@@OXXXXO@@@@@@@@@@@@@@@@@@@+++++++++++&&&&&&&&+++++++++++++++++++++++++++++++++++++++&&&&&:&&++++++++++++++++++++XX++XXXX++XXXX+++.....X.XXXX....ooooo.ooo.oo      o         ooooXXXXXXXoooo              o ooooooXO@@$*****@@OXXXXXXXoooooooooXXOOO@@@@@OOXXXoXXXXoXXXXXooXXXXXXXOO@OOOXXXXXXXoo                   oooooooo oo   ooooXXXOOOOO@@@@OOOOOXo                                                                  ",
"                                  ooooXXOOOOOOOOOOoooo                                                               o  ooooXXOO@@@OOOoooooooXXOOOOOXXXoooooooooXOO@$$$$$$@OOOXooooooooooooooXXO@@@@$$***$$$@@OXoooo                            oooOOOO@@@@OOOOO@@@O@@@@OO@@@@OOOOOOOOOO@@OOXXoooo                                          ooooooooooooooo   oooo  ..oo..  oo......ooo.oo...oooo.......oo....o.oo..o..o...XXXXXXXXXXXXXXXXOXX+X+++OOOO+OOO@@@@@@@@@@@@@$$$****=;;;;;;;;;;=***$$$@@@@@@@@@@@@@@@@@@@@@OOOOOOOOOOOOOXXOOOXXXXXXXXXXXXXXXXXXXXXXXXOXXXXXX+OO@@@@##@@@@@@@@@@@@@@@@@@@@@@$$@$@@@@$$$$$$$$$$$$$$$$$$$$$$$$$$$$$$$$**$$$$$$$$$$$$$$$$$$$$$$$$$$$$$$$$$$$$$$$$$$$$$$$$$$$$@@@@@@###@@@@@@@@@@@@@@@@@+@@@&&++&&::&&&+++++++++++++++O+++++++++OO++++++@@@@@@@@$$=;;;;=%$**$##@@@@@@@@@@@@@@@@@++@+@@++++@+++++OO++O++++O++++++++++++++++++++++O++O++++OO++++OOO+OO@O+++++++XOO@@@OXXXO@@@@@@@@@@@@@@@@@@@+++++++++++&&&&&:&&&+++++++++++++++++++++++++++++++++++++++&&&::&&+++++++++++++++++++XX+++XX+++XXX+++++..XXXX..XX....XX.o.......oooo  ooo        oooooXXXXXXXooooo            o ooooooXOO@$*****$@@OXXXXXooooooooooXXOO@@@@@@@OXXXXXXXXXXXXXXXoooXXXXXOOOOOOXXXXXXXoo                   ooooooooo    ooooooXXOOO@@@@@@@@@OOXXoo                                                                ",
"                                  ooooXXOOOOOOOOOOoooo                                                              oo  ooooXXOOO@@OOOoooooooXOOOOOOXXooooooooooXOO@$$$$$$@OOOXooooooooooooooXXO@@@@$$$$$$$@@OOXooo                             oooOOOO@@@@OOOO@@@@O@@@@OOO@@@@OOOOOOOOOOOOOOXoooo                                         oooooooooooooooo   ooo   ..ooo.oooo.......ooooo....o.o........o............Xo....XXXXXXXXXXXXXXXXXXXX++OOOO++@@OO@@@@@@@@@@@@$$****=-;;;;;;;;;=***$$$@@@@@@@@@@@@@@@@@@OOOOOOOOOOOOOOOOOXOOOOXXXXXXXXX+XXXXXXXXXXXXXXXXXXXXX+OO@@@#@@@@@@@@@@@@@@@@@@@@@@@@$$@$$$$$$$$$$$$$$$$$$$$$$$$$$$$$$$$$$$$$$$$$$$$$$$$$$$$$$$$$$$$$$$$$$$$$$$$$$$$$$$***$$$*$$$$$$$$$$$$##@@@@@@@@@@@@@@@@@@@@&&&&&&&::&&++++++++++++++++++++++++++OOO@@@++@@@@@@@#$$*;;;;;=%**$##@@@@@@@@@@@@@@@@+++@@@+++++@@++++O+++++++++++++++++++++++++++++++++++++++@@+++OOO++++++++XX++++XO+@@OOXXOO@@@@@@@@@@@@@@@@@@@++++++++++&&&&&&:&&+++++++++++++++++++++++++++++++++++++++&&&&::&&++++++++++++++++++XX+++XX++++XXX+++X..XXXX..XX..X.XXXX...........oo oo          oooooXXOXXXXooo            o ooooooXOO@$*****$@@OXXXXoooooooooooXXOO@@@@@@OOXXXXXXXXOXOXXXXXoXoXXXOOOOOOOXXXXXXXoo                    ooooooo    oooooooXXOOO@@@@@@@@@@OXXoo                                                                ",
"                                   oooXXOOOOOOOOOOoooo                                                              oo  ooooXOOO@@@OOOoooooXXXOOOOXXXXXoooooooooXOO@$$$$$@@OOXoooooooooooooXXOO@@@$$$$$$$@@OOXoo                                oooXOOO@@@@@OOOO@@OO@@@OOO@@@@@OOOOOXXOOOOOOXXooo                                              ooooooooo       o        oo  .   ................oooo.....ooooooo....X....XXXXXXXXXXXXXXXXXXOX+++OO++++OO@@@@@@@@@@@@@#@$$*$*%=;;;;;;;;;;==***$$$@@@@@@@@@@@@@@@@OOOOOOOOOOOOOOOOXXXXXXXXXXXXXXXXXXXXXXXXXXXXXXXXXXXXXXOXOO@@@##@@@@@@@@@@@@@@@@@@@@@#$$$$$$$$$$$$$$$@@$$@$$$$$$$$$$$$$$$$$$$$$$$$$$$$$$$$$$$$$$$$$$$$$$$$$$$***$$$**$$$$$$$$*******$****$$$$$@@@@@@@@@@@@@@@@+@@@@&&&&&&::&&++++++++++++++++++++++O++++++++@@@@@@@@@@#$**=;;;;;%***$$$@@@@@@@@@@@@@@@++++++++++@+++OO++++++++++++++++++++++++++++++++++++++OOOOOOOOO++++++XXXXOX+++OXO+@@@OOXXXO@@@@@@@@@@@@@@@@@@++++++++++++&&&&&&&&+++++++++++++++++++++++++++++++++++++&+&&&&&::&&++++++++++++++++++++++++++++++++++..XXX.....XXXXX.X.......Xooooo.o...  o          oooXXOXXooooo            oooooooXX@$*****$@@OOXXXXoooooooooooXXO@@@@@@OOXXXXooXXXXOOOOXXooXooXXXOOOOOXXXXXXXooo                   oooooooooo ooooooooXOOOO@@@$$$$$@OOOoo                                                                ",
"                                   oooXXOOOOOOOOOOoo o                                                              oo oooooXXOOO@@OOOooooooXXXOOOXXXXXoooooooooOOO@$$$$@@OOXXoooooooooooooXXOO@@$$$$$$@@@OOXooo                                oooXOOO@@@@@OOOO@@OOOOOOOO@@@@OOOOOOOXXOOOOOOXooo                                              ooooooooo       o        oo  .ooo...........o....oooo........oooo.......XXXXXXXXXXXXXXXXXXXXXX++++OOOOOOO@@@@@@@@@@@@@$$$$***=-;;;;;;;;;;=****$$$@@@@@@@@@@@@@@@@OOOOOOOOOOOOOOOXOOXXXXXXXXXXXXXXXXXXXXXXXXXXXXXXOXXOXXOOO@@@@@@@@@@@@@@@@@@@@#$$@@$$$$$$$$$$$$$$$$$$$$$$$$$$$$$$$$$$$$$$$$$$$$$$$$$$$$$$$$$$$$$$$$$$$$$$$$$$*************$$$$**$**********$****@#@@@@@@@@@@@@@@@@@&&&&&&::&&&++++++++++++++++++++++O+++++++@@@@@@@@@@@$**=;;;;;;=$***$@@@@@@@@@@@@@@@++++++++++++++O+++++++++++++++++++++++++++++++++++++++++OOO+OOO++++++X+XXXX+++OOO+O@@@OOXXX@@@@@@@@@@@@@@@@@@++++++++++++&&&&&&&&&++++++++++++++++++++++++++++++++++++++&&&&&&::&++++++++++++++++++++++++++++++XX++..XXXX.....XXXX.........XXoooo...o..            ooooXXXXXXoooo          ooooooXXXO@@******@@@OXXXXooooooooooooXOO@@@@@OOXXoooooooXXOOOOXXXXoooXXOOOOOXXXXXXooo                    oooooooooooooooooooXOOOO@@@$$$$@OOOOoo                                                                ",
"               o  ooooooo          oooXXOOOOOOOOOXoo o                                                               oooooooXOOOO@@OOOoooooooXXOOOOOXXXoooooooooXOO@@@$$@@OOXXooXXXXXXXXXXOOO@@@@@$@@@@@OOXooo                                   ooXOOO@@@@@OOOO@@OOO@@OOOO@@OOOOOOOXXXXOOOOXXooo                                               oooooo  oo        oooo..oo....o....ooo.....o..o...oo..........o.oo..XXXXXXXXXXXXXXXXXXXXX+OOOOOOOOOOOOOO@@@@@@@@@@@@@$$****=;;;;;;;;;;;=*****$$@@@@@@@@@@@@@@@@@@@OO@@@O@@OOOOOOOOXXXOXXXXXXXXXXXXXXXXXX+XXX+++X++XOOOOOO@@@@@@@@@@@@@@@@@############%%%%%#####%%%%########%%%%%%%%%%%%%%%%====%==========================%====%%==%%%%%%%%%%%%%%%%%%%%%%$$$***$#@@@@@@@@@@@@@@@@@&&&&&&::&&++++++++++++++++++++OOO++++++++@@@@@@@@@@$*$*;;;;;;=%*$*$#@@@@@@@@@@@@@@@+++++++@@@++++++++++++++++++++++++++++++++++++++++++++++++++XX++++++++++++++OXOOOOO@@@OOXXXO@@@@@@@@@@@@@@@@@@++++++++++++&&&&&&&+++++++++++++++++++++++++++++++++++++++&&&&&&::&&+++++++++++++++++++++X+++++++XXXXXXXXXX...XXXXXXXX..XX...X.......o.ooo  o         oooXXXXXXooo          oooooooXXXO@$******@@@OOXXXXooooooooooXXOOO@@OOOXXooooooooXXXOOOOXXXooXXXXXXXXXXXXXooo                     ooooooooooooooooooXXOOO@@@@@@@@OOOXoo                                                                ",
"              ooooooooooooo        oooXXOOOOOOOOOOoo o                                                               oooooooXOOOO@@OOOoooooooXXOXOOOXXXXoooooooXOOO@@@$@@OOOXXXXXXXXXXXXXOO@@@@@$$@@@OOOOXoooooo                                oooXOOOO@@@OOOOO@@OOO@@OOOO@OOOOOOOOXXXXOOOOXXoooo                                             oooooooo oooo .    oooo...o........oooo.........o..ooo..o......o.....XXXXXXXXXXXXXXXXXXXX++O+OOOOOOO+OO@@@@@@@@@@@@@@$$****=-;;;;;;;;;;=****$$$$@@@@@@@@@@@@@@@@@@@@@@@@@@@OOOOOOOOOOOOOOXXXXXXXXXXXXXXXXXXXXXXXX++OOOOOO@@@@@@@@@@@@#####%*%=========;;;;;;;;;;;;;;;;;;;;;;;;;;;;;;;;;;;;;;;;;;;;;;;;;;;;;;;;;;;;;;;;;;;;;;;;;;;;;;;;;;;;;;;;;;;;;;;;;;;;-==***$$$$@@@@@@@@@@+@@@@#&&#+&&::&&++++++++++++++++++++OOOO+++++++O@@@@@@@@@$*$*=;;;;;;=*$***#@@@@@@@@@@@@@@+++++++@@@++++++++++O+++++++++++++++++++++++++++++++++++++++X+++++++++++++++XOXXXXO+@@@OXXXO@@@@@@@@@@@@@@@@@@@@++++++++++&&&&&&&+++++++++++++++++++++++++++++++++++++++++&&&&&::&+++++++++++++++++++++X++++++XXXX+XXXXXXX..XXXXXX.XXXXXXX........o.o.oo  oo         ooooXXXXXoooo          ooooooXXOO@@$*****@@@OOXXXooooooooooXXOOOOOOOOXXoooooooooXXXXXOOXXXoooXXXXXooXooooo                        ooooooooooooooooXXOOOO@@@@@OOOOOXoo                                                                ",
"               ooooooooooooooo    oooooXOOOOOOOOOXoo                                                                    ooooXOOOO@@OOXooooooooXXOOOOXXXXoooooooXOOOO@@@@OOOOOXOOOOOOOOOO@@@@@$$$@@@OOOXXoooo o                                  oooXOOO@@@@OOOOOOOOOO@OOOOOOOOOOOOOOXXXOOOOXXooooo                                        oo   ooooooo .oo      .oo..o..o.....oo.o.o.......ooooo....oooo...o............XXXXXXXXXXXXXXXXXOXO++OOOO@@O@@@@@@@@@@@@@#$$****==;;;;;;;;;;==***$$$@@@@@@@@@@@@@@@@@@@@@@@@@@O@@@OOOOOOOOOOOOXXOXXXXOOXXXXXXXXXXXXXXXXXXXXOOO@@@@@@@@@@#**%===;;;;;;;;;;;;;;;;;;;;;;;;;;;;;;;;;;;;;;;;;;;;;;;;;;;;;;;;;;;;;;;;;;;;;;;;;;;;;;;;;;;;;;;;;;;;;;;;;;;;;;;;;;;;;;;;;;;;;==%*$$$##@@@@@@@@@@+@@@&&&&&&:&&&++++++++++++++++++++++OOOOOO@@++@@@@@@@@$$$$*-;;;;;;=****$$@@@@@@@@@@@@@@@++@@@++++++++++++OOO++++++++++++++++++++++++++++++++++++++++XXXX++++++++XXXXX+OO+++O@OOXXXO@@@@@@@@@@@@@@@@@@@++++++++++++++++++++++++++++++++++++++++++++++++++++++++++++&&&&&&&&+++++++++++++++++++++++++++XXX++XXXXXXXXXXXXXXXXXXXXXX....Xo...ooo...            oooooXXXXXooo          ooooooXXXO@@@$*****@@@OOXXXXooooooooooXXXXXXXXXXoooooooooooXXXXXXXooooooooooooooooo                        oooooooooooooooooXOOOO@@@@@OOOOOOoo                                                                ",
"                  oooooooooooo    oooooXOOOOOOOOOOoo                                                                    ooooXOOOO@@OOXooooooooXXXOOOXXXXXoooooXXOOOOOOOOOOOOOOOOOO@@@@@@@@$$$$$@@OOOXXXooooo                                    oooXOOO@@@OOOOOOOOOOO@OOOOOOOOOOOOOOOOOOOOXXoooooo                                  o     oooooooooooooooo..o.ooooo.oo......o.............oo........oo.....o....XX....XXXXXXXXXXXXXXXX++OOOO++OOOO+@@@@@@@@@@@@@@@$$$***==;;;;;;;;;;-==**$$$@@@@@@@$@@@@@@@@@@@@@@@@@@@@@@@@OOOOOOOOOOOOOOOXXOOOXXXXXXXXXXXXXXXX+XXXOOO@@@@@@@@@*==;;;;;;;;;;;;;;;;;;;;;;;;;;;;;;;;;;;;;;;;;;;;;;;;;;;;;;;;;;;;;;;;;;;;;;;;;;;;;;;;;;;;;;;;;;;;;;;;;;;;;;;;;;;;;;;;;;;;;;;;;;;;==*$$$#@@@@@@@@@@@@@@#&+&&&:&&&++++++++++++++++++++++OOOOOO@@++@@@@@@@@$$$$$=;;;;;;;=**$$*#@@@@@@@@@@@@@@@@@@@@+++++++++++O++++++++++++++++++++++++++++++++++++++++++XXX+++++++++XXXXX+++++X+OOO+XXOO@@@@@@@@@@@@@@@@@@++++++++++++++++++++++++++++++++++++++++++++++++++++++++++++&&&&&&&+++++++++++++++++++++++++++++XX++XXXX++++++X...XXX.XXXX....X...oooooo..            ooooooXXXXooo         oo oooooXOOO@@$*****@@@@OOXXXXooooooooXXXXXXXXXXooooooooooooXXXXXXooooooooooooooooo                        oooooooooooooooooXXOOOO@@OOOOOOXooo                                                                ",
"                     oooooooooo    ooooXOOOOOOOOOXoo                                                                    ooooOOOOO@OOOXoooooooooXXXXXXXXXooooooooXXOOOOOXOOOOOOOO@@@@@$$$$$$$$@@@OOXXXXoooooo o                                  oooXOOOO@@OOOOOOOOOOO@OOOOO@OOOOOOOOOOXXXXXoooooooo    o  o                        ooo    oo ooooooooooooo..ooooo...o.oo.o..o.oo..........oo....oo..oo....oXoo.XXX.X.XXXXXXXXXXXXX+XXXX+OOOO++OOOO+@@@@@@@@@@@@@@@$$$**==;;;;;;;;;;-=****$$@@@@@@@@$@@@@@@@@@@@@@@@@@@@@@@@@@OOOOOOOOOO+XOXXXXXXXXXXXXXXXOOOXXXXXXXXXOO@@@@@@@@$==;;;;;;;;;;;;;;;;;;;;;;;;;;;;;;;;;;;;;;;;;;;;;;;;;;;;;;;;;;;;;;;;;;;;;;;;;;;;;;;;;;;;;;;;;;;;;;;;;;;;;;;;;;;;;;;;;;;;;;;;;;;;;;=****$@@@@@@@@@@@@@@@&&&&&&:&&++++++++++++++++++OO++++O+OO++++@@@@@@@@$$$**=;;;;;;;;=*****@@@@@@@@@@@@@@++@@@@++@@@++++++++++++++++++++++++++++++++++++++++++++++++++O++++X+++XX+X++++++++XXOOOO+XXOO@@@@@@@@@@@@@@@@@@@+++++++++++++++++++++++++++++++++++++++++++++++++++++++++++++&+&++++++++++++++++++++++++++++++++++++XXX+XX++..XXXX....XXX.XXXX....ooooooo             oooooXXXXooo           oooooXXOO@@@@*****$@@@@OOXXXXXooooooooooooooooooooooooooooooXXooooo o     oooooo                          oooooooooooooooooOOOOOOOOOOOOXooo                                                                ",
"                        ooooooo    ooooXOOOOOOOOOXoo                                                                oo  ooooOOOOO@OOOXooooooooooXXXXXXXXooooooooooXXOXXXXXOOOOOO@@@$$$$$$$$$@@OOOXXXXXoooo                                      oooOOOOO@@OOOOOOOOOOOOOOOOO@@OOOOOOOOOXXXXooooooooo   oo oo               oooo     o o    oo o..oooooooooo..ooooo...o.oooo...ooo................oo..o.....ooooXXXXX.XXXXXXXXXXXXXX+XXXO+O+OO+OO+O+@@@@@@@@@@@@@@$$$***==;;;;;;;;;;;==***$$$@@@@@@@@#@@@@@@@@@@@@@@@@@@@@@@@@@@@O@OOOOO++OXXOXXXXOO++XX++XXOXXXXXOXXXXOO@@@@@@@@#**=;;;;;;;;;;;;;;;;;;;;;;;;;;;;;;;;;;;;;;;;;;;;;;;;;;;;;;;;;;;;;;;;;;;;;;;;;;;;;;;;;;;;;;;;;;;;;;;;;;;;;;;;;;;;;;;;;;;;;;;;;;;;;;=****@@#@@@@@@@+@@@@&&&&&&:&&++++@+@+++++O+++OOOO+++++OOOO+++@@@@@@@@$$$***=;;;;;;;==****##@@@@@@@@@@@@++@@@+++@@@@++++++++++++++++++++++++++++++++++++++++++++++++++++++XX+++X++++++XXX++XOOOO+XXXO@@@@@@@@@@@@@@@@@@@+++++++++++++++++++++++++++++++++++++++++++++++++++++++++++++&++++++++++++++++++++++++++++++++++++++++++XXX++XX++X...X..XXXXXX.....ooooooo.             ooooooo oo            ooooXXXOOO@@@$****$@@@@OXXXXXXooooooooooooooooooooo  ooooooooooooo       oooooo                           ooooooooooooooooOOOOOOOOOOOOooo                                                                 ",
"                      oooo          oooXOOOOOOOOXXoo                                                                  ooooooXXOOOO@OOXooooooooooXXoooooooooooooooooooooXXXOOOOO@@$$$$$$$$$@@OOOXXXXXXXXXooooo                                     oXOOOO@@OOOOOOOOO@@OOOOOOOOOOOOOOOOOOXXooooooooooo        oooooo              o  o   oooooo.....oooo..oo....oo...oooo..........X..................o.........ooXX.XXXXXXXXXXXXXXXXXXXXXOO+O+OO+@@@@@@@@@@@@@@@$$$$**==;;;;;;;;;;;=****$$$$@@@@@@@@@@@@@@@@@@@@@@@@@@@@@@@@@@@@@@@@@OOOOOXO+XXXXXXXXXXXXXXXXXXXXXXXOOOOO@@@@@@@@@@$$*===-;;;;;;;;;;;;;;;;;;;;;;;----;;;;;----;;;-;-;----;;;;----;;;;------===---------===-=-====---===========--;;;;;;;;;;;;;;;;;=***$#@#@@@@@@@@@@@@#&&&&&:&&&+@+++++++++++++O++++++++++++@++@@@@@@@@@$****=-;;;;;;;==*****@@@@@@@@@@@@+@@@+++++++@@@++++++++++++++++++++++++++++++++++++++++++++++++++X++++XXXXX++++XXOXXX+++OXX+XXOO@@@@@@@@@@@@@@@@@&@+++++++++++++++++++++++++++++++++++++++++++++++++++++++++++++++++++++++++++++++++++++++++++++++++X+++++++XXXXX++XXXXXXXXXX..........oooooo           o                      oooooXXXXXOO@@@$******@@@@OOXXXXoooooooooooooooooooo   oooooooooooo        oooo                         oo oooooXoXXXOOOOOOOOOOOOOOOXXooo                                                                 ",
"                      ooooo         oooXOOOOOOOOXXoo                                                                  ooooooXXOOOOOOOXoooooooooooXooooooooooooooooooooooXXOOOO@@$$$$$$$$@@@OOOXXooXXXXXOXoooo                                     oXOOOO@@@OOOOOOOOOOOOOOOOOOOOOOOOOOOOXoooooooooooo        ooo         oo      oo o  ooooooooo....ooo..ooo..ooo...ooo..............................oo...o..oooX.XXXXXXXXXXXXXXXXXXXXXOO++OOOOOO@@@@@@@@@@@@@@$$$$***=-;;;;;;;;;;=****$$$$@@@@@@@@@@@@@@@@@@@@@@@@@@@@@@@@@@@@@@@@@@OOOOOOOOXX+XXXXXXXXXXXXXOXXXXXXXOOOO@@@@@@@@@@$$$$$$$%*%%%%%========%%%=%%*$**$$$%$$$$%$$%**%****%%%****%%%%%%%%********************%%*%*******=%***%%%****=======;;;;;;;;;;;-=**$#@#@@@@@@@@@@@@#&&&&&&&&&++++++++++++++++O+++++++OOO+O++@@@@@@@@@@$****=;;;;;;;;=*****#@@@@@@@@@@@@@@+++@+++++@@++++++++++++++++++++++++++++++++++++++++++++++++++++++++++XX++++XXOX+++++OX++XXOOO@@@@@@@@@@@@@@@@&@+++++++++++++++++++++++++++++++++++++++++++++++++++++++++++++++++++++++++++++++++++++++++++++++++++++X+++XXXXX++X.XXXXXXXX..........oooooo.                                   oooXXXXXXOO@@@$*****$@@@OOXXXXooooo oooo ooooooooo  ooooooooooooooo  o  ooooo                            ooooXOXOOOOOOOOOOOOOOOOOOXXoo                                                                  ",
"                       oooo         oooXOOOOOOOOXXoo                                                                  ooooooXXOOOOOOXXooooooooooooooooooooooooooooooooooXOOOO@@@$$$$$$@@@OOOXXooXXOOOOOOXXooo                                     oXOOOO@@OOOOOOOOOOOOOOOOOOOOOOOOOOOOXoooooooooo oo                o  oooo oo  ooo    o  oooo.ooooooo.ooo....oo..............XX....XXX.................o.oo.oXXXXXXXXXXXXXXXXXXXXX+++OO++O++OOO@@@@@@@@@@@@@@$$$$**=-;;;;;;;;;;==****$$$@@@@@@@@@@@@@@@@@@@@@@@@@@@@@@@@@@@@@@@@@@@OOOOOOOOOO+XXXXXX+XXXXOOXXXXXXXOOOOOO@@@@@@@@@@@$$$$$$$$$$$$$$$$$$$$$$$$$$$$$$$$$$$$$$$$****$$**$*$$$$****$$$$********************************==**==********==*=====;;;;;;;;;;=**$*$@@@@@@@@@@@@@#&&&&&&&&&&+@++++++++++++++++++++OOOOOOOO@@@@@@@@@@@$****=;;;;;;;;=******@@@@@@@@@@@@@+@@@@++++@+++++++++++++++++++++++++++++++++++++++++++++++++++++++++++++++++++++++++++XX+XXXOO@@@@@@@@@@@@@@@@@@@@++++++++++++++++++++++++++++++++++++++++++++++++++++++++++++++++++++++++++++++++++++++++++++++++++XX++++XXXX+++X.XXXXXXXXXXXXX.........o..o     o                           oooooXXXXXXOO@@@******$@@@OOXXXXooo ooo     oo        oooooooooooooooooooooo                 o          ooooOOOO@@@@@$$$$@$$@@OOOOOOooo                                                                 ",
"                       ooooo        oooXOOOOOOOOXXoo                                                                  ooooooXXOOOOOOXXooooooooooooooooooooo   oo oooooooOOOO@@@$$$$$$$@OOOOXooooXXOOOOOOOXoooo                                    oXOOOO@@OOOOOOOOOOOOOOOOOOOOOOOOOOOOXoooooooooo oo  o     oo  oooo   oooooooooooo    o   .oooooooooo..oo....oo........XXXX.XXX....XXXX................o.XX.XXXXXXXXXXXXXXXXXXXXX++++OO++OOOOO@@@@@@@@@@@@@@$$$$**==;;;;;;;;;;==****$$$@@@@@@@@@@@$$$$$@@@@$$$$@@@@@@@$@@@@@@@@@@@@@@OOO@OOOOO++XXXOOXOXXOO+++XXXXOOOOOOOO@@@@@@@@@@@$$$$$$$$$$$$$$$$$$$$$$$$$$$$$$$$$$$$$$$$$$$$$$$$$$$$****$$$$$$$$$$$$***$**$$$$$$***$******$$*********************==;;;;;;;;;=****$@@@@@@@@@@@@@@&&&&&&:&&&++@++++++++++++++++++++OOOOOO@@@@@@@@@@@$$$***==;;;;;;;-=*****#@@@@@@@@@@@@+@@@@++++@++++++++++++++++++++++++++++++++++++++++++++++++++++++X+++++++++++++++++++XXX++++XXX+@@@@@@@@@@@@@@&&&@++++++++++++++++++++++++++++++++++++++++++++++++++++++++++++++++++++++++++++++++++++++++++++++++++XX++++XXX++++X.X++XXX.XXXXXXXX..........oo.. oo                           oooooXooXXXOOO@@@$******@@@OXXXXoooooo                  ooooooooooooooooooooo                   ooo    ooooXOOO@@$$$$$$$$$$$$$@@OOOXooo                                                                 ",
"                        oooo       ooooXOOOOOOOOXXoo                                                                    ooooOOOOOOOOXXooooooooooooooooooooo o  o    ooooOOO@@@$$$$@@@OOOXXXooooXOOOO@@OOOXXooo o                                oooXOO@@@@OOOOOOOOOOOOOOOOOOOOOOOOOOOOooooooooo       oooooo    oo    ooooo oooo    oo .  oooooooooooo..oo....X.........X..X...++++++++++++..........ooo.XXX.XXX.XXXXXXXXXXXXXXXXXOO+OOO+OOOOO@@@@@@@@@@@@@@$$$***%=;;;;;;;;;;-=****$$$@@@@@@@@@@@@@$$$$$$$$$$$$$$$$$$$$$$@@@@@@@@@@@@@O@OOOOOOOOOOXXXXXOOX++XXXOOOOOOOOOOOO@@@@@@@@@@@@@@@@$$$$$$$$$$$$$$$$$$$$$$$$@@@$$$$$@@@@@@@$$$$$$$$$$$$$$$$$$$$$$$$$$@$$$$$$$$$$$$$$$$$$$$$$$$$$$$$$$$**$*****===-;;;;;;;;=*****$@@@@@@@@@@@@#&&&&&&:&&&++++++++++++++++OO++++++OOOOO+++@@@@@@@@@@*****=;;;;;;;;=*****$$@@@@@@@@@@@@@@@@@@@@++@@++++++O+O+++++++++++++++++++++++++++++++++++++++++++++++++++++++++++++XX++++++XXX+@@@@@@@@@@@@@@@@@@@@++++++++++++++++++++++++++++++++++++++++++++++++++++++++++++++++++++++++++++++++++++++++++++++++XX++XXXX++XXX+XXXX+X..XXXXXX....X.o...oooo.ooo    oo                      ooooXXXXXXXXXXOO@@@*******@@@@OOXooooo    o               ooooXXXXXXOOXXXXXXoooo          ooooooOOOoXooooXOOOO$$$$$$$$$$$$$$$$$$@OOOXooo                                                                ",
"                        oooo         oooOOOOOOOOXXoo                                                                    ooooXOOOOOOOXXoooooo  ooooooooooooo o       oooXOO@@$$$$$$@@OOOXooooooXOOO@@@@OOOXXooooo                                 ooXOOO@@@@OOOOOOOOOOOOOOOOOOOOOOOOOOXooooooooo       oooooo    oo    ooooo oooo  ..ooo...oooo.ooooooo........X...........X...++....++++++++++.......o....XX.XXXXXXXXXXXXXXXXXXXXXXOXOOOOOO@O@@@@@@@@@@@@@@@$$***==;;;;;;;;;;;=****$$$$@@@@@@@@@@@@@$$*****$$$**$$$**$$$$$$$$@@@@@@@@@@@@@OOOOOOOOOOXXOOXOOOOOXXXXXXOOXOOOOOO@@@O@@@@@@@@@@@@@@@@@@@@@@@$$$$@@@@@@@@@@@@$$@@@@@@@@@@@@@@@@@@@@@@@@@@@$@@@@$@@@@@@$$$@@@@@@$$$$$$@@@@$$$$$$$$$$$$$******===;;;;;;;;=*****$#@@@@@@@@@@@@&&&&&&:&&&++++++++++++++++OO+++++O+OOOOO++@@@@@@@@@$$$***==;;;;;;;;=*****$##@@@@@@@@@@@@+@@@@@+@@@++++++O+++++++++XXXXX++++X++++++++++++++X+++++++++++++XX++++++++++++++XX+++O++XXX+O@@@@@@@@@@@@@@@@@@@+++++++++++++++++++++++++++++++++++++++++++++++++++++++++++++++++++++++++++++++++++++++++++++++++++++X+X++XXX+++XX++.XXXXXXXXXX.......oooooooo    oo                     ooooXXXXXXXoXXXXO@@@@*******@@@@OXXoooo    o                oooXXXXXOOOOOOXXXXooooo        oooXXOOOOOOXXXXXOOOO@$$$$$$$$$$$$$$$$$@@@OOXoo                                                                ",
"                       oooo          oooXOOOOOOOXXoo                                                                    ooooXOOOOOOOXXoooo    oooooooooooooo        oooXOO@@$$$$@@OOOXoooooooXOOO@@@@@OOOOXooooooooo                             ooXOOOO@@OOOOOOOOOOOOOOOOOOOOOOOOOOOooooooooooooo        oo  ooooooo   oo    ooo.oooo...oooo..o..o.XoXX.............X.X....+++++++++++++++++++...............XXXXXXXXXXXXXXXXXXXOOO++++OOO@@@@@@@@@@@@@@@@$$***%=;;;;;;;;;;;==***$$$@@@@@@@@@@@@@@@$$**$$***$*********$*****$$$@@@@@@@@@O@OOOOOOOOXXXOOXXXXOOOXXXXXXOOOOOOOOOOOOO@@@@@@@@@@@@@@@@@@@@@@@@@@@@@@@@@@@@@@@@@@@@@@@@@@@@@@@@@@@@@@@@@@@@@@@@@@@@@@@@@@@@@@@@@@@@@@@@@@@@@@@@@#@@$$$$****====;;;;;;;;-*****$##@@@@@@@@@@@&&&&&&&:&&++++@+++++OO++++OOO++++O++OO++++@@@@@@@@@@$*****=;;;;;;;;;=****$$$#@@@@@@@@@@@+@@@++++@@+++++O+++XXX++++XXXXXX++++++++++++++++++X++++XX+++++++XXXXX++++++XXX+++X+++++++XOO@@@@@@@@@@@@@@@$@$@@&@++++++++++++++++++++++++++++++++++++++++++++++++++++++++++++++++++++++++++++++++++++++++++++++++++X++++++X+++++X+XXXXXXXXXX.XXX.XX..oo.....o... o                      ooooXXXXXXXooXXXXOO@@@@******@@@@XXXXooo  o                  ooXXOOOO@@@@@@@OOOXXoooo    ooooXOOO@@$$@@OOOOOOOOOO$$$$$$$$$$$$$$$$$$@@OOOo                                                                ",
"                       ooo           oooXOOOOOOOXXoo                                                                    ooooXXOO@OOOXXoooo   oooooooooo ooooo       oooXOO@@$$$$@@OOXoooooooXOOO@@@@@@OOOOXoooooooooo                            ooXOOOOOOOOOOOOOOOOOOOOOOOOOOOOOOOOOoooooooooo oooo     oooooooooo o oooo      oooooo...oooo.o.....oXXX.............XXX.....+++++++++&&&&&&++...............XXXXXXXXXXXXXXXXXXXXXOO+++OOOO@@@@@@@@@@@@@@@$$$**==-;;;;;;;;;;=%***$$$$@@@@@@@@@@@@@@$$**$$**==============******$@@@@@@@@OO@@OOOOOOOX+XOOXXXXOOOXXXXXOOOOOOOOOOOOOOOO@@@@@@@@@@@@@@@@@@@@@@@@@@@@@@@@@@@@@@@@@@@@@@@@@@@@@@@@@@@@@@@@@@@@@@@@@@@@@@@@@@@@@@@@@@@@@@@@@@@@@@@@@$$$$$$****===;;;;;;;;;=*****##@@@@@@@@@@@#&&&&&&:&&+++@@@+++OO++++OO+++++OO++O@@+++@@@@@@@@@@$$$$**%=;;;;;;;;=******$#@@@@@@@@@@@++@@++++@@@+O++++O+XXX++XXXXXXX++++++XX++++++++X++X+++++X+++++XXXX+X+++++++XXX++++X++++++@@@@@@@@@@@@@@@@@@@@@&#&&+++++++++++++++++++++++++++++++++++++++++++++++++++++++++++++++++++++++++++++++++++++++++++++++++++++++++++++++XXXXXXXXXXXXXXXXXXXXX............o                      ooooXXXXXXXXooXXXXXOO@@@@*****@@@OXXXXoo              ooo    ooXXXOO@@@@@@@@@@OOXooooo   oooXOOO@@$$$$$@@@OOOOOOOO$$$$$$$$$$$$$$$$$$@@OOO                                                                ",
"                      ooo           ooooXOOOOOOOXXoo                                                                    ooooXXOOO@OOXXooooooo oooooooooo    o    o oooXXOO@@@@@@OOooooooooXXOO@@$$@@@@OOOOXXooooXXooooooo                        ooXOOOOOOOOOOOOOOOOOOOOOOOOOOOOOOOOXoooooooooo ooooooo oooo  oo oooo...oo.oo.. ooooooo.oooo......X..........X..X.......++++++++++&&&&&&&&&&++...ooo...X.XXX..XXXXXXXXXXXXXXXXXXXOOOOOOOOOO@@@@@@@@@@@@@$$$****==;;;;;;;;;;==***$$$@@@@@@@@@@@@@@$$$****==;;;;;;;;;;;;;;;;=%***$$$@@@@@@@@OOOOOOOOOXXXOXXXXXXXXXXXXXXXXOXOOOOOOOOO@@@@O@@@@@@@@@@@@@@@@@@@@@@@@@@@@@@@@@@@@@@@@@@@@@@@@@@@@@@@@@@@@@@@@@@@@@@@@@@@@@@@@@@@@@@@@@@@@@@@@@@@@$$$$$$$$$***====;;;;;;;;=*****$@@##@@@@@+@@@#&&&&&&&&&+++@+++++++OOOO+++++O++++OO@@@@OO@@@@@@@@@$$$***==;;;;;;;;=******$$@@@@@@@@@@@@@@@@++@+@@O+++++XXXX++++XX+++++XX+++++++++++++++++++++++X++++XXX++++++++++++++XXXX+++@@@@@@@@@@@@@@@@@@@@@$$$&&&@@+++++++++++++++++++++++++++++++++++++++++++++++++++++++++++++++++++++++++++++++++++++++++++++++++++XX+++XXXXXXXXXXXX..XX..XXXXXX..........oo....                   oooXXXXOOOXXXXXooooXXXXOO@@$$*$$@@@OOXXoXoooooo         . ...o..XXXOO@@@@$$$$$$$$@@@OOXXoooooXXOO@@@$$$$$$$$$$$@OOO@@@@@$$$$$$$$$$$$$$@OOOOXoooo                                                           ",
"                       oo           ooooXOOOOOOOXXoo                                                                    ooooXXOOO@OOXooo ooooooooooooo oo  oooooooooooXXO@@@@@OOXXooooooooXOO@@$@@@@@@OOOOOOXoooXXooooooooo                      ooXOOOOOOOOOOOOOOOOOOOOOOOOOOOOOOOOXooooooooo  oo  ooo oooo oooooooooooooooo..o..o.oo..oooo..o...XXX...........X..XX...++++++++&&&&&&&&&&&+++..ooo...XXXXXX..XXXXXXXXXXXXXXXXXXX+OOOOOOOOO@@@@@@@@@@@@@$*$***==;;;;;;;;;;=*****$$@@@@@@@@@@@@@@@@$$***=;;;;;;;;;;;;;;;;;;;;==***$@@@@@@@@@OOOOOOOOXXXOXXXXXXXXOXXXXXXXXXOOOOOOOOOO@@@OO@O@@@@@@@@@@@@@@@@@@@@@@@@@@@@@@@@@@@@@@@@@@@@@@@@@@@@@@@@@@@@@@@@@@@@@@@@@@@@@@@@@@@@@@@@@@@@@@@@@@@$$$$$$$***====;;;;;;;;==****$@@##@@@@@@@@@+&&&&&&&&&+++@+++++++O+++++++O+++++OOO@+@O@@@@@@@@@@@$$****=;;;;;;;;;=******$$@@@@@@@@@@@@@@+++++@O++++XXXXXX+XXXXX+X+++X+++++++++++++++++++++++++++XXX+X+X++X+XX++++++++X+++@@@@@@@@@@@@@@@@@@@@@@@@$&@&&&++++++++++++++++++++++++++++++++++++++++++++++++++++++++++++++++++++++++++++++++++++++++++++++++++++++++++XX+XXXXXXX..XXX.XXX.XX..........ooooo.                   ooXXXXXOOXXXXXXoooXXXXXXOO@@$$$@@@@OOXXXXooooooo... o.  ..o..o.XXXXOOOO@@$$$$$$$$$$@@OOXXXXXoXXOO@@@@$$$$$$$$$$$$@O@@@@@@@$$$$$$$$$$$$@@OOOXXoooo                                                          ",
"                                     oooXOOOOOOOXXoo                                                                    ooooXOOOO@OOXooo    ooooooo o       ooooooooooXXOOOOOOOXooooooooOOO@@@@@@@@@@@@OOOOOXXooXXXXXooooooo                      oXOOOO@@OOOOOOOOOOOOOOOOOOOOOOOOOOXoooooooooooooo  oo oooooooooooooooooooooo......ooo...ooXX...XXXX.........XX...X....+++++&&&&&&&&&&&&+++.......X......XX.XXXXXXXXXXXXXXXXXXX+++O+OOOOOO@@@@@@@@@@@@#$*****=;;;;;;;;;;-=****$$$@@@@@@@@@@@@@@$@$$$*=;;;;;;;;;;;;;;;;;;;;;;-=**$$@@@@@@@@O@OOOOOO+X+XXXXXXXOOOXXXXXXXXXOOOOOOOOOOOOOOOOOOO@@@@@@@@@@@@@@@@@@@@@@@@@@@@OOOO@@@@@@@@@@@@@@@@@@@@@@@@@@@@@@@@@@@@@@@@@@@@@@@@@@@@@@@@@@@@@@@@@$$$$$$$$**====;;;;;;;;-=****$#@#@@@@@@@@@@@@#&&&&&&&+++++++++++++++++++OO++++OO++++@@@@@@@@@@@@$$****==;;;;;;;;===*****$@@@@@@@@@@@@@@+++++@O++++XXXXXXXXXXXXOOO+++X++XX+++++++++++++++++++++++++++++XXXX+X++++++++X++++@@@@@@@@@@@@@@@@@@@@@@@@@$&&@&&+++&&&+++++++++++++++++++++++++++++++++++++++++++++++++++++++++++++++++++++++++++++++++++++++++++++++++++++X+X++X.....XXXX..XXX.XX.X...ooooooo             o    oooXOOOOOXXXXXXXXXXXXXXXXXOO@@@@@@@@OOXXXXXXooooooooXXXXXXXXXXXXXXOOOOO@@@@$$$$$$$$$$$@@OOXXXXOOOOO@@@$$$$$$$$$$$$$$$@OOOOO@@@$$$$$$$$$@OOOOOOOXoooooo                                                      ",
"                                     oooXOOOOOOOXXoo                                                                    ooooXOOOO@OOXooo    oooooo          ooooooooooXXOOOOOOOooooooooXOO@@@@@@@@@@@@@OOOOOXXoXXXooooooooooooo                   oXOOOO@@OOOOOOOOOOOOOOOOOOOOOOOOOOXoooooooooooooooooooooooooooooooooooo.oooooo.oooooo...oXXX.X.XXXXXXX...XXXXX.......+++++&&&&&&&&&&&&++++......XX......XXXXXXXXXXXXXXXXXXXXX++++OOOOOOO@@@@@@@@@@@@@$*****=-;;;;;;;;;;=****$$@@@@@@@@@@@@@@@@@@$**=;;;;;;;;;;;;;;;;;;;;;;;;=**$$$@@@@@@@O@OOO+OO+O+XXXXXXXXOOXXXOXXXXXOOOOOOOOOOOOOOOOOOOOOOOOOOO@@@@OOOO@@@OOOOO@@@@OOOO@@@@@@@@@@@@@@@@@@@@@@@OOO@@@@@@@@@@@@@@@@@@@@@@@@@@@@@@@@@@@@@@@@$$@$$$***====;;;;;;;;-=*****#@#@@@@@@@@@@@@#+&&&&&&&++@@++++++O+++++OOOO++++OO++++@@@@@@@@@@@@$$$****=;;;;;;;;;=******$$@@@@@@@@@@@@++++++@@++++OXXXXXXXXXO@@@@@@+++++++++++++++++++++++++++++++++++++++++++++++XXX+++++O@@@@@@@@@@@@@@@@@@@@@@@$$&&&&++&&&&&+++++++++++++++++++++++++++++++++++++++++++++++++++++++++++++++++++++++++++++++++++++++++++++++++++++++++XX....XXXX..XXX.XXXXX..oooo.o.......       oo   ooXXOOOOOXXXXXXXXXXoXXXXXXXO@@@@@@@@OOXXXXXXXXXXXXXXXXXXXXXXXXXXXXOO@@@@@@@@$$$$$$$$$$$$@OOOOOOOOOO@@@@@$$$$$$$$$$$$$$@@OOOO@@@$$$$$$@@@OOOOOOOOXXooooo                                                     ",
"                                     oooXOOOOOOOXooo                                                                    ooooXOOOOOOOXXoo    ooooo ooooo ooooooooooooooXXXXOXXooo ooooXOOO@@@@@OOOOO@@@@@@OOOOOXXXXXooooooooooooo                  oXOOOO@@OOOOOOOOOOOOOOOOOOOOOOOOOXooooooooooooooooooooooooooooooooooooooooooo.oooo.oooX...XXXX...XXXXXXXXX..X.XX....+++++&&&&&&&&&&&++++++..o...XXXX.X..XXXXXXXXXXXXXXXXXXXXOOXX++OO+@@@@@@@@@@@@@@@$$****=-;;;;;;;;;;==***$$$@@@@@@@@@@@@@@@@@@$**=;;;;;;;;;;;;;;;;;;;;;;;;=***$$@@@@@@@@@@OOOOOOOO+XXXOOOOOXXXXOXXXOXXOOOOOOOOOOOOOOOOOOOOOOOOOOOO@@OOO@@@OOOOOOOO@@OO@@@@OO@@@@@@@@@@@@@@@@OOOO@@@@@@@@@@@@@@@@@@@@@@@@@@@@@@@@@@@@@@@@@@$@@$$$***====;;;;;;;;;=*****@@@@@@@@@@@@@@@&&&&&::&&+@++++@++O+++++OOO+++++++++OOO+@@@@@@@@@@@$$$*$**==;;;;;;;;-=*****$@@@@@@@@@@@@@++@@@@@++++O+OXXXXXXXX@$*=**@@@OOOO+O+++++++++++++++++++++++++++++++++++++++++X++X++++@@@@@@@@@@@@@@@@@@@@@$$$$$&&&&+&&&&+++++++++++++++++++++++++++++++++++++++++++++++++++++++++++++++++++++++++++++++++++++++++++++++++++++++++++X+.XXXXX..XXXXXXX.XXXXXXXo...ooo..      ooo   oXXXOOOOOOXXXXXXXXXXXooXXXOOO@@@@@@@@OOOXXXXXXXXXOOO@@@@@@@@OOOO@@@@@@@@@@@@@$$$$$**$$$$$$@@OOOOOOOOOO@@@@$$$$$$$$$$$$$$$@@@OOO@OOOO@@@@@@OOOOOOOOOOoooooooooo                                              ",
"                                     oooXXOOOOOXXooo                                                                    ooooXXOOOOOOXXoo  oooooo  ooooooooXXXXXoXooooooXXXXXXoooooooXOOO@@@@OOOOOOO@@@@@@OOOOOXXXXXooooooooooooooo                oXOOOOOOOOOOOOOOOOOOOOOOOOOOOOOOXooooooooooooooooooooooooooooooooooooooooooo..oooo........XX.....XXXXXXXXX....XX.X++++++&&&&&&&&&&&+++++++......XXXX.X.XXXXXXXXXXXXXXXXXXXXXOO+X+O++@@@@@@@@@@@@@@@$$$***==;;;;;;;;;;==***$$$$@@@@@@@@@@@@@@@@@@$**=;;;;;;;;;;;==;;;;;;;;;;;=***$$@@@@@@@@@@OOOOOOO+OXOOOOXOXXXXXOXXXOOXOXXXOOOOOOOOOOOOOOOOOOOOOOOOOOOOOOOOOOOOOOOOOOOOOOOOOOOO@@OOOOOO@@@@O@OOOOOOOOOOOOOOOOOO@@OOOO@@@@@@@@@@@@@@@@@@@@@@@@@$$$****===;;;;;;;;;=*****#@@@@@@@@@@@@@@@&&&&&&&&++@++++++++++OOOOO+O+++++++OOO+@@@@@@@@@@@$$$$$***%=;;;;;;;;=*******###@@@@@@@@@@@@@@@@@+++++O+++XXXX+@#*===**@@O+++++++++++++++++++++++++++++++++++++++++++XX++++++++++@@@@@@@@@@@@@@@@@@@$@$@@&&&&++&&&&++++++++++++++++++++++++++++++++++++++++++++++++++++++++++++++++++++++++++++++++++++++++++++++++++X+XX+++++++++XX...XXXXXX....XXXXX.oo..oo.ooo    oo   ooXXXOOOOOOXXXXXXXXXXXXXXXXOO@@@@@$$@@@@OXXXXXXXXOO@@@@@@@@@@@@@@@@@@@@@@@@@@@@$$$$***$$$$$$@OOOOOOO@OO@@@@$$$$$$$$$$$$$$$$@@@OOOOOOOOO@@@@OOOOOOOOOOXXooooooooo            o                                ",
"                                     oooXXOOOOXXXooo                                                                    ooooXOOOOOOOXXoo ooo     oooooooOOOOOOOOXooooooooXoooooooooXOOO@@OOOOOXOOO@@$$@@@OOOOOXXXXXXooooooooooXXoooo             ooXOOOOOOOOOOOOOOOOOOOOOOOOOOOOXXooooooooooooooooooooooooooooooooooooooooooo...oooo..XXXX..XX....XXXXXXXX....XXXX.X++++++&&&&++++++++++++....o....XXXXXXXXXXXXXXXXXXXXXXXXXXOO+++OOOO@@@@@@@@@@@@@@$$$$***=;;;;;;;;;;-=****$$$$@@@@@@@@@@@@@@@@@@$**=;;;;;;;;;;-==-;;;;;;;;;;==**$@@@@@@@@@OOOOOOOOOOXOXXOXXOXOXXXOXXXXOOXXXXXOOOOOOOOOOOOOOOOOOOOOOOOOOOOOOOOOOOOOOOOOOOOOOOOOOOOOOOOOOOOOOOOOOOOOOOOOOOOOOOOOOOOOOOOOOOO@@@@@@@@@@@@@@@@@@@@@@$$$****===-;;;;;;;;=*****$@@@@@@@@@@@@@@&&&&&&&&#@+@@@@++OO+++++OOOOOOOOO++OOOOOOOO@@@@@@@@@@$$$$***=;;;;;;;;;=*******$##@@@@@@@@@@@@@@++++++++OO+++XOO@@#**===*@@@@@+++++++++++++++++++++++++++++++++++++X++++++++++++++++@@@@@@@@@@@@@@@@@@@@$$#$&&@+++&&++&&&&&&+++++++++++++++++++++++++++++++++++++++++++++++++++++++++++++++++++++++++++++++++++++++++X++XXXX++++XXXXXXXXXXXX........X.....o.ooooooo.  oo   ooXXXOOOOOOOXXXXXoXXXXXXXXOOO@@@@@$**#@@@OOXXXXXXOO@@@@@@@@@@@@@@@@@@@@@@@@@@@@@@$$$$$$***$$$@@@OOOOOOOOOOOO@$$$$$$$$$$*$$$$$@@@@OOOOOOOOOOOOOOOOOOOOOOOXooooooooooo      ooo oo                             ",
"                       o             ooooXOOOOXXXooo                                                                    ooooXOOOOOOOXXoooooo    ooooooXXOO@@@@OOooooooooXXXooooooXXOOOOOOOOOOOOOOO@@$$@@@OOOOOXXXXXXXooooooooXXXXooo            oooXOOOOOOOOOOOOOOOOOOOOOOOOOOOOXXooooooooooooooooooooooooo..oooooooo...ooooo....oX...XXXXXXXX..XXXXXXX.X.....XXXXXX+++++&&&&+++++++++++++.........XXXXXXXXXXXXXXXXXXXXXX+++OOO++OOOOO@@@@@@@@@@@@@$$$$**==;;;;;;;;;;;=***$$$$@$@@@@@@@@@@@@@@@@@@$***==-;;;;;;;===-;;;;;;;;;-=***@@@@@@@@@@OOOOOOOOO+OOXXXXXXXOXXXXXXXXXOXXXXXOOOOOOOOOOOOOOOOOOOOOOOOOOOOOOOOOOOOOOOOOOOOOOOOOOOOOOOOOOOOOOOOOOOOOOOOOOOOOOOOOOOOOOOOOOOOOOOOO@@@@@@@@@@@@@@@@@$$$$***===-;;;;;;;;-=****$@@@@@@@@@@@@@&&&&&&&&&@@@+@@++OOO+++++OOOOOOOOO+OOOOOOOOO@@@@@@@@@@@$$$$***=;;;;;;;;;==******$$@@@@@@@@@@@@@@+++++++OOO+++XOOO@@@$*===*@@@++++++++++++++++++++++++++++++++++++++++++++++++++++++++@@@@@@@@@@@@@@@@@@@$$$$&&&++++&&&&&&&&&&&&+++&&+++++++++++++++++++++++++++++++++++++++++++++++++++++++++++++++++++++++++++++++++XXXXXXXXX+XXXXXXXXXXXXXX..........o...oooooooo.  ooooooooXXOOOOOOOOXXXXXXXXXXXXXOO@@@@@@$***$@@@OXXXXXXXO@@@@@@@@@@@@@@@@@@@@@@@@@@@@@@$$$$$$**$$**$$@@@OOOOOOOOOO@$$$$$$$$$$*$$$$$$$@@@OOOOOOOOOOOOOOOOOOOOOOOXooooooooooooo  oooooooooo                          ",
"                                     ooooXOOOOXXXoo                                                                     ooooXOOOOOOOXooo    oooo oooooXO@@@@@@OXooooooooXXXXXXXXOOOO@@OOOOXXXXOOOO@@@@@OOOOOOXXXXXOXXXooXXOOOOOOXoooo        ooooXOOOOOOOOOOOOOOOOOOOOOOOOOOOXXXXXoooooooooooooooooooooo...oo.oooooo......ooo...........XXX.XXX..XXXXX..X.....XXXXX++++++++++++++++++++XXXXo.........XXXXXXXXXXXXXXXX+XXXXXX++OOOOO@+@@@@@@@@@@@@@$#$$***=-;;;;;;;;;;==***$$$$@@@@@@@@@@@@@@@@@@@@@$$$***==========;;;;;;;;;;==**$$@@@@@@@@@OOOO+++OOOOOOXXXOXXXXXXXXOXOXXXXXXXOOOXXOOOOOOOOOOOOOOOOOOOOOOOOOOOOOOOOOOOOOOOOOOOOOOOOOOOOOOOOOOOOOOOOOOOOOOOOOOOOOOOOOOOOOOOOOO@@O@@@@@@@@@@@@@@@@@$$$***===-;;;;;;;;-=*****$@@@@@@@@@@@&&&&&&&&&&#@@+++@@@++++++OO++++OOOOOOO+++++OOO@@@@@@@@@@@$$$***==;;;;;;;;-%*=****$#@@@@@@@@@@@+++@+@+++++O+++OOOOOO@@@$*==**@@@+@+++++++++++++++++++++++++++++++++++++++++++++++XXXOOO@@@@@@@@@@@@@@@@@@@@$$#$$&@@@&+&+&&&&+++++++++++++++++++++++++++++++++++++++++++++++++++++++++++++++++++++++++++++++++++++++++++++X+++XXX+++XXXXXX+XXXX....XXXX........oooooooo..  . oooXXXOOOOOOOOXXXXXXoXXXXXXXO@@@@@$$$***@@@OXXXXXXXO@@@@$$$$$$@@@@@@@@@@@@@@@@@@@@@@$$$$*******$$$$@@@OOOOO@@@@@@$$$$$$$*$*$*$$$$$$$@OOOOOOOOOOOOOOOOOOOOOOOOOoooooooo      oo oooo  o                        ",
"                                     ooooXXOOOXXooo                                                                     ooooXOOOOOOOXooo    ooo oooooXOO@@@@OOXXooooooooXXXXXXOOOOOOOOOOOXXXXXOOOO@@@@OOOOOOOOOXXOOOXXXXOOOOOOOOXXooo        ooooXOOOOOOOOOOOOOOOOOOOOOOOOOOXXXXXXoooooooooooooooooooooo....ooooooooo...ooooX.......XXXXX...XXXX.XXXX.XXXX....XXXXX+++++++++++++++++++..XX.o......X.XXXXXXXXXXXXXXXXX+XXXXXX+XOOOOOO++@@@@@@@@@@@@$$$***==;;;;;;;;;;-==**$$$$@@@@@@@@@@@@@@@@@@@@@@@$$**$*****=====;;;;;;;;;-==**$@@@@@@@@@@OOOOOOOOOOOOOXXXOOXXXXXXOOXOXXXXXXXOOOOOOOOOOOOOOOOOOOOOOOOOOOOOOOOOOOOOOOOOOOOOOOOOOOOOOOOOOOOOOOOOOOOOOOOOOOOOOOOOOOOOOOOOOOOOOOOOOO@@@@@@@@@@@@@@@@$$$***====;;;;;;;;;=*****$#@@@@@@@@@@&&&&&&&&&&#@@++++@@++++++OO++++OOOO++O+OOO+O@@@@@@@@@@@@@$$$$***=;;;;;;;;;-=*******@@#@@@@@@@@@+++@@@++++OO++OOOOOOO@@@$**=**@@@@@+++++++++++++++++++++++++++++++++++++++++++++++++OOOO@@@@@@@@@@@@@@@@@@@@$#$&@@&@&+++&&&&&&+&++&&&&+++&+++++++++++++++++++++++++++++++++++++++++++++++++++++++++++++++++++++++++++++++X+++XXX+++XXXXXXXXXXXX...X.XXXX......oo...ooo...   .ooXXXOOOO@OOOXXXXXXXXXXXXXXOO@@@#$$$****#@@OXXXXXXXO@@@@@$$$$$@@@@@@@@@@@@@@@@@@@@@$@$$$$$*****$$$$@@@OOOOOOOO@@@$$$$$$$$*******$$$$@OOOOOOOOOOOOOOOOOOOOOOOOXooooooo     ooooooooooo                        ",
"                                     oooooXOOXXXooo                                                                     ooooXXOOOOOOXooo    oo  oooooXXOOOOOOXooooooooooXXOOOOOOOOOOOOOXXXoooXOOOOOOOOOOOOOOOOOOOOOOOOOOOOOOOOOOXXoooo  oo    ooooOOOOOOOOOOOOOOOOOOOOOOOXXoXXoXXXoooooooooooooooooooooooooooooo.oo.o.XoooooXXXX..XXXXXXXX..XXXXX.....XXXXX..X.X++++++++++++++++XXXX.X....Xo.....XXXXXXXXXXXXXXXXXXXXXXXXXXX++OOOOOOOO@@@@@@@@@@@$$$***==;;;;;;;;;;;=*=**$$$$@@@@@@@@@@@@@@@@@@@@@@@@$$$$*****====;;;;;;;;;;==***$$$@@@@@@@@@OOOOOOOOO++OOXXOOOXXXXXOOOOOOXXXXXXOOOOOOOOOOOOOOOOOOOOOOOOOOOOOOOOOOOOOOOOOOOOOOOOOOOOOOOOOOOOXXXOOOOOOOOOOOOOOOOOOOOOOOOOOOOOOOOOOO@@OOO@@@@@@@@@@@@$$$***===;;;;;;;;;=******##@@@@@@@@@&&&&&&&&&@@@@+++@@@@OOO++OOOO+OOO++++OOOOOO@@@@@@@@@@@@@@@$$$***==-;;;;;;;;=%=*****$@@@@@@@@@@@@@+@@@@@+++OOOO+OOO+OO@@@$*==**@@@@@@+++++++++++++++++++++++++++++++++++++++++++++++++OOOO@@@@@@@@@@@@@@@@@@$$&&&&&@&@+++++&+++++++++++++++++++++++++++++++++++++++++++++++++++++++++++++++++++++++++++++++++++++++++++++++++XXXX++XXXXX..XXXXXX.X..XXX....X..Xo....oooooo..oooXXXXOOO@OOOOXXXXXXXXXXXXXXXO@@@$$$$****#@@OOOXXXXXX@@@@@$$$$@@$$$$@@@@@@@@@@$@@$$@@@@$$$$*******$$$$@@@@O@OOOO@@@@$$$$$$$*******$$$$@@OOOOOOOOOOOOOOOOOOOOOOOoooooo      ooooooooooooo                     ",
"                                   ooooooXXXXXXXooo                                                                     ooooXXOOOOOOXooooo       ooooooXOOXXoooooo oooooXOOOOOOOOOOOXXXXooooooXOOOOOOOOOOOOOOOOOOOOOOOOOO@@@OOOOOXXoo         ooooXOOOOOOOOOOOOOOOOOOOOOXoXXXXooXoooooooooooooooooooooooooooooooooo.X.XXoXXXXXXX...XXXXX..XXXXXXX...X...XXXX.+++++++@@+++++++++XXXXX.X.....XXXXXXXXXXXXXXXXXXXXXXXXXXXXXXXX+++OOOOOOO@@@@@@@@@@@@#$****=;;;;;;;;;;;===*$$$$@@@@@@@@@@@@@@@@@@@@@@@@@@$$$$$*****===;;;;;;;;;;==***$$$@@@@@@@@@OOOOOOOOO+++OOO+OOOXXXXXXOOOOXXXX+OOOOOOOOOXOOOOOOOOOOOOOOOXOOOOOOOOOOOOOOOOOOOOOOXXOOOOOOOOOOOXXXXXXXXOOOOOOOOOOOOOOOOOOOOOOOOOOOOOOO@OOOO@@@@@@@@@@@$$$***===;;;;;;;;;=******##@@@@@@@@@#&&&&&&&&@@@@+++@@@@+OOOOOOOO++OO++++OOOOO@@@@@@@@@@@@@@@@@$$$****=;;;;;;;;;==******@#@@@@@@@@@@@@@@@@@+++++O+OOO++OOO@@@**===*@@@@@+@+++++++++++++++++++++++++++++++++++++++++++++++O++++@@@@@@@@@@@@@@@@@$$$$&&&&&@++++++&+&&+&&&&&+++++++++++++++++++++++++++++++++++++++++++++++++++++++++++++++++++++++++++++++++++++++++++X+XXX++..XXXXXXX.....XX..XX.X.o..ooo..ooo.oooooXXXOOOOOOOOOXXXXXXXooXoXXXOO@@@$$$$*****@@@OXXXXXXOO@@@@$$$$$$$$$$@@@@@@@$@@$$$$@@@@$$$$$$$*****$$$$@@@@@OOOOO@@@@$$$$$$*********$$$$@OOOOOOOOOOOO@OO@OOOOOOOOooooo   oooooooooooooooo    o               ",
"                            ooooooooooooooXXXXXXooo                                                                     oooooXOOOOOOXoooo           ooooooooo        oooXXOOOOOOXXXXXooooooooooXXXOOOOOOOOXOOOOOOO@@@@@@O@@@@@OOOOooo         oooooXOOOOOOOOOOOOOOOOOOXoooooooooXooooooooooooooooooooooooooooooo..o.X.XX....XXXXXX...XXX.XXXXX++X+++++++..XX+X+++++@@+++XXXXXXXXXoooooooo..X.XXXXXXXXXXXXXXXXXXXXXXXXXXXX++OOOOO+++O@@@@@@@@@@@@$$$***=;;;;;;;;;;;-=***$$$@@@@@@@@@@@@@@@@@@@@@@@@@@@$$$$$****====;;;;;;;;;;=*****$$@@@@@@@@@@OOOOOOOO++OOOXOOOOXXXXXXXXOOXXXXOOOOXXXOOOOOOOOOOOOOOOOOOOOOOOOOOOOOOOOOOOXOOOOXXXOOOOOOOOOOOXXXXXXXXOXXOXXXXOOOOOOOOOOOOOOOOOOOOOOOOOOOO@@@@@@@@@@@@$$$***===;;;;;;;;;-=****$###@@@@@@@@@&&&&&&&&@@@+++@@@@@+OOOO++++OO++OOO+++OOOOOOOO@@@@@@@@@@@@$$$*$**==;;;;;;;;;===*****#@@@@@@@@@@@@@@@@@@@+++OOOOO++OO@@@@#***=**@@@@@@@@++++++++++++++++++++++++++++++++++++++++++++++++++++@@@@@@@@@@@@@@@#$$$&&@@@@@@++++++++++++####++++++++++++++++++++++++++++++++++++++++++++++++++++++++++++++++++++++++++++++++++++++++XX++XXXX+++XXXXXXXXX......XXXX...ooo..ooooooo.oXXXXXOOOOOOOOXXXXXoooooXXXXOOOO@@$$$$$$***#@@@OXXXXXXOO@@@@@$$$$$$@@@@@@@@@@@$$$@@@@@@@@@@@$$*******$$$$@@@OOOOO@@@@@$$$$$$$********$$$$$@OOOOOOOO@OOOOOOOOOOOOoooooooooooooooooooooooo                    ",
"                          oooooooooooooooXXXXXXoooo                                                                     oooooXOOOOOOXoooo           oooooooooo       oooXXOOOOXXXXooooooooooooooooOOOOOOOOOOOOOOO@@@@@@OOO@@@@@OOOXoo   oo    oooooXOOOOOOOOOOOOOOOOOXooooooooooXooXXooooooooooooooooooXXXooXooo..XX..XXX...XXXXXXXX.XXXXXX+X+++XX..++++++.++++++@@@@++++++XXXXX.o.o....o.XXXXXXXXXXXXXXXXXXXXXXXXXXXXXXX+OOO+OO+OOOO@@@@@@@@@@@$$***=-;;;;;;;;;;-=****$$$@@@@@@@@@@@@@@@@@@@@@@@@@@@@$$$$****===-;;;;;;;;;;=*****$$@@@@@@@@@@OOOOOOOO++OOOOOOOOOOXXXXXXOOOXOXOOOOOOXOOOOOOOOOOOOOOOOOOOOOOOOOOOOXXXOOOOOOOOOOXXOOOOOOOXOOXXXXXXXXXXXXXXXXXXXXXXXXXXXXXXXXXOOOOOOOOOOO@@@@@@@@@@@@$$$$***===;;;;;;;;;-=***$$$$#@@@@@@@@@##&&&&&&@@@++++@@@@+OOOO+++OOOO+OOOO+OOOOOOOOO@@@@@@@@@@@@@$$$****==;;;;;;;;;===*****@@@@@@@@@@@@@@@@@@@++++OOOO++OO@@@@@***==*#@@@@@++++++++++++++++++++++++++++++++++++++++++++++++++++++@@@@@@@@@@@@@@@@$@$@@@&&@@@+++++++++++++&&&&&&&&&&&&&&&++++++&++++++++++++++++++++++++++++++++++++++++++++++++++++++++++++++++++++XXX++X+XX+++XXXXXXXXXX.X...XXXXXX....o.oooooooooXXXXXXXOOOOOOXXXXooooooooXXXXOOO@@@$$$$$***#@@@@OXXXXXOO@@@@@$$$$$$$$@@@@@@@@@@$$@@$$$@@@@@$$$$$*****$$$$@@@O@@OOOOO@@@$$$$$$$*******$$$$$@@OOOOOOOOOO@OOOOOOOOOoooooooooooooooooooooo                     ",
"                         oooooooooXXXooooXXXXXoooo                                                                        oooXOOOOOOXooo      oo    ooo    o        ooooXXXXXXooooooooooooooooooooooooXXXXOOOOO@O@@@@@OOOOO@@@@OOOXoooo ooo     oooXOOOOOOOOOOOOOOOOXXXXXXooXXXXXoooXXXXooXoooooooooXXXXXXXXX.XXXXXX...XXXX..XXX.X..X+XXXXX+X...++++++++++++++++@@@@@++XXXXXXooo..ooooo.XXXXXXXXXXXXXXXXXXXXXXXXXXXXXXXXXXOO+++++OOO@@@@@@@@@@@$$****=;;;;;;;;;;;=****$$$@@@@@@@@@@@@@@@@@@@@@@@@@@@@@@$$$$****==;;;;;;;;;;==****$$$@@@@@@@@@@OO@@@OOOOOOOOOOOOOOOOOXXXOOOOOOOXOOOOOOOOOOOXXXXOOOOOXOOOOOOOOOOXXXXXXOOXXXXXXOOOOOOOOXOXXOOOXXXXXXXXXXXXXXXXXXXXXXXXXXXXXXXXXOOOOOOOOOO@@@@@@@@@@@@$$$$$**===-;;;;;;;;;=****$$$#@@@@@@@@@#&&&&&&&@@@++++@@@+@++++++OOOO++OOOO++OO++OO@@@@@@@@@@@@@@@$$$****===;;;;;;;;;===*****@@##@@@@@@@@++++@+@@++OOOOO+OO@O@@@@***=**@@@@@@@@@@@@++++++++++++++++++++++++++++++++++++++++++++++++@@@@@@@@@@@@@@@@@$$@$$@$&@@@@+++++++++++++++++++@+#+@#@@+@++++++@++++++++++++++++++++++++++++++++++++++++++++++++++++++++++++++++++X++++XXX+XXX..XX.XXXXXX.X..XXXXXX.o......oooooXXXXXXXXXXOXXXXXooooooooooXXXXXOOO@@@$$$$****@@@@OXXXXXOO@@@@@@@$$$$$$$$$@@@@@@@@@$$@@@@@@@@@@$$$$*$$$$$$$$$@@@@@OOOO@@@@$$$$$$$********$$$$$@@OOOOOO@@@@@@@@OOOOOoXXoooooooooo                            ",
"                       oooooooXOXoXXXoXXoXXXXooooo                                                                        oooXOOOOOOXooo    ooooo             ooooooooooooXXoooooooooooooooooooooooooooXXOOOOOO@O@@@@@@OOOOO@@@OOOXooooooo      oooXOOOOOOOOOOOOOOOXXXXXXXooXXXXXXoXXXXXXXoXooooooooXXXXXXXX.XXXXXXX...XXXX.XXXXX.XX++XX++++X+..++++&&&+++.+++++@@@++++XXXXXooo.......o.XXXXXXXXXXXXXXXX.XXXXXXXXXXXXXXXXXO++++OOOO@@@@@@@@@@@$$$***=;;;;;;;;;;;==***$$$@@@@@@@@@@@@@@@@@@@@@@@@@@@@@@@@$$$***===;;;;;;;;;;==****$$$@@@@@@@@@@OO+++@OOOOOOO+O+++OOOOXXXOOOOOOOOO++OOOXOOOOOXXXOOOOXXOOOOOOOOOOOXOXXXXXXXXXXXOOOOOOXXXXXXXXXXXXXXXXXXXXXXXXXXXXXXXXXXXXXXXXXXOOOOOOOOOO@@@@@@@@@@@@$$$$$**===-;;;;;;;;;=****$$$#@#@@@@@@@@#&&&&&&@@@@@@@@@@++++++OOOOOO++OOOOO+O+OO+@@@@@@@@@@@@@@@@@$$$$****==;;;;;;;;;===****$@##@@@@@@@@@@+++++@+++O++++@@@O@@@@$**==*$@@@@@@@@@@@@+++++++++++++++++++@++++++++++++++++++++++++++++@@@@@@@@@@@@@@@@$$#@$&$&#@@@@++++++++++X+++++++++++++++++XX++++++++++++++++++++++++++++++++++++++++++++++++++++++++++++++++++++++++++++XXXXXXXXXXXXXXXXXX......XX....oo....ooooooXXXXXXXXXXXXXXXoooooooooooXXXXOOOO@@@$$**$***#@@@OOOXXXOO@@@@@@@$$$$$$$$@@$@@@@@@@@@@@@@@@@@@$$$$$$$$$$$$$$$@@@@@OOO@@@@$$$$$$$$$********$$$$@@@OOOO@@@@@@@@@OOOOOOXXooooooooo                   o        ",
"                      oooooXXXXXXXXXXXooooooooooo                                                                         ooXXOOOOOOXooo  o   o     oooo     ooooooooooooooooooooooooooooooooooooooooooXXXOOOOOOO@@@@@@OOOOOOOOOOOXooooooo    oooooXOOOOOOOOOOOOXXXoooooooXXXXXXXXXXXXXooXooXXooXXXXoooo..X....XX....XXXXXXXXXXXX+X+X+XX+X+X++++++&&&&++++++++++@@@+++XXXXX.oooo oo..ooo..XXXXXXXXXXXXXXXXXX.XXXXXXXXXXX+++O+O+OO@@@@@@@@@@@@@$$$**=;;;;;;;;;;;;==***$$$@@@@@@@@@@@@@@@@@@@@@@@@@@@@@$$$$$***===;;;;;;;;;;-==****$@@@@@@@@@@@OOOO@@OOOOOO+OOO+++OOOXXXOOOOOOOOOXOOOOOOOOOOOXXOOOOOOOOOOOOOXXOOOOOOXXXXXXOOXXXXOOOXOOOOOOXXXXXXXXXXXXXXXXXXXXXXXXXXXXXXXXXXXXOOOOOOOOOO@@@@@@@@@@@@$$$$***====;;;;;;;;;==****$@@@@#@@@@@@@&&&&&&&@@@@@+++@@+++OOO++++OO+OO+++OOOO@@@@O@OO@@@@@@@@@@@@@$$$$***===;;;;;;;;;=%*****$$#@@@@@@@@@+++++@@@@@O++++OOO@@@@@@#**==**@@@@@++++++++++++++++++++@++++++++++++++++++++++++++++++++++@@@@@@@@@@@@@@@@@$$$@@@@@@@@+++XXXXXXXXXXXXXXXXXX......XX......ooo......o..X...XXXXX.XXXXXX++++++++++++++++++++++++++++++++++++X++++++XXX++X.XXXX.XXXXXXXX..XX....o..XXo.ooooooooXXXXXXooXXXXXoXoooooooooXoooXXXOOO@@@$$$$$****#@@@OOOXXXXO@@@@@@@$$$$$$$@@@@@$@@@@@@@$@@@@@@@@@$$$$$$$***$$$$$@@@OO@OO@@@@@$$$$$$$********$$$$$$$@OOOOO@@@@@@@@OOOOOOOooooo                              ",
"                      oooooXXXXXXXXXXoooooooooooo                                                                         ooXXOOOOOOXooooo          oooo   ooooooooooooooooooooooooooooooooooooooooooooXXXOOOOOOO@$$$$@@OOOOOOOOOOXoooooooo   oooooXOOOOOOOOOOOOXXoooooooXXXXXXXXXXXXXXXooooXXXXXXXXoooo..XX..XX.X.XXXX.XXXXXXXXXX++++XX+X+X+++++&&&&&++++++++++@++++XXXXX.ooooooooo.o....XXXXXXXXXXXXXXXXXX.XXXXXXXXXXX+++OOOOO@@@@@@@@@@@@@@$$**==;;;;;;;;;;;=****$$$@@@@@@@@@@@@@@@@@@@@@@@@@@@@@@@$$$$***===;;;;;;;;;;-==****$@@@@@@@@@@@@OOO@@@OOOOOOOOOOOOOOOO+OOOOOOOO+OXOOOOOOOOOOOOOOOOOOOOOOOOOOOOOOOOOOXXXXOXOXOXXXXOXXXXOOXXXXXXXXXXXXXXXXXXXXXXXXXXXXXXXXXXXXXXOXXXOOOOOOO@O@@@@@@@@@$$$$*****==;;;;;;;;;-=****$$@@#@@@@@@@##&&&&&&@@@@@++++@++OOOO++OO@O+OO+++OOOO@@@@@@@@@@@@@@@@@@@@@$$$$$****==;;;;;;;;;=******#$##@@@@@@@@++++@@@@@@+++++OOO@@@@@@***=**@@@@@@++++@++@+++@+++++++@++++@@++++++++++++++++++++@+++++++++@@@@@@@@@@@@@@@$$$@@@@@&@@+++XXXXXXXXXX.XXXX...XX.XX.....X..oooo.....o...............X..XXXXXXXXX++++++++++++++++++++++++++++X++++++XXX+XXXXXXX.XXXXXXXXX.XX.......XXoooooooooooXXXXXXoooXXXooXooooooooXoXXXXXOOOOO@@$$$$$****@@@@@OOXXXOO@@@@@@@$$$$$$@@@@@$@@@@@@@@@@@@@@@@@$@$$$$$$$**$$$$$@@@@@@OOO@@@@$$$$$$$********$$$$$$@@@@@@@@@@@@$@@OOOOOOoooooo                    o   o    ",
"                     oooooooXXXXooXXXXoooooooooo                                                                          ooXXOOOOOOoooooo                oooooooooooooooooooooooooo oooooooooooooooooooXXOOOOOO@@@$$$@@OOOOOOOOOOXoooooooooooooooXXXOOOOOOOXXXXXooooooooXXXXXXXXXXXXXXXooooXXXXXXXooooXoXXX....XXXXXXXXXXXXXXXXXXXX+++X++++++++&&&&&+++++++@@@@++++XXXXo.oo... oo.oo....X.XXXXXXXXXXXXXXXXXXXXXXXX+X+XXX+OOOOOO++@@@@@@@@@@@$$***=;;;;;;;;;;;-%***$$$$@@@@@@@@@@@@@@@@@@@@@@@@@@@@@@@$$$$**===-;;;;;;;;;;===****$@@@@@@@@@@@@@@OO@@@OOOOOOOOOOOOO+O+OOOOOOOOOOOOOOOOOOOOOOOOOOOOOOOOOOOOOXXOOOOOOOOXOOOXXXXXXXXXXXXOOXXXXXXXXXXXXXXXXXXXXXXXXXXXXXXXXXXXXXXXXXXXXOOOOOOOO@@@@@@@@@@$$$***===;;;;;;;;;-=*****$@@#@@@@@@@@@&&&&&&@@@@@@++@++O@@OOOO++@OOOOO@@O@@@@O@@@@@@@@@@@@@@@@@@@@$$$$$*****=;;;;;;;;;=******$$$@@@@@@+@@@@+++++@++++++O@O@@@@@@@*****#@@@@@++@@@@@@@@@@+@@@++@@@@++@@@@@@@@++++@@@++++++++@@@@@+++@@@@@@@@@@@@@@@@@$$$@$$@@&@@@OXXXXXXXXX....XXo.......o.........o......ooo.............XX...X.X...XXX+++++++++++++++++++++++++++++++++XX++.+XX+XX.XXXXXXX.XXXXXX......ooooooooo.ooXXXXooooooXoooooooooooooXXXXXXXOXOOO@@@$$$$$***@@@@@OOXXXOOO@@@@@@$$$$$$@@$$$$@@@@@@@@@@@@@@@@@@@@@$$$$*$$$$$$$$$$@@@@@@OO@@@$$$$$$$$********$$$$$$@@@@@O@@$$$$@@@OOOOOXXoooooo              ooo  ooo   ",
"       ooooo    ooooooooooooooooooXXXooooooooooo                                                                          ooXXOOOOOOooooo      o         ooooooooooo   ooooooooXoooo  ooooooooooooooooooXXXOOOOOO@@@@@@OOOOOOOOOOOXooooooooooooooooXoXXXXXXXoooXoooooXXXXXXXXXXXXXXXXXXXoooXXXXXXXXXXXXXXXXXXXXXXXXXXXXXXXXXX+++XXXX++++++++++&&&&&&++++++++@@@@+++XXXXXoooo.  ..oooo.XX..XXXXXXXXXXXXXXXXXXXXXXXXXXX+XXXXOOOOOOO@@@@@@@@@@@$$$**=;;;;;;;;;;;;=%**$$$$@@@@@@@@@@@@@@@@@@@@@@@@@@@@@@@$$$$$**===;;;;;;;;;;;==****$$@@@@@@@@@@@@@@OO@@@@OOOOOOOOOOOOOOOOOOOOOOOOOOOOOOOOOOOOOOOOOOOOOOOOOOOOOOOOOOOOOOOOOOXXXXXXXXXXXXXXXXXXXXXXXXXXXXXXXXXXXXXXXXXXXXXXXXXXXXXXXXXXXOOOOOOOO@@@@@@@@@$$$****==-;;;;;;;;;=*****$$####@@@@@@@#&&&&&@@@@@@@+@+@@@@@@OOOO@@O@@O@@@@@@@@@@@@@@@@@@@@@@@@@@@@$$$$$$***=%=;;;;;;;;;==****$$$@@@@@@@@@@@@+++++++++++XOO@@@@@@@@*****@@@@@+@@@@@@@@@@@@@@@@@@@@@+@@@@@@@@@+++@@@@@@+++@@@@@@@@+@@@@@@@@@@@@@@@@@@@$$$$$$$$&@@@@+XXXXXXXX...XXXooo................o....oooo...oo..o.........oX...XXX.XX++++++++++++++++++++++++++++++++++++X++XXXXXXXXXXXX.XXXXXXX.....Xoooo.oo..ooXXooooooooooooooooooooooXXXXXXXXOOOOO@@@$$$$$****#@@@@OOXXXOO@@@@@@$@$$$@@$$$$@@@@@@@@@@@@@@@@@@@@@@$$$$$$$$$$$$$$$@@@@@@OO@@@@$$$$$$*$$*******$$$$$@@@@@@@$$$$$$@@@@OOOXXoooo              ooo   oooooo",
"ooooooooooooooooooooooooooooooooooooooooooooooo                                                                         oooooXOOOOOOoooo                 oooooooooo   ooooooooXXoooooooo oooooooooooooooooXXOOOOOO@@@@@@OOOOOOOOOOXXoooooooooooXooooooXXXXXooooXooooXoooXXXXXXXXXXXXXXXXXXXXXXXXXXXXXXXXXXXXXXXXXXXXXXXXXXXX++++XXXX++++++++&&&&&&&++++++++@@@@@+XXXXXXXoooo..ooo...o.XXXXXXXXXXXXXXXXXXXXXXXXXXXXXXXXXXXOOO+OOOOO@@@@@@@@@$$***%=;;;;;;;;;;;=***$$$$@@@@@@@@@@@@@@@@@@@@@@@@@@@@@@@@@$$$***==;;;;;;;;;;;;==****$$@@@@@@@@@@@@@@@@@@OOOOOOOOOO@OOOOOOOOOOOOOOOOOOOOOOOOOOOOOOOOOOOOOOOOOOOOOOOOOOOOOOOOOXXXXXXXXXOXXXXXXXXXXXXXXXXXXXXXXXXXXXXXXXXXXXXXXXXXXXXXXXXOOOOOOOO@@@@@@@@@@$$$$***==-;;;;;;;;;=*****$$$$#@@@@@@@@@#&&&&&@@@@@@@@@@@@@@@@@@O@@@@@@@@@@@@@@@@@@@@@@@@@@@@@@@@@@@$@$$$$****==;;;;;;;;;=******$@@@@@@@+@@@@++++++++@++O+@O@@@@@@@@$***@@OOO@@@@@#$$$##$$$#$##@@@@@@@@@@@@@@@@@@@@@@@@@@&&&@@@@@@@@@@@@@@@@@@@@@@@$$$$$$$$$$&@@@@@XXXX........XXoo.........o........o  ....   .. ..o .........oo......XXXX++++++++++++++++++++++++++++++++++++XXXXXXXXXXXX..XX..XXXXXXXXX.XXoooo.oooXXXoooooooooooXXooooooooXXXXXXXXXXXOOOOO@$$$$$$****@@@@OOOOOXOO@@@@@@$$$$$$$$@@@@@@@@@@@@@@@@@@@@@@@@@$$$$$$$$$$$$$$$@@@@OO@@@@@@$$$$$$$*********$$$$$$$@@@@@$$$$$$$@@OOOOOXXooo                 ooooooo",
"ooXXXOOOXXXooooooooooooooooooooooooooooooooooo                                                                          oooooXOOOOOXoooo    o         oooooooooooooooooooooooXXXoooooooooooooooooooooooooooXXOOOOO@@@@@@OOOOOOOOOOXXooooooooooooooooooooXXXooooXXoooXXXXXXXXXXXXXXXXXXXXXXXXXXXXXXXXXXXXXXXXXXXXXXXXXXXXXXXX++++++XX++++++++&&&&&&+++++++@@@@+@+XXXXXXooooo .oooo...XXXXXXXXXXXXXXXXXXXXXXXXXXXXXXXXXXXXX+OO+OOOOO@@@@@@@@$$$***=;;;;;;;;;;;=%***$$$$@@@@@@@@@@@@@@@@@@@@@@@@@@@@@@@@@$$****==;;;;;;;;;;;-==***$$$@@@@@@@@@@@@@@@@@@@@OOOOOOO@@@OOOOOOOO@OOOOOOOOOOOOOOOOOOOOOOOOOOOOOOOOOOOOOOOOOOOOOOOOOXXXOOXOOXXXXXXXXXXXXXXXXXXXXXXXXXXXXXXXXXXXXXXXXXXXXXXXXOOOOOOOOO@@@@@@@@@$$$$***==-;;;;;;;;;=********$$@@@@@#@@@#&#&&#@@@@@@@@@@@@@@@@@@@@@@@@@@@@@@@@@@@@@@@@@@@@@@@@@@@@@@@@@$$$****=*=;;;;;;;;;=*****$#@@@@@@@@@@@@@++++++@@OO++OO@@O@@@@@$***@@XXOO@@@#$$##$$$#$$@@@@@@@@@@@@@@@@@@@&&###$$#$&&&&#$######$$$$###@@@@@@@$$$@$@$$$$$@@@@@+XXXXXX.....X.oo..................o  ...o  ...  oo  ......ooo.........XX++++++++++++++++++++++++++++++++++++XXXXXXXXXXXX..XXX.XXXXXXXXXXXX...oooooXXXoooooooooXXXXXXXXXXoXXXXXXXXXXXXOOOOO@@@$$$$****$@@@@OOOOXXXOOO@@@@@@$$$$$$@@$@@@@@@@@@@@@@@@@@@@@@$$$$$$$$$**$$$$$$@@@OO@@@@@$$$$$$$$$********$$$$$$@@@@@@$$$$$$$@@@@OOOOXoooo               ooooooo",
"OOOOOOOOOOOOXXooooooo oo oo     oooo    oooooo                                                                            oooXOOOOOXXooo  oooo       ooo  ooo o   ooooooooooXXXXoooooooooooooooooooooooooooXXOOOOO@@@@@OOOOOOOOOOOXXoooooooooooooooooooooooooooXooXXXXXXXXXXXXXXXXXXXXXXXXXXXXXXXXXXXXXXXXXXXXXXXXXXXX++X+XXXX++++++++++++&&&&&&&+++++++@@@@++++XXXXXXoooo...ooooo.X.XXXXXXXXXXXXXXXXXXXXXXXXXXXXXXXXXXX++++OO+OO@@@@@@@@@$$***=;;;;;;;;;;;-=**$$$$$@@@@@@@@@@@@@@OOO@@@@@@@@@@@@@@@@$$$***==-;;;;;;;;;;;===***$$$@@@@@@@@@@@@@@@@@@@@@@@@OOOO@@OOOOOOOO@@@OOOOOOOOOOOOOOOOOOOOOOOOOOOOOOO@OOOOOOOOOOOOOOOOOOOXXOOOXXXXXXXXXXXXXXXXXXXXXXXXXXXXXXXXXXXXXXXXXXXXXXXOOOOOOOOO@@@@@@@@@@@$$***==-;;;;;;;;;==********$#@@@@@@@@$#####@@@@@@@@@@@@@@@@@@@@@@@@@@@@@@@@@@@@@@@@@@@@@@@@@@@@@@@@@$$$******=-;;;;;;;;;=*****#@@@@@@@@@@@@@@@+@+++@@O++XOOOOO@O@@@@**@@OOO@@@@@@@@@@@@@@@@@@@@@@@@@@@@++@@@@@##$$$$$$$#$$$$$$$$$$$$$$$$#$$@@@@@@@@@@@$&&&$$@@@@@@XXX.XXXX........oooo...o....oo.oo.....ooooo..ooo  o..   o...oo........X++++++++++++++++++++++++++++XXXXX+++XXXXXXXXXXXX.XX.XXXXXXXXXX.XX.oXXooooooooooooooooXXXXXXXXXXXXXoXXXXXXXXXXXOOOOO@@@$$$$*****$@@@@OOXXXX+O@@@@@@$$$$$$$@@$@@@@@@@@@@@@@@@@@@@@@@@$$$$$$****$$$$$$@@@@@@@@@@$$$$$$$$*********$$$$$@@@@$$$$$$$$$$$@@OOOOXooo              ooooooo",
"OOOOOOOOOOOOXXoooooo                    ooooo                                                                             ooooOOOOOOXooooooooooo ooooooo  oooo   oooooooooooXXXXoooooooooooooooXoooooooXoooXXOOOOO@@@@@OOOOOOOOOOOXXooooooooooooooooooooooooooXXoXXXXXXXXXXXXXXXXXXXXXXXXXXXXXXXXXXXXXXXXXXXXXXXXXXXXX++X+XXX+++++++++++++&&&&&&++++++++@@@@++++XXXXo.oo....oooooo.XXXXXXXXX.XXXXXXXXXXX.X.XXXXXXXXXXXXXX+++OOOO@@@@@@@@#@$***==;;;;;;;;;;;%=**$$$$@@@@@@@@@@@@@@@OOOO@@@@@@@@@@@@@@@$$$***==;;;;;;;;;;;;===***$*$@@@@@@@@@@@@@@@@@@@@@@@@OO@@@@@@@@@@@@@@@@@@@@@@@@OOO@@@@@OOO@O@@@@@@@@@@OOO@@OOOOOOOOOOOOOOXOOOOOXXXXXXXXXXXXXXXXXXXXXXXXXXXXXXXXXXXXXXXXXXXXXXOOOOOOOOO@@@@@@@@@@@$$***===;;;;;;;;;;=*********$#@@##@@@##@#@###@@@@@@@@@@@@@@@@@@@@@@@@@@@@@@@@@@@@@@@@@@@@@@@@@@@@@@$$$$$$$****==;;;;;;;;==****$@@@@@@@@+@@@@@@@@+++@@O+XXOOOOOOOO@@@@*#@@OOO@@@@@@@@@@@@@@@@@@@@@@@@@@@@+@@@@@##$$$$$$$$$$$$$$$$$$$$$$$$$$$$@@@@@@@@@@$&&&$$@#$#@@+XXXXXXX........o.oo...o....ooo.......oo o.o. oooooo........o...........X++++++++++++++++++++++++++XXXXX++XXXXXXXXXXXXX.XXXXXX..XX.....XooXXooooXooooooo  ooooXXXXXXXXXXooooooXoXXXXXOOOOOOO@@@$$******##@@@OOXXXXOO@@@@@@$$$$$@@@$$$@@@@@@@@@@@@@@@@@@@@@@$$$$$$$$*$$$$$$$@@@@@@@@@@@$$$$$$$*********$$$$$$$@@$@$$$$$$$$$@@@OOOXXoo             ooooooo",
"OOOOO@@OOOOOOOooooo                                                                                                       oooXOOOOOXoooooooooooooooo  ooo     oooooooooooooooooooooXoXXXXXXXXXXXXXoooooXXooXXXOOOO@@@@@OOOOOOOOOOOXXXooooooooooooooooooooooooooooXXXXXXXXXXXXXXXXXXXXXXXXXXXXXXXXXXXXXXXXXXXXXXXXXX+XXXXXX++++X+++++++++&&&&&&+++++++++@@@@@OXXXXXXXoooooo...o.....XXX.....X...X...XXXX.XXXXXXXXX+XXXXXX+++OOOOO@@@@@@@@@#$$**=;;;;;;;;;;;==**$$$$@@@@@@@@@@@@@@@@OOO@@@OO@@@@@@@@@@@@$$***==;;;;;;;;;;;;===***$$$$$@@@@@@@@@@@@@@@@@@@@@@@@@@@@@@@@@@@@@@@@@@@@@@@@@@@@@@@@@@@@@@@@@@@@@@@@@@@@@@@OOOO@OOOOOOOOOOOOOOXXXXXXXXXXXXXXXXXXXXXXXXXXXXXXXXXXXXXXXXXXXXXOOOOOOOOO@@@@@@@@@@$$$**===;;;;;;;;;;===*********##@@@@@@@#@@@@@@@@@@@@@@@@@@@@@@@@@@@@@@@@@@@@@@@@@@@@@@@@@@@@@@@@@@@$$$$$*******==;;;;;;;;=******@@@@@@@@++@++++++++O+OOOOOOO@OOOXXO@@@$$@@@@O@@@@@@@@$$$$$**$$@$$@@@@@@@@@@@@$$$$$$$$$$$$$$$$$$$$$$$$$$$$$$$$$@@@@@$$$$$$$@&&&@&@@@+++X.X.XXoo........oo..oooooooooo....     ...  ....ooo..............X....++++++++++++++++++++++++++++++XX+++XXX+XXXXXX.XXXXXXXXXX...XXXXoooXoXXXXXooooo  ooooooXXooXXXXooooooooXXXXXXXXOOOOOO@@$$$$*****$@@@@OOXXXXXOO@@@@@@@@@@@@@@@@@@@@@@@@@@@@@@@@@@@@@@$$$$$$***$$$$$$$@@@@@@@@@@@$$$$$$$$$$*******$$$$$$$$$$$$$$$$$$$$$@@OOOOXooooo   o     ooooo",
"OOO@@@OOOOOOOOoooo                                                                                                        ooooOOOOOXoooooooooooooooo  oooo    ooooooooooooooooooooXXXXXOOOOOXXXXXXXXoooooooXXOOOOO@@$$@OOO@@OOOOOOXXXooooooooooooooooooooooooooooXXXXXXXXXXXXXXXXXXXXXXXXXXXXXXXXXXXXXXXXXXXXXXXXXXX+++XXX++++++++++++&&&&&&&&+++++++++@@@@+XXXXXXX.ooo  ...o.oo....XX....X.......XXXXX.XXXXXXXXX+XXXXX+X++OOOOO@@@@@@@@$$$**=;;;;;;;;;;;;=***$$$$@@@@@@@@@@@@@@@@OOO@@@OOO@@@@@@@@@@#$***==-;;;;;;;;;;;;===***$$$$$@@@@@@@@@@@@@@@@@@@@@@@@@@@@@@@@@@@@@@@@@@@@@@@@@@@@@@@@@@@@@@@@@@@@@@@@@@@@@@@@OOOO@OOOOOOOOOOOOOXXXXXXXXXXXXXXXXXXXXXXXXXXXXXXXXXXXXXXXXXXXXXOOOOOOOOOO@@@@@@@@@$$***===;;;;;;;;;;===*********$###$$$$##########@@@@@@@@@@@@@@@@@@@@@@@@@@@@@@@@@@@@@@@@@@@@@@@@@@@$$$$*********=-;;;;;;;;=****$@@@@@@@@++@@+@++++@@+O@@OOOO@@OOXXO@@@$$$@@@@@@@@@$*$$********$$*$$@@@@@@@@@@$$$$$$$$$$$$$$$$$$$$$$$$$$$$$$$$$@@@@@$$$$$$$$$&&$&@@@@@+XX.XXooo............oooo...ooo....oo.  .   .....ooooo.....oo.....X...X++++++++++++++++++++++++++++++XX+++XXXXXXXXXXXXX.XXXXXXX...XXXXXXoXo.XXXXXoooo    ooooXXXXXXXoooooooooXXXXXXXXXOOOOO@@@$$$$*$***$@@@@OOOXXXXOO@@@@@@@@@@@@@@@@@@@@@@@@@@@@@@@@@@@@@$$$$$$$$****$$$$$@@@@@@@@@@@$$$$$$$$$*********$$$$$$$$$$$$$$$$$$$$$@OOOXXoooo          oooo",
"O@@@@@OOOOOOXoooo                                                                                                         oooXOOOOOXoooooooooooooooo   oooooooooooooooooooooooooXXOOOOOOOOOOOOOOOOOOXXXXoooXXXOOOO@$$$@@@@@@OOOOOOXXXooooooooooooooooooooooooooXXXXXXXXXXXXXXXXXXXXXXXXXXXXXXXXXXXXXXXXXXXXXXXXXXX+++++X++++++++++++++&&&&&&&+++++++@@@@@@++XXXXXXXoo.   ...oooo....XXX.XXXX..XXXXXXXX.XXXXXXXXXX+XXXXXXXX+OO@@+@@@@@@@@$$$*==;;;;;;;;;;;==***$$$@@@@@@@@@@@@@@O@@OOOOOO@@@@@@@@@@@@@$$**===;;;;;;;;;;;;;===***$$$$$@@@@@@@@@@@@@@@@@@@@@@@@@@@@@@@@@@@@@@@@@@@@@@@@@@@@@@@@@@@@@@@@@@@@@@@@@@@@@@@@@@@@@@@O@OOOOOOOOOXXXXXXXXXXXXXXXXXXXXXXXXXXXXXXXXXXXXXXXXXXXXXXXOOOOOOOOO@@@@@@@@$$***===;;;;;;;;;;-===********$$$$$$$$$$$$$@#@$##@@@@@@@@@@@@@@@@@@@@@@@@@@@@@@@@@@@@@@@@@@@@@$$$$$$$$$$********==;;;;;;;;;=***$@@@@@@@@@+@@+@@@++++++@@OOO@@@OOXXOO@@@@@#@@@@@@@@******************$@@@@@@@$$$*******$$$$$$**$$$$*$$$$$$$$$$$@@@@@@$$@@@&$$$$$@@@@@@++XXXX.XX.o....XXoo....oo....o...ooooo.oo ooooooooo.o....o.......X.X.++++++++&+++++++++++++++++++++++++++++XX++XXXXXXXX..XX..X...XXXX.X..oooXXXXXoo  o    ooooooooXXoooooooooooXXXXXXXXOOOOOO@@@$$$$****$$@@@@OOXXXXX++@@@@@@@@@@@@@$@@@@@@@@@@@@@@@@@@@@@@@$$$$$$$****$$$$$$$$$@@@@@@@@$$$$$$$$$********$$$$$$$$$$$$$$$$$$$$$$@OOOOXoooooo      oooo",
"@@@@@@OOOOOOoooo                                                                                                          oooXOOOOOXXooooooooooooooo  oooooooooooooooooooooooXXXOOOO@@@@@@@@@OOOOOOOXXXXoooXXXOOOO$$$$@O@@@@OOOOOOXXXoooooooooooooooooooooooooXXXXXXXXXXXXXXXXXXXXXXXXXXXXXXXXXXXXXXXXXXXXXXXXXX+++++++X+++++++++++++&&&&&&&+++++++@&@@+++OXXXXXX..o..  oo.ooooo...XXXXXXXXX...XXXXXXX.XXXXX..XXX+++XXXXXXOOO@@+@@@@@@@@$$**=;;;;;;;;;;;=%**$$$$@@@@@@@@@@@O@@@O@@OOOOO@O@@@@@@@@@@@$$$**==-;;;;;;;;;;;;-==*****$$$$$$@@@@@@@@@@@@@@@@@@@@@@@@@@@@@@@@@@@@@@@@@@@@@@@@@@@@@@@@@@@@@@@@@@@@@@@@@@@@@@@@@@@@@@@@@O@OOOOOXXXXXXXXXXXXXXXXXXXXXXXXXXXXXXXXXXXXXXXXXXXXXXXXOOOOOOOO@@@@@@@@$$***===;;;;;;;;;;;===****************************$$**$**$$$$************$#@***$#$@@$$$@##$$$$$$$$$$$$$$**$$******=;;;;;;;;;=***#@@@@@@@@+@@@@@@@+++++@@@@@@@@OXXXOOO@@@@$$@@@@@@@*******************$$$@@$$$$$$***********************$$$*$$$$@@@@@$$@@@&$$$$$$$$@@@@+XXX..oo......oXXo.....o....oo..ooooo.ooooo.ooooo..o.............X+.++++++&&&&++++++++++++++++++++++++++++XX++XXXXXXXX......X...XXXX.....o.XXXXXoo  oo   oooooooooXoooooooooooooooXXXXOOOOOOOO@@$$$$****$$@@@@OOOXXXXXO@@@@@@@@@@@@$$@@@@@@@@@@@@@@@@@@@@@@@$$$$$$$$$***$$$$$$$@@@@@@@@@@$$$$$$$$*********$$$$$$$$$$$$$$$$$$$$@@@OOOXXoooo         o",
"@@OOOOOOOOXoooo                                                                                                         o oooXOOOOOXooooooooooooooo  oooooooooooooooooooooXXXOOO@@@@$$$$$$$$$$@@@OOOOOXXooXXXOOOO@$$$$@@@@@@OOOOOOXXoooooooooooooooooooooXooXoXXXXXXXXXXXXXXXXXXXXXXXXXXXXXXXXXXXXXXXXXXXXXXXXX+X++X++X+++++++++++&&&&&&&&&+++++++@&@@@@OXXXXXXXooo.oo. ..ooX.X.XXXX...XXX....XXXXXXX.XXXX...XXXXXXX++XXXXOOO@++@@@@@@@@$$*=;;;;;;;;;;;==***$$#@@@@@@@@@OO@@@@OO@OOOO@@@O@@@@@@@@@@@$$$*===;;;;;;;;;;;;;====***$$$$$$$$$$$$$@@@@@@@@@@@@@@@@@@@@@@@@@@@@@@@@@@@@@@@@@@@@@@@@@@@@@@@@@@@@@@@@@@@@@@@@@@@@@@@@@@@@@@OOOXXXXXXXXXXXXXXXXXXXXXXXXXXXXXXXXXXXXXXXXXXXXXXXXOOOOOOOOO@@@@@@@@$$$***==;;;;;;;;;;;;==************$$$$$$$$$$$$$$$#$$##$$$$###$$$$$$$@@##$$$$$$$$$$$$$$$$$$$$##$$$$###$$$$$$$******%=;;;;;;;;;=***$@@@@@@@@@@@@@@@@@+@@+@@@@@@@OOOXXOOO@@@@$$@@@@@@@@********************************************************$$$@@@@@@@@@@$@$$$$$$$@@@@@OXXXXXXXXXX.oXX......o.oo.ooooo....oooooooooo....................X.++++++&&&&&&&+++++++++++++++++++XX++++XX+XXXXXXXXXX.XXXXX..XXXX...X..ooXXXXXXo       ooooooooooooooooo  ooooooooXXXOOOOXOOOO@@$$$***$$$$@@@@OOXXXXXXO@@@@@@@@@@@@@@@@@@@@@@@@@@@@@@@@@@@@@@$$$$$$*****$$$$$$$$@@@@@@@@$$$$$$$$$$*******$$$$$$$$$$$$$$$$$$$$$$@@OOOXXXooooo      ",
"OOOOOOOOXooooooo                                                                                                          oooXOOOOOXoooooooooo  o     ooooooooooooooooooXXXXOOO@@@$$$$$$$$$$$$$@@@@OOXXXooXXXOOOO@$$$$@@@@@OOOOOOOXXXooooooooooooooooooooXXXXXXXXXXXXXXXXXXXXXXXXXXXXXXXXXXXXXXXXXXXXXXXXXXXXXX+X+++++XX++++++++++&&&&&&&&+++++++@@@@@+OXXXXXXooo.. .o.o.oo..X.XXXXX...XXX....XXXXXXXX..XX...XXXXXXX++XXXXOOOO++O@@@@@@$$**=;;;;;;;;;;;%***$$$@@@@@@@@@@OOOOOOOOOOOOOOO@OO@@@@@@@@@@$$$*===;;;;;;;;;;;;;====***$$$$$$$$$$$$$@@@@@@$##$$$##$$@@@@$#@@@@@@@@@@@@@@@@@@@@@@@@@@@@@@@@@@@@$$$$$$@@@@$$@@####@@@@@@@@@@OOOOXXXXXXXXXXXXXXXXXXXXXXXXXXXXXXXXXXXXXXXXXXXXXXXXOOOOOOOO@@@@@@@@$$$$**==;;;;;;;;;;;;;====*****************************************************************$**$$$$$$$$***********====;;;;;;;;;=**$$#@@@@@@@@@@+@@+@++@@@@@@@@@@OOXXXXOOO@@@#$$$@@@@@@$*********************************************************$$$@@@@@@@$$@@$$$$$$@@@@@@OXXXXXXXXXXoXXX.....oo.o..oooooo..oooooooo....oo..................++++++&&&&&&&&&++++++++++++++++X++++++XX++XXXXXXXXXXXXXXX..XXXX..XXX.X.XXXXXXoo   o  ooooooooooooooooo   oooooooXXXXXXXXOOOOO@@$$$$$**$$#@@@@OOXXXXXOOO@@@@@@@@@@@@@@@@@@@@@@@@@@@@@@@@@@@@@$$$$$$$*$*$$$$$$$$@@@@@@@@@@$$$$$$$$$*******$$$$$$$$$$$$$$$$$$$$$$@@@OOOXXooooo     ",
"OOOOOXoXoooo o                                                                                                            oooXOOOOOXooooooo           ooooooooooooooooooXXOO@@@$$$$$$$$$$$$$$$$$$@@OOOOXooXXXOOO@@$$$$@$@@@OOOOOOOXXXoooooooooooooooooooXXXXXXXXXXXXXXXXXXXXXXXXXXXXXXXXXXXXXXXXXXXXXXXXXXXXXXXX+X+++XXX++++++++&&&&&&&&&+++++++@@@@@@OOXXXXXooo    oooo..oXXX..XX....XXXXXXXXXXXXX.X.X.XX.XXXXXXXXX+XXXXX++OOO+O@@@@@@#$*=;;;;;;;;;;;=%*$$$$$@@@@@@@@@@OOOOOOOOOOOOOOOOOO@@@@@@@@@@$$$**=;;;;;;;;;;;;;;====********$$$$$$$$$$$$$$$$$$$$$$$$$$$$$$$$$$$$$$$$$$$$$$$$$$$$$$$$$$$$$$$$$$$$$$$$$$$$$$$$$$$$##@@@@@@@@@OOOXXXXXXXXXXXXXXXXXXXXXXXXXXXXXXXXXXXXXXXXXXXXXXXXXXOOOOOO@@@@@@@@@$$$***=-;;;;;;;;;;;;;;;;;====;;======;================-----==;------====-=====-===========;======================;;;;;;;;;;==**###@@@@@@@@@@+++@@+@@@@@@@@@@@OXXXXXXXO@@@@@$$$@@@$$**********************************************************$$$$$@$$$$$$@@$$$$$$#@@@@@@@XXXXXXXXXXXXXXXXXXXXXX....oo...........oo...ooooooo............X++++++&&&&:&&&&&+++++++++++++++X+X++++++XXXXXXXXXXXXXXXX.XXXXXXXXX.XXXXXXXXXXooo.ooo oooooooooooooooo     ooooooooXXXXXXXOOOOOO@@@$$$***$$$@@@@OOXXXXXXX@@@@@@@@@@$$$$@@@@@@@@@@@@@@@@@@@@@@@@@$$$$$$$$*$$$$$$$$@@@OOO@@@@$$$$$$$$$*******$$$$$$$$$$$$$$$$$$$$$$$@@@OOXXXoooo   ",
"OOOOOooooo o o                                                                                                            oooXOOOOOXoooooo            ooooooooooooooooooXXO@@@$$$$$$$$*$**$$$$$$$@@OOOXXooXXOOOO@@$$$$$$@@OOOOOOOOXXXXooooooooooooooooooXXXXXXXXXXXXXXXXXXXXXXXXXXXXXXXXXXXXXXXXXXXXXXX+XXXXXXXXXX++++X+++++++++&&::&&&&+++++++&&@@@++XXXXXXoooo    ooo.o.XXXXXXXX....XXXX..XXXX.XXXXXXXXXXXXXXXXXXX++XX+X++OOOOO@@@@@@#$*=;;;;;;;;;;=%%*$$$@$@@@@@@@O@@OOOOOOOOOOOOOOOOOOO@@@@@@@@@$$***=;;;;;;;;;;;;;;===***$*****$$$$$$$$$$$$$$$$$$$$$$$$$$$$$$$$$$$$$$$$$$$$$$$$$$$$$$$$$$$$$$$$$$$$$$$$$$$$$$$$$$$$$$$@@@@@@@@@OOOXXXXXXXXXXXXXXXXXXXXXXXXXXXXXXXXXXXXXXXXXXXXXXXXXOOOOOO@@@@@@@@@$$$***==;;;;;;;;;;;;;;;;;;;;;;;;;;;;;;;;;;;;;;;;;;;;;;;;;;;;;;;;;;;;;;;;;;;;;;;;;;;;;;;;;;;;;;;;;;;;;;;;;;;;;;;;;;;;;;;;;;=**$$#@#@@@@@@@@@@+++++@@@@@#@@@@@@OOXXXXXXOOOO@@$$$$$$$$***********************************************************$$$$$$$$$$$####$$$$###@@@@@OOOXXXXXXXXXXXXXXXXXXXXXXXXXXX..X.....oX....X....o.........X...+++++++&&&&::&&&&+++++++++++++++X+++++++++XXXXXXXXXXXXXXXXXXXXXXXXXXXX.XXXXXXXoooooooooooooooooooooooo     oooooooooXooXXXXXOOOOO@@@$$$****$$#@@@OOXXXXXXOO@@@@@@@@$$$$@@$@@@@@@@@@@@@@@@@@@@@@@@@$$$$$$$$$$$$$$$$@@@@OOO@@@$$$$$$$$$$*******$$$$$$$$$$$$$$$$$$$$$$@@@OOOXXXooo  ",
"XXoooooo                                                                    ooooooooooooo                                  oooOOOOOXoooooooo    oo     o oooooooooooooXXOO@@$$$$$$$*$$****$$$$$$@@@OOOOOXXXXXOOO@@$$$$@@@OOOOOOOOOOXXXooooooooooooooooXXoXXXXXXXXXXXXXXXXXXXXXXXXXXXXXXXXXXXXXXXXXXXX+++XXXX++XXXX++++++++++++&&&&&:&&&+++++++@@@@@@+XXXXXoooo......o......XXXXX......XXXXXX.XXXXXXX.XXXXX.XXXX+XXXXXXXXXXXO+OO@O@@@@@@#$*=;;;;;;;;;-=**$$$@@@@@@@@@OOO@OOOOOOOOOOOOO@OOOO@@@@@@@@@@$$**==;;;;;;;;;;;;;;;;===*%****%%*********%%**%%**%%**%%%***%%*%%%%*%%%%**%%%%%%%%%%%%%%**%*%==%%%%%%%===============%%%$#@@@@@@OOOOXXXXXXXXXXXXX.oo..XXXXXXXXXXXXXXXXXXXXXXXXXXXXXXXOOOOO@@O@@@@@@@$$$***=;;;;;;;;;;;;;;;;;;;;;;;;;;;;;;;;;;;;;;;;;;;;;;;;;;;;;;;;;;;;;;;;;;;;;;;;;;;;;;;;;;;;;;;;;;;;;;;;;;;;;;;;;;;;;;;===****$$$@@@@@@@@@@@++@@+@@#$****#@@@OOXXXXXXXXOOO@@@@@@#$$$**********************************************************##@########@@@@@@##@@@@@@@@@@@OO@@OOOOOOOOOOO@OOOOOXXXXXXXXooooo...o...XXo.oo............++++++++&&&&::::&&&&+++++++++++++X+++XXXXXX++XXXXXXX..XXXXXXXXXXXXXXXXXXXXXXXXoooooooooooo..oooooooooooo    ooooooooooooooXXXXXXOOOO@@@$$$*$$$$$@@@OOOXXXXXXXO@@@@@@@@@@@@@@@@@@@@@@@@@@@@@@@@@@@@@@@$$$$$$$$$$$$$$$$$@@@@O@@@@@$$$$$$$$$$********$$$$$$$$$$$$$$$$$$$$$@@OOOXXXooo",
"oooooooo                                                                    oooooXXXXXoooo                                ooooOOOOOXoooo oo o    o     o  oooooooooooXOOO@@$$$$$$$$$$$$$$$$$$$$$@@@OOOOOXXXXOOOOO@$$$$@OOOOOOOOOOOOXXXoooooooooooooooXXXXXXXXXXXXXXXXXXXXXXXXXXXXXXXXXXXXXXXXXXXXXXXXXX+XXXX++++X+++++++++++++&&&:&&&&+++++++@&@@@++OXXXXX.oo.oo....ooo...XXXXXX.X....XXXXXX.XXXXXXX.XXXXXX..XXXXXXX++XXXXXXOOO@O@@@@@@#**=;;;;;;;;;=%%$$$@@@@@@@@@@OOOOOOOOOOOOOOOOOOOOOO@@@@@@@@@@$$**=-;;;;;;;;;;;;;;;;;;;;;-;;--;-;;;-;;;;;;;;;;;;;;;;;;;;;;;;;;;;;;;;;;;;;;;;;;;;;;;;;;;;;;;;;;;;;;;;;;;;;;;;;;;;;;;;;;=%$@@@@@@OOOXXXXXXXXXXXXXXoo..XXXXXXXXXXXXXXXXXXXXXXXXXXXXXXXOOOOOO@O@@@@@@@@$$$***=;;;;;;;;;;;;;;;;;;;;;;;;;;;;;;;;;;;;;;;;;;;;;;;;;;;;;;;;;;;;;;;;;;;;;;;;;;;;;;;;;;;;;;;;;;;;;;;;;;;;;;;;;;;====******$$#@@@@@@@@@@++++@@@@$******#@@OXXXXXXXXXXOOO@@@@@@@$$$$$$$@@@@$$$$$$@@$$$$@@@@@@@@@@@@@@@@@@@@@@@@@@@@@@@@@@@@@@@@@@@@@@@@@@@@@@@@@@@@@@@@@@@OOOOOOOOOOOOOOOOXXXXOXXXXXXXXoooo....o...Xo.......X........++++++++&&&&&::::&&&++++++++++++++++++XXXX+X++XXXXXXXXXXXXXXXXXXXXXXXXXX.ooXXXoooooo.ooooo.ooooooooooooo    ooooooooooooooooXXXXXXOOOO@@$$$$$**$$@@@@@XXXXXXXOO@@@@@@@@@@@@@@@@@@@@@@@@@@@@@@@@@@@@@@$$$$$$$$$$$$$$$$$$@@@OOO@@@@$$$$$$$$$$$******$$$$$$$$$$$$$$$$$$$$$$$@@OOOXooo",
"oooo                                                                      oooXOOOOOOOOOOooo                               ooooOOOOOXoooo  o o    o        ooooooooooXOO@@$$$$$$$$$$$$$$$$$$$$@@@@@OOOOOOXXOOOOOOO@@@@OOOOOOOOOOOOOXXXXoooooooooooooooXXXXXXXooXXXXXXXXXXXXXXXXXXXXXXXXXXXXXXXXXXXXXXXXXX++X+++++++++++++++++&&&&:&&&&&+++++&&&@@@+++XXXX.oo. .....oooo.....X....XXXX.XXX.....X..XXXX..XXX...XXXXXX++++XXXXXX+OO@O@@@@@@@**==;;;;;;;=*$$$$$@@@@@@@@@@OOOOOOOOOOOOOOOOOOOOOOO@@@@@@@@@$$**=;;;;;;;;;;;;;;;;;;;;;;;;;;;;;;;;;;;;;;;;;;;;;;;;;;;;;;;;;;;;;;;;;;;;;;;;;;;;;;;;;;;;;;;;;;;;;;;;;;;;;;;;;;;;;;;;;;;;=$@@@@@@OOXXXXXXXXXXXXX.XXXooXXXX.XXXXX.XXXXXXXXXXXXXXXXXXXXOOOOOOOOO@@@@@@@$$$$***=-;;;;;;;;;;;;;;;;;;;;;;;;;;;;;;;;;;;;;;;;;;;;;;;;;;;;;;;;;;;;;;;;;;;;;;;;;;;;;;;;;;;;;;;;;;;;;;---========**********@@@@@@@@@@@@@@+@@@@@@$******#@@OXXXXXXXXXXXXOOOO@@@@@@@@@@@@@@@@@@@@@@O@@@@@@O@@@@O@@@@@@@@@@@@O@@@OOOO@@@O@@@@@@OO@@@OOOOOOOOOOOO@OOOOOOOXXXXXXXXXXXXXXXXXXXXXXXXXXXXXXXXXXX......oo...X........XX.....++++++++++&&&&&&:::&&&&++++++++++++++++++XXXXXXXXXXXXXXXXXXXXXXXXXXXXXXXX.oooooXoooo....ooooooooooooooooo     o  ooooooooooooooXXXXXXOOO@@@$$$**$$$$@@@@OOXXXXXXOO@@@@@@@@@@@$$@@@@@@@@@@@@@@@@@@@@@@@@@@$$$$$$$$$$$$$$$$$@OOOOOO@@@@$$$$$$$$$$$$$$**$$$$$$$$$$$$$$$$$$$$$$$@@OOOoo",
"                                                                         ooXOOOO@@@@@OOOXoo                               ooooXOOOXXoooo oo o  o          ooooooooXXOO@@@$$$$$$$$$$$$$$$$@@@@@@@@@@@@OOOOOOOOOOOO@@@OOOOOOOXOOOOXXXXXoooooooooooooooXXXXooXoXXXXXXXXXXXXXXXXXXXXXXXXXXXXXXXXXXXXXXXXXXXX+XX+++++++++++++++++&&::&&&&&+++++&&&@@@+++XXXXX.o.   ....oooX.....X....XXXX..XX....XX..XX....XXXX..XXXXXXX+++XXXXXX+OOOOO@@@@@@$$**==;;;;=%%$$$@@@@@@@@@@OOOOOOOOOOOOOOOOOOOOOOOOO@@@@@@@@@$$**=;;;;;;;;;;;;;;;;;;;;;;;;;;;;;;;;;;;;;;;;;;;;;;;;;;;;;;;;;;;;;;;;;;;;;;;;;;;;;;;;;;;;;;;;;;;;;;;;;;;;;;;;;;;;;;;;;;;;%$@@@@@@OOOXXXXXXXXXXXXX.XX..XXXXX.XXXXXXXXXXXXXXXXXXXXXXXXXXOOOOOOOO@@@@@@@@@$$***$%%=========================================================================================%%%%********************$@@@#@@@@@@@@@@@@@@@@@#$***#@@@@OXXXXXXXXXXXXOOOOOOOO@@@@@OOOOOOOOOOOOOOOOOOOOOOOOOOOOOOOOOOOOOOXOOOOOOOOOOXOOOOOOOOOOOOOOOOXXXXXXXXXXXXXXXXXXXXXXXXXXXXXXXXXXXoXXXXooooXXXXXXX.o...oo...X........XX.....+++++++++++&&&&&&:::&&&++++++++++++++++++++XXXXXXXXXXXXXXXXXXXXXXXXXXXXXXX.XoXXXXoooo.o..ooooooooooooooooo         ooooooooooooooXXXXXOOOO@@@$$$$***$#@@@OOXXXXXXOO@@@@@@@@@@@@@@@$@@@@@@@@@@@@@@@@@@@@@$$$$$$$$$$$$$$$$$$$@@OOOOO@@@$$$$$$$$$$$$*****$$$$$$$$$$$$$$$$$$$$$$$@@OOXX",
"                                                                        oXOOOO@@@@@@@@OOXoo                               ooooXOOOXXoooooooooooo         oooooooooOOO@@@$$$$$$$$$$$$$@@@@@OOOOOO@@@@@@OOOOOOOOOOOOOOOOOOOOOXOOXXXXXooooooooooooooooooXoXoXXXXXXXXXXXXXXXXXXXXXXXXXXXXXXXXXXXXXXXXXXXXXXXXX++++++++++++++++&&&&::&&&&+++++&&&@@@@OXXXXX..o..  ....oooo.o........X..XXX.X.X...XXX.XXX.XXXXXXXX.XXXXXX+++++XXXXXOOOOO@@@@@@##$$$**==**$$$$@@@@@@@@O@@OOOOOOOOOOOOOOOOOOOOOOOOOOO@@@@@@@$$$*==;;;;;;;;;;;;;;;;;;;;;;;;;;;;;;;;;;;;;;;;;;;;;;;;;;;;;;;;;;;;;;;;;;;;;;;;;;;;;;;;;;;;;;;;;;;;;;;;;;;;;;;;;;;;;;;;;;=$$$@@@@@OOXXXXXXXXXXXXXXXXXXXXXXXXX...XX..XXXXXXXXXXXXXXXXXXXOOOOOOOOOO@@@@@@@@$$$$********************************==*=******%*====****=***=****%%*%%%%************==************************************$#$$$$##@@@@@@@@@@@@$$**@@@@@OXXXXXXXXXXXXXXXXXXXXXXOOOOXXXXXXXXXXXXXXXXXXXXXXXXXXXXXXXXXXXXXXXXXXXXXXXXXXXXXXXXXXXXXXXXXXXXXXXXXXXXXXXXXXXXXXXoXXXXXXXXXXX.o.Xooooo.ooo..X...o...o.............X.XXX.....++++++++&&&&&&&:::&&&&&&++++++++++++++++++XXXXXXXXXXXXXXXXXXXXXXXXXXXXXXXXXoXXoooooo.ooooooooooooooooo.oooo    o  ooooooooooooooooXXXXOO@@@$$$$$*$$$@@@@OOOXXXXOOOO@@@@@@@@@@@@@@@@@@@@@@@@@@@@@@@@@@@@@@$$$$$$$$$$$$$$$@@@OOOO@OO@@@$$$$$$$$$$$******$$$$$$$$$$$$$$$$$$$$$$@@OO",
"                                                                      ooXXOOO@@@@@@@@@OOooo                               ooooXOOOXXooooooo oooo          ooooooXXOOO@@@$$$$$$$$$$$$@@@OOOOOOOOO@@@@@@OOOOOOOOOOOOOOOOOOXOOXXXXXXoooooooooooooooooooooooooXXXXXXXXXXXXXXXXXXXXXXXXXXXXXXXXXXXXXXXXXXXX++XX+++++++++++++++&&&&::&&&&&++++&&&@@@@+XXXXXXoooo.  ....oooXX........X...XXXXX.X...XXX.......X...XXX...XXXXXXX+XXXO+OO+OO@@@@@@@@$#$$$$$$$$$$$$@@@@@@@O@@OOOOOOOOOOOOOOOOOOOOOOOOOOO@@@@@@@$$$***==;;;;;;;;;;;;;;;;;;;;;;;;;;;;;;;;;;;;;;;;;;;;;;;;;;;;;;;;;;;;;;;;;;;;;;;;;;;;;;;;;;;;;;;;;;;;;;;;;;;;;;;;;;;;;==*$@@@@@@@@OOXXXXXXXXXXXXXXXXXXXXX.....X..X..XXXXXXXXXXXXXXXXXXXXOOOOOXOOO@@@@@@@@@$$$$$%*****************==**********************====********====**======================****==******==****==*****************#$$###########@@###@@@@@@OXXXXXXXXXXXXXXXXXXXOOXXXXXXXXXXXXXXXXXXXXXXXXXXXXXXXXXXXXXXXXXXXXXXXXXXXXXXXXXXXXXXXXXXXXXXXXXXXXoXXoXXXXXXXXXXooooXXooXXXXooo...oooooooooooooo..o..Xo................XX.....+++++++++&&&&&&&:::&&&&++++++++++++++++++++XXXXXXXXXXXXXXXXXXXXXXXXXXXXXXXXXXXoooooooooooooooooooooooooooooo   o  ooooooooooooooooooXXXOOO@@@$$$$$$$#@@@@@OOXXXXOOOO@@@@@@@@@@@@@@@@@@@@@@@@@@@@@@@@@@@@$$$$$$$$$$$$$$$$$$@@@O@@OO@@@@@$$$$$$$$$$******$$$$$$$$$$$$$$$$$$$$$@@OO",
"                                                                     oooXOOO@@@@@@@@OOOOoo                                ooooXOOOXXoooooo    o         ooooooooXXOOOO@@@@@@$$$$@@@@@OOOOOOOOOOO@@@@@@OOOOOOOOOOOOOOOOOOOOOOXXXooooooooooooooooooooXooooXXXXXXXXXXXXXXXXXXXXXXXXXXXXXXXXXXXXXXXXXXXX++++XXXX++++++++++++&&&&::&&&&&++&&&&&@@@++XXXXXX.o.oooooo...oooXXXX....XXX.....X.X.X...XXX.....XXX..XX.XXXXXXXXXXX+XXXOXXXXOO@O@@@@@@@@$$$@@@$@@@@@@@@@@@OOOOOOOOOOOOOOXXXXXXXOOOOOOOOOOO@@@@@@@#$$****%==================*%%***===********==******=*=============================================================****$$$$@@@@@OOOXXXXXXX.XXXXoX.XXooXX....XXXXXXXXXXXXXXXXXXXXXXXXXXXXXXOOOOOOO@@@@@@@@@@@$$$$$$$$$$$$$$$$$$$$$$$$$$$$$$$$$$$$$$$$$$$$$$**$$****$$***************************$$$$%*$$$$$$$*$$$$$$$*$**$$$$$$$$$##@##@@@@@@@@@@@@@@@@@@@@@@OOXXXXXXXXXXXXXXXXXXXXXXXXXXXXXXXXXXXXXXXXXXXXXXXXXXXXXoXXXXXoXXXXXXXXXXooooXXoXooooXXooooXooXXXXXooooooooXoooXXXXooooooooooXooooo...o..o..ooooooooooXXX..XXXXXX.....X...X.......+++++++++&&&&&&&::::&&&++++++++++++++++++++XX+X++XXXXXXXXXXXXXXXXXXXXXXXXXXXXXXooooooooooooooooooooooooooooo  o    ooooooooooooooooooXXXOOO@@@$$$$$$$$#@@@@OOXXXXXOO@@@@@@@@@@$@@@@@@@@@@@@@@@@@@@@@@@@@@@@$$$$$$$$$$$$$$$$@@@@@OO@@@@@$$$$$$$$$$*****$$$$$$$$$$$$$$$$$$$$$$$@@",
"                                                                   oooooXOOO@@@@@@OOOOOXoo                                ooooXOOOXXoooooo              ooooooooooOOOO@@@@@@$$@@@@@@OOOOOXOOOO@@@@@@@@OOOOOOOOOOOOOOOOOOOOOOXXooooooooooooooooooXoooXoooXXXXXXXXXXXXXXXXXXXXXXXXXXXXXXXXXXXXXXXXXXX++++++++X++++++++++++&&:::&&&&&&&+&&&&@@@++XXXXXX.o..oooooo..ooooXXXX..XXXX......XXXX...........X..X.XXXXX...XXXXXX++XXXOXXXXOOOO@@@@@@@@@@@@@@@@@@@@@@@@@@OOOOOOOXOOXXXXXXXXXXXXOOOOOOOOOO@@@@@@@#$$******%%********%%%%%*************************************************************************%%%%******************$@@@@@@@@OOXXXXXXXXXXXXX.XXXoooo....XXXXXXXXXXXXXXXXXXXXXXXXXXXXXXXOXOOOO@@@@@@@@@@@@@@@@$$$$$$$$$$$$$$$$$$$$$$$$$$$$$$$$$$$$$$$$$$$$$$$$$$$$$$$$$$$$$$$$$$$$$$$$$$$$$$$$$$$$$$$$$$$$$$$$$$$$$$$@@@@@@@@@@@@@@@@@@@@@@@@@@@@@@@@@@OOOOXXXXXXXXXXXXXXXXXXXXXXXXXXXXXXXXXXXXXXXXXXXXXXXXXXXXXXoXooooooXXXoooooXXXoooXXXoXXXXXXXXXXXXoXoXXXoooooXXoooXXXoooooooooooo.ooooooo...oooooo..ooooo.X...X.XXXXXX...X...........+++++++++&&&&&&&&::::&&+++++++++++++++X++++XX+++++XXXXXXXXXXXXXXXXXXXXXXXXXXXXXooooooooooo.ooooooooooooooooo oo    oooooooooooooooooXoXXOOOO@@@@$$$$$$$#@@@@OOXXXXXOOOO@@@@@@@@@@@@@@@@@@@@@@@@@@@@@@@@@@@@$$$$$$$$$$$$$$$$$$@@OOOO@@@@$$$$$$$$$$$$****$$$$$$$$$$$$$$$$$$$$$$@@",
"                                                               oooooooooXXOOOOOOOOOOXoooo                                 ooooOOOOOooooooo     ooo    oo oooooooXXXOOOOO@@@@@@@@@@OOOOOOOOOOO@@@@@@@OOOOOOOOOOXXXXXXXXOOOOXXoooooooooooooooooooXooooXXXXXXXXXXXXXXXXXXXXXXXXXXXXXXXXXXXXXXXXX+++XXXXXX+++XXX+++@++++++&&&&::&&&&&&&&&&&&@@+++XXXo...o...  ..ooo............XXX..........XX.....X................XXXXXXXXXX++XXO+OOOOO@@@@@@@@@@@@@@@@@@@@@OOO@OOOOOOOOOXOXXXXXXXXXOOOOOOOOOOO@@@@@@@@@$$$***************************%%%$%%******************************************************************************$$$#@@@@@@@@@OOXXXXXXXXXXXXXXX...X......ooXXXXXXXXXXXXXXXXXXXXXXXXXXXXXXXOOOOOO@@@@@@@@@@@@@@@@@@@@@@@@@@@@@@@@@@@@@@@@@@@@@@@@@@@@@@@@@@@@@@@@@@@$$$$@@@@@@@@$$@@@@@@@@@@@@@@@@@@@@@@@@@@@@@@@@@@@@@@@@@@@@@@@@@@@@OOOOOOOOOOOOOOOOXXXXXXXXXXXXXXXXXXXXXXXXXXXXXXXXXXXXXXXXXXXXXXXXXXXXXXoXXXXXXXXoooXXooXXXoooXXXXXXXXooooo..o.Xoooo.XX...XXoo.oXX....oooooo..oo.ooo..oo..ooooooooooooooooooo.......oo.X......XXX.....++++++++++++&&&&&&&::::&&&+++++++++++++X+++++XXXXX+XXXXXXXXXXXXXXXXXXXXXXXXXXXXoooXXoooooooooooooooooooo  ooo   oooooo  oooooooooooooooooXXXXOOO@@@$$$$$$$#@@@@OOOXXXXOOO@@@@@@@@@@@@@@@@@@@@@@@@@@@@@@@@@@@@@@@$$$$$$$$$$$$$$$$@@@@@OOO@@@@$$$$$$$$$$$$******$$$$$$$$$$$$$$$$$@",
"                                                        ooooooooooooooooXXXOOOOOOOOXoooo                                  ooooXOOOOooooo      ooo     ooooooooXXXXOOOOOO@@@@OOOOOOOOOOOOOOO@@@@@@@@@OOOOOOOOOOXXXXXXXOOOOXXXoooooooooooooooooooooooXXXXXXXXXXXXXXXXXXXXXXXXXXXXXXXXXXXXXXXXXX+++XXXXXX+++++++++++++++&&&:::&&&&&&&&&&&&&@++OXXXXo..oo... .oooo.............X.X..........XX....XX....XX...........XXXXXXXXX+XXXXXOOOOOO@@@@@@@@@@@@@@@@@@@OOOOOOOOOOOOOXXOXXXXXXXXXXOXXOOOOOOOO@@@@@@@@@@$$$$$$$$$$$$$$$$$$$$$$$$$$$$$$$$$$$$$$$$$$$$$$$$$$$$$$$$$$$$$$$$$$$$$$$$$$$$$$$$$$$$$$$$$$$$$$$$$$$$$$$$$$$$$$$$$@@@@@@@@@@@@OXXXXXXXXXXXXXXX.o.XX......ooXXXXXXXXXXXXXXXXXXXXXXXXXXXXXXXOOOOOO@O@@@@@@@@@@@@@@@@@@@@@@@@@@@@@@@@@@@@@@@@@@@@@@@@@@@@@@@@@@@@@@@@@@@@@@@@@@@@@@@@@@@@@@@@@@@@@@@@@@@@@@@@@@@@@@@@@@@@@@@@@OO@@@@OOOOOOOOOOOOXXXXXXXXXXXXXXXXXXXXXXXXXXXXXXXXXXXXXXXXXXXXXXXXXXXXXXXXXXXXoooXXoooXoooooXXoooXXXooXXXXooooXoooooooXX.ooo.Xoo.XXXoo.ooooooooooooo..oo.ooooo....ooooooo.oooo..ooooo..................XX.....+++++++++++++&&&&&&&&:::&&&++++++++++++++X++XXXX++XXXXXXXXXXXXXXXXXXXXXXXXXXXXXXooooooooooooooooooooooooooooo   o oo o  ooooooooooooooooooXXXXOO@@@@$$$$$$$$@@@@OOOXXXXXOOO@@@@@@@@@@@@@@@@@@@@@@@@@@@@@@@@@@@@@$$$$$$$$$$$$$$$$$@@@@OOO@@@@@@$$$$$$$$$$$*****$$$$$$$$$$$@@$$$$@",
"                                        oooooooo oooooooooooooooooooooXXXXXXXXXoooooo                                     ooooXXOOOXoooo              oooooooXXXOOOOOO@@@@OOOOOOOOOOOOOO@@@$$$$$@@@@@@@@@OOOOOXXXXOOOOOOXooooooooooooooooooooooooooXoXXXXXXXXXXXXXXXXXXXXXXXXXXXXXXXXXOOXXXXXX+++XX++++++++++++++++&&&&&::&&&&&&&&&&&&@@@+OXXXXXo.ooo..oooo.oo..........................X.....XXXXXXXXX.XX.X.X..XXXXXXXXXXXXXXXXXXOOOOO@O@@@@@@@@@@@@OOOOOOOOOOOOOOXXXXXXXXXXXXXXXXOXXOOOOOOOO@@@@@@@@@@@@@@@@$@$$$$@$$$@$@@$@@@@@@@@@@@$@@@@@@@@@@@$@@@@@$@@@@@@@@@@@@@@@@@@@@@@@@@@@@@@@@@@@@@@@@@@@@@@@$@@@@@@@@@@@@@@@@@@@@@@@@@OOOXXXXXXXXXXXo..oo.XX.X..XXooXXooooXXXXXXXXXXXXXXXXXXXXXXXXXXXXOOOOOO@@@O@@@@@@@@@@@@@@@@@@@@@@@@@@@@@@@@@@@@@@@@@@@@@@@@@@@@@@@@@@@@@@@@@@@@@@@@@@@@@@@@@@@@@@@@@@@@@@@@@@@@@@@@@@@@@@@@@@@@OOOOOOOOOOOOOXXXXXXXXXXXXXXXXXXXXXXXXXXXXXXXXXXXXXXXXXXXXXXXXXXXXoXXXXXXXXXXXXoXXXXXoXXoooooXXooooooooXXXoooooooooooooooooooX.oooooooooooooooooooooooo..ooooooooooooooo.....oo....ooo.X.XX......X.XX.XXX.......+++++++++++++&&&&&&&&:::&&&++++++++XX++++XXXXXXXXXXXXXXXXXXXXXXXXXXXXXXXXXXXXXXoooooooooooo....oooooooooooooo               o  ooooooooooXXXXXXOOO@@@@$$$*$$#@@@@@OOXXXXXOOO@@@@@@@@@@@@@@@@@@@@@@@@@@@@@@@@@@@@@$$$$$$$$$$$$$$$$$@@@OO@OO@@@@@$$$$$$$$$$$$$*$$$$$$$$$$$@@$$$$@",
"                                     ooo   ooooooooooooooooooooooooXoXXXXoooooooooooo                                     ooooXXOOXXoooo              oooooXXXOOOOOOOO@@@@@OOOOOOOOOOO@@@@$$$$$@@@@@@@@@@OOOOXXXXOOOOOXXoooooooooooooooooooooooXoooXooXoXXXXXXXXXXXXXXXXXXXXXXXXXXXXXXXXXXXXXX+++++O++++++++++++++&&&&::::&&&&&&&&&&&&@+OXXXXXXXooooo...oo.oXX................................XX..XXXXXX.XXXXXXX.XXX.XXXXXXXXXXXXXXOOOOOOOOOOOOOOOOOOOOOOOXXOOOXXXXXXXXXXXXXXXXXXXXOXXOOOOOOOO@@@@@@@@@@@@@@@@@@@@@@@@@@@@@@@@@@@@@@@@@@@@@@@@@@@@@@@@@@@@@@@@@@@@@@@@@@@@@@@@@@@@@@@@@@@@@@@@@@@@@@@@@@@@@@@@@@@@@@@@@@@@@@@@@@O@@OOOXXXXXXXXXXoo.oooo.XXXX..XXXooooXXXXXXXXXXXXXXXXXXXXXXXXXXXXXXXXOOOOOOOOOOOOOO@@@@@@@@@@@@@@@@@@@@@@@@@@@@@@@@@@@@@@@@@@@@@@@@@@@@@@@@@@@@@@@@@@@@@@@@@@@@@@@@@@@@@@@@@@@@@@@@@@@@@@@OOOO@@OOOOOOOOOOXXXXXXXXXXXXXXXXXXXXXXXXXXXXXXXXXXXXXXXXXXXXXXXXXXXXXXXoooXXXXXXXXXXXoXXXXXXooXXooooXXoooooooooooooooooooooooooooooooooooooooooooooooooooooo....ooooooooooo......oooo.....oo..XXoo...X....XXXX.........+++.+++++++++&&&&&&&&&::&&&&+++++++++XX+++XXXXXXXXXXXXXXXXXXXXXXXXXXXXXXXXXXXXXXXXXXXXooooo....ooooooooooooooo                     oooooooXoXXXOOOO@@@$$$$$*$##@@@@OOXXXXXXOO@@@@@@@@@@@@@@@@@@@@@@@@@@@@@@@@@@@@$$$$$$$$$$$$$$$$$$@@@@@@OO@@@@@$$$$$$$$$$$$**$$$$$$$$$$$@$$$@@",
"                                   oooooooooooXooooooooXXoXXooooXXXoooXXoooooooo                          oooooo          oooooOOOOXoooo o          ooooooXXXOOOOOOOOO@@@@@OOOOOOOOO@@@@$$$$$$@@@@@@@@@@OOOOOXXXOOOOXXXXooooooooooooooooooooooooooooXXXXXXXXXXXXXXXXXXXXXXXXXXXXXXXXXXXXOOXXXXXXXO++++++++++++++&&&&::::&&&&&&&&&&&&@@@+XXXXXX..oooo...o...oXX...............XXX........XX........XXX......XXXX....XXXXXXXXXXXXX++XXXXOOOOOOOOOOOOOOOOOOOOOOOOXXOOOXXXXXXXXXXXXXXXXXXOOOXXOOOOOO@@@@@@@@@@@@@@@@@@@@@@@@@@@@@@@@@@@@@@@@@@@@@@@@@@@@@@@@@@@@@@@@@@@@@@@@@@@@@@@@@@@@@@@@@@@@@@@@@@@@@@@@@@@@@@@@@@@@@@@@@@@@@@@@OO@@OOXXXXXXXXXXooooooo.o.....oo..XXXX..XXXXXXXXXXXXXXXXXXXXXXXXXXXXXXXXOOOOOOOOOOOOOOOOOO@O@@@@@@@@@@@@@@@@@@@@@@@@@@@@@@@@@@@@@@@@@@@@@@@@@@@@@@@@@@@@@@@@@@@@@@@@OO@@O@@@@@@@O@@@@@@@OOOOOOOOOOOXOOXOXXXXXXXXXXXXXXXXXXXXXXXXXXXXXXXXXXXXXXXXXXXXXXXXXXXXXXXXooooXXXXXXXXXXooXooXXXooXXXooooXXoooooooooooooooooooooXXooooooooooooooooooooooo.oooooooooooo.ooooo.oo.....oooo..ooo....ooo....XX....X.XX..........+++++++++++++++&&&&&&&:::&&&++++++++++++XX++XXXXXXXXXXXXXXXXXXXXXXXXXXXXXXXXXXXXXXXXXX....ooooooooooooooooooooooo             oooo oooooooooooXXXOO@@@@@$$$$**@@@@@@OOXXXXXOOO@@@@@@@@@@@@@@@@@@@@@@@@@@@@@@@@@@@@@$$$$$$$$$$$$$$$$$@@@@@@@@@@@@@@@$$$$$$$$$$$$$$$$$$$$$$$$@@@",
"                                  oooooooXXXXXXXXXXXXXXXXXXXXXXXXXXXooXooooooo                            ooooooooo       ooooOOOOOXoooooo     o   oooooXXXOOOOOOOOOOO@@@@OOOOOOOOO@@@@@$$$$$$@@@@@$$@@@OOOOOXXOOOOOXoooooooooooooooooooooooooooooooXXXXXXXXXXXXXXXXXXXXXXXXXXXXXXXXXXXXOOOXOOXXOO++++++++++++++&&&&::::&&&&&&&&&&&&@+@+XXXXXX..ooo ..oo....XX.........X.....X.X.........XX........X.........X..XXXX.XXXXXXXXXXX++XXXXOXOOOOXXXXOOOOOOOOOXOOXOXXOOOXXXXXXXXXXXXXXXXXXXOOXXOOOOOO@@@@@@@@@@@@@@@@@@@@@@@@@@@@@@@@@@@@@@@@@@@@@@@@@@@@@@@@@@@@@@@@@@@@@@@@@@@@@@@@@@@@@@@@@@@@@@@@@@@@@@@@@@@@@@@@@@@@@@@@@@@@@@@@OOOOOOOXXXXXXXXXXXooooooo.....oo..XXXX..XXXXXXXXXXXXXXXXXXXXXXXXXXXXXXXXOOOOOOOOOOOOOOOOOOOOOOOOOO@@OO@@@@@@OOOO@@@@@@@@@@@@@@@@@@@@@@@@@@@@@@@@@O@@@@@@@@OO@@OOOOOOOOOOOOOO@@OOOOOOOOOOOOOOOOOOOOXXXXXXXXXXXXXXXXXXXXXXXXXXXXXXXXXXXXXXXXXXXXooXXXXXXXXXXXXXXXXooooXXXXXXXXXXooXooXXXoooooooooooooooooXooooooooXXooooXXoooooooooooooooooooooooooooooooooooo.oooooooooooooooooo.ooo....oooo.o..........XX....X.+..+++++++++++++++++&&&&&&:::&&++++++++++++XX+++X+X+XXXXXXXXXXXXXXXXXXXXXXXXXXXXXXXXXXXXXooo...oooooo..ooooooooooooo              oo     o oooooooXXXOOO@@@@$$$**###@@@@OXXXXXXOO@@@@@@@@@@@@@@@@@@@@@@@@@@@@@@@@@@@@@$$$$$$$$$$$$$$$$$$@@@@@@@@@@@@@@$$$$$$$$$$$$$$$$$$$$$$$$$$@",
"                                ooooXXXXOOOOOOOOOOOOOOXXXXXXXXXXXXXXooooooooo                           oooooooooooooo  ooooooOOOOXXooooo    ooo oooooXXXXXOOOOXOXXOOO@@@OOOOOOOOO@@@@@@@@@@@@@@$$$@@@@OOOOOOOXOOXXXooooooooooooooooooooooooooXXoooXXXXXXXXXXXXXXXXXXXXXXXXXXXXXXXXXXXXOOOXO++O+OO+++++++++++++&&&&:::&&&&&&&&&&&&@+@++XXXXXX.oooo....o................X......X.............................X...X...XX..XXXXXXXXX+XXXXXXXXXOXXXXXXXXXXXXOXOOXXXXOXOXXOXXXXXXXXXXXXXXXXOOXOOOOO@@@@@@@@@@@@@@@@@@@@@@@@@@@@@@@@@@@@@@@@@@@@@@@@@@@@@@@@@@@@@@@@@@@@@@@@@@@@@@@@@@@@@@@@@@@@@@@@@@@@@@@@@@@@@@@@@@@@@@@@@@OOOOOO+@OOOOOOXXXXXXXXXXXXXX..o.X....XXX.XXXX...XXXXXXXXXXXXXXXXXXXXXXXXXXXXXXXXXXXOXXXXXXXXOOOOOOOOOOOOOOOOOOOOOOOOOOOOOOOOOOOOOOOOOOOOOOOOOOOOOOOOOOOOOOOOOOOOOOOOOOOOOOOOOOOOOOOOOOOOOOOOOOOOOOOOOOOOOXXXXXXXXXXXXXXXXXXXXXXXXXXXXXXXXXXXXXXXXXXXXXXXXXXXXXXXXXXXXooXXXoXXXXXXXXXXoXXXoooXXXXooooooooooooooXXoXoooo.oX.oXooXooooooooooooooooooooooooooooooooooo..oooooooooooooooooooooo....ooo...ooXX........X.X...++....++++++++++++++&&&&&&&&:::&&&++++++++++++++XX+++XXXX+XXXXXXXXXXXXXXXXXXXXXXXXXXXXXXXXXXXoo.oXoooooooo.ooooooooooo        oo              oooooooXXXOO@@@@$$$$***$@@@@@OOXXXXXXO@@@@@@@@@@@@@@@@@@@@@@@@@@@@@@@@@@@@@@$$$$$$$$$$$$$$$$$$@@@@@@OO@@@@@@$$$$$$$$$$$$$$$$$$$$$$$$",
"                                oooXXOOOOOOOOOOOOOOOOOXXXXXXXXXXXXXXoooooooo                           ooooXXoXXooooooooo ooooOOOOXXoooooo    oooooooXXXXXXOOOOXXXOOOOO@@OOOOOOOO@@@@@@@@@@@@@@@$$@@@@OOOOOOOOOOXXXooooooooooooooooooooooooooXXXXXoXXXXXXXXXXXXXXXXXXXXXXXXXXXXXXXXXXOOO+O++O+++O+++@@++++++++&&&&&:::&&&&&&&&&&&&+++++XXXoo.o..............o..........X........................XXXXX......XXX..XX..X...XXXXXXXXXXXXXXXXXXXXXXXXXXXXXXXXXXOOXXXXXXOXXXXXXXXXXXXXXXXXXOOOXXOOO@@@@@@@@@@@@@@OOO@@O@@@@@@@@@@@@@@@@@@@@@@@@@@@@@@@@@@@@@@@@@@@@@@@@@@@@@@@@@@@@@@@@@@@@@@@@@@@@@@@@@@@@@@@@@@@@@@@@O@@@@@@OOOOOO+@OOOOOOXXXXXXXXXXXXXXXX..XX..XXXXXXXXXXXXXXXXXXXXXXXXXXXXXXXXXXXXXXXXXXXXXXXXXXXXXXXOOOOOOOOOOOOOOOOOOOOOOOOOOOOOOOOOOOOOOOOOOOOOOOOOOOOOOOOOOOOOOOOOOOOOOOOOOOOOOOOOOOOOOOOOOOOOOOOOOOOOXXXXOOOOXXXXXXXXXXXXXXXXXXXXXXXXXXXXXXXXXXXXXXXoXXXXXXXXXXXXooXXXXXXooooXXXXXXXoXXXXoXXXXXXXXoXXXoooXXooooooooooXXXXooooXXo.oooooooooo..ooooooooooooooooooooo.ooo...oooooo..ooooo.oooo.oooo...oo....XXXX....X...XXXX..X.X...+++++++++++++++&&&&&&&&:::&&++++++++++++++XX++++XXXXXXXXXXXXXXXXXXXXXXXXXXXXXXXXXXXXXXoooooXoooooooooooooooooooooo      oo               oooooooXXXOOO@@@$$$****##@@@@OOOXXXXXOO@@@@@@@@@@@@@@@@@@@@@@@@@@@@@@@@@@@@@$$$$$$$$$$$$$$$$$$$@@@@OOO@@@@@$$$$$$$$$$$$$$$$$$$$$$$$",
"                            oooooOOOOO@@@@@@@@@@OOOOOOOXXXXXXXXXXXXoooooooo                           ooooXXXXXXXXooooooooooXOOOOOOXoooo      oooooXXXXOOOOOOOOOOOOOOOOOOOOOOOO@@@@@OO@@O@@@@$$$$@@@OOOOXOOOOOOXXoooooooooooooooooooooooooooXXooXXXXXXXXXXXXXXXXXXXXXXXXXXXXXXXXXXXXXXXXO+OOO@@++++++@++++++&&&&:::::&&&&&&&&&&&@@+++XXXXX..ooo.oo....oo........................................X.X..XXX...........XXXXXXXXXXX..XXXXXXXXXXXXXXXXXXXXXXXXXXXXXXXOOXXXXOXXXXXXXXXXXXXXXXXXOOOOO@@@@@@@@@O@OO@OOOOOOOOO@@@@@@OO@@@@@@@@@@@@OO@@@@@@@@@@@@O@@OOO@@@@O@@@@@@@@@@@@@@@@@@O@@@@@@@@@@@@@@@@@@@@@@@@@@@@OO@@@@@@OOOOOOO+O@@OOOOOXXXXXXXXXXXXXXXXXXXXXXXXXXXXXXXXXXXXXXXXXXXXXXXXXXXXXXXXXXXXXXXXXXXXXXXXXXXXXXXXXXXXXXXXOOOOOOOOOOOOOOOOOOOXOOOOOOOOOOOOOOOOOOOOOOOOOOOOOOOOOOOOOOOOOOOOOOOOOOOOOOOOOOOOXXOOOOOXXXOOXXXXXXXXXXXXXXXXXXXXXXXXXXXXXXXXXXXXXXXXXXXXXXXXXXXXXXXXXXXXoXXXooXoXXXXXXXXXXXoooXXXXXXoXooooooXoXXXooXXooooooooooo.oooooo.oo.ooXoo.ooooooo..ooooo.oooooo.ooooooooo..ooooo.ooo.oo.ooo.o..oo....ooXX.XXX...........X+.....+++++++++++++++&&&&&&&:::&&&++++++++++X+X+XXXX+XXXXXXXXXXXXXXXXXXXXXXXXXXXXXXXXXXXXXXXoooooo...ooooooooooooo.   oo    o  o    o    ooo oooooooooXXXXOO@@@@$$$$**$@@@@@OOXXXXXXXO@@@@@@@@@@@@@@@@@@@@@@@@@@@@@@@@@@@@@@$$$$$$$$$$$$$$$$$@@@@O@@@@@@@@@$$$$$$$$$$$$$$$$$$$$$",
"                            oooXOOOO@@@@@@$$$@@OOOOOOOXXXXXXXXXXXXXooooooo                            oooooXooooXoooooooooooXOOOOOXXooooo    oooooXXXXXOOOOOOOOOOOOOOOOOOOOOOOO@@@OOOO@@@O@@@$$$@@OOOOOOOOOOOXXXooooooooooooo ooooooooooooooXoXoXXXXXXXXXXXXXXXXXXXXXXXXXXXXXXXXXXXXXXX+++@+OOOO++++@@@++++&&&&&:::&&&&&&&&&&&&&++++XXXXXX.ooo...o....oo...........................................XXX................XXXXXXXX...XXXXXXXXXXXXXXXXXXXXXXXXXXXXXXXXXXXXXXXXXXXXXXXXXXXXXXXXOOOO@@@@@@@@OOOOOOOOOOOOOOOOO@@OOOOOOOO@@OO@@@@OO@@@@OO@@@@OOOO@OOOO@@@OOOOOOO@@@O@@@@@@OOO@@@@OOOO@@@@@@@@@@OO@OOO@@@@OOOOOO@OOOO+OOOOO@@+OOOOXXXXXXXXXXXXXXXXXXXXXXXXXXXXXXXXXXXXXXXXXXXXXXXXXXXXXXXXXXXXXXXXXXXXXXXXXXXXXXXXXXXXXXXXXXXXXOOOOXXXOOOOXXXXOOOOOOOOOOOOOOOOOOOOOOOOOOOOOOOOOOOOOOOOOOOOXXXXOOOOOOOOXXXXXXOXOOXXXXXXXXXXXXXXXXXXXXXXXXXXXXXXXXXXXXXXXXXXXXXXXXXXXXXXXXXXXXXXXXXXooXoXoXXXXooooXXXXXoooXXoooooXooXoXoooXXXooXXoooooooooooXoXXoooooooooooooooooooo.ooooooooooooo..oooo..ooooooo...ooo....ooooo..oo....XXXX.XXXX..X......XX....X..++++++++++++++&&&&&&&&::&&&&+++++++++XXXXXXX+++XXXXXXXXXXXXXXXXXXXXXXXXXXXXXXXXXXXXXoXooXoooooooooooooooooooo  oo    oo      o    o   ooooooooooXXXXOO@@@@@$$***$@@@@@OOXXXXXXOO@@@@@@@@@@@@@@@@@@@@@@@@@@@@@@@@@@@@@@$$$$$$$$$$$$$$$$$@@@@@@@O@@@@@@@$$$$$$$$$$$$$$$$$$$",
"                        ooooXXOOOO@@$$$$$$$$$$@@OOOOOOOOXXXXXXXXXoooooooo                              oooooooooooooooooXXOOOOOOOOOOXoooooo ooooooXXXOOOOOOOOOOOOOOOOOOOOOOOOO@@@@@@O@@@@@@@@$$$@OOOOOOXOOOOXXXXooooo oo  ooo oooooooooooooooXoooXXXXXXXXXXXXXXXXXXXXXXXXXXXXXXXX+XOXX+X++++++O+++++@@@@+++&&&::::&&&&&&&&&&&&&@+++XXXXX...oooo.oooo........................................................................XXXX.XXXXXXXXXXXXXXXXXXXXXXXXXXOOOOOOOOOXOOOOOOO++OOOOOOOOXXXOOOO@@@@@@@OOOOOOOOOOOOOOOOOOOOOOOOOOOOOOOOOOOOOOOOOOOO@@@OOOOOOOOOOO@OOOOOOOOOOOOO@OOOOOOOOOOOOOOOOOOOOOOOOOOO++XXOO@@OOOOOOOOOOO+OOOOO@@@@OOOXXXXXXXXXXXXXXXXXXXXXXXXXXXXXXXXXXXXXXXXXXXXXXXXXXXXXXXXXXXXXXXXXXXXXXXXXXXXXXXXXXXXXXXXXXXXXXXXXXXXXXXXXXXXXOOXXXXXOOOOOOOOXXOOXXOOOOOOOOOOXOOOOOXXXOOOXXXXXXOOXOOOOXXXXXXXXXXXXXXXXXXXXXXXXXXXXXXXXXXXXXXXXXXXXXXXXXXXXXXXXXXXXXXXoooooXXXXXXXooXoXXXoXooooXXXXXXXoooooXXXXXXXXXoooooXXooXoooooooXooXXooXXooooXXoooooooXooooooooooooooooo.ooo.oooooo..oooooo..ooo....ooo.....o....XXX...XXXX.XXXXX...+..X.X.++++++++++++++++&&&&&&&&&::&&&++++++++++++XX++++XX+XXXXXXXXXXXXXXXXXXXXXXXXXXXXXXXXXXXooooXooooooooooooooooooo o ooo      oo    oo      ooo   oooooXXXXOO@@@@@##**##@@@@@OOXXXXXXOOO@@@@@@@@@@@@@@@@@@@@@@@@@@@@@@@@@@@@@$$$$$$$$$$$$$$$$$$@@@@O@@@@@@@@@$$$$$$$$$$$$$$$$$",
"                       oooXXOOO@O@@$$$$$$$$$$$@@OOOOOOOOXXXXXXXoooooooo                                 oooooooooooooXXOOOOOOOOOOOOOXoooooooooooooXXXOOOOOOOOXXXXOOOOOOOOOOOO@@@@@@@@@@@@@@$$$@@OOOOOOOOOOOXXooooooo  oo ooooooooooooooooooooXoXoXXXXXXXXXXXXXXXXXXXXXXXXXXXXXXX++XOOOO+@@OOOOOOO++@@@@@+&&&&&::::&&&&&&&&&&&&@+++XXXXXX..o.oooooooo........................................................................XXXX..XXXXXXXXXXXXXXXXXXXXXXXXXXOOOOOOOOO+OO@@O@++O@OOOOOXXXOOOOO@@@@@@OOOOOOOOOOOOOOOOOOOOOOOOOOOOOOOOOOOOOOOOOOOOO@@OOOOOOOOOOOOOOOOOOOOOOOOXXOOOOXOXOOOOOOOOOXOOOOOOO+OXOO+OOOOOOOOOOOOOO+X+OO@@@@@@@@@@@@@@@@@@@@@@@@@@@OO@@@@@@@@OO@OOOOOOOOOOOOOOOOOOOXXOOOOXXXXXXXXXXXXXXXXXXXXXXXXXXXXXXXXXXXXXXXXXXXXXXXXXXXXXXXXXXXXXXOOOOXXXXXXOOXXXXXXXXOOOOXXXXXXXXXXOOXXXXXXXXXXOOXXXXXXXXXXXXXXXXXXXXXXXXXXXXXXXXXXXXXXXXXXXXXXXXXXXXXXXXXXXXXXXXXXXXoXXXXXXXXXXXXXXoXXooXXXXXXXXoooooooXXXXoXXooooXXXXXXooooooXXXXXXoooXXoooXXoooooooXXoooooooooooooooo.oooo.oooooo.oooooo..o.ooo.oooooo..ooXo..XX...XXXX...XXXX...+..XXX.++++++++++++++++++&&&&&&&&::&&&++++++++++X+X++++XXX+XXXX+XXXXXXXXXXXXXXXXXXXXXXXXXXXXXooooXXoooooooooooooooooooo ooo       oo            ooo    ooooXXXOOOO@@@@@#$***#@@@@O+XXXXXXXOO@@@@@@@@@@@@@@@@@@@@@@@@@@@@@@@@@@@@@$$$$$$$$$$$$$$$$$$@@@@@@@@@@@@@@$$$$$$$$$$$$$$$$",
"                   oooooXOOOOO@@$$$$$$$$$$$$@@@OOOOOOXXOXXXXXooooooo                                    oo  oooooooooXOOOOOOOOOOOOOOOXXoooooooooooXXXOOOXXOOOXXXXXOOOOOOOOOO@@@@O@@@@@@@$$$$@@@OOOOOOOOOOXXXXooooooooooooooooooooooooooooooooooooXXXXXXXXXXXXXXXXXXXXXXXXXXXXXXXXXOO@@@@OOOO@@@@@@@@@@@@&&&&&:::&&&&&&&&&&&&&+@+++XXXX.Xoooo.ooo..oXX........................................................oo...............XX..XXXXXXXXXXXXXXXXXXXXXXOOOOO@@@@@@@@@@@@@@@@@@@@@@@OOOOOXOOOO@@@@OOOOOOOOOOOOOOOOOOOOOOOOOOOOOOOOOOOOOOOOOOOOOOOOOOOOOOOOOOOOOOXXOOOOXXXXXOOOXXXXXXOOOOOOOOXXXXOOOOOOOO+XXXOOOO++OOOOOO++O@@@@@@@@@@@@@@@@@@@@@@@@@@@@@@@@@@@@@#@@@@@@@@@@@@@@@@@@@@@@@@@@@@@@@OOXXXXXXXXXXXXXXXXXXXXXXXXXXXXXXXXXXXXXXXXXXXXXXXXXXXXXXXXXXXXOOXXXXXOOOOOOOXXXXXXXXOOOXXXXXOOOXOOXXXXXXOOXXXXXXOXXXXXXXXXXXXXXXXXXXXXXXXXXXXXXXXXXXXXXXXXXXXXXXXXXXXXXXXXXXXXXXXXXXXXXXXXXXXXXXoXoXXXXXXXXXXoooXXXXXXooooooooXXoXoooXXooXXXooooXooXXoXXoooXXXoooooooooooooooooooooooooo.oooooo.ooooooo.ooo.o.o.ooo.ooo.XXXX......XXXX..XX....++.XXX...++++++++++++++++++&&&&&&&:::&&&&+++++++++++++XXXXXX+++XXXXXXXXXXXXXXXXXXXXXXXXXXXXXXXXXXoooooooooooooooooooooooooooo                     oooo  oo ooooXXXOO@@@@@#****##@@@@OXXXXXXXOOO@@@@@@@@@@@@@@@@@@@@@@@@@@@@@@@@@@@@@@@$$$$$$$$$$$$$$$$@@@@@@@@@@@@@@@@$$$$$$$$$$$$",
"                   oooXXOOOO@@$$$$$$$$$$$$$@@@OOOOOOXXXXXXXXooooooo                                     oo ooooooooooOOO@@@@@@@@@@OOOOXXXXooooooooXXXXOOXXXXXXXXXXXXOOOOOOOO@@@@@@@@@$$$$$$$@@@OOOOOOOOOXXXooooooooo  ooooooooooooooooooooooooXXXXXXXXXXXXXXXXXXXXXXXXXXXXXXXXXOOOO@@@@@OO@O@@@@@@@@@@@@&&&&::::&&&&&&&&&&&&++++XXXXX...oooo....o.X.X........................................................o...o..oooo......oX...XXXXX....XXXXXXXXXXXXOO@@@@@@@@@@@$$$$$$$@@$@@@@@@@OOOOOOOOOOOOOOOOOOOOOOOOOOOOOOOOO+OOOOOO++OOOOOOOOOOOOOOOOOOOOOOOOOOOOOOOOXXXXOO++XXX+OX+XXXXXXXOOOOOXXX+XXXOOOOO+++XXOOOO++OOOOO+OOO@@@@@@###########################################################@@@@@@@OXXXXXXXXXXXXXXXXXXXXXXXXXXXXXXXXXXXXXXXXXXXXXXXXXXXXXXXXXXXXXXXXXXOOXOOOXXXXXXXXOOOXXXXXXXXXXXXXXXXXXXXXXXXXXXXXXXXXXXXXXXXXXXXXXXXXXXXXXXXXXXXXXXXXXXXXXXXXXXXXXXXXXXXXXXXXXXXXXXXXXXXXXXXXXXXXXXXXXXXXXoXoXXXXXXXXooooXXXXoXXooXXoXXXXooooXoXXXXoXXoXXXXXooXXoooooooXXooooooooooooooooooooooooooooooo.oooooXXXoo.oXXXX...X..XXXX..XX....XXXXXX.X.++..++++++++++++++&&&&&&&&&:::&&&+++++++++++++XXX++++++XXXXXXXXXXXXXXXXXXXXXXXXXXXXXXXXXXoooooooooooooooooooooooooooo                    oooo     ooooooXXOOO@@@@$***$*#@@@@@OXXXXXXOOO@@@@@@@@@@@@@@@@@@@@@@@@@@@@@@@@@@@@@@$$$$$$$$$$$$$$$$$@@@@@@@@O@@@@@@$$$$$$$$$$$$",
"                oooXOOOOOO@@$$$$$$$$$$$$@@@OOOOOOOOXXXXXXooooooooo                                               ooooOOO@@@@@@@@@@@OOOOOOXXXoooooXXXXXXXXXXXXXXXXXXXOOOOO@OO@@@@@@@$$$$$$$$@@@OOOOOXXOOXXooooooooooo  ooooooooooooooooooXXoXXXXXXXXXXXXXXXXXXXXXXXXXXXXXXXXXXOOOOO@@@@OOOOO@@@@@@@@@@@@&&&&:::&&&&&&&&&&&&&&++X+XXXX...ooo..........X..........................................o...............o.oo...oo...o...X.oooooXX..oo.XXXXXXXXXXXO@@@@@@@$$$$$*******$$$$$$$@@@@OOOOOOOOOOOOOOOOXXXOOOOOOOOOOO+OXOO++OOO+OOOOOO++OOOO+OOOOOO+OOOO++++OXOX++++OOOX++++OOOX++XXXX++XXXX++++++++++O+XOXXOOOOX+OOXO++OOO@@@@@@@#@@@@@@@@@@@@@@@@@@@@@@@@@@@@@@@@@@@@@@#@@@@##@@#@@@@@@@@@#@##@@@@OXXXXXXXXXXXXXXXXXXXXXXXXXXXXXXXXXXXXXXXXXXXXXXXXXXXXXXXXXXXXXXXXXXXXXXXXXXXXXXXOOXXXXXXXXXXXXXXXXXXOXXXXXXXXXXXXXXXXXXXXXXXXXXXXXXXXXXXXXXXXXXXXXXXXXXXXXXXXXXXXXXXXXXXXXXXXXXXXXXXXooXXXXXXXXXXXXXXXXXXXXXooXXoXXXXXXXXXXXXXXXXXXXXXXXooooXXXXXooXXooXXXXXXXXXooXoXXXXoooooooXooooooooooooooooooooooooooooXooXoo.X..XXXXXX..XXX...XX..XXXX++XXXXXX+X...++++++++++++++&&&&&&&&:::&&&+++++++++++++XX++++XXXXXXXXXXXXXXXXXXXXXXXXXXXXXXXXXXXXXXoooooooooooooooooooooo  o                                 ooooXXOOO@@@@@$$$$##@@@@@OOXXXXXXOOO@@@@@@@@@@@@@@@@@@@@@@@@@@@@@@@@@@@@@@$$$$$$$$$$$$$$$$$$@@@@OOO@@@@@@@@@$$$$$$$$",
"                oXXOOO@@@@$$$$$$$$$$$$@@@OOOOOOOOOXXXXXXXooooooooo                                               oooXOOO@@@@@@@@@@@@@OOOOOXXooooooXXXXXXXXXXXXXXXXXXOOOO@@OO@@@@@@$$$$$$$$@@OOOOOOXXXXXooooooooooooo  oooooooooooooooooXXXXXXXXXXXXXXXXXXXXXXXXXXXXXXXXXXXXXXOOOOOOOO@@@O@O@@@@@@@@@@@&@&&&&:&&&&&&&&&&&&&&+++++XXXX....oo.......X.....................................................o.ooo.....oo...oo..oo.....ooo.oo.o.ooooXXXXXXXXXXO@@@@@@@$$$*$******$$$$$$$$@@@@OOOOOOOOOOOOOOOXXXXXXOOOOOXXXXO++XO++OOOO+OOOOOOOOOO++OO+O++OOOO+++++XOOX++++OOXX++++OXXX++++X+++XXXX+++++XX+++XXXXXXXXXX++++OOO+OOO@@@@@@@@@@@@@@@@@@@@@@@@@@@@@@@@@@@@@@@@@@@@@@@@@@@@@@@@@@@@@@@@@@@@@@#@@OXXXXXXXXXXXXXXXXXXXXXXXXXXXXXXXXXXXXXXXXXXXXXXXXXXXXXXXXXXXXXXXXXXXXXXXXXXXXXXXOOXXXXXXXXXXXXXXXXXXXXXXXXXXXXXXXXXXXXXXXXXXXXXXXXXXXXXXXXXXXXXXXXXXXXXXXXXXXXXXXXXXXXXXXXXXXXXXXXXXXXXXXXXXXXXXXXXXXXXXXXXXXXXXXXXXXXXXXXXXXXXXXXXXXXXXXooXXXXXXoXXXoooXooXXXXoXXXXXXXXoooooooXXoooooooooooooooooooooooooooXoo.oXXX...X.XXX..XXXX..XX..XXXXXXXXXXXX++....+++++++++++++&+&&&&&&&:::&&&++++++++++++XXXX+XXXXXXXXXXXXXXXXXXXXXXXXXXXXXXXXXXXXXXXXooooooooooooooooooooo                                    oooooXXXOO@@@@@@##$*$@@@@@@OXXXXXXXOOO@@@@@@@@@@@@@@@@@@@@@@@@@@@@@@@@@@@@@$$$$$$$$$$$$$$$$$$@@@@O@@@@@@@@@@$$$$$$$$",
"        o ooooooOOOOOO@$$$$$$$$$$$$@@@OOOOOOXXXXXXXXXXXXoooooo                                                    ooXXOOO@@@$$$$@@@@@@@OOOOXXXooooXXXXXXXXXXXXXXXXXOOOO@@@@@@@@$$$$$$$$$@@@OOOXXXXXXXXooooooooooo   ooooooooooooooo..XooooXXXXXXXXXXXXXXXXXXXXXXXXXXXXXXX+OXXX++OOOOOOO@@@@OO@@@@@$$#@&@&&&&&&&&&&&&&&&&&@++++XXXXX...ooooo...XX.......................................................................o..o....o..oooooo......oXXXXXXXXO@@@@@@@*$$$$*****$$$$$$$$$$$@@@OOOOOOOOOOOOXXXXXOOXXXXOOOX++OOOOO+++OOOOXXOOOOOOOOOOOOXOOO++OOOO+++OOO++XXXXXXXXXXXX++++++XXXXXXXXXXXXXX++++++XX++++++XX+++OOO++OOO@@@@@@@@@OOOXXXXXXXXXXXXXXXXXXXXXXXXXXXXXXXXXXXXXXXXXOOOOXXXXOOOOOO@@@@@@@OXXXXooXXXXXXXXooXXXXXXXXXXXXXXXXXXXXXXXXXXXXXXXXXXXXXXXXXXXXXXXXXXXXXXXXXXXXXXXXXOXXXXXXXXXXXXXXXXXXXXXXXXXXXXXXXXXXXXXXXXXXXXXXXXXXXXXXXXXXXXXXXXXXXXXXXXXXXXXXXXXXXXXXXXXXXXXXXXXXXXXXXXXXXXXXXXXXXXXXXXXXXXXXXXXXXXXXXXXXXXXXXXXXXXXXXXXXXXXXXXXooXoooXXXXXXXoooXooXXoXooXXooooooXXXoooooooooooooooooXoooXXXXXXXXXXXXXXXXXXXXXXXXXXXXXXXX++X+++++X..+++++++++++++++&+&&&&&&&:::&&&&++++++++X++++++XXXX+XXXXXXXXXXXXXXXXXXXXXXXXXXXXXXXXXXXXXXXooooooooooooooooo    o                                ooooooXXXXO@@@@@#$$$##@@@@@OOXXXXXOOOO@@@@@@@@@@@@@@@@@@@@@@@@@@@@@@@@@@@@@@@@$$$$$$$$$$$$$$$$@@@@@OOO@@@@@@@@@@$$$",
"      ooooooooOOOOO@@@$$$$$$$$$$$$@@OOOOOOOOXXXXoXXXXXXXoooooo                                                    ooXXOO@@@@$$$$@@@@@@@@OOOOXXoooXXXXXXXXXXXXXXXXXXOOOO@@@@@@@$$@$$$$$$$@@OOOOXXXXXXXooooooooooo    ooooooooooooooo.XXooooXXXXXXXXXXXXXXXXXXXXXXXXXXXXXXXXXXOO@@OOOOOOOO@@@@@@@@@$$$@@@@&&&&&&&&&&&&&&&&@++++XXXXX.....ooo....X.................................................................o.o......oo....o..o.oooo......ooXXXXXXOO@@@@@@$*$$$$**$$*$$$$$$$$$$$@@@OOOOXOOOOOOOXXXXXOOXXXXOOOXXXXOOOOXXXOOOOXXXXOOXXOOOO+OXXOO++OOOO+++OXX+XXXX+XXXX+XXX++++XXXXXXXXXXXXXXXX+X+XXXXX++++++XX+++OOOO+OOO@@@@@@@@OXXXXXXXXXXXXXXXXXXXXXXXXXXXXXXXXXXXXXXXXXXXXXXXXXXXXXXXXXXOO@@@@@@XXXXooXXXXXXXXooXXXXXXXXXXXXXXXXXXXXXXXXXXXXXXXXXXXXXXXXXXXXXXXXXXXXXXXXXXXXXXXXXXXXXXXXXXXXXXXXXXXXXXXXXXXXXXXXXXXXXXXXXXXXXXXXXXXXXXXXXXXXXXXXXXXXXXXXXXXXXXXXXXXXXXXXXXXXXXXXXXXXXXXXXXXXXXXXXXXXXXXXXXXXXXXXXXXXXXXXXXXXXXXXXXXXXXXXXXXXXXXXXXXXXXXoXXXXXXXXXXXXooXXoooXXXooooooXXXooooooooXoooooooXXXooXoXXXXXXXXXXXXXXXXXXXXXXXXXXX+XXX.XX++++XXXX++++++++++++++&&&&&&&&&&:::&&&++++++++X+X++++XXXXXXXXXXXXXXXXXXXXXXXXXXXXXXXXXXXXXXXXXXXXXoooooooooooooooooo  oo                                ooooooXXXXOO@@@@@@##$$#@@@@@OXXXXXOOO@@@@@@@@@@@@@@@@@@@@@@@@@@@@@@@@@@@@@@@@$$$$$$$$$$$$$$$$$$@@@@OO@O@O@@@@@@@@@",
" o  ooooooXXOOOO@@@$$$$$$$$$$$$@@@OOOOoooooooXXXXXXXXoooooooo                                                     ooXXOO@@@@@@$$$$$$$$@@@@OOXXXXXXXXXXXXXXXoXoooXXOOOOOO@@$$$$$$@@$$$@@@@OOOOXXXXXXooooooo    ooo  oooooooooooooooXXXoooXXXXXXXXXXXXXXXXXXXXXXXXXXXXXXXXXXXXOO@@@@OOOOO@@@@@@@@@@$$$@@@@+&&&&&&&&&&&&&&&++++XXXXX.....o......XX..............................................................o..........oo....oo...o....oo.o.oooXXXXXOO@@@@@@@**$$****$$$$$$$$$$$$$$@@OOOOOXXXOOOOXXXXXXXXXXXXXXXXXXXXOOXXXXXXXXXXXXXXXXXO+++++XXXX+XXXX++XXXXXXXX++XXXX++XXXXX+XXXXXX++++++++XXXXXXXXXXXXXX++++++XXOO++OX@@@@@@@@@OXXXXXXoooooXoooooooooooXooooXoXoXXooXXXXoooXXXXXXXXXXXXXXXOO@@@@@@OXXXooXXXXooooooXXXXXXXXXXXXXXXXXXXXXXXXXXXXXXXXXXXXXXXXXXXXXXXXXXXXXXXXXXXXXXXXXXXXXXXXXXXXXXXXXXXXXXXXXXXXXXXXXXXXXXXXXXXXXXXXXXXXXXXXXXXXXXXXXXXXXXXXXXXXXXXXXXXXXXXXXXXXXXXXXXXXXXXXXXXXXXXXXXXXXXXXXXXXXXXXXXXXXXXXXXXXXXXXXXXXXXXXXXXXXXXXXXXXXXXXXXXXXXXXXXXXXooXXXooXXXXooooXXXXoXo.XXoXoX.ooooXXXoooXoXXXXXXXXXXXXXXXXXXXXXXXXX++XXXXXXXX+X.XX+++++++++++++++++&&&&&&&&&:::&&&&+++++++++++XXXXXXXX+XXXXXXXXXXXXXXXXXXXXXXXXXXXXXXXXXXXXXXoooooooooooooooooo  oo  o                                 ooooXXXXOO@@@@$*$$*$#@@@@OOOXXXXXOO@@@@@@@@@@@@@@@@@@@@@@@@@@@@@@@@@@@@@@@@@$$$$$$$$$$$$$$$$$@@@OOO@@@OO@@@@@@",
"    oooooXOOOO@@@@$$$$$$$$$$$$@OOOOOOoooooooooooXXXXXoooooooo                                                     ooXXOOOO@@@@$$$$$$$$$@@@OOOOXXXXXXOOOXXXXoooooXXOOOOOO@@$$$$$$$@@@@@@OOOOOOXXXXXoooooo      oooooooooooooooooooooXXoooXXXXXXXXXXXXXXXXXXXXXXXXXXXXXXXXOOXOOO@O@OOOOO@@@@@@@@@@$$@@@@@@@@&&&&&&&&&&&&&++++XXX...............X.................................................................o........  ....ooo..o..  oooo..ooXXXXXO@@@@@@@********$$$$$$$$$$$$$@@@@OOOOXXXXXXXXXXXXXXXXXXXXXXXXXXXXXXXXXXXXXXXXXXXXXXXXX++++XXX+++XXX+XXXXXXXXX++++XX++XXXX++XXXXXX+X+++++++XXXXXXXXXXXXX++++XXXOOO++++@@@@@@@@OOXXXXooooo.oooooo.ooo.ooooooooo..X..X.o......oXXoX..XXXXXXXXO@@@@@@XXXXoooooooooooooXXXooooooXXXXXXXXXXXXXXXXXXXXXXXXXXXXXXXXXXXXXXXXXXXXXXXXXXXXXXXXXXXXXXXXXXXXXXXXXXXXXXXXXXXXXXXXXXXXXXXXXXXXXXXXXXXXXXXXXXXXXXXXXXXXXXXXXXXXXXXXXXXXXXXXXXXXXXXXXXXXXXXXXXXXXXXXXXXXXXXXXXXXXXXXXXXXXXXXXXXXXXXXXXXXXXXXXXXXXXXXXXXXXXXXXXXXXXXXXXXXXXXXXXXXXXoooXXXXXoXXXXooooo.oooXXXooooXXXXXXXXXXXXXXXXXXXXXXXXXXX+XXXXXXXXX+XXXX+++++++++++++++&&&&&&&&&&&&&:::&&&&++++++X+++XXXXXX+XXXXX++XXXXXXXXXXXXXXXXXXXXXXXXXXXXXXXXXoooooooooooooooooo oo o   o                                ooooXXOOO@@@@@###$##@@@@@OOOXXXXXOO@@@@@@@@@@@@@@@@@@@@@@@@@@@@@@@@@@@@@@@$$$$$$$$$$$$$$$$$$@@@@@@OOOOO@@@@@",
"ooooooOOOOOOO@$$$$$$$$$$$$$@@@OOOOXooooo ooooooooooooooooooooooooooo                                              ooXXOOOOOO@@@@@@$$$$@@@@OOOOXXXXXOOOOXXXXoooooXXXOOOOO@@$$$$$$$$@@@@OOOOOXXXXXXXoooooo       ooooooooooooooooXoooXoooXXXXXXXXXXXXXXXXXXXXXXXXXXXXXXX++OOOOOOOOOOOOOO@@@@@@@@@@@@@@@@@@++&&&&&&&&&&&&@@++XXXXX........X.....XXX........................................................oo.......... ...  ....  ...o..  ..ooooooXXXXOO@@@@@@@$$****$$$$$$$$$$$$$$$@@@@OOOOOOXXXXXXXXXXXXXXXXXXXXXXXXXXXXXXXXXXXXXXXX+XXXXXX+XXXX+++X++++XXXXXXXXXX+++++X++++XXXXXXX++XXXXX++++XXX.X.XXXXXX+XXXX+XXXOXXX+XO@@@@@@@@OXXXoooooooooooooo....ooo...o....o....oooooo....ooooooo.oXXXXX@@@#@@OXXX.ooooo..oooo..oooXooooXXXXXXXXXXXXXXXXXXXXXXXXXXXXXXXXXXXXXXXXXXXXXXXXXXXXXXXXXXXXXXXXXXXXXXXXXXXXXXXXXXXXXXXXXXXXXXXXXXXXXXXXXXXXXXXXXXXXXXXXXXXXXXXXXXXXXXXXXXXXXXXXXXXXXXXXXXXXXXXXXXXXXXXXXXXXXXXXXXXXXXXXXXXXXXXXXXXXXXXXXXXXXXXXXXXXXXXXXXXXXXXXXXXXXXXXXXXXXXXXXXXXXXXXoXXXoXooXXoooooXooooooooooooXXXXXXXXXXXXXXXXXXXXXXXXXXXXXXX+XXXXXX++XXXXX+++++++++++++&&&&&&&&&&&:::&&&&++++++++++XXXXXXXX+XXXXXXXXXXXXXXXXXXXXXXXXXXXXXXXXXXXXXXXXXooooooooooooooo   oo oooo                                ooooXXXXOO@@@@@##**#@@@@@@OOXXXXXXO@@@@@@@@@@@@@@@@@@@@@@@@@@@@@@@@@@@@@@@@@$$$$$$$$$$$$$$$$$@@@@@@OOO@@@@@",
"oooXXXOOOO@@@@$$$$$$$$$$$$@@OOOOoooooo  oooooooooooooooooooooooooooooooooo                                      oooooXOOOOOOO@@@@@$$$$@@@@@OOOOOXXOOOOOXXXXooooXXXXOOOOO@@$$$$$$$@@@@OOOOOOXXXXXXooooooo        oooooooooooooooXooooooXXXXXXXXXXXXXXXXXXXXXXXXXXXXXXX+OOOOOOOOOOOOOOOO@@@@@@@@@@@@@@@@++++&&&&&&&&&&&&++XXXXXXX........XX....XXXX...............................................................     .    ....  oooo    ..ooooooXXXOO@@@@@@@$$$***$$$$$$$$$$$$$$@@@@@@XOOXXXXXXXXXXXXXXXXXXXXXXXXXXXXXXXXXXXXXXXXXXXXXXXXX++XXXXXXXX++XXXXXXXXXXXX++++++X+XXXXXXXXXXXX++X+++XXXXX+..XXXXXX++XXXXOOOOXXXXOO@@@@@@@@OXXXoooooooooo .oo .. oooo ..o..oo....oooooooo..o........XXXXX@@@@@@OXXXoooooo..oooo.ooo.oooo.ooXXXXXoXXXXXXXXXXXXXXXXXXXXXXXXXXXXXXXXXXXXXXXXXXXXXXXXXXXXXXXXXXXXXXXXXXXXXXXXXXXXXXXXXXXXXXXXXXXXXXXXXXXXXXXXXXXXXXXXXXXXXXXXXXXXXXXXXXXXXXXXXXXXXXXXXXXXXXXXXXXXXXXXXXXXXXXXXXXXXXXXXXXXXXXXXXXXXXXXXXXXXXXXXXXXXXXXXXXXXXXXXXXXXXXXXXXXXXXXXXXXXXXXXXXXXXooXoooooXXXXoooooooXXXXXXXXXXXXXXXXXXXXXXXXXXXXXXXXXXX++XXXXX+XXXX++++++++++++++&&&&&&&&&&&&&:::&&++++++++++XXXXXXXX+++XXXXXXXXXXXXXXXXXXXXXXXXXXXXXXXXXXXXXXXXoooooooooooooooooo ooooo                                   oooXXXOO@@@@@@##$$#@@@@@OOXXXXXOOOO@@@@@@@@@@@@@@@@@@@@@@@@@@@@@@@@@@@@@@@$$$$$$$$$$$$$$$$$@@@@@OO@@O@OO",
"ooXOOOOO@@$$$$$$$$$$$$$$@@OOOOooooo       oooooooooooooooooooooooooooooooooooooo                                ooooooXXOOOO@@@@@@$$$$@@@@@@OOOOOOOOOXXXXXXoooXXXOOOOOOOO@@@@@@@@@@@OOOOOOOOXXXooooooo        oooooooooooooooooXooooooXXXXXXXXXXXXXXXXXXXXXXXXXXXXXXOOOOOOOOOOOOOOOOOO@@@@@@@@@@@@@@@@++++&&&&&&&&&&@+++XXXXXXXX....XX.X......XX............................................................ ..         ..  ......oo    ..o.ooooXXXO@@@@@@@@$$$**$$$$$$$$$$$$$$$@@@@@OXXXXXXXXXXXXXXXXXXXXXXXXXXXXXXXXXXXXXXXXXXXXXXXXXXXXXXXXXXXXXXXXXXXXXXXXXX++++++XXXXXXXXXX++++XXX++X++XXXX++++++XX++++XXOOOOOOOOOO@@@@@@@@@@OXXXoooo....oo  oooo  oo    oo..oooo.o..oo......oooo..ooooXXXX@@@@@@OXX.o...oo....o...oooooooooooooXXXoooXXXXXooXXXXXXXXXXXXXXXXXXXXXXXXXXXXXXXXXXXXXXXXXXXXXXXXXXXXXXXXXXXXXXXXXXOXXXXXXXXXXXXXXXXXXXXXXXXXXXXXXXXXXXXXXXXXXXXXXXXXXXXXXXXXXXXXXXXXXXXXXXXXXXXXXXXXXXXXXXXXXXXXXXXXXXXXXXXXXXXXXXXXXXXXXXXXXXXXXXXXXXXXXXXXXXXXXXXXXXXXXXXXXXXXXXXXXXXXXXXXXXXoooooXXXXXXoooooXXXXXXXXXXXXXXXXXXXXXXXXXXXXXXXXXXX++++XX++++XXXX++++++++++++++++&&&&&&&&&&::&&&&++++++++++X+XXXX++X+XXXXXXXXXXXXXXXXXXXXXXXXXXXXXOXXXXXXXXXXooooooooooooooo    oo                                     oooooXXXOO@@@@@@#$#@@@@@@@OOXXXXX+O@@@@@@@@@@@@@@@@@@@@@@@@@@@@@@@@@@@@@@@@@$$$$$$$$$$$$$$$$$$@@@@O@OOOO",
"XXOOOO@@@$$$$$$$$$$$$$$@OOOOOooooo          oooooooooooooXXXXXXXXXXXXXXXoooooooo                                ooooooooOOOOO@@@@$$$$$$@@@@@@OOOOOOXXXXXXooooXXXOOOOOOOOOO@@@@@@@@@OOOOOXOOXXXooooooo          ooooooooooooooooooooooXXXXXXXXXXXXXXXXXXXXXXXXXXXXXOOOOO@OOOOOOOOOOOOO@@@@@@@@@@@@@@@@+++&&&&&&&&&&&&+++++XXXXX.X....XXX.XXXXX.XX..........................................................    . .      ............ o   .....oooXXXO@@@@@@@@$$$*$$$$$$$$$$$$$$$@@@@@+OXXXXXXXXXXXXXXXXXXXXXXXXXXXXXXXXXXXXXXXXXXXXXXXXXXXXXXXXXXXXXXXXXX+++++XXX+++++XXXXXXX+XX+++++XXXXXX++XXXX++++++XX++++XOOO@@@@OOO@@@@@@@@@@@OXXXooo.....oo  ooo   o     oo..oooooo..  o ..o.oooooooo.oXXXXO@@@@@OXX.o......o......o....oo.oo...ooX.ooXXXXXoXXXXXXXXXXXXXXXXXXXXXXXXXXXXXXXXXXXXXXXXXXXXOXXXXXXOXXXXXXXXXXXXXXXXXXXXXXXXXXXXXXXXXXXXXXXXXXXXXXXXXXXXXXXXXXXXXXXXXXXXXXXXXXXXXXXXXXXXXXXXXXXXXXXXXXXXXXXXXXXXXXXXXXXXXXXXXXXXXXXXXXXXXXXXXXXXXXXXXXXXXXXXXXXXXXXXXXXXXXXXXXXXXXXXXXXXXXXXXXXXXXXoooXXXXXoXXXoXXXXXXXXXXXXXXXXXXXXXXXXXXXXXXXXXXXX+++XX++++++X++++++++++++++++++&&&&&&&&&&&::&&&+++++++++++XXXX++X+XXXXXXXXXXXXXXXXXXXXXXXXXXOOOOXXXXXXXXXXXXooooooooooooo     oo                                    ooooooXXOOO@@@@@@@##@#@@@@@OXXXXXX+OO@@@@@@@@@@@@@@@@@@@@@@@@@@@@@@@@@@@@@@@$$$$$$$$$$$$$$$$$$$@@@@@OOOO",
"OOO@@$$$$$$$$$$$$$$$@@OOOOOooooo                oooooooooXXXXXOOOXXXXXXXXXoooooooo                           oooooooooooooXXOO@@@$$$$$$$$@@@@@OOOOXXXXXoooooXXXOOOOOOXXXOO@@@@@@OOOOOOOOOOXXXooooo            oo   oooooooooooXXoooXXXXXXXXXXXXXXXXXXXXXXXXXXXXXXXOOOOOOOOOOOOO@OOOO@@@@@@@@@@@@@@@@++&&&&&&&&&&&&++++XXXXXX......X.XX.X......XX........................................  ... ....................   .......           o..oo..XXXXO@@@@@@@$$****$$$@@@$$@@$$$$@@@@@OOXXXXXXXXXXXXXXXXXXXXXXXXXXXXXXXXXXXXXX+++XX++++XXXX+++++++++++++++XXXXX+++++XXX+++XXXXXXX+++++++++++++++++++.++++XX++++OO@@@@@@@@@@@@@@@@@@@OXXXo.oo      o       oo   ooo        oooooooo...oooo.....oXXXO@@@@@OXXX.....oooooo......oooooooooo..oooooo.XXXoXXXXXXXXXXXXXXXXXXXXXXXXXXXXXXXXXXOXXXXXXXOOOOXOOOOXXXXXXXXXXXXOOOOXXXXXXXXXXXXXXOOXXXXXXXXXXXXXXXXXXXXXXXXXXXXXXXXXXXXXXXXXXXXXXXXXXXXXXXXXXXXXXXXXXXXXXXXXXXXXXXXXXXXXXXXXXXXXXXXXXXXXXXXXXXXXXXXXXXXXXXXXXXXXXXXXXXXXXXXXXXXXXXXXXXXXXXXXXXXXXXXXoXXXoooXXXXXXXXXXXXXXXXXXXXXXXXXXXXXXX++XXXXXXX+XXXXX+X+XXXXXXX++++++++++++++&&&&&&&&&&&&&::&&&&&+++++++++OX++XXXX+XXXXXXXXXXXXXXXXXXXXXXXXXXXOOOOOXXXXXXXXoooooooooooooo    oo                                       oo ooXXXOO@@@@@###@$@@@@@@OXXXX++O@O@@@@@@@@@@@@@@@@@@@@@@@@@@@@@@@@@@@@@@@@$$$$$$$$$$$$$$$$$@@@@@@@@",
"OO@@@$$$$$$$$$$$$$$$@@OOOooooo                  oooooooooXXXXXOOOOOXOOOXXXXXoooooooo                        ooooooooooooooXXOOO@@@$$$$$$$@@@@@OOOXXooooooooooXXOOOOOOXXXOO@@@@@OOOOOOXOOXXXooooooo            oo oooo.oooooooXXooooXXXXXXXXXXXXXXXXXXXXXXXXXXXXXXOOO@@OOOOOOOOOOOOOO@@@@@@@@@@@@@@@@++&&&&&&&&&&&++++XXXXXX......X.X.X.X..XXX.XX..XXXX................................... .....  . ............. .            .     ..  ..oo..XXXOO@@@@@@@$***$$$@@@@@@@@@@@$@@@@@@OOXXXXXXXXXXXXXXXXXXXXXXXXXXXXXXXXXXXXXXXXXXX++XXXXXX+++++++++++++++XXXXX++++X+XX++++XX+X++++++++++++++++++++.+++++++++++O@@@@@@@@@@@@@@@@@@@@OXXXo.o              .oo   o oo        oo..oooo..oooooo...oXXXX@@@@@OXXX...o.oooooo...o..o.oooooooo....oooo.XXXoXXXXXXXXXXXXXXXXXXXXXXXXXXXXXXOXXXOOOOXXOOOOOOOOOOOXXXXXXXXXXXXOOOOXXXXXXXXXXXXXXXOOXXXXXXXXXXXXXXXXXXXXXXXXXXXXXXXXXXXXXXXXXXXXXXXXXXXXXXXXXXXXXXXXXXXXXXXXXXXXXXXXXXXXXXXXXXXXXXXXXXXXXXXXXXXXXXXXXXXXXXXXXXXXXXXOXXXXXXXXXXXXXXXXXXXXXXXXXXXXXXXXXXXXXXXXXXXXXXXXXXXXXXXXXXXXXXXXOOXXO++++OOXXX+XXXXXX++++++X+XX++++++++++++++&&&&&&&&&&&&&&:::&&&+++++++++++X++XXXXXXXXXXXXXXXXXXXXXXXXXXXXXXXXOOOOXXXXXXXXXoooooooooooooo   oo                                        o ooXXXXXOO@@@@@#@$$@@@@@@+XXX+XOOO++@@@@@@@@@@@@@@@@@@@@@@@@@@@@@@@@@@@@@@@$$$$$$$$$$$$$$$$$$$@@@@@",
"@@$$$$$$$$$$$$$$$@@OOOOOoooo                      ooooooooXXXXOOOOOOOOOOOXXXXXXXoooooo                     ooooo   oooooooXXOOOO@@@$$$$@$$@@@OOOXXoooooooooooXXOOOOOOOOOOO@@@OOOOOOXXXXXXXoooooo        oo o oooo o.ooooooooXXXXoooXXXXXXXXXXXXXXXXXXXXXXXXXXOOXOO@@@@OOOOOOOOOOOOOO@@@@@@@@@@@@@@+++&&&&&&&&&&++++++XXXX.......X.X.XXX.XX.X....XXXXXXX.....................................   .....    ..  .... .     .            ...   oo.XXXXO@@@@@@@$$****$@@@@@@@@@@@@@@@@@@@OXXXXXXXXXXXXXXXXXXXXXXXXXXXXXXXXXXXXXXXXXXXXXXXXXXX+XX++++XXX++X+++X++++++XXXXXX++++++++++++++++++++++++++++++++++++++++O@@@@@@@@@@@@@@@@@@@@OXXXoo                               .. .o.oooooooo.ooooo.oXXXXO@@@@@XXXXoo.ooooooo..oo......oooo....o.o.oo.XoooooXXXXXXXXXXXXXXXXXXXXXXXXXXXXXXXXOOOOOOOOOOOOOXXOOOOXXXXXXOOOOOOOOOXOOXXXXXXXXXOOOOOXXOOOOOOOOXXXXOOOOXXOXXXXXXXOOOOOOXXXXXXXXXXXOXXXXXXOXOXXXXXXXXXXXXXXXXXXXXXXXOXOOXXXXXXXXXXOOOOXXXXOOXXXXXXOOXXXXXOXOOOOXXXXXOOOXOXOOXXXXXXXXXXXXXXXXXXXXXXXXXXXXXXXXXXXXXXXXXXXXXXXXXXXXXXOOOOOOXOXOOOOOOO++++XXX+++XXX+++++++++++++++++++++++&&&&&&&&&&&:::&&&+++++++++++++XXXXXX+XXXXXXXXXXXXXXXXXXXXXXXXXOOOOOOOOXXXXXXXXoooooooooo  oooo                                           o oooXXXO@@@@@@@#@$@@@@@@OXXXXXX+++O@@@@@@@@@@@@@@@@@@@@@@@@@@@@@@@@@@@@@@@@$$$$$$$$$$$$$$$$$$@@@",
"@$$$$$$$$$$$$$$$@OOOOOooo                          oooooooXXXXXXXOOOOXXXOXXXXXXXooooooo                    ooooo    ooooooXXOOOO@@@$$$$$$$@@@OOOXoooooooooooooXOOOOOOOOOO@@@OOOOOOXXXXXXXooooooo        oo o oooooo.oooooXXXXXXXooXXXXXXXXXXXXXXXXXXXXXXXXXXXOOOO@@@@@@@OOOOOOOOOOO@@@@@@@@@@@@@@@++&&&&&&&&&&&+++++XXXXXX..........XXX.XX......XXXXXXX...................................       ...     .                            .   oo.XXXOO@@@@@@@$****$@@@@@@@@@@@@@@@@@@@OOXXXXXXXXXXXXXXXXXXXXXXXXXXXXXXXXXXXXXXXXXXXXXXXXXXX+X++++XXXX++++++X++++++XXX+++++++++++++++++++++++++++++++++++++++++++O@@@@@@@@@@@@@@@@@@@@OXXoo.                 .  .    .      . ......  oooooooooooXXXXO@@@@@XXX..ooooooo....oo........oo........ooooooooooXXXXXXXXXXXXXXXXXXXXXXXXXXXXOXXOOOOOOOOOOOOOXOOOOOOOOOOOOOOOOOOOOOOOOOOOOOOXOOOOOOOOOOOOOOOOOOOOOOOOOOOOOOOOXXOOOOOOXXOOOOOOOOOOOOOOXXOOOOOOOOXXXXXOXXXXXXXXXXXXOOOOOOOXXOXOOOOOOOOOOOOOOOOOXXOOOOXXOOOOOOOOXXXOOOOOOOOOOOXXXXXXXXXXXXXXXXXXXXXXXXXXXXXXXXXXXXXXXXXXXXXXXXXXXOOOOOOOOOOOOOOOOOOOOO+X++++OOOX++++++++++++++++++++++++&&&&&&&&&&:::&&&++++++++++++XXXX++XXXXXXXXXXXXXXXXXXXXXXXXXXXOOOOOOOXXXXXXXXoooooooooo  ooo                                             ooooXXXXO@@@@@$@@#$@@@@@@OXO+O+XXX@@@@@@@@@@@@@@@@@@@@@@@@@@@@@@@@@@@@@@@@@@$$$$$$$$$$$$$$$$$$@@",
"$$$$$$$$$$$$$@@OOOOOoooo                            ooooooooXoXXXXXXXXXXXXXXXXXXXXXooooo                    ooo     ooooooXXOOOO@@@@$$$$$$@@@OOOXoooo   ooooooXXOOOOOOOOO@OOOOOXXXXXXXXXoooooo             o .ooooooooooooXXXXXooXXXXXXXXXXXXXXXXXXXXXXXXXXXXOOOOOO@@@@@@@OO@@@OOO@@@@@@@@@@@@@@++++&&&&&&&&@+@+++++XXX.XX........XXXX......XX......XX..................................     ...........                           .     ooooXXXO@@@@@@@$$$$$$$@@@++++@@@@@@@@@@@O+XXXXXXXXXXXXXXXXXXXXXXXXXXXXX+XXXXXX+XXXXXXXXXXXXXX++XX++++XXXX++++XX++++++XX+++++++X+++++++++++++++++++++++++++++++++++++@@@@@@@@@@@@@@@@@@@@OXX.o                  ..      ..    ..  ....     ooo ooooooXXXO@@@@@OXXooooooo.....ooooooo........oo...o..ooooooooXXXXXXXXXXXXXXXXXXXXXXXOOOOOOOOOOOOOOOOOOOOOOOOOOOOOOOOOOOOOOOOOXXOOOOOOOOOOOOOOOOOOOOOOOOOOOOOOOOOOOOOOOOOOOOOOOOOOOOOOOOOOOOOOOOOOOOOOOOOOOOOOOOOOOOOOOOOOOXXOXXXOOOOOOOOOOOOOOOOOOOOOXOOOOOOOOOOOOOOOOOOOOOOOOOOOOOOOOOXXXXXXOXXXXXXXXXXXXXXXXXXXXXXXXXXXXXXXXXXXXXXXXXXXXXXOOOOOOOOOOOOOO@@@O+++OOOOO+++++++++++++++++++++++++++&&&&&&&&&&&:::&&&&++++++++XXXX++++XXXXXXXXXXXXXXXXXXXXXXXXXOXOOOOOOOOXXXXXXXooooooooooo oooooo                                         o    ooXXXXX@@@@@$##@##@@@@OOXXXXXXXX@+@@@@@@@@@@@@@@@@@@@@@@@@@@@@@@@@@@@@@@@@@$$$$$$$$$$$$$$$$$",
"$$$$$$$$$$$$@OOOOOoooo                               oooooooooooooooooooXooXXXXOXXXXoooo                    o       ooooooXXOOOOO@@@@$$$$$@@@OOOoooo    oo ooooXXOOOOOOO@@OOOOXXooooXXoooooo             o o.ooooo.oooooooo..ooo.XXXXXXXXXXXXXXXXXXXXXXXXXXOXOOOOOO@@@@@@@@@@@@@@@@@@@@@@@@@@@@++++&&&&&&&&&@+@++++XXX...X.........X........XX..........................................    ....  ..                                      ooXXXXO@@@@@@@$$$$$&@@@@@++@@@@@@@@@@@O+OXXXXXXXXXXXXXXXXXXXX.XXXXXXXX+XXX+++++X++X+++XX++XX+XXX++++XXXX++++XX+++X++XX+++++++++++++++++++++++++++++++++++++++++++++@@@@@@@@@@@@@@@@@@@OOXX.o  .     .        ...      ..     .  . ..      .. o o.oooXXO@@@@@OXX.oooooo.....o o...o..oo..........oooooo..XXXXXXXXXXXXXXXXXXXXXOXXOOOOOOOOOOOOOOOOOOOOOOOOOOOOOOOOOOOOOOOOOOOOOOOOOOOOOOOOOOOOOOOOOOOOOOOOOOOOOOOOOOOOOOOOOOOOOOOOOOOOOOOOOOOOOOOOOOOOOOOOOOOOOOOOOOOOOOOOOOOOOOOOOOOOOOOOOOOOOOOOOOOOOOOOOOOOOOOOOOOOOOOOOOOOOOOOOOOOOOOXOOOXXXXXXXXXXXXXXXXXXXXXXXXXXXXXXXXXXXXXXXXXXXOOOOO@@@OOOOOOOO@@@@@@OOOOOOOO+++O++++++++++++++++++++++&+&&&&&&&&&&:::&&&+++++++++X+X++++XXXXXXXXXXXXXXXXXXXXXXXXXOXXOOOOOOOOOXXXXXXXXooooooooo ooooo                          Xo o              o oooXXO@@O@@@@@@#@@@@@@OO+X@X++X+++@@@@@##@@@@@@@@@@@@@@@@@@@@@@@@@@@@@@@@@@@@@$$$$$$$$$$$$$$",
"$$$$$$$@$@@OOOXooooo                                   oooooooooooooooooooooXXOOOXXXoooo                            ooooooXXOOOOOO@@@$@$@@@@OOOXooooo   o  ooooXXXOOOOOO@OOOOXXXoooooooooooo        o oo    oooooooooooooo..X.o..XXXXXXXXXXXXXXXXXXXXXXXX+OOOOOOOOO@@@@@@@@@@@@@@@@@@$@@@@@@@@++++&&&&&&&&&&@+++++XXX...XXXX.X..XX.X........XXXX..........................................  ....   .                               .    .o.XXXOO@@@@@@@$$$$$&&@@@@+++++@@@@@@@@@OXXXXXXXXXXXXXXXXXXXXXXXXXXXXXXX+XXXXX++XXXXXX+XX+++XXXXXXX++XXXX++++XXX++XX++++++++++++++++++++++++++++++++++++++++++++++++++@@@+@@@@@@@@@@@@@@OXXX.o  .    ..   .    .    ... .     ..    .       .    ..oooXXO@@@@@OXX.....ooo....... .    .ooooo.o..oooooooo.o.XXXXXXXXXXXXXXXXXXXOOOOOOOOOOOOOOOOOOOOOOOOOOOOOOOOOOOOOOOOOOOOOOOOOOO@@@OOOO@O@OOOOOOOOOOOOOOOOOOOOOOOOOOOOOOOOOOOOOOOOOOOOOOOOOOOOOOOOOOOOOOOOOOOOOOOOOOOOOOOOOOOOOOOOOOOOOOOOOOOOOOOOOOO@@OOOOOOOOOOOOOOOOOOOOOOOOOOOOOOOOOOOOOOOOXXXXXXXXXXXXXXXXXXXXXXXXXXXXXXXXXXXXXXOOOOOO@@@@@@@@@@@@@@@@@@@@OO@O@+++OOOOO++++++++++++++++++&++&&&&&&&&&&&:::&&&&&++++++++++++XXX+XXXX+XXXXXXXXXXXXXXXXXXXXXXOOOOOOOOXXXXXXXXoooooooo  oooo                  #;;% o:;;%X::;:O    #:;:%o#;:# #;;;;;%@@;;;;=@#@@#;;=X@XX#-;;;#O#;;;;;;%+#;;;;;#@@@+#;;;;=@@@@@@@@@@@@@@@@$$$$$$$$$$$$$$",
"$$$$$$@@@OOOOOooooo                                     ooooooooooooooooooooXXOOOOOXoooo                            ooooXXXXOOOOOOO@@@@@@@@@OOXXoooo    o   oooXXXOOOOOO@OOOXXooooooooooooo         oooo    oooooooo.oooXXXXXXXX.XXXXXXXXXXXXXXXXXXXXXXX++OOOO@OOOOO@@@@@@@@@@@@@@@@$$@@@@@@@++++&&&&&&&&&&+@++++XXXX..+.XXXXX..XXXX........XXXX................................ .........  ....       .                           .    ...XXXOO@@@@@@@$$$$$@@@@@@+@++@@@@@@@@@OXXXXXXXXXXXXXXXXXXXXXX..XXXXXXXXXXXXXXXXXXXXXX++X+++XXXXXXXX++XXXX+++XXX++XX++++++++++++++++++++++++++++++++++++++++++++++++++@@++OO@@@@@@@@@@@@OXXX.o  ..    . . .    .    ... ..                      ...oooXXO@@@@@XXX.....ooo....... .... oooooooo..ooo..o.ooo..XXXXXXXXXXXXXXXXXOOOOOOOOOOOOOOOOOOOOO@@@OOO@@@@@O@@@@@@@@@@OOOOO@@@@@@@@@@@@@@@@@@@OO@@@@@@OOOOOO@@@@@@OOOOOOOOOOOOOO@@@@@@OOOOOOOOOOOOOO@OOOOOOOOOOOOOOOOOOO@OOO@@@@@@OOOOOOOO@O@OOOOOOO@@O@@@OOOO@@OOOOOO@OOOOOOOOOOOOOOOOOOOOOOOOOOXXXXXXXXXXXXXXXXXXXXXXXXXXXXXXXXXXXOOOOOO@@@@@@@@@@@@@@@@@@@@@+@@@@++@OO@+O++++++++++++++++&&++&++&&&&&&&&&:::&&&&+++++++++++XX+X++++++XXXXXXXXXXXXXXXXXXXXXXOOOOOOOOXXXXXXXXoooooooo  oooo                  #;;;%;;;;:O;;;;#    %;;;; ;;;;%;;;;;;;=@;;;;;##@#;;;;@@@+=;;;;+#;;;;;;;;;@;;;;;;@@@@%;;;;=@@@@@@@@@@@@@@@@@$$$$$$$$$$$$$",
"$$@@@@OOOOXoooo                                       oooooooooooo  ooooooooXOOOOOOOoooo                          ooooooXXXXXXOOOOO@@@$@@@@@OOXXooooo       oooXXOOOOOOOOOXXXXoooooooo                o oo  .ooo..oo..ooX.XXXXXXXXXXXXXXXXXXXXXXXXXXXXXXXXOOOOOOOOOOO@@@@@@@@@@@@@@$@@@@@@@@++++&&&&&&&&&&++++++XXXXXX...XXXXXX....XX.......X...XX....X................................                                               . ..XXXOOO@@@@@@$$$$$@@@@@@@+++@@@@@@@@@@+OXXXXXXXXXXXXXXXXXXXXXXXXXXXXXXXX++XXXXX++XXXXXXXXXXXXXX++++XX++++XXX+++XXXX++++++++++++++++++++++++++++++++++++++++++++++++++++++++@+@@@@@@@@@@XXXXo .          .    .                    .        ...  ...ooXXO@@@@@XXoooooo...ooo..   .......oo.   o.oo........XXXXXXXXXXXXXXXXXXXXOOOOOOOOOOOOOO@@@@OOOO@@@@@@OOOO@@@@@@@@@@@@@O@@@@@@@@@@@@@@@@@@@@@@@@@@@@@@@@@@@@@@@@@@@@@@@@OO@O@@@@@@OOO@OO@@@@OOO@@@@O@@@@@@OOO@@@@@@O@@OOOO@@@@@@@@@O@@@@@@@@@@@@@@@@@@@@OO@@@@@@@@@@@@OO@@@OOOOOOOOOOOOOOOOOXXXXXXXXXXXXXXXXXXXXXXXXXXXXXXXXXXXXOOOOOOOO@@@@@@@@@@@@@@@@@@@@@@@@@@@@++++++O++++++++++++++++++&&&&&&&&&&&&&&&:::&&&&+++++++++XXXX++XX+XXXXXXXXXXXXXXXXXXXXXOOOOOOOOOOOOOXXXXXXXoooooooo                      #;;;;;;;;:+;;;;#    %;;;; ;;;;;;;;;;;;;:%;;;;##@#;;;;#@@+;;;;:#;;;;;;;;;;:%;;;;;##@@;;;;;@@@@@@@@@@@@@@@@@@@@@@$$$$$$$$$",
"$$@@OOOOOOooooo                                         oooooooo    oooooooXXOOOOOOOoooo                       oooooooXXXXXXXXXOOOO@@@@@@@@@OOXXoooo        ooXXOOOOOOOOOOXXXooooooooo             o   ooo...oooooo.o.oXXXXXXXXXXXXXXXXXXXXXXXXXXXXX+XXXXOOOOOOOXXOOO@@@@@@@@@@@@@$$$@@@@@@+++++&&&&&&&&&+++++++XXXX...+XXXXXXXX....X.......X...XX....XX........................ .  ..                                                . oXXXOO@@@@@@@#$$$$$@@@@@@@+++@@@@@@@@@@XOXXXXXXXXXXXXXXXXXXXXXXXXXXXXXXXXXXXXXXXXXXXXXXX++X+X++XX++XXXX+XXXXX+++X+X++++++++++++++++++++++++++++++++++++++++++++++++++++++++++@@@@@@@@@@@XXXoo            ..    . ..    .        .. .    .        ..o.oXXOO@@@+XXo.oooo..oooooo    oo........  oooooo.o....XXXXXXXXXXXXXXXXXXOOOOOOOOOO@OOOOO@@@@@@@@@@@@@@@@@@@@@@@@@@@@@@@@@@@@@@@@@@@@@@@@@@@@@@@@@@@@@@@@@@@@@@@@@@@@@@@@@@@@@@@@@@@@@@@@@@@@@@@@@@@@@@@@@@@@@@@@@@@@@@@@@@@@@@@@@@@@@@@@@@@@@@@@@@@@@@@@@@@@@@@@@@@@@@@@@@@@@@@@@OOOOOOOOOOOOOOXXXXXXXXXXXXXXXXXXXXXXXXXXXXXXXXOOOOOO@O@@@@@@@@@@@@@@@@@@@@@@@@@@@@@@+++++O@++++++++++++++++++&&&&&&&&&&&&&&&::&&&&&++@+++++XXXX++XX+XXXXXXXXXXXXXXXXXXXXXXOOOOOOOOOOOOOXXXXXXoooooooo     o                #;;;;;;;;:+;;;;#    %;;;;o;;;;;;;;;;;;;;#;;;;%##%;;;;;@@#;;;;#;;;;;;;;;;;;#;;;;;=@@#;;;;;@@@@@@@@@@@@@@@@@@@@@@@@$$$$$$$",
"@@OOOOXooooo                                                        ooooooXXOOOOOOOOoooo                      ooooooXXXXXXXXXXXXOOOO@@@@@@@OOOXooooo      oooXXXOOOOOOOOXXXXoooooo                oo  oooooooooooooooXoX.XX..X.XXX..XXXXX..XXXXXXXXXXXXX++XXXXXXXXXOOO@@@@@@@@@@@$$$@@@@@+++++&&&&&&&&&&+++++++XX+XX...+.X..XX....X.XX....X.XX........XX............o...........    ....                                               oXXXXOO@@@@@@@$$$$$@@@@@++++++@@@@@@@@@+XXXXXXXXXXXXXXXXXXXXXXXXXXXXXXXXXXXXXXXXXXX++XXXXXXX+XX+X++XXXX++++++++++OOO+++++++++++++++++++++++++++++++++++++++++++++++++++++++++++@@@@@@@@@@XXX.o .                                               .    oooXXOO@@@OXXX.......ooooo..   .o   .o.oo   o....oooo.oXXXXXXXXXXXXXXOOOOOOOOOO@@@@@@@@@@@@@@@@@@@@@@@@@@@@@@@@@@@@@@@@@@@@@@@@@@@@@@@@@@@@@@@@@@@@@@@@@@@@@@@@@@@@@@@@@@@@@@@@@@@@@@@@@@@@@@@@@@@@@@@@@@@@@@@@@@@@@@@@@@@@@@@@@@@@@@@@@@@@@@@@@@@@@@@@@@@@@@@@@@@@@@@@@@@@@@@@@@@@@@@OOOOOOOOOOOOXXXXXXXXXXXXXXXXXXXXXXXXXXXOOOOOOOO@@@@@@@@@@@@$$$$$$$$@@@@@@@@@@@@@@@++++@+++++++++++++++++++&&&&+&&&&&&&&&&::&&&&&&++++++XX++++XXXXXXXXXXXXXXXXXXXXXXXXXXXXOOOOOOOOOOOOXXXXXoooooooo                     #;;;;;;;;##;;;;#    :;;;;o;;;;;;##%;;;;;#;;;;;@@;;;;;;###;;;;#;;;;;@+#;;;;%:;;;;;#@:;;;;#@@@@@@@@@@@@@@@@@@@@@@@@@@@$$$$",
"OOOOXoooooo                                                         ooooooXOOOOOOOOOoooo                    oooooooXXXXXooooooXXOOOO@@@@@@@OOOXoooooo  oooooXXXXOOOOOOXXXXXoooooo            o   ooo   ooooooooooooooooXXXXXXXXX.X..XXXX....X.X+.XXXXXX++++XXXXXXXXXOOOO@@@@@@@@$$$@@@@@+@++++&&&&&&&&&+++++++XX+++X.+++....XXX..............X........X............ooXXXXX..o...    ....                                               oXXXXO@@@@@@@#$$$$$@@@@@@+++++@@@@@@@@++XXXXXXXXXXXXXXXXXXXX.XXXX...XXXX.XXXXXXXX++++XXXX+++XXX++++XXX++++++++++++++++++++++++++++++++++++++++++++++++++++++++++++++++++++++++++@@@@@@@@@XXXo...                                               ..   ..oXXOO@@@@XXXo......ooooo... ...  . .o.   ..o...oooo.XoXXXXXXXXXXXXOOOOOOOOOOO@@@@@@@@@@@@@@@@@@@@@@@@@@@@@@@@@@@@@@@@@@@@@@@@@@@@@@@@@@@@@@@@@@@@@@@@@@@@@@@@@@@@@@@@@@@@@@@@@@@@@@@@@@@@@@@@@@@@@@@@@@@@@@@@@@@@@@@@@@@@@@@@@@@@@@@@@@@@@@@@@@@@@@@@@@@@@@@@@@@@@@@@@@@@@@@@@@@@@@@@@@OOOOOOOOOOOOOXXXXXXXXXXXXXXXXXXXXXXXOOOOOOOO@@@@@@@@@@$$$$$$$$$$@@@@@@@@@@@@@@@@@++@@++++++++++++++++++++&&+&&&&&&&&&&&::::&&&++++++++++++XXXXXXXXXXXXXXXXXXXXXXXXXXXXXOOOOOOOOOOOOOXXXXXooooooo  oo                #;;;;;#.  #;;;;#    :;;;; ;;;;;#...#;;;;#%;;;;#@;;;;;;*#;;;;;O@@@@@O+#;;;;;@;;;;;#@;;;;;@@@@@@@@@@@@@@@@@@@@@@@@@@@@$$$$",
"OOXooooo                                             ooo  oo       ooooooXOOOOOOOOOOoooo                    ooooooXXXXXXXXXoooXXOOOOO@@@@@@OOOXooo  oooooooXXXXXOOXXXXXXoooooooo                  oo     ooo....ooooooooXXXXXX....XXXXXX.XXXXXX+XXXXXXXX++OXXXXXXXXXXOOOO@@@@@@*$$@@@@++++&&&&&&&&&&&&+++++++XXX..+++++...X+XX......X....XXXX........X.X............XXXXXXX..... ..   ..                                              ooXXXO@@@@@@@@$$$$$$@@@@@@@@@@@@@@@@@@@@OOOOOOXXXXXXXXXXXXXXXXXXXXXXXXXXXXXXXXXXXXXXXXXXOXOOOOOO+++OOO++++O+++++++++++++++++++++++++++++++++++++++++++++++++++++++++++++&++++++++@@@@@@@@OXXXo.                                                      oooXXOO@@@@XXX....XXXXXX...oo       .       ooo...oooooXXXXXXXXXXXXXOOOOO@@@@@@@@@@@@@@@@@@@@@@@@@@@@@@@@@@@@@@@@@@@@@@@@@@@@@@@@@@@@@@@@@@@@@@@@@@@@@@@@@@@@@@@@@@@@@@@@@@@@@@@@@@@@@@@@@@@@@@@@@@@@@@@@@@@@@@@@@@@@@@@@@@@@@@@@@@@@@@@@@@@@@@@@@@@@@@@@$$@$@@@$$@@@@@@@@@@@@@@@@@@@@@@@@@OOOOOOOOOOOOOXXXXXXXXXXXXXXXXXXXXXOOOOOOOO@@@@@@@$$$$$$$***$$$$$$$$@@@@@@@@@@@@@@@@@+++++++++++++++++++&&&&&&&&&&&&&&&::::&&&&+++++++++XXX++XXXXXXXXXXXXXXXXXXXXXXXXOOOOOOOOOOOOOOXXXXXooooooo                    #;;;;#    O;;;;#    :;;;;o;;;;;  . X;;;;%+;;;;##;;;;;;;#;;;;%@@@#:;;;;;;;;;@:;;;;:#;;;;%@@@@+@@@@@@@@@@@@@@@@@@@@@@@@@@@",
"OOoooo                                              ooooooooo       oooooXOOOOOOOOOOXooo                 ooooooXXXXXXXXXooooooXXOOOOO@@@@@@OOOXooo  oooooooXXOOOOXXXXXXooooooooo                  oo . ..ooo.....oooooooXXXXXX..X.XX.X.X..XX..X+XXXXXXXX++OOXXXXXXXXXXOOOO@@@@@@$$@@@@++++&&&&&&&&&&&+++++++XX....+++++X..XX.X....XXXX......XX..XX...X.............XXXXXXXXXoo..  .                                                   ooXXOO@@@@@@@$$$$$$@@@@@@@@@@@@@@@@@@@@@OOO+OXXXXXXXXXXXXXXXXXXX++XXXX+++++XXX++++XX+++++XXX++O+++++++++++++++++++@@@++++++@@@@+++++++++++++++++++++++++++++++++++++++++&&+++++++@@@@@@@@OXX.o. .                                                    oo.XXXO@@@@XXXo.XXXXXXXXX...o      ..oo    ooo..o.ooo.XXXXXXXXXXXXXOOOO@@@@@@@@@@@@@@@@@@@@@@@@@@@@@@@@@@@@@@@@@@@@@@@@@@@@@@@@@@@@@@@@@@@@@@@@@@@@@@@@@@@@@@@@@@@@@@@@@@@@@@@@@@@@@@@@@@@@@@@@@@@@@@@@@@@@@@@@@@@@@@@@@@@@@@@@@@@@@@@@@@@@@@@@@$@$$$$$$$$$$$$$$$$$$@$$$@@@@$@@@@@@@@@@@@@@@OOOOOOOOOOOOOXXXXXXXXXXXXXXXXXOXXOOOOOOOO@@@@@@$$$$$$%*******$$$$$$@@@@@@@@@@@@@@@@++++++++++++++++++++&&&&&&&&&&&&&&&::::&&&++++++++XXXX++XXXX++XXXXXXXXXXXXXXXXXXOOOOOOOOOOOOOOOXXXXXooooooo   o               #;;;;#    O;;;;#    :;;;;o;;;;;    X;;;;%o;;;;==;;;;;;;#;;;;#@#;;;;;;;;;;;;@#;;;;;;;;;;#@@@@+@@@@@@@@@@@@@@@@@@@@@@@@@@@",
"oooo                                               ooooooooooo   o  oooooXOOOOOOOOOOXXoo                ooooXXXXXXXXXXooooooooXXOOOOO@@@@@@OOOXooo ooooooXXXXOOOXXoXXXXXoooooooo                   o   .o.oooo...o....oo.X..XXX.XXXX..XX.XXXXXX+XX++++XX+OOOXXXXXXXXXXXOOO@@@@@@@@@@+@+++&&&&&&&&&&&++++++++XXX.....+.++.XXX.+..++X.+X.......X..XX..............XXXXXOOOOXXX.o.. ..                                                  o.XXXOO@@@@@@$$$$$$$@@@@@@@@@@@@@@@@@@@@@@@@@@@O@O@@@@@@@@@@@@@@@@@@@@@@@@@@@@@@@@@@@@@@@@@@@@@@@@@@@@@@@@@@@@@@@@@@@@@@@@@@@@@@@@++++++++++++++&+&++&&&&&&&&&&++++&&&&+&&&&&+++@@@@@@@@@@OXX.o                                                        ..XXXO@@@OXXXo.XXXXXXXXXX..o...............oo.oo...oXXXXXXXXXXXOOOOO@@@@@@@@@@@@@@@@$$$$$@$$$$$$$$$$$$$$$$$$$$$$$$$$$$$$$$$$$$$$$$$$$$$$$$$$$$$$$$$$$$$$$$$$$$$$$$$$$$$$$$$$$$$$$$$$$$$$$$$$$$$$$$$$$$$$$$$$$$$$$$$$$$$$$$$$$$$$$$$$$$$$$$$$$$$$$$$$$$$$$$$$$$$$$$$$$$$$$$$$$$$$$$$@@@@@@@@@@@@OOOOOOOOOOOOXXXXXXXXXXXXXXOOOOOOOOOO@@@@@@$$$$*%======*********$$#@@@@@@@@@@@@@@+++++++++++++++++++++++&&&&&&&&&&&&&&:&&&&&++++++++++++++XXX+++XXXXXXXXXXXXXXXXXOOOOOOOOOOOOOOOOXXXXXoooooo  oo              #;;;;X    #;;;;#    %;;;;o;;;;;    X;;;;# #;;;;;;;;:;;;;;;;;@#;;;;;;;;;;;;:X+;;;;;;;;;;@++@@@+@@@@@@@@@@@@@@@@@@@@@@@@@@",
"oo                                                 oooXXXooooooooooooooooXOOOOOOOOOOXXoo              oooooXXXXXXXXXXooooooooooXOOOOOO@@@@@OOOXXooooooooXXXXOOOOXXooXooooooooooo       o       o oooo .ooooooooo......oo..X.XXXXXXXXX.XX.XXXXXXXXX++XXXXXXOO+XXXXXXXXXXOXOO@@@@@@@@@+++++&&&&&&&&&&&+++++X++XXX..........XXX++......+...........XXX.............XXXOOO@@OXXoo... .                                                  ...XXOO@@@@@@@$***$$$$$@@@@@@$$$$$$$$$$@@@@@@@@@@@@@@@@####@####@@@#@@##########@###########################$#################**#&&&+++&&&++&&&&+&&&&&&&&&&&&&&&&&&&&&&&&&&&&&&+@@@@@@@@@@@OXX..                                                       . oXXXO@@@OXXX..XXXXXOOXXXX.o................o.o....XXXXXXXXXXOOOOOO@@@@@@@@@@@@@$$$$$$$$$$$$$$$$$$$$$$$$$$$$$$$$$$$*$$$$$$$$***$$$$$$$$$$$$$$$$$$$$$$$$$$$$$$$$$$$$$$$$$$$$$$$****$$$$$$$$$$$$$$$$$$$$$$$$$$$$$$*******$$$$$******************************$$$$$$$$$$$$$$$$$$$$$$$$$$$$@@@@@@@@@@OOOOOOOOOOOXXXXXXXXXXXXXOOOOOOOOOO@@@@@@@$$$*=-;;;;;-=====*****$##@@@@@@@@@@@@@@++++@+++++++++++++++++++&&&&&&&&&&&&::&&&&++++++++++++++XXXX++XXXXXXXXXXXXXXXXXOXOXXOOOOOOOOOOOOXXXXXooooo  oo              #;;;;X    X;;;;%  o ;;;;; ;;;;;    X;;;;# +;;;;;;;:#;;;;;;;%@;;;;;#+X+;;;;;X+#;;;;;;;;#@@+@@@@@@@@@@@@@@@@@@@@@@@@@@@@@@",
"                                              ooooXXOOXOOOXXoooooo  oooooXOOOOOOOOOOOXoo             oooXXXXXXXXXXXXoooooooooXXXoXOOOO@@@@OOOOoooooooooXXOOOOOOXXooooooooooo                  oo  oo......oooooo...o..XX....XXXXXX..XXXX++XXX+++XXXX++XXXX++XXX+XXXXX+XXXXX++@+@+++++++&&&&&&&&&&&++++++XX+++XXX++++..XX+X...+++++..X....X..........X..........XXXOO@@@OOXXo.                                                       ooXXOOO@@@@@$**************************************************************===*****=====****==***===*============================*&&&&&&&&&&+&&&++++&&&&++&&&&&&++&&+++&&&&+&&&&+@@@@@@@@@O+XXo                                                        .ooXXXOO@@OXX...oXXXXOOXXXXX.........oooooo..oooo...XXXXXXXXXOOOOO@@@@@@@$$$$$$$$**$$**$$$$$$******$$$********$$$****$$$$******$$******%$$$$*$$$$*********%$$$$$$**$$$$%%%**%***$%**%%$$**%%%**%%$%**%%**%%$$****%%%%****%%%*****%%******%%%%*************$$$$$*$$$$$$$$$$$$$$$$$$$$$$$$$@@@@@@@@@@@OOOOOOXXXXXXXXXOOOOXXXXXXOOOO@@@@@@@@$$$*=;;;;;;;;;;======****$$@@@@@@@@@@@@@@+++@+++++++++++++++++&&&&&&&&&&&&&&&&::&&&&&+++++++X++++XXX++XXXXXXXXXXXXXXXXXXXXXOOOOOOOOOOOOOOXXXooooooooooo             #;;;;X    +;;;;;X  #;;;;; ;;;;;    X;;;;# o;;;;;;;#+;;;;;;;#@;;;;;++X#;;;;:+X+;;;;;;;;@@@@@@@@@@@@@@@@@@@@@@@@@OO@@@@@@@",
"                                              oooXXOOOOOOOXXoooooo   ooooXOOOOOOOOOOOOooo           ooooXXXXXXXXXXXXoooooooooooXoXOOOO@@@@OOOOooooooooXXOOOOXXXXoooooooooooo                  oo   o.o....oooooo.o.o.XXX....XX.XXXX.XXXXX+XXX+++XXXX++XXXX+XXXX+XXXO+++O++OO+O@@++++++&&&&&&&&&&&+++++++XX++++.X++++XXXX+...X+++++............................XXXXO@@@@OXXX..                                                      oooXXOO@@@@@@$*******=************========***=====================================================================================*&&&&&&&&&&+&&&++&+&&&&&&&&&&&&&+&&+++&&&&+&&&&+@@@@@@@@@O+Xo..                                                       .ooXXXOO@@OXX....XXXXOOOXXXXX........oooo o..ooo...XXXXXXXXXOOOOO@@@@@@@@$$$$****************************==******====****======******=====*==***=====***===******==*****=====****==========================**==============================================********$$**$***$$*$****$$$$$$@@@@@@@@@@@@OOOOOOOOXXXXXXOOOOXXXXOOOOO@@@@@@@@@$$$*=;;;;;;;;;;;;-====****$#@@@@@@@@@@@@@+++@@++++++++++++++++&&&&&&&&&&&&&&&&:::&&&&+++++++XX++++XX++XXXXXXXXXXXXXXXXXXXXXXOOOOOOOOOOOOOOXXXXoooooooooo            #;;;;X     ;;;;;;;;;;;;;; ;;;;;    X;;;;#  #;;;;;;XX%;;;;;;#@;;;;;###;;;;;:XXX#;;;;;;%@@@@@@@@@@@@@@@@@@@@+@@@@OOO@@@@@@",
"                                           oooooOOOOOOOOOOOOoooooo  oooooXOOOO@OO@OOOOXooo        ooooooXXXXXXXXXXoooooooXXoooooooOOOO@@@@@OOOoooooooXXXOOOXXXooooooooooooo                       oooooo...o..oooooX....XX..X.XXXX.XXXXX.XXXXX++XXXX+++++XXXXX+++++@@@@@@+++++++++++&+&&&&&&&&&&+++++++++++++.X.++.X...X++..X.+++...++........................XXXOO@@OOOXXo.                                                       ooXXXOOO@@@@@$******************===================================================================================================&&+&&&&&+&++&&&&+&&&&&&&&&&&&&+&&&&&&&&&&&++&@&&&&&&@@@@OXXoo                                                         ooXXXOO@@OXXX..XXXXXOOOXXXXX...........  ...ooo..XXXXXXXXXXOOO@@@@@@@@$$$$$$%*%%%%==========;=--========;;--=---;-------;;;;---=--;-;-;;----;;--;;;;;;;;;;;;;;-;;;;;;;;;;;;;;;;;;;;;;;;;;;;;;;;;;;;;;;;;;;;;;;;;;;;;;;;;;;;;;;;;;;;;;;;;;;;;;;;;;;;;;;;;;---==============****%%%%*%*$$$$$$$@@@@@@@@@OOOOOOOOOXXXXOOOOOOOOOOOOOOO@@@@@@@$$$*=;;;;;;;;;;;;;;====*****#@@@@@@@@@@@@@+++++++++++++++++++++&++&&&&&&&&&&&&&::&&&&&++++++XX++++XX+XXXXXXXXXXXXXXXXXXXXXXXXXXOOOOOOOOOOOOOXXXooooooooo            #;;;;O     #;;;;;;;;;;;;; ;;;;;    .;;;;#  X;;;;;#XX#;;;;;=@@;;;;;;;;;;;;;:+XXX;;;;;;@@@OOO@++@@@@@@@@@@++++@@@@@@O@@@@@",
"                                           oooXXOOOOOOOOOOOOXooooo  ooooooOOOO@@@@@@OOXXoo   oooooooooXXXXXXXXXoooooooooooXoooooooOOOO@@@@OOOOXXooooXXXXXXXXXooooooooooooo                        oooo.o...o....oo.XX..XXX..XXXXXX....XX.XXXXX..XXXX++++XXXXXX++XX+@@@@@@@++++++++++&&&&&&&&&&&&++++++++++++++++++.X...XXX...X++++XX+XXX...+XX..............XXXXOO@@OOXXXoo                                                       ooXXXXXOOO@@@@$$**************************************************=******==========================================================*&&&&&&&+&+++&&&&+&&&&&&&&&&&&&&&&&&&&&&&&+++@@&&&&&&@@@@XXXoo                                                         ooXXXOO@@OXXX..XXXXXOOXXXXXXXXX........ ....ooo..XXXXXXXXOOOO@@@@@@@@$$$$%*===;;;;;;;;;;;;;;;;;;;;;;;;;;;;;;;;;;;;;;;;;;;;;;;;;;;;;;;;;;;;;;;;;;;;;;;;;;;;;;;;;;;;;;;;;;;;;;;;;;;;;;;;;;;;;;;;;;;;;;;;;;;;;;;;;;;;;;;;;;;;;;;;;;;;;;;;;;;;;;;;;;;;;;;;;;;;;;;;;;;;-===-------======**%$$$$$$@@@@@@@@@@OOOOOOOOOOXOOOOOOOOOOOOOOOO@@@@@@@$$$$*-;;;;;;;;;;;;;;-==******##@###@@@@@@@+++++++++++++++++++++&++++&&&&&&&&&&&&&&&&&&&&+++++++++++X++XX+XXXXXXXXXXXXXXXXXXXXXXXOOOOOOOOOOOOXXXXXooo ooo            #;;;;X     .;;;;;;;;;;;;; ;;;;;    X;;;;#   ;;;;;+X.X;;;;;#@@#;;;;;;;;;;;;:XX+X:;;;;;+@@OOOO+++@OO++++@@++++@@@@@@++@@OO",
"                                        ooooXXOOOOO@@@@@OOOOXooo      ooooOOO@@@@@@@OOOXoooooooooooXXXXXXXXXXoooooooooooooooooooooXXOO@@@@OOOOoXoooXXXXXXXXXoooooooooooooo                     .  .ooooo..o.....XXXXXX..XXXXX.XXX.X....+XXX.XXXX++++XXX+XXXXXXX++++@@@@@&&++++++++&&&&&&&&&&&&&+++++++++++++++++...X++..++++X.......++++.+++...............X.XXXO@@@OXXXoo.                                                      oooXXXXXXXOOO@@@@@@@@@@@@@@@@@@@@@@@#######@@@@#$$$$$$$$$$$****$$$$$$$$$$$$$$$$$$$$$$$*$$$$****$$**$$******************************&&&&&&&&&&++&&&&&&&&&&&&&&&&&&&&&&&&&&&&&&&&+@&&@@&&&&@@@@XXXoo                                                         oooXXOO@@OXXX..oXXXXOOOXXXXX+XXX....... o..o....XXXXXXXOOOO@@@@@@@$$$$$$*=-;;;;;;;;;;;;;;;;;;;;;;;;;;;;;;;;;;;;;;;;;;;;;;;;;;;;;;;;;;;;;;;;;;;;;;;;;;;;;;;;;;;;;;;;;;;;;;;;;;;;;;;;;;;;;;;;;;;;;;;;;;;;;;;;;;;;;;;;;;;;;;;;;;;;;;;;;;;;;;;;;;;;;;;;;;;;;;;;;;;;;;;;;;;;;;;;;;;;;;-===***$$$$$$$@@@@@@@@OOOOOOOOOXOXXXXXOOOOOOOOO@@@@@@@@$$$$%=-;;;;;;;;;;;;;;;====*****##@@@@@@@@@@@@@+++++++++++++++++++++&&&&&&&&&&&&&&:::&&&&&++++++++XXX+XXX+XX+XXXXXXXXXXXXXXXXXXXXXOOOOOOOOOOOOOXXXXoooo              #;;;;O      o:;;;;;;X#;;; ;;;;;    .;;;;#   %;;;; o  :;;;;O@@@#;;;;;;=#;;;:O+@X;;;;;#+X+++OOOOOOO+++@++O++O@@@OO++OOOO++",
"                                      oooooXXOOOOO@@@@@@OOOOXooo      ooooOOO@@@@@@@@OOOooooooooooXXXXXXXXoooooooooooooooooooooooooXOOO@@@OOOOXXXXXXXXXXXXXooooooooo    oo                    ..  oooooo..oo....o.XX.X..XXXXX..XX......+XXX.XXXX++++XXX+XXXXXXX++++@@###&@++++++++&&&&&&&&&&&&+++++++++X++++++++X..X+++X++++XXX.++..++++..++....X......X....XXOO@@@OOXXXoo                                                      ooooXXXXXXXXXXOO@@@@@@@@@@@@@@@@@@@@@@@@@@@@@@@@@@@@@@@@@@@@@@@@@@@@@@@@@@@@@@@@@@@@@@@@@@@@@@@@@@@@@@@@@@@@@@@@@@@@@@##@@@@@@@@####&&&&++&&&&+++&&&&&&&&&&&&&&&&&&&&&&&&&&&&&&&&&&&@@@@&@@@@@XXooo                                                          ooXXOO@@OXX...XXXXXOOXXXXXX+++X........oooo..XXXXXXXXOOO@@@@@@@@@$$$**=-;;;;;;;;;;;;;;;;;;;;;;;;;;;;;;;;;;;;;;;;;;;;;;;;;;;;;;;;;;;;;;;;;;;;;;;;;;;;;;;;;;;;;;;;;;;;;;;;;;;;;;;;;;;;;;;;;;;;;;;;;;;;;;;;;;;;;;;;;;;;;;;;;;;;;;;;;;;;;;;;;;;;;;;;;;;;;;;;;;;;;;;;;;;;;;;;;;;;;;;;;;;-==**$$$$$$@@@@@@@@O@@OOOOOOOOXXOOOOOOOOOOOO@@@@@@@@$$$$$*=;;;;;;;;;;;;;;;;===*****$$##@@@@@@@@@@@@@++++++++++++++++++++++&&&&&&&&&&&&:::&&&&&+++++++++X++XX+++++XXXXXXXXXXXXXXXXXXXXXXOOOOOOOOOOOXXXXoooo               XXXX         X#%#X   X+X oooX      oXoX     XXXo    XXO@XOOO@+@#:::#@@####@@+#;;;;;++XX++XXXOOO+++++++@O+OO++O@+OO+OO++",
"                                    oooooXXOOOOOO@@@@@@@@OOOXooo        ooOOOO@@@@@@OOOOXoooooXXXXXXXXXXoooooooo    oooooooooooooooXOOO@OOOOOOXXXXXXXOOXXXoooooooo      o               oo    oo .oooo....oooo..............XX........XXXX..++++++XXXX+++X++XXXX+@@&&&&&&&++++++&&&&&&&&&&&&&&++++++++++++++X++++X++++XX+X+XXXX+++XXXXX...XXXX........XX.XXXXO@@OOOXXXXXo                                                       oooXXXXXXXXXXXXXXXXXXXXXXXXXXXOOOOXXOOOOOOOOOOOOOOO@@O@@@@@O@@@O@@@@@@@@OO@@@@@@@@@@@@@@@@@@@@@@@@@@@@@@@@@@@@@@@@@@@@@@@@@@@@@@@@@@@+&&+++&&&&+&&&&&&&&&&&&&&++&&&+&&&&++&&&&&&&&&&@@@@@@@@@+XXooo                                                          ooXXXO@@OXX.o.oXXXXOOXXXXXX++++XX......oooo..XXXXXXXOOOO@@@@@@@$$$$*==;;;;;;;;;;;;;;;;;;;;;;;;;;;;;;;;;;;;;;;;;;;;;;;;;;;;;;;;;;;;;;;;;;;;;;;;;;;;;;;;;;;;;;;;;;;;;;;;;;;;;;;;;;;;;;;;;;;;;;;;;;;;;;;;;;;;;;;;;;;;;;;;;;;;;;;;;;;;;;;;;;;;;;;;;;;;;;;;;;;;;;;;;;;;;;;;;;;;;;;;;;;;;;;-==**$$$$$$@@@@@@@@@OOOOOOOOOOOOOOOOOOOOOOO@@@@@@@$$$$$*==;;;;;;;;;;;;;;;;===*******$@#@@@@@@@@@@@++++@++++++++++++++&++&&&&&&&&&&&&&::&&&&&&+++++++++++X+XX++XXXXXXXXXXXXXXXXXXXXXXXXOOOOOOOOOOOXXXXXooooo                                                                   ..XXXX@@@#@@#@#@@@&@@@:;;;;#++XX++++XXOOX++++++@OOOO+++++OOOO+++",
"                                    ooooXXOOOOOOO@@@@@@@OOOOoooo        oooOOOOO@@@@OOOOXooooXXXXXXXXXXoooooo       oooooooooooooooXOOOOOOOOOOXXXXXXOOOXXXoooooo  o                    ooo    oo oooo.....ooXooo............XXX.......XXXX.++++++++XXX+++X++XXXX+@@&&&&&&+++++++&&&&&&&&&&&&&&++++++++++++++X++X++++++XXXXXXXXX+++XXXX..XXXXXX........XX.XXXOO@@OOXXXXXo.                                                       oooXXXXXXXXXXXXXXXXXXXXXXXXXXXXXXXXXXXXXXXXOOXXXXXXXXXOOXXXXXXXXOOOOOOOOOXOOOOOOOOOOOOOOOOOOOOOO@O@OO@@@O@@@@@O@OO@@@@@@@@@@@@@@@@@@++++++++&&++&&&&&&&&&+&&&&&+&&&+&&&&++&&&&&&&&&&@@@@@@@@@+XXooo                                                          ooXXXOO@OXX.o.oXXXXOXXXXXXXX++++...........oXXXXXXXOOOO@@@@@@@@$$$**=;;;;;;;;;;;;;;;;;;;;;;;;;;;;;;;;;;;;;;;;;;;;;;;;;;;;;;;;;;;;;;;;;;;;;;;;;;;;;;;;;;;;;;;;;;;;;;;;;;;;;;;;;;;;;;;;;;;;;;;;;;;;;;;;;;;;;;;;;;;;;;;;;;;;;;;;;;;;;;;;;;;;;;;;;;;;;;;;;;;;;;;;;;;;----=-;;;;;;;;;;;;;;;;==***$$$$@@@@@@@@@OOOOOOOOOOOOOOOOOOOOOOOO@@@@@@$$$$$**==;;;;;;;;;;;;;;;;-===*****$$##@@@@@@@@@@++++@+++++++++++++&&+++&&&&&&&&&&&&&:::&&&&&+++++++++++XXXX++++XXXXXXXXXXXXXXXXXXXXXXOOOOOOOOOOOXXXXXoooo                                                                    ...XXO@@@@#@@@@@#&@#@;;;;;XX+XX++++++OOX+++++O+OOOO++++++OOO+++",
"                                  oooXXXOOOOO@@@@@@@@@OOOOOXoo          oooXOOO@OO@OOOOXXXXXXXXXoXXXXooooo           ooooooooooooooXXOOOOOOOOOOOOOOOOOOXoooo                            ooo    ...oooooo..........X.......XXXX..XX....++.++XX.+++XXXXX++XXX+++X++@@&&&&&&++++&&&&&&&&&&&&&&&++++++++++++++XXX++++X++++XX++XXXX+++++XXXXX..++.X..........XXXOO@@OOOXXXooo                                                        ooXXXXooooo.oo....oooooo.......o.....oooXXXXXXXXXX.XXXXXXXXXXXXXXXXXXXXXXXXXXXXXXXXXXXXXXXXXXXXXXXXXXXXXXXXXXXXXXXXXXXXXXXXX+O++++++@@+++&++++&&&++&&&&&&&&&&&&&&&&&&+&&&++++@@@@@&&@@@@@@@@@+XX...                                                          ..XXXOOOOXX.o...XXXXOXXXX..++++++XX......ooXXXXXXXOOOOO@@@@@@$$$$$$*=;;;;;;;;;;;;;;;;;;;;;;;;;;;;;;;;;;;;;;;;;;;;;;;;;;;;;;;;;;;;;;;;;;;;;;;;;;;;;;;;;;;;;;;;;;;;;;;;;;;;;;;;;;;;;;;;;;;;;;;;;;;;;;;;;;;;;;;;;;;;;;;;;;;;;;;;;;;;;;;;;;;;;;;;;;;;;;;;;;;;;;;;;;-========-;;;;;;;;;;;;;;;-=%**$$$$$@@@@@@@OOOOOOOOOOOXXXXOOOOOOOOOO@@@@@@$$$$$**==;;;;;;;;;;;;;;;;;===*****$#@@@@@@@@@@@@++++@+++++++++++++++&&&&&&&&&&&&&&&&&&::&&&&+++++++++++++++X+XXX+XXXXXXXXXXXXXXXXXXOOOOOOOOOOOOOOXXXXXoooo o                                                                   oXXXXO@@@@@@@@@@@#;;;;:++XX.XXXXXXXOXXXXXXOOOOOO++O+O+++OOOO",
"                                o ooXXXXOOOO@@@@@@@OOOOOOOXooo           oooOOOOOOOOOOOXXXXooXXXoXXXXooo             ooooooooooooooXXOOOOOOOOOOOOOOOOOXXoooo                            oooo  .o..oooo........oo..X........XXXXXXX.....++++++++X+.XXXX++XXX++++++@@@&&&&+++++&&&&&&&&&&&&&&&+++++++++++++++X++++XX++++XX++XXXX++++XXXXXX.............XX.XXOOO@@OXXXXXo                                                          oooXXXooooooo.oo      ..........oo....oo...o.o..oo.ooooooX....oo....XXXXXXXX....XX.X..X.XXXXXX....XXXXXXXXXXXXXXXXXXXXXXXXXXXXX+++++++++&&&++&&&&&+&&&&&&&&&&&&&&&&&&&&&&++++@@@@&&&&@@@@@@@@+XX...                                                           ..XXOOOOXX....XXXXXXXXXX..++++++XX.....oXXXXXXXXOOOOO@@@@@@@$$$$$$*=;;;;;;;;;;;;;;;;;;;;;;;;;;;;;;;;;;;;;;;;;;;;;;;;;;;;;;;;;;;;;;;;;;;;;;;;;;;;;;;;;;;;;;;;;;;;;;;;;;;;;;;;;;;;;;;;;;;;;;;;;;;;;;;;;;;;;;;;;;;;;;;;;;;;;;;;;;;;;;;;;;;;;;;;;;;;;;;;;;;;;;;;;;==******=-;;;;;;;;;;;;;;;;-==**$$$$$@@@@@@@OOOOOOOOOXXXXXOOOOOOOOOOO@@@@@$$$$$***=-;;;;;;;;;;;;;;;;;===******$#@#@@@@@@@@@+++++++++++++++++++&&&&&&&&&&&&&&&&&&&::&&&&++++++++++XXXXXXXXX++XXXXXXXXXXXXXXXXXXXOOOOOOOOOOOOXXXXXoooooo                                                                    .XXX++@@@@@@@@@@;;;;;#+X.X.XXXXXXXXXXXXXXOOOOOOOO++O+++OOOO",
"                              ooooXXOOOOOOO@@@@@@@OOOOOOooooo           ooooXOOOOOOOXXXXoooooXooooooooo               oooooooooooooXXOOOOOOOOOOOOOOOOOXoooo                          o    ..    ...o....o.o..oXX............X.XXXXXXXX..++.XXXXX++.XX+++XXXX++++++++++&+++++&&&&&&&&&&&&&&&&++++++++++++++++++++++++++XX++++X+++XXXX++++....X.......XXXXXXOO@OOOXXXXoo                                                           ...oo.o                     .......     ...   ....o..oo..oo..........o...oo....oooo.ooooo.......o..XXooXXXXXXXXXXXXXXXXXXXXXXXX++++++++++++++&&++++&&&&&&&&&&&&&&&&&&&&&&++@+&&@@&&&&@@@@@@++XX...                                                           ooXXOOOOXXX...XXXXXXXXXXX++++++++......oXXXXXXXOOOOO@@@@@@@@$$$$$**==;;;;;;;;;;;;;;;;;;;;;;;;;;;;;;;;;;;;;;;;;;;;;;;;;;;;;;;;;;;;;;;;;;;;;;;;;;;;;;;;;;;;;;;;;;;;;;;;;;;;;;;;;;;;;;;;;;;;;;;;;;;;;;;;;;;;;;;;;;;;;;;;;;;;;;;;;;;;;;;;;;;;;;;;;;;;;;;;;;;;;;;-==*$$*****=;;;;;;;;;;;;;;;;;;==**$$$$@@@@@@@@@OOOOOOOOOOOOOOOOOOOOO@@@@@@@@$$$$****=-;;;;;;;;;;;;;;;;;====*****$@#@@@@@@@@@@+@+++++++++++++++++&&+++&&&&&&&&&&&&&:::&&&&&&&++++++++X+XXXXXXXXXXXXXXXXXXXXXXXXXXXXOOOXOOOOOOOOXXXXXooooo                                                                    ooXXX+@@@@@@@@@&@@+@@@++XXXXXXXXXXXXXXXXXXOOOO++++OO++++OO",
"                             oooooXXOOOOOOO@@@@@@OOOOOOOoooo             oooXXOOOOOXXXoooooooooooooooo                ooooooooooooooXOOOOOOOOOOOOOOOOOXoooo                         o     ..    ...o....oo....XX....X.......X...XXXXXXX.XXX.XXXX++.+++++XXX++++++++++++++++&&&&&&&&&&&&&&&+++++++++++++++++++++++++++++++++++++++XXX++++............XXXXOOO@OOOOXXXoo                                                             .oo.                                          oo......oooo.o..........oo......oo..................oooo........XXXX.XXXXXXXXXXX++++++@@+++&&&&&&&&&&&&&&&&&&&&&&&&&&&+&&&@@@&&&@@&&&&&@@@@@++XXo.                                                            ooXXOOOOXXXoo..XXXXXXXXXX++++++++XX....oXXXXXXXOOOOO@@@@@@@@$$$$$*$*==-;;;;;;;;;;;;;;;;;;;;;;;;;;;;;;;;;;;;;;;;;;;;;;;;;;;;;;;;;;;;;;;;;;;;;;;;;;;;;;;;;;;;;;;;;;;;;;;;;;;;;;;;;;;;;;;;;;;;;;;;;;;;;;;;;;;;;;;;;;;;;;;;;;;;;;;;;;;;;;;;;;;;;;;;;;;;;;;;;;;-===*********=-;;;;;;;;;;;;;;;;;-=***$$$$@@@@@@@@@OOOOOOOOOOOOOOOOOOOO@@@@@@@@$$$$$****=-;;;;;;;;;;;;;;;;;===******$#@@@@@@@@@@@@@@++++++++++++++++++++&&&&&&&&&&&&&&:::&&&&&&+++++++XXXXXXXX+XXXXXXXXXXXXXXXXXXXXXXXXXXOOOOOOOOXXXXXooooo                                                                      .XX+++@@@@@@@@@@@@@++OOXXXXX.XXXXXXXXXXXXXXXXXXXXO++++O+",
"                            oooXXXOOOOO@@@@@@@@@OOOOOXXooo                ooooXXXXXoooooooooooooooooo                oooooooooooooooXXOOOOOOOOOOOOOOOXXoo                         o oo    ....oooooo....ooooXXXX......XX.X......XX++XX..XXX...XX..+++XXXXX++++++++++++++&&&&&&&&&&&&&&&&&&++++++++++++++++++++++XXX+++++XXX+++++++XXXX++...........X.XXXOO@@OOXXXXoo                                                                                                                    ....    .....   ........oooo....ooo......ooo...o...o..............o.XXXXXX+++++@@@@@@@#&@@&&&&@@&&&&@@@@&&&&&&&&&&@@@@&&@&@&&&&@@@@@O+XXoo                                                            ooXXOOOOXXoooo.XXXXXXXXXX++++++++.XX....XXXXXXXOOOOO@@@@@@@@$$$$$*$***========------------;;----;--;;;-----;;-----;;----==---=----=-----==--====--;;;;----;;;;-----;-------;-;------====--====----========--=======---=====---==-=====----====================**$$*$$***=-;;;;;;;;;;;;;;;;;===*%$$$$@@@@@@@@@@@OOOOOOOOOOOOOOOOO@@@@@@@@@$$$$$***==-;;;;;;;;;;;;;;;;;-===******@@@@@@@@@@@@@@+@+++++++++++++++++++&&&&&&&&&&&&&&:::&&&&&&+++++++++XXXX+X++XXXXXXXXXXXXXXXXXXXXXXXXOOOOOOOOOXXXXXXooo                                                                       ooXXXO+@@@@@@@@@@@@@@+++XXXXX..XXXXXXXXXXXXXXXXXXXO+++O",
"                          ooooXXXXOOOO@@@@@@@OOOOOOXXooo               o oooooooooooooo   ooooooooo                 ooooooooooooooooXXXXXXXOOOOOOOOOXXoo                             ...  ....oooooo.......o....X......X.X......XX+X.........XXXX.++XXXXX+++++++++++++++&&&&&&&&&&&&&&&&&&+++++++++++++++++++++X+XX+++++XX+++++X++++XX+...........XXXXXO@@@OOXXXoooo                                                                                                                               .      ..    ...       ............  ...o.....o..............XX+++++@+@@@@@&&&&&&&&@@&&&&@@@@&&&&&&&&&&@@@@&&@@&&&&@@@@@@OXXXo.                                                            ooXXOOOOXXoooo.XXXXXXXXXX++++++++.XX....XXXXXXXXOOOO@@@@@@@@$$$$$$$******%%%%%%%===%==========================================================================================%%==============================================================================**$$$$$***==;;;;;;;;;;;;;;;;;;-==*$$$$$$@@@@@@@@@OOOOOOOOOOOOOOOOO@@@@@@@@@$$$$$$***==;;;;;;;;;;;;;;;;;;-===*****$@@@@@@@@@@@@@@@+++++++++++++++++++++&&&&&&&&&&&&&::&&&&&&&++++++++XXXX+XX+X+XXXXXXXXXXXXXXXXXXXXXXXOOOOOOOOOXXXXXXooo                                                                      .o.XXXX@@@@@@@@&&@@@@@@+++XXXX.XXXXXXXXXXXXXXXXXXXO++OO",
"                        ooooXXXOOOOOO@@@@@OOOOOOOXXoooo              oooooooooooooo                             oooooooooooooooooooooXXXXXXXOOOOOOOXXXoo                              ..  ooo..o..o.............X.......XX.....X..X.....+.++..XXXX++++XX++++++++++++&&&&&&&&&&::&&&&&&&&&&++++++++++++++++++++XX++++++++XX++++XX++++X.............XXX++@@@@OXXXXooo                                                                                                                               ..            .                   ..  ..          ............XXX++++++@@@@@@@@@@@@@$@$$&&&@@@&&&&@@&&&&&@@&&&&&&&&@@@@@@@XXXXo.                                                            .oXXOOOOXX..o..XXXXXXXXXX.+++++++X.X.....XXXXXXXOOOO@@@@@@@@$$$$$$$$******===================================================================================================================================================================================**$$$$$$$*$*=;;;;;;;;;;;;;;;;;;;-==*$$$$$@@@@@@@@@@OOOOOOOOOOOOOOOO@@OO@@@@@@@@$$$$***==-;;;;;;;;;;;;;;;;;-===*****#@##@@@@@@@@@+++++++++++++++++++++++++&&&&&&&&&&&&:::&&&&&&+++++++++X+++++++++XXXXXXXXXXXXXXXXXXXXXXXXXXXXOOOOOXXXooo                                                                         ooXX++@@@@@@@@@@@@@@+++++XXXXXXXXXXXXXXXXXX+++X+++++",
"                        ooooXXOOOOOO@@@@O@@OOOOOXXoooo              ooooooooooooooo                             oooooooooooooooooooooXXXooXXOOOOOOOXXooo                              ..  oooo.o.......................XXX....XX........++++++XX..++.+XX+++++++++++&&&&&&&&&&&:&&&&&&&&&&&+++++++++++++++++++++++X++++++X+++++XX++++..............XX+OO@@@OOXXXXoo                                                                                                                                .                                     ..            . .........XX++++++++@@@@@@@@@@@@@@$$&&@@@&@@&@@&&&&&@@&&&&&&&&@@@@@@+XXXXo.                                                            ..XXOOOXXX.oo...XXXXXXXXX+X++++++X....oo.XXXXXXXOOOO@@@@@@@@@@$$$$$$$$$*$%************========***===========================================================================================***=**==============================================*=======*****$$$$$$$$$$$**=;;;;;;;;;;;;;;;;;;;-=**$$$$$@@@@@@@@@@OOOOOOOOOOOOOO@@@OO@@@@@@@@$$$$$***==;;;;;;;;;;;;;;;;;;;===****$#####@@@@@@@@@++++++++++++++++++++++++&&&&&&&&&&&&:::&&&&&&++++++++X++++++++++XXXXXXXXXXXXXXXXXXXXXXXXXXXOOOOOXXXXoo                                                                          ooX++++@@@@@@@@@@@@@+++++XX.X..X.XXXX..XXXXXX+XXXXX",
"                     oooooXXXOOOOOO@@@@OOOOOOXXoooo               oooooooooooooo                              ooooooooooooooooooooooooooooXXXXOOXXXXoo                          .....   oo  ..........................X.....X.XX......+.+++++++....++++++++++++++&&&&&&&&&&&&&&&&&&&&&&+++++++++++++++++++++++++X++++++X+++X++++++++++X..........XXXO@@@@OOXXX..                                                                                                                                                                   .            ......     ........XXXXX+++++@@+@@@@@@@@@@$$$$$@&&&@@&&&&&&@@@&&&@@@@&@@@@@@XXXX..                                                            ..XXOOOOXX..oo..XXXXXXXX..++++++XX....oo....XXXXXXXOOOOOO@@@@@@@@@@@@$$$$$$$$$$$$$$$$$$$$$$$*$$$$*$$$$$$$$$$$$$$$*$***$$****$*****$$$***$$****$$$$$$$$$$$$$$$$$$$$$$$$$$$$$$$$$$$$$$$$$$$$$$$$$$$$$$$$$$$$$$$$$$$$*$$$$$$$$$$$$$$$$***$$$$*****$$*****$$$$$$$$$$$$$$$$$$**==;;;;;;;;;;;;;;;;;;;==***$$$$@$@@@@@@@OO@@OOOOOOOOOOOO@OO@@@@@@@@$$$$$$***==-;;;;;;;;;;;;;;;;;;===******$@@@@@@@@@@+++++++++++++++++++++&&&&&++&&&&&&&&&&::::&&&&&&&+++++++X+X+XXXXXXXXXXXXXXXXXXXXXXXXXXXXXXXXXXXOOOXXXXXoooo                                                                         oXXXX+@@@@@@@@@@@@@+++++XXXXXXXXXX..XXXXXXXXXXX+",
"                     ooooXXXOOOOOOO@@@OOOOOOXXoooo              oooooooooooooooo                              ooooooooooooo oooooooooooooooXXXXXXXXoo                             ..    o   .........o......................XX........+++++++++...++.+++++++++++&&&&&&&&&&&&&&&&&&&&&&++++++++++++++++++++++++++++++++++++XX++++++++X+..........XXXX@@@@OOXXXooo                                                                                                                                                                                ...     .    ...oo..XXXXXXXXOO++O@@@@@@@@@@$$$$@&&@&@&&&&&&@@&&&@@@@&&@@@@@+XXXX.                                                             .oXXXOOOXX..oooXXXXXXXXXX.++++++XX....ooo...oXXXXXXXXXOOOOO@@@@@@@@@@@@@$$$$$$$$$$$$$$$$$$$$$$$$$$$$$$$$$$$$$$$$$$$$$$$$$$$$$$$$$$$$$$$$$$$$$$$$$$$$$$$$$$$$$$$$$$$$$$$$$$$$$$$$$$$$$$$$$$$$$$$$$$$$$$$$$$$$$$$$$$$$$$$$$$$$$$$$$$$$$$$$$$$$$$$$$$$$$$$$$$$$$$$$$$$$$$$$***=-;;;;;;;;;;;;;;;;;;;===**$$$@@@@@@@@@@OO@OOOOOOOOOOOOOOO@@@@@@@@@$$$$$$***==;;;;;;;;;;;;;;;;;;-==*******$$@@@@@@@@@@++@++++++++++++++++++&&&++&&&&&&&&&&&::::&&&&&&&++++++X+XXXXXXXXXXXXXXXXXXXXXXXXXXXXXXXXXXXXXXOXXXXXXXoooo                                                                        oXXXX++@@@@@@@@@@@@++++++XXXXXXXXX....XXXXXXXXXX",
"                   ooooXXXXOOOOOOOOOOOOOOOXXoooo                oooooooooooooo                               oooooXXXXoooo        ooooooooooXXXXXXooo                                      .....oo..o.oo.................X..X.............++++++++++XXXX+++++++++&&&&&&&&&&&&&&&&&&&&&+&++++++++++++++++++++++++++++++++++++++++++++XX.......X..X++@@@@OOOXXXooo                                                                                                                                                                                             ...o.....XXXXXXXXXXXXXXOOO@@@@@$$$$@@@&@@@@&&@@@@&&@@@@@@@@@@@+X+..                                                              ..XXXXXXXX..ooo.XXXXXXXX..+++++++XX.oooooo...oXXXXXXXXXXOOOOOOOOOO@@@@@@@@@@@@@@@@@@@@@@@@@@$$@@@@@$$$$$$$$$@@$$$$$$$$$$$$$$$$$$$$$$$$$$$$$$$$$$$$$$$$$$$$$$$$$$$$@@$$$$$$@@@@$$$$@@$$$$$$$$$$$$$$$$$$$$$$$$$$$$$$@$$$$$$$$$$$$$$$$$$$$$$$$$$$$$$$$$$@@@@@@@@@@$$@$$$$$$$**==;;;;;;;;;;;;;;;;;;;;==**$$$$$@@@@@@@@OOOOOOOOOOOOOOOOOO@@@@@@@@@@$$$$$$***==-;;;;;;;;;;;;;;;;;-==******$$#$@@@@@@@@++@@++++++++++++++++++&&&+&&&&&&&&&&&&&:::::&&&&&&++++++++++++XXXX++XXXXXXXXXXXXXXXXXXXXXXXXXXXXXXXXXXXooo                                                                          ooXXXX++@@@@@@@@@@@@++++++XXX.XX...XX.XXXXXXXX",
"                   oooXXOOOOOOOOOOOOOOOOOOXoooo                oooooooooooooo                                oooooXXXXooo              ooooooXXXXooo                                     ......o.................................++........+++++++++X+XX++++++++&&&&&&&&::&&&&&&&&&&&&&&++++++++++++++++++++++++++++++++++++++++++++XX...XXXXXXXOO@@@@OOXXXXoo                                                                                                                                                                                                .............XXXXXXXXXXOOO@@@@$$$$@&&&@&@@&&@@@@&&@@@@@@@@@@@+XX..                                                              ..XXXXXXXX.o.oo.XXXXXXXX.X+++++++X..ooo .oooooooXXXXXXXXXXOOOOOOOOOOOO@@@@@@@@@@@@@@@@@@@@@@@@@@@@@@@@@@@@@@@@@@@@@@@$$@@@@@@@@@@@@@@@@@$$@@@$@@@@@@$$$$$@@@@@$@$$@@@@@@@@@@@@$$$$@@@$$$@@$@$$$$@@@@@@@@$$$$@@@@@@@@@@$$@@@@@@@@$$@@@@@@@@$$$$@@@@@@@@@@@@@@@@@@@@$$$$$$$$**==;;;;;;;;;;;;;;;;;;;;==*$$$$$$@@@@@@@@OOOOOOOOOOOOO@@OOO@@@@@@@@@@$$$$$****==;;;;;;;;;;;;;;;;;;;===******$$#@@@@@@@@+@@+++++++++++++++++&+&++++&&&&&&&&&&&&::::&&&&&&++++++++++++XXX+++++XXXXXXXXXXXXXXXXXXXXXXXXXXXXXXXXXooooo                                                                         ..XXX++++@@@@@@@@@@@@++++++XXX.X..XXXXXXXXXXX",
"                oooooXOOOOOOOOOOOOOOOOXXoooo                 oooooooooooooo                                 oooooXXXXoooo       oo       ooooXXXoo                            ..        ..............................X.............+.....++++..++..X++++++++&&&&&&&&&&:::&&&&&&&&&&++++++++++++++++++++OO++++++++++++++++++++XXXXXX.......XXXXX@@@@@OOOXXXoo                                                                                                                                                                                               ....    ....oooooooo....XXXX@@@@$$$$$@@@@&&&&@@@@&&&&&@@@@@@@@@+XXX.                                                               .XXXXXXXXoo....XXXXXXX..X+++++++X... .....oooooooooXXXXXXXXXXXXOOOOOOOOOO@@@@@@@@@@@@@@@@@@@@@@@@@@@@@@@@@@@@@@@@@@@@@@@@@@@@@@@@@@@@@@@@@@@@@@@@@@@@@@@@@@@@@@@@@@@@@@@@@@@@@@@@@@@@@@@@@@@@@@@@@@@@@@@@@@@@@@@@@@@@@@@@@@@@@@@@@@@@@@@@@@@@@@@@@@@@@@@@@@@@@@@@@@$$$$$$$**=-;;;;;;;;;;;;;;;;;;;-=***$$$$$@@@@@@@OOOOOOOOOOOOOO@OOO@@@@@@@@@@@$$$$$$**===;;;;;;;;;;;;;;;;;;-===*****$$##@@@@@@@@@@+++++++++++++++++++++++++&&&&&&&&&&&&&::::&&&&&&++++++++XXXX+X++XXXXXXXXXXXXXXXXXXXXXXXXXXXXXXXXXXXXoooo                                                                            ooXXXO@@@@@@@@@@@@@@++++XXXXXX.....XXXXXXX",
"               oooooXXXOOOOOOOOOOOOOOXXoooo                 ooooooooooooo                                   oooooXXXXooo      oooo        ooooooo                            .....      ......o.....................XXX..........++.++....++++..++.+++++++++&&&&&&&&&&&&&&&&&&&&&&&&+++++++++++++++++++@OO++++OOOO+O++O+++++++XXXXXX.......XXXX+@@@@OOOOXX.o                                                                                                                                                                                                        ....... .ooo....XXXX@@@@$$$$$@&@@&&&&@@@@@&&&&@@@@@@@@O+XX...                                                              .XXXXXXXXoo.....XXXXXXX..X+++++XX.o. o...  ooooooooooXXXXXXXXOXOOOOOOOOOOOO@O@@@@OO@@@@@@@@@@@@@@@@@@@@@@@@@@@@@@@@@@@@@@@@@@@@@@@@@@@@@@@@@@@@@@@@@@@@@@@@@@@@@@@@@@@@@@@@@@@@@@@@@@@@@@@@@@@@@@@@@@@@@@@@@@@@@@@@@@@@@@@@@@@@@@@@@@@@@@@@@@@@@@@@@@@@@@@@@@@@@@@@@$$$$$$***=-;;;;;;;;;;;;;;;;;;;-=**$$$$$$@@@@@@@OOOOOOOOOOOOO@OOOOOOO@@@@@@@@$$$$$$**===;;;;;;;;;;;;;;;;;;-===******$$#@@@@@@@@@++++++++++++++++++++++++++&&&&&&&&&&&&&::::&&&&&+++++++++XXX++++XXXXXXXXXXXXXXXXXXXXXXXXXXXXXXXXXXXXXXooo                                                                             XXXX+++@@@@@@@@@@@@++++++XXXX.....XXXXXX",
"             ooooooXOOOOOOOOOOOOOOXXoooo                   ooooooooooooo                                    ooooXXXXXooooo   ooo o        ooooooo                             ...... ... ...........................X...............+++...+++...+.++++++++++&&&&&&&&&&&&&&&&&&&&&&&&+++++@@@@++@++++++@@OOO@+++OOOO+++++OOO++++X+X....XX...XXX+@@@@@OOXXXoo.                                                                                                                                                                                                          ......... ......XX@@@@$$$$$$@@@@&&@@@@@@@@@@@@@@@@@@O+XX.o.                                                              oXXXXOXXX.o.....XXXXXXXX.X+++++XX....o     oo ooooooooXXXXXXXXXXXXXOOOOOOOOOOOOOOOOOOOOOOOOOOOOOOOOOOOOOOOOOOOOOOOOO@OO@@@@O@OOOO@@O@@@@@@@@O@@@@@@O@OOOOOOOO@@OOOOOOOOOOOO@@@@OOOO@@OOO@@@OOOOOOOOOOOOOOOOOOOO@@@@OOOOOOOO@@OOOOOO@@@@@@@OOO@@@@@@O@@@@O@@@@@@@@@@@@$$$$$$%*==;;;;;;;;;;;;;;;;;;;;==**$$$$$$@@@@@@@@@@@OOOOOOOOOOOOOOOO@@@@@@@@@@$$$$$***==;;;;;;;;;;;;;;;;;;-===****$$$##@@@@@@@@++++++++++++++++++++++&&++&&&&&&&&&&&&&:::::&&&&&&+++++++X+++++XXXX+XXXXXXXXXXXXXXXXXXXXXXXXXXXXXXXXXXXoooo                                                                           ..oXXX++@@@@@@@@@@@@@++++++XXXXX....XXXX",
"            oooooXXXOOOOOOOOOOOOOXXooooo                  oooooooooooooo                                    ooooOXXXoooooo   oooo o       oooo  o                             ...... ...............................................++++..+++....+++++++++&&&&&&&&&&&&&&&&&&&&&&&&&&++++++@+@@@@@@@@+@@@@@@@+@++OO@++++++OO++++X+XX...XXXXXX++@@@@@OOOXXooo                                                                                                                                                                                                           ........  .....XXX@@@@$$$$$$@$@@&@@@@@@@@@@@@@@@@@@@O+XXoo.                                                              .XXXXOXXX.......XXXXXX.X..+++++XX....o      o.ooooooooXXXXXXXXXXXXXXOXOOOOOOOOOOOOOOOOOOOOOOOOOOOOOOOOOOOOOOOOOOOOOOOOOOOOOOOOOOOOOOOOOOOOOOOOOOOOOOOOOOOOOOOOOOOOOOOOOOOOOOOOOOOOOOOOOOOOOOOOOOOOOOOOOOOOOOOOOOOOOOOOOOOOOOOOOOOOOOOOOOOOOOOOOOOOOOOOOOO@@@@@@@@@@@@$$$$$$$**=-;;;;;;;;;;;;;;;;;;;;===*$*$$$@@@@@@@@@@@@@OOOOOOOOOOOOOO@@@@@@@@@$$$$$$***===;;;;;;;;;;;;;;;;;;-===****$$##@@#@@@@+++++++++++++++++++++++&+++&&&&&&&&&&&&&&&:::&&&&&&++++++++++++++XX+++XXXXXXXXXXXXXXXXXXXXXXXXXXXXXXXXXXXoooo                                                                           .o.XXX+@@@@@@@@@@@@@@@@+++++XXXX....XXX",
"          ooooXXXXOOOOOOOOOOOOXXoooo                    oooooooooooo                                        ooooXXXOOOXXXoXoooooooo     oooo                             .        ....  .........................................++...++.+++...+++++++++++&&&&&&&&&&&&&&&&&&&&&&++++@@@@@@++@@@@@@@@@@@@@@@@@@@@@@++@@@@@@OO+++++XXXXXXXXXXOO@@O@@OOOXXX..                                                                                                                                                                                                              .... ......oooXXO@@@$***$$$@&@&@@@@@@@@@@@@@@@@@@@++XXoo                                                                XXXXXXXX........XXXXXX..XX++++XX...         ooo ooooooooooXXXXXXXXXXXXXXXXXXXXXOOOXXXOOOOOOOOOOOOOOOOOOOOOOOOOOOOOOOOOOOOOOOOOOOOOOOOOOOOOOOOOOOOOOOOOOOOOOOOOOOOOOOOOOOOOOOOOOOOOOOOOOOOOOOOOOOOOOOOOOOOOOOOOOOOOOOOOOOOOOOOOOOOOOOOOOOOOOOOOOOOOOOOOOOOOOO@@@@@@@@@$$$$$%**==-;;;;;;;;;;;;;;;;;;;;===**$$$$@@@@@@@@@OOOOOOOOOOOOO@O@@@@@@@@@@@@@$$$$$***==-;;;;;;;;;;;;;;;;;;-===*****$@@@@@@@@@@+++++++++++++++++++++++&&&&&+&&&&&&&&&&&&:::&&&&&&&&&++++++++X+++XXXXXXXXXXXXXXXXXXXXXXXXXXXXXXXXXXXXXXXXoooo                                                                            ..XXXXO@@@@@@@@@&@@@@++++++X+XXXXXXX",
"        ooooooXXXXOOOOOOOOOOOXXoooo                     ooooooooooo                                         ooooXXOOOOOOXXXXXooooooooo  o                                 .. .    .... .........................................++....++.+++...++++++++++&&&&&&&&&&&&&&&&&&&&&&&&+++@@@@@@++@@@@@@@@@@@@@@@@@@@@@+++@@@@@@OO++++XXXXXXXXXXOO@@@@@OOOXXX..                                                                                                                                                                                                               ....  .....oooXXO@@@$***$$$@&&@@@&@@@@@@@@&@@@@@@@++XXoo                                                                XXXXXXXX........XXXX.X...+++++XX....         o ooooooooooooooXXXXXXXXXXXXXXXXXXXOOXOXXOOOOXOOOXXOOOOOOOOOOXXXXOOOOOOOOOOOOOOOOOOOOOOOOOOOOOOOOOOOOOOOOOOOOOOOOOOOOOOOOOOOOOOOOOOOOOOOOOOOOOOOOOOOOOOOOOOOOOOOOOOOOOOOOOOOOOOOOOOOOOOOOOOOOOOOOOOOOOOOOOOOOOOOO@@@@@@@@$$$$$***==;;;;;;;;;;;;;;;;;;;;-===*$$$$$$@@@@@@@@OOOOOOOOOOOOOOO@@O@@@@@@@@@@$$$$$***==-;;;;;;;;;;;;;;;;;;-===****$$@@@@@@@@@@@++++++++++++++++++++++++&+++&&&&&&&&&&&&::&::&&&&&&++++++++X++++XXXXXXXXXXXXXXXXXXXXXXXXXXXXXXXXXXXXXXXXooo                                                                             .oXXXX+@@@@@@@@&&&@@@++++++++XXXXXX",
"       oooooXXXXOOOOOOOOOOXXXooooo                   ooooooooooooo                                           oooOOOOOOOOOOOOXXXXooooooo oo                                ....      ............................................++....++..++++..++++++++&&&&&&&&&&&&&&&&&&&&&&&&&@@+@@@@@@@@@@@@@@@@@@@@@@@@@@@@@@@@@@@@@@@@+++XXXXXXXXXXO+@@@@OOOOXXXo.                                                                                                                                                                                                                  ..    ...o..XXO@@@$***$$$$$@&@&&&@@@@@@&&@@@@@@+++XXoo                                                                XXXXXXXXoo.....XXXXXX....X++++X.X...      ...   .oooooooooooooooXXXXXXXXXXXXXXXXXXXXXXXXXXXXXXXXXXXXXXXXXXXXXXXXOOOOXXXXOOOOOOOOOOOOOOOOOOOOOXXXXXXXXXXXOXXXXXOOOOOOOOOOOOOOOOOOOOOOOOOOOOOOOOOOOOOOOOOOOOOOOOOOOOOOOOOOOOOOOOOOOOOOOOOOOOOOOOOOOOOOOOOOOOOOOO@@@@@@@@@$$$$$$**=-;;;;;;;;;;;;;;;;;;;;;==**$$$$$@@@@@@@@O@@OOOOOOOOOOOOO@O@@@@@@@@@@@$$$$$**===-;;;;;;;;;;;;;;;;;;-==*****$$@@@@@@@@@@@+++++++++++++++++++++++&&&+&&&&&&&&&&&&&&&::&&&&&&++++++++XX++X+XX+XXXXXXXXXXXXXXXXXXXXXXXXXXXXXXXXXXXXXoo                                                                              ....XXX+@@@@@@@@&&@@@@++++++XXXXXX",
"     ooooooXXOOOOOOOOOOOOOXXoooo                   ooooooooooooo                                             oooOOO@@@@@@@OOOXXXooooooooooo                              ......    .............................................+.....+++.++++.+++++++++&&&&&&&&&&&&&&&&&&&&&&&&&@@@@@@@@@@@@@@@@@@@@@@@@@@@@@@@@@@@@@@@@@@+++++XXXXXXXXO+@@@@@OOOXXX...                                                                                                                                                                                                                   .  . ......XXO@@@$***$$$$$$@@&&&@@@@@@@@@@@@@@+++X.oo                                                                oXXXXXXXoo....XXXXXX....XX++++X.....      ...   ..ooooooooooooooooooXXXXXXXXXXXXXXXXXXXXXXXXXXXXXXXXXXXXXXXXXXXXXXXXXXXXXXXXOOOOXXXXXXXXXXXXXXXXXXXXXXXXXXXXXXXXXXXXXXXXXXXXXXXXXXXXXXXXXXXXXXXXXXXXXXXXXXXXXXXXXXXXXXXXXXXXXXOOXXXXXXOOXXXXXXXXXXOXXXOOOOOOOOO@O@@@@@@@$$$$$***=;;;;;;;;;;;;;;;;;;;;;-==**$$$$$@@@@@@@@@@@OOOOOOOOOOOOOO@@@@@@@@@@@$$$$$$****=-;;;;;;;;;;;;;;;;;;===*****$@#@#@@@@@@+@++++++++++++++++++++++&&&++&&+&&&&&&&&&&&::&&&&&&&&++++++++++++XX++XXXXXXXXXXXXXXXXXXXXXXXXXXXXXXXXXXXXXooo                                                                              ..XXX+++@@@@@@&@@@@@@@+@++++++++",
"    ooooooXXXOOOOOOOOOXXXoooo                     oooooooooooo                                              oooXOOO@@@@@@@OOOOXXoooooooooo                            ....  ....................................................+....+++++++++++++++++++&&&&&&&&&&&&&&&&&&&&@@@@@@@@@@@@@@@@@@@@@@@@@@@@@@@@@@@@@@@@@@@@@@@+OOOO++XXXXOO@@@@@@OOOXXXoo                                                                                                                                                                                                                      ..   .....XXO@@@@*****$$$$$$@@@@@@@@@@@@@@@@@@XX....                                                               .oXXXXXX.oo.....XXXXX.....X.+++......      ...   ..ooooooo.ooooooooooooXXXXXXXXXXXXXXXXXXXXXXXXXXXXXXXXXXXXXXXXXXXXXXXXXXXXXXXXXXXXXXXXXXXXXXXXXXXXXXXXXXXXXXXXXXXXXXXXXXXXXXXXXXXXXXXXXXXXXXXXXXXXXXXXXXXXXXXXXXXXXXXXXXXXXXXXXXXXXXXXXXXXXXXXXXXXXXXOOOOOOOOOOOOO@@@@@@$$$$$***==;;;;;;;;;;;;;;;;;;;;;-==**$$$$$@@@@@@@@@OOOOOOOOOOOOOOOO@@@@@@@@@@@$$$$$$****=-;;;;;;;;;;;;;;;;;;==*******$$@@@@@@@@++++++++++++++++++++++++&&++++&&&&&&&&&&&&:&:&&&&&&&&&+++++++X+X+X+++XXXXXXX..XXXXXXXXXXXXXXXXXXXXXXXXXXXoooo                                                                               o.XXXX++@@@@@@@@@@@@+@@@++++++",
"    ooooXXXXOOOOOOOXXXXooooo                    ooooooooooooo                                                ooXOOO@@@@@@@@OOOXXXooooooooo                            ....  ....................................................+.....++++++++++++++++++++&&&&&&&&&&&&&&&&&&@@@@@@@@@@@@@@@@@@@@@@@@@@@@@@@@@@@@@@@@@@@@@@@+OOOOXXXXX+O@@@@@OOOOXXXooo.                                                                                                                                                                                                                      .   .....XXO@@@@*****$$$$$$@@&@&@@@@@@@@@@@@+XXX..                                                                 oXXXXXX.oo....o.XXXX.......X+..X....       ..     oooo  oooooooooooooooXXXXXXXXXXXXXXXXXXXXXXXXXXXXXXXXXXXXXXXXXXXXXXXXXXXXXXXXXXXXXXXXXXXXXXXXXXXXXXXXXXXXXXXXXXXXXXXXXXXXXXXXXXXXXXXXXXXXXXXXXXXXXXXXXXXXXXXXXXXXXXXXXXXXXXXXXXXXXXXXXXXXXXXXXXXXXXXXXOOOOOOOOOOO@@@@@@$$$$$***==;;;;;;;;;;;;;;;;;;;;;-==**$$$$$@@@@@@@@OOOOOOOOOOOOOOOOOOO@@@@@@@@@$$$$$$***==-;;;;;;;;;;;;;;;;;;===*****$$#@@@@@@@@+@+++++++++++++++++++++++++++++&&&&&&&&&&&&&&&&&&&&&&++++++++++++++++++XXXXX.XXXXXXXX.XooXXXXXXXXXXXXXXXXXoooo                                                                            ...XXXX+++++@@@&&@@@@@@@@@+++++",
"   oooooXXXXOOOOOXXXXooooo                      oooooooooooo                                                 oooOOO@@@@@@@OOOOXXXoooooooooo                          .....    ..........................................................++++++++++++++++++&&&&&&&&&&&&&&@@@@@@@@@@@@@@@@@@@@@@@@@@@@@@@@@@@@@@@@@@@@@@@@@@@@@@@OOOOX+@@@@@@@OOOXXXX.oo                                                                                                                                                                                                                        ..  ..ooXXO@@@$******$$$$$$$@&&@@@@@@@@@@@@+XXX.                                                                  oXXXXXX.o...  ....XXX.....X.++X......               ooooooooooooooooooooXoooooooXXXXXXXXXXXXXXXXXXXXXXXXXXXXXXXXXXXXXXXXXXXXXXXXXXXXXXXXXXXXXXXXXXXXXXXXXXXXXXXXXXXXXXXXXXXXXXXXXXXXXXXXXXXXXXXXXXXXXXXXXXXXXXXXXXXXXXXXXXXXXXXXXXXXXXXXXXXXXXXXXXXXXXXXXXOOOOOOOOOO@@@@@@$$$$$$**=-;;;;;;;;;;;;;;;;;;;;;-==**$$$$@@@@@@@@OOOO@OOOOOOOOOOOOOOO@@@@@@@@@$$$$$$$**==-;;;;;;;;;;;;;;;;;;===*****$$@@@@@@@@@@@++++++++++++++++++++++++++++&&&&&&&&&&&&&&&&&&&&&&&&++++++++++X++++XXXXXXXXXXXX....o.XooXXXXXXXXXXXXXXXXoooo                                                                              oXXXXX++++@@&&&&@&@@@@@@++++",
"  ooooXXXXXXOOOOXXXoooooo                     oooooooooooooo                                                ooooXOOO@@@@@OOOOXXXXXooooooooo                           ....      .........................................................+++++++++++++++++++&&&&&&&&&&&&@@@@@@@@$@@@@@@@@@@@@@@@@@@@@@@@@@@@@@@@@@@@@@@@@@@@@@@OOOXO@@@@@@@@OOXXXX.oo.                                                                                                                                                                                                                        ..  ..ooXXO@@@$*******$$$$$$$@@&@@@@@@@@@@@+XX..                                                                  ooXXXXX.....  .o..XXX....XX+++X....oo               oooooooooooooooooooooooooooooooXXXXXXXXXXXooXXXXoXXXXXXXXXXXXXXXXXXXXXXXXXXXXXXXXXXXXXXXXXXXXXXXXXXXXXXXXXXXXXXXXXXXXXXXXXXXXXXXXXXXXXXXXXXXXXXXXXXXXXXXXXXXXXXXXXXXXXXXXXXXXXXXXXXXXXXXXXXXXXXXXXXXXXXOOOOOOOOO@@@@@@$$$$$$***=;;;;;;;;;;;;;;;;;;;;;-===**$$$$@@@@@@@OOOOOOOOOOXOOOXOOOOO@@@@@@@@@@$$$$$$$*===-;;;;;;;;;;;;;;;;;;===*****$$##&&@@@@@@@@++++++++++++++++++++++++++&+&&&&&&&&&&&&&&&&&&&&&&++++++++++X++++XXX.XXXXXXX.....XX.ooooXXXXXXXXXXXXXoXoooo                                                                              ..XXX+++++@&&&@@@&&@@@@@@@@",
"ooooXXOOOOOOOOOXXXooooo                      oooooooo                                                        oooXXXXOOOOOOOXXXXoXoooooooooo                          .  ..  ....  .............................................+.+.......+.+++++++++++++++++&&@&&&@@@@@$@@@@@@$$**$@@$$$$$$$$$$$$$$$$$$$$$$$$$$$$$$$$$$@@@@@@@@@OOOO@@@@OO@OOXXXXoo...                                                                                                                                                                                                                         .    o.XX@@@@$*******$$$$$@@@$$@@@@@@@@@@++XXX.o                                                                 ooXXXXXX..  ........XXXX....++XX.o.                 .ooo..ooooooo.ooo.oooooooooooooooXXoooooooooXXooooooooXXXoooXXXXXXXXXXXXXXXXXXXXXXXXXXoXoXXXXXXoooooooXXXXXXooXXXXXXXXXXXXXXXXXXXXXXXXXXXXXXXXXXXXXXXXXXXXXXXXXXXXXXXXXXXXXXXXXXXXXXXXXXXXXXXXXXXXXXXXXXOOOOOOOOO@@@@@@@$$$$$*===-;;;;;;;;;;;;;;;;;;;;;==**$$$$$@@@@@OO@@OOOOOOOOOOXXOOOOOO@O@@@@@@@$$$$$$$**===-;;;;;;;;;;;;;;;;;;====***$#$@@&@@@@@@++++++++++++++++++++++++&&&&&&+++&&&&&&&&&&&&&&&&&&&&&+++++++++++XXXXX..XXXXXX...XXXX..XXoX.XXXXXXXXXXXXXooooo                                                                                o..XXX+++@@@@@&@&&&&@@@@",
"oooXXOOOOOOOXXXXooooo                       ooooooooo                                                        ooooXXXXXXXOOXXXXXooooooooooo                           .. ..  .... .............................................++++.........++++++++++++++++&&&&&&&@@@@$$@@@@$$******$$$$$*$$$$$$$$$$$$$$**$$$$$$$$$*$$$$$$@@@@@@OOO@@@@@OOOOOXXXXooo..                                                                                                                                                                                                                         .   .o.XXO@@@$********$$$$@@@@@@@@@@@@@@@++XXX.                                                                  ooXXXXXX..   .......X..X.X..++XX.oo     .            ooo  o oooooo.oooooooooooooooooooooooooooooooooooooooooXXooXXXXXXXXXXooXXXXXXXXXXXXXXXoXoXXoXXooooooooooooooXXXXXXoXXXXXXXXXXXXXXXXXXXXXXXXXXXXXXXXXXXXXXXXXXXXXXXXXXXXXXXXXXXXXXXXXXXXXXXXXXXXXXXXXXXXOOOOOOOOO@@@@@@@$$$$$$*==-;;;;;;;;;;;;;;;;;;;;;;==**$$$$$@@@@@@@@OOOOOOOOOXXXOOOOOOOOO@@@@@@$$$$$$$$***==-;;;;;;;;;;;;;;;;;;===***$$$##&@@@@@@++++++++++++++++++++++++&&&&&&++++&&&&&&&&&&&&&&&&&&&&+++++++++++XXXXXX..XXXXX....XXXXXXX.X..XXXXXXXXXXXXXoooo                                                                                .o.XXXX+++@@@@@@&&&&@@@@",
"ooXXXOOOOOOXXXoooooo                        ooooooooo                                                         oooooXXXXXXXXXXXooooooooooo                            . ..   ..................................................++++++++..++++++++++++++++++@+@&@@@@@@$$$$@@$$$$********$*$**$$$$$$$$$$$$$$$$$$$$$$$**$$$$$$$$@@@@@@O@@@@@OOXXXXXXXooo.                                                                                                                                                                                                                         ......oXXX@@@@$********$$$$$$@@@@@@@@@@@@@++XXo.                                                                  ooXXXXXX..    ..............++.X...     .             oo      oooooo..ooooooooooooooooooooooooooooooooooooooooooooooXXXXXXooXXXXXXXXXXoXXoooooooooooooooooooooooXoXXXXXXooXoXXooXXXXooooooooooooooXoXXooXXXXooooXXXXooooXXXXXXXXXXXXXXXXXXXXXXXXXXXXXXXXXXXXXXOOOOOOOO@@@@@@$$$$$$**==-;;;;;;;;;;;;;;;;;;;;;-==**$$$$@@@@@@@@@OOOOOOOOOOOOOOOOOOOOO@@@@@@@@$$$$$$**===-;;;;;;;;;;;;;;;;;;===****$$##@@@@@@@+@@++++++++++++++++++++++++&&++&&&&&&&&&&&&&&&&&&&&&&&&&&+++++++++XXXX.....XXX....XXXXXoo.o.XXXXXXXXXXXXXXXXooo                                                                                ooXXXXX++@@@@@@@@&@@&&",
"ooXXXOOOOOXXooooooo                       ooooooooo                                                           ooooooooXXXXXXoooooo                              ..    .... ...................................................+.+++++++++++++++++++++++++++&&&@@@@@@$$$$$*****************************************==*******$$@@@@@@@@O@OOOXXXXXXooo                                                                                                                                                                                                                           .. ...XXXX@@@$$*********$$$$$$@@@@@@@@@@@@++XXo.                                                                  o.XXXXXX..    ......o.....X..+.X...     .                       oooo   ooo....ooooooooooooooooooooooooooooooooooooooXoooXXooooXooooooooooooooooo.oooooooooooooooooXXXoooooXXXXoooXXXooooooooooooooXXXXooXXXXooooooooooooXXooooXXXXXXoXXXXXXXXXXXXXXXXXXXXXXXXXXOOOOOOOOO@@@@@@$$$$***==-;;;;;;;;;;;;;;;;;;;;;-==**$$$$@@@@@@@@OOOOOOOOOOOOOOOOOOOOOOOO@@@@@$$$$$$****==-;;;;;;;;;;;;;;;;;-===****$#@@@&&@@@+@@++++++++++++++++++++++++++&&&&&&&&&&&&&&&&&&&&&&&&&&&&+++++++++XXX++....XXXX.X.XXXX.ooo...ooXoooooXXXXXXXXooo                                                                                 o.XXX++++@@@@@@@@@&&",
"oXXXXXXXXXXooooo                        ooooooooo                                                                 ooooooXXXXoooo                                ....   .   .......................................................+.++++++++++++++++++++@@@@@@@@@@##*$*******=========**============-=----------;;----======*$@@@@@@@@OOOXXXXXXXoo                                                                                                                                                                                                                             . ...XXXX@@@$***********$$$$$@@@@@@@@@@@@+XXXo.                                                                  o.XXXXXX.o     ...oo......XX.+.X....                             ooooo oooo.ooooooooooo.oooooooooooooooooooooooooooooooooooooooooooo.ooooooooooooooooooooooooooooooXooooooooooooooooooooooooooooooooooooooooooooooooooooooooooooooXXooooXXXXXXXXXXXXXXXXXXXXXXXXXXOOOOOO@@@@@@$$$$$**===;;;;;;;;;;;;;;;;;;;;;;===**$$$@@@@@@@OOOOOOXXXOOXXOOOOOOOOOOOO@@@@@@@$$$$$****==;;;;;;;;;;;;;;;;;;;==*****$$@@@@&#@@@+++++++++++++++++++++++++++&&&&++&+&&+&&&&&&&&&&&&&&&&&&&++++++++XX+.+X....XXXX....X...ooo.ooXX.oooXXXXXXXXXooo                                                                                 ooXXXXX++@@@@@@@@@&",
"oXXXXXXXoooooo                        oooooooooo                                                                   ooooooXXooo                                  ...... ..  .........................................................++++++++++++++++++@@@@@@@##$***=======;;;;;;;;;;;===--;;-;;;;;;;;;;;;;;;;;;;;;;;;;;;;;;-=*$@@@@@@OOOXXXXXXXXo.                                                                                                                                                                                                                         .   . .o.XXXO@@@$*************$$$$$@@$@@@@@@@+XXX..                                                                  oooXXXXX..      ..o.......X..++.....                       o      o  o  o.ooooooooooooooooo.oooo.ooooooooooooooooooooooooooooooooooooooo.ooooooooooooooooooooooo..oooooooooooooooooooooooooooooooooooooooooooooooooooooooooooooooooXooooXoXXXXXXXXXXXXXXXXXXXXXXXXXOOOOOO@@@@@@@$$$***===;;;;;;;;;;;;;;;;;;;;;-==**$$$$@@@@@@@OOOOOXOXOXXXOOOOOOOOOOOO@@@@@@@$$$$$$****==;;;;;;;;;;;;;;;;;;-==****$$@@&&&&@@@+++++++++++++++++++++++++++&&&&+++&&+++&&&&&&&&&&&&&&&&&&&&++++++X++++X....XXXX........oooo.ooo....oXXXXXXXXXoooo                                                                                ..XXX+++++@@@@@@@&",
"oOXXXoooooooo                       ooooooooooo                                                                    oooooooooo                                     ........  ...............................................................XX+++++++++@@@@@##$**===;;;;;;;;;;;;;;;;;;;;;;;;;;;;;;;;;;;;;;;;;;;;;;;;;;;;;;;;;=*$$@@@OOOOOXXXXXX...                                                                                                                                                                                                                          .   .  ooXXXO@@$$*************$$$$$$@$$@@@@@@+XXXo.                                                                  .ooXXXXX..     ..............++X....                      oo             .. ooooooo.  oo..oo....o.oo.o..oooo....oooooooooooooooooooo....oooooooooooooooo.ooooo.o..ooooooooooooooooooooooooooooooooooooooooooooooooooooooooooooooooooooooooooXXooXXXXXXXXXXXXXXXXXXXXOOOOO@@@@@@@$$$$***==-;;;;;;;;;;;;;;;;;;;;;;==**$$$$@@@@@@@OOOXXOOXXXXXXOOOOXOOOOOO@@@@@@@@$$$$$$**===;;;;;;;;;;;;;;;;;;-==***$$$@#@&@@@@++++++++++++++++++++++++++++&++++&&&++++&&&&&&&&&&&&&&&&&&&+++++++++++XXX..XX...........ooo....o...ooooXXooX.oooooo                                                                               .oo.XXX++++@@@@@@",
"OOoooooooooo                        oooooooooo                                                                    ooooooooooo                                      .......  ....................................................+..........XX+++++++++@@@@##**==;;;;;;;;;;;;;;;;;;;;;;;;;;;;;;;;;;;;;;;;;;;;;;;;;;;;;;;;;;;;=*$$@@@OOOOOXXXXXooo.                                                                                                                                                                                                                          .   .  ooXXXO@@$$**************$$$$$$$$@@@@@@+XXXo.                                                                  .ooXXXXX..    ................X.....                                        oooooo..  oooooo. ..oo.......oooo...oooooooooooooooooooooooooooo.oooooooooo...oooooooooooooooooooooooooooooooooooooooooooooooooooooooooooooooooooooooooXXXXXooooooooooXXXXXXXXXXXXXXXXXXXOOOOO@@@@@@$$$$$***==;;;;;;;;;;;;;;;;;;;;;;-==**$$$@@@@@@OOOOOXOOXXXXXXOXOOXXXOOOOO@@@@@@@@$$$$$$$**=-;;;;;;;;;;;;;;;;;;==***$$#$#@@@@@@@++++++++++++++++++++++++++++++++&&&&++++&&&&&&&&&&&&&&&&&&&+++++++++++XXXXXX.........o..oo...o......ooooooX.oooooo                                                                                 ..XXX++++@@@@@@"
};
