/* XPM */
static char *_b9335527b5a4493fac3b8286d3a5cbbvHS5zscXnCxKbuPD[] = {
/* columns rows colors chars-per-pixel */
"64 64 129 2 ",
"   c #080700",
".  c #0D0A01",
"X  c #130F01",
"o  c #161201",
"O  c #1A1401",
"+  c #1C1902",
"@  c #201702",
"#  c #231C02",
"$  c #291F02",
"%  c #272102",
"&  c #2C2302",
"*  c #2F2803",
"=  c #312703",
"-  c #3B2602",
";  c #332A03",
":  c #392E03",
">  c #3C3404",
",  c #3E3A05",
"<  c #412C03",
"1  c #413403",
"2  c #4A3303",
"3  c #433B04",
"4  c #4C3B04",
"5  c #533702",
"6  c #513F04",
"7  c #5D3A02",
"8  c #663601",
"9  c #643E02",
"0  c #6D3C01",
"q  c #454205",
"w  c #4B4505",
"e  c #474906",
"r  c #4C4A05",
"t  c #514604",
"y  c #524B05",
"u  c #4E5206",
"i  c #4A5509",
"p  c #535106",
"a  c #595305",
"s  c #545806",
"d  c #5C5C06",
"f  c #53590C",
"g  c #585E0B",
"h  c #744202",
"j  c #7A4602",
"k  c #7E4A02",
"l  c #655D05",
"z  c #745704",
"x  c #705804",
"c  c #5F630B",
"v  c #5C6613",
"b  c #5F6813",
"n  c #636307",
"m  c #6E6806",
"M  c #67670B",
"N  c #6B6D0E",
"B  c #70710E",
"V  c #606D19",
"C  c #687016",
"Z  c #717214",
"A  c #75781C",
"S  c #7B7C19",
"D  c #5D6F20",
"F  c #687521",
"G  c #64772B",
"H  c #7B7C20",
"J  c #864C02",
"K  c #8B4B02",
"L  c #924E01",
"P  c #955201",
"I  c #985301",
"U  c #935B03",
"Y  c #A25501",
"T  c #A95600",
"R  c #A75A01",
"E  c #AB5A01",
"W  c #B25D01",
"Q  c #B85F01",
"!  c #8C7D16",
"~  c #A76302",
"^  c #B16002",
"/  c #BF6502",
"(  c #AF7003",
")  c #BA7E12",
"_  c #C46401",
"`  c #CB6901",
"'  c #DB6E00",
"]  c #DE7001",
"[  c #E37200",
"{  c #EA7500",
"}  c #EE7900",
"|  c #F47900",
" . c #FE7E00",
".. c #7D8022",
"X. c #7B8331",
"o. c #638040",
"O. c #8C8215",
"+. c #81801B",
"@. c #868422",
"#. c #86862C",
"$. c #8B8D33",
"%. c #919333",
"&. c #819040",
"*. c #8A9343",
"=. c #8A9C4D",
"-. c #969740",
";. c #9C9D45",
":. c #809351",
">. c #AAA64D",
",. c #A3A653",
"<. c #8CA370",
"1. c #95B17B",
"2. c #A3AE69",
"3. c #ADB26B",
"4. c #B4B877",
"5. c #9FB284",
"6. c #B9C084",
"7. c #B4C295",
"8. c #C5C58C",
"9. c #C8CF9B",
"0. c #C5D3A9",
"q. c #D2D7AB",
"w. c #CBDDC2",
"e. c #C5DDCC",
"r. c #D4DFCC",
"t. c #E0EBE6",
"y. c #E0EBE6",
"u. c #F0F5E6",
"i. c #F0F5E6",
/* pixels */
"3 S S Z n d d a a a a a a y y y y y y r y d d n p r r r q q 3 > > > > > 3 > : : > : > : ; : = = = = * * * * & % % & & % & * & * ",
"S ..Z +.8.%...#.-.> 1 1 1 1 > : > : ; d #.n d d N n n d p p r e e e q q 3 3 3 3 > e > 3 : = ; : : = = = = * * : = : : : > > : * ",
"S B a n y 3 1 : & = = = = = = * * = ; : N y 3 a N d > r > : : : : : : : > : 3 3 > : = > & & % $ # # # # # # # @ $ $ $ & : : : = ",
"n a a : o & & & & % & & & & % $ % $ $ $ & a n Z Z d w y p r r r q e q q > > > 3 > : : o . @ @ @ @ # + @ @ @ @ @ @ + @ @ & * * * ",
"m -.n O N &.=.=.&.F F V c F F F > : : : ; $ X o w d p d d p p 3 > 3 > > > > > * X X . . $ * = > : : > : : : : : : : = : % : : * ",
"m ,.n ; 4.q.u.u.0.4.3.-...7.0.w.: q e , > ; $ @ @ o o X X X X X X X . X X X X . . O % : e r : 3 > : : : : : : : ; : > e & > : * ",
"> 1 3 : a 3 w y a a n c d d p : * &.G o.i : : ; = $ & & * * & & & & % % % o . . O : r X.<.:.> 3 q > : : : : : : = : > 3 O : * & ",
"& & : : 4.2.6.3.r.7.7.r.5.e.5.5.3 6.<.e.1.r * : w S 1 p c 3 > > > > r > : r = % * q.;.q.u.9.a 3 r r = = = = * * * : q > . & # & ",
"& ; : : B n B B Z n n Z d N d M = w : : * $ O ; a #.3 n d p p e e e d > : e = * = w 3 a n a = 1 r e : : = = = : = : q > . O $ & ",
"& = ; ; $ @ @ @ @ @ @ @ @ @ @ @ o $ @ O O X . @ @ o & & & & & & & & % % % o . . # @ @ $ & & @ : e e e e q 3 3 3 3 > 3 > . X @ & ",
"$ a ; ; $ o o o o o o o o o o o . o o o X . . o ; * . . . . . . . . . . . . $ @ & $ o o o + o $ * * * * & & & & & & * $ . X * $ ",
"o $ & ; = . . . .   .         .   . . . . . o 3 N d % $ % ; : ; ; = # O o O s > > ; & o . . .                         . . . o o ",
"o & = = ; @         . . . . .     . . . . = ..Z -.H & ; : ; @ @ O O # : = 3 b s q > > = # X           . .           . . . . o o ",
"o = = = ; : & X X X o o o X . . . . . X 1 #.-.A p * o : r p e q 3 3 3 q > ; = r p e 3 > = & + X . . . X o X . . . . . . . X o o ",
"O = ; = : -.S a = @ $ @ O @ o X o o o 3 H M A w O o & : * ; : 3 3 : * % * : = * 3 s e > ; = * $ @ $ o o o o . . . X . . . o O O ",
"& w w = : d d a ; $ 1 : : = @ o @ $ w d Z M & X $ * : w H 7.&.F V V X.b 3 = & = $ ; w : : = * = & : $ @ % # . O + + O . X & = & ",
"= d w = : ;.d d w $ w y w 1 $ O & w n 3 w # o % w 0.t.H 3.N : : : : r e r f u > * & $ 1 : : = * * : = * ; % O > : = : . @ : : = ",
"= y 3 = : -.n n 3 $ w N B w $ @ 3 y y d $ X # S 8.r.$.,.,...*.X.b v g > s > q e > * & $ > > : * * 1 = ; : & @ 3 > : : . $ : : = ",
"= w w * : a d n = $ w M N 3 $ # a 1 : # . $ B u.4.n B 9.3.Z w : : > e f f > : > , : & & & : ; * & > = ; ; & # 3 : 1 ; . $ : : = ",
"& : ; * ; ; = = $ $ 3 a y : $ % N d ; . $ ;.d -.d Z #.> @ o X O O o @ @ = q , : > = : * & & * $ & : * : ; & $ = & % $ . % : ; & ",
"* ; & * ; & . . . # 3 a r : $ % = y o O @.%.y d d w $ o o @ * d r * = & @ & : : = = = = & = = = & : * : = & @ $ .     . @ : : * ",
"& = ; = ; ; $ o X $ 3 a w : $ * M & X 3 H y w d w O o * n 9.t.Z p e f 3 = & & : * = = = & * = : : : * : ; & o & $ o X . @ = * & ",
"* > : & ; 3 1 : : 1 3 y w : $ # 1 X * d d 1 w #.@ $ 1 Z r.9.Z M p : r e 3 3 & & = * = = & & = * @ = * = : & o : > > ; # % ; ; * ",
"& 1 ; % ; w ;.,.;.#.3 : ; ; $ . . X a N : > ! L 8 = Z M a 1 x ( ~ r > r y 1 $ L P * = * * % & $ . = * * * % # g g 3 ; $ & : ; & ",
"& 1 = $ ; y ;.-.;.$.1 ; : = # . % : n y 1 3 4  .{ > 3 d Z %.)  . .z q e : @ -  .[ * % & * % $ * & : & & = $ # g s % & % & : ; & ",
"% * & $ = w 6.a 3.2.1 1 1 ; @ X * : : : ; w $ '  .x 3 a B X.` [  .P > : * $ j  .E ; % & * # O # & : * = ; * = s 3 + & % & : * % ",
"$ $ $ $ = 3 ,.$.-.*.: 1 : ; @ X * = = : : 1 O Y  .U a Z d ; | ^ ' ` = : = * W  .j : % & % + O O & : * * ; = = e q @ $ $ & ; & $ ",
"@ & # $ = 1 w = y y ; ; : & O $ = : 3 1 ; ; o 0  ./ d y : 7  .k R | = = * # {  .- : * $ * % # o : : & & * & $ = $ @ O % & : * # ",
"@ & @ $ = : 1 : 3 3 = 1 w & O $ $ : 1 1 ; * @ 6  .} y w % P  .2 h  .9 * = -  .[ * 1 = @ * % $ o : : & : : & @ * $ O o $ * : * + ",
"O & @ $ * : : = > : * = : % o $ @ ; : : = & @ 1 ]  .5 : $ _ [ ; <  .P * = h  .R & ; = @ & & $ o ; = $ * = $ @ & $ O o $ & = & O ",
"O $ @ $ * ; : ; : : & * ; # o @ @ = ; ; = & O & R  .J ; & | W = * ' ` * = T  .0 # > : O % % @ X = = # % & # @ & % O o @ & ; & O ",
"O $ @ # & ; ; & ; = & & & $ o o @ * ; = * * @ & j  .Q = 7  .k = * R | ; & {  .= $ a ; @ $ $ @ . # = $ $ $ # O % @ O o # & = & O ",
"O $ + # & ; = = = = & $ $ # o . % * : > : = $ & 2  .{ = L  .2 ; ; j  .9 -  .' @ & %.% $ & & @ . $ = $ + $ + O % @ O o # $ = & O ",
"O $ @ # & ; = & = & % & & # o X % ; ; ; ; * & $ ; '  .2 _ { = = = 2  .K 0  .Y @ 1 S O % & # @ . $ = $ # & @ O $ @ O o @ $ * & O ",
"O # O # & = = & & & $ & = # o X % & = = = & * % * R  .J | W @ # $ @ [ _ T  .0 * %.; O $ % @ o . % = # $ & + O @ @ O o @ $ * $ O ",
"@ # @ # & = & @ $ & $ & & # o X $ & * = & $ = * % h  .[  .j @ $ @ O T | [  .- w Z O o @ $ @ X X & = # $ & + o @ @ O o # $ & # + ",
"# $ @ # & = @ o o O & & & # o # 1 % $ & = = & * = 1  . . .2 @ & & o h  . .' : 4.$ o # & @ o . > = = $ $ $ @ . X o o @ # $ & $ # ",
"$ $ @ # & & $ % $ % & $ @ # o # : = $ @ & = * & & : ]  .| = & & & O <  . .^ Z * o O & @ @ . @ ..& * @ @ $ @ X $ % % $ # $ * & # ",
"# % $ # & * = = = = $ $ @ @ o # : : * # & & * = $ $ : e > = & & $ $ = w %.H & O o & $ @ X $ a = = % @ @ # O o > 3 3 : $ % & & # ",
"@ & $ # & M -.-.w & $ $ @ @ o o = = : * $ $ $ @ ; & @ & > f G g a 3.8.S ; @ o O & @ @ o X w ; & # $ @ @ $ O X > > > : @ $ & $ @ ",
"$ $ $ @ % : 1 1 $ # $ @ @ @ o O & = & = * $ # = $ & = @ o @ # $ & $ @ o o o & $ O $ o . : > & : o # @ @ # @ X ; = = $ X $ & # $ ",
"& * & $ * ; > : @ O $ @ @ @ o O $ & $ : : * $ @ * & $ $ @ @ O O O O o o O $ @ # $ o . = 1 * ; O . # $ $ $ @ O = $ $ @ . $ * & & ",
"$ = $ $ & * & & @ O & & & # o O & $ * = * = = $ @ $ & @ $ & $ $ $ $ # $ @ # $ + X X * 1 = * $ o . $ $ @ @ @ # ; $ $ # . $ * & $ ",
"$ & @ # % = = = @ O & $ & $ o O & $ # & * = : : $ @ o @ $ & * * * * & $ @ O o . o ; : = $ $ o . O ; > > ; & $ * @ @ @ . + & $ $ ",
"@ & $ # $ & & $ @ o & $ $ # o O & & $ @ & = * = : * @ o X X o o o o o X X X X & : ; & $ $ o X ; * * w r = # $ $ X . . . @ & & @ ",
"@ $ # # $ @ . . . o & * & $ O O % & & $ @ $ & * * = ; * O X X . . . . X X & : : & & & $ o @ = @ 3 N C g p q : * $ O o o @ $ $ @ ",
"# $ $ $ & & # @ O $ = = = = % $ * & & & @ o $ & & = = ; $ * % # O O O @ $ ; = & & $ $ X X * $ a $.&.:.G F s 3 > & $ % $ % & $ # ",
"# & $ $ & a d r q r p q q r > > : : > : : @ X @ $ & & $ & ; 3 q q q 3 > % & & $ $ @ X . & & S ;.y.6.&.C g r q > : = $ % $ & & # ",
"@ $ $ $ & M N c p d d d d d q :.q g p u e # & O . @ $ @ # & $ O + O O = O # $ @ . . . # & y >.u.%.S 7.<.G f > : = & # $ $ & & @ ",
"@ $ @ $ & d n M a a n M c a 1 y 1 d p p q o $ % @ X . . # & : : : : : = o o O . . o # & * d O.@.>.8.y = % = > = & $ @ @ $ & # @ ",
"@ + O # $ X o @ . . . @ @ o .   . o o o o . @ % % $ O X # @ $ $ % % % $ . o $ @ + & & & : t l y >.1 @ & # O $ * $ @ O @ # $ o @ ",
"@ @ O # $ = : : 1 1 1 1 : : : = o @ X o . . O = * & & & * & d D D D D u X O $ % & $ @ $ ; 1 1 t 1 @ = = & # @ $ @ O o X + $ @ @ ",
"@ @ O @ $ & = = ; : ; ; & & & & # * : : % o O $ @ % 1 S 3 ; ..=.=.o.&.V O = > & % $ @ $ = ; ; : $ $ $ $ $ $ $ @ o o o O o $ @ @ ",
"@ ; @ # & & & & & & & & & & & $ @ = & & & X O $ @ & ,.8.a 1 $.5.1.<.<.G # > u = $ $ @ @ $ & & = @ o @ @ @ $ @ $ o o X X X $ & @ ",
"o @ o @ $ $ $ @ o o o o @ & @ @ o $ $ $ $ . O # @ & 4 w ; = 1 , > > > : o % & $ o $ @ @ $ $ $ $ @ o @ @ $ @ $ & o o . X . @ o o ",
"@ @ @ @ $ $ @ o . . . . . . . . . . . . . . O # @ $ $ & @ @ & & & & $ $ X o O O X @ @ $ @ @ @ @ @ @ O o o @ : + o X . . . @ @ @ ",
"# @ @ @ $ $ @ . . . . X . X X o . @ % & $ X O # @ $ @ @ + o @ @ @ @ @ @ . o o X . @ @ $ @ @ o + + + & ; : ; @ o X . . . . @ @ @ ",
"@ # @ @ $ & @ @ o o X o X X o o X $ & $ $ X O # @ # @ . . . + + + + + O   . . . X @ @ # # @ o X o o o o o o o X   . . . . @ @ @ ",
"@ $ @ @ $ $ & & @ @ o o o o o O o $ $ $ $ . O $ @ # $ @ . . o o o o o o     . . X $ O # # @ o   . . X X X . .     . . X . @ @ @ ",
"@ $ $ @ # @ o o o X X X X X X X . o o o o . O @ o # $ $ @ X .         . . . . . o O o # # $ o .                 . . . . . @ @ @ ",
"@ & * $ $ $ O . . . . . . . . . . X X X o o @ % $ % % & % $ @ . . . . . . . . o O $ @ @ @ @ @ o . . . . . . . . . X O @ @ & & @ ",
"@ $ $ $ & ; = $ o X X X o o o O @ & $ $ = ; ; = = & & & & $ $ O X X X X X o O @ * ; ; = & $ & $ O O o o X X X o @ & ; = & $ $ @ ",
"@ & & $ $ & $ @ @ o o o O + @ @ @ $ # $ = = $ & = $ $ $ $ @ @ @ @ O o o o o @ # * & & * & @ $ @ @ @ @ O o o o + $ $ $ $ $ & $ $ ",
"* @ $ = & & & & = = & & & & = & * ; ; ; ; & $ @ & = = = = = = * & & & $ % & = * & $ $ = ; ; ; ; & * & & & & = = & & & & & $ $ $ "
};
