/* XPM */
static char *c2c05919cb7e4d70c1f248cae6b59e07lDo7nGgjp8gylzl0[] = {
/* columns rows colors chars-per-pixel */
"64 64 100 2 ",
"   c #545253",
".  c #4C4A4B",
"X  c #524D4D",
"o  c #494545",
"O  c #524F51",
"+  c #595655",
"@  c #413D3D",
"#  c #454243",
"$  c #4A4748",
"%  c #656264",
"&  c #605D60",
"*  c #777578",
"=  c #5B575A",
"-  c #3F3E40",
";  c #5D5A5C",
":  c #605B5D",
">  c #3C3A3B",
",  c #181616",
"<  c #423F40",
"1  c #1D1C1B",
"2  c #151313",
"3  c #393635",
"4  c #343333",
"5  c #565559",
"6  c #312E2D",
"7  c #474749",
"8  c #47494B",
"9  c #242323",
"0  c #211E1E",
"q  c #6B696B",
"w  c #6A6769",
"e  c #787576",
"r  c #050403",
"t  c #130E0D",
"y  c #3F4043",
"u  c #57585A",
"i  c #33302F",
"p  c #2A2728",
"a  c #0B0807",
"s  c #706C6F",
"d  c #3A3738",
"f  c #666569",
"g  c #686567",
"h  c #5F5F63",
"j  c #2F2F30",
"k  c #716F72",
"l  c #7B777A",
"z  c #2D2B2B",
"x  c #6E6D71",
"c  c #67696B",
"v  c #737275",
"b  c #110F10",
"n  c #312F30",
"m  c #0E0C0B",
"M  c #2C2827",
"N  c #4E4E50",
"B  c #3C3837",
"V  c #22201F",
"C  c #292626",
"Z  c #211F20",
"A  c #45403F",
"S  c #55504E",
"D  c #5C524C",
"F  c #5A4F49",
"G  c #4D4946",
"H  c #544B45",
"J  c #625750",
"K  c #66584F",
"L  c #665952",
"P  c #534741",
"I  c #63554C",
"U  c #5D5046",
"Y  c #6B5F58",
"T  c #413A35",
"R  c #5A4D46",
"E  c #6E6158",
"W  c #6A5C53",
"Q  c #705F56",
"!  c #6E6056",
"~  c #72635A",
"^  c #68594F",
"/  c #74685E",
"(  c #50433E",
")  c #605147",
"_  c #716156",
"`  c #39322E",
"'  c #4A423E",
"]  c #403732",
"[  c #756960",
"{  c #918E92",
"}  c #989597",
"|  c #2F3031",
" . c #373738",
".. c #373838",
"X. c #89898E",
"o. c #848489",
"O. c #7F7F83",
"+. c #7A797D",
"@. c #474847",
"#. c #191817",
/* pixels */
"  . X . o . X O   O       X + o @ # $ % & * & X . = $ - # o o $ $ . . #         .   % ; ; # o . X . .   O .   . . X   : % = X $ ",
"> , $ = < , $ ; @ 1 . ; > 2 $ + # 3 4   o   5 < 4 1 . @ # o # @ # $ $ $ $ $ >   6 7 8 # o 9 o   @ 0 $ ; @ 1 . ; > , . ; > 2 o ; ",
"q % ; $ w % ; o q % % . q % ; $ ; $ @ # # # o $ o o $ # # # # > 3 > $ . $ o # # $ o $ # # $ o . e q & . q w % . q % % . q & ; O ",
"X q 4 r # % 4 r # % > t o w 4 r . % 3 7 # # y u > : i p > # o - # #     O   4 r O . . o .   4 2 + % 6 r # w 3 a . s d a # % 4 r ",
"% q   9 = f   1 ; q ; 6 : g   1 ; q   # h ; h q . % . 1 o $ > j # . # 1 $ ; $ 2 ; ; ; % + % = 9 & %   1 ; q = 9 ; q ; 9 ; %   1 ",
"$ 6 ; k X 4 ; k $ 6 % l   z = q $ 6 ; % $ h f x % ; % & h   5 ; c x v % w q ; % ; ; =   # 4 : s . 6 ; q . i ; k . 4 % v . 6 = v ",
"p r # w 6 a o q p r o q 4 a > % p r < % z b > ; 6 1 o ; n m > = z 2 y = 6 2 @ ; z b d ; M r # g 4 r < % 6 r < % p r # % z r < q ",
"= o % w % o % w : $ % % : $ & %   $ % % ; $ ; ;   $ % g ; . & w ; $ ; & + . % q ; $ ; & % . & % ; $ & % ; . % % ; . % q % X w q ",
"+       +   ; ; ;   +     O     . .   O O   . . . . O O     O           O   + +     O O +     +     O . O         N       = ; ; ",
"o # # o o o $ $ $ . X . . $ o # o # # # < # # > < # o o o o $ $ $ $ $ $ o $ . . o # # o $ $ # o # o # @ o # o o # o o o o . X . ",
"4 i n 4 4 4 4 4 3 > > > B 3 4 4 4 z z 4 z z z z z z 4 3 4 4 3 > 3 d d 3 4 4 4 4 4 4 4 4 d d 4 4 4 4 4 4 4 4 4 4 4 4 4 4 d @ d 3 ",
"9 V 1 9 1 1 1 1 1 0 9 C C C V V 0 0 1 1 1 1 1 , 1 1 1 1 1 V 9 9 9 9 9 9 Z 0 1 1 9 9 9 9 C C 9 9 9 Z 9 9 V 9 M M M 9 9 9 C C 9 C ",
"# o o o o > 3 3 4 4 @ @ 3 A A o @ @ > > d d 4 z 4 4 3 > d > @ > # > # # # - > > > # # @ o # # # # # # # o o # # # # # # $ . # o ",
". X S + D F # > 3 3 > @ @ > . S G X X o # o > 4 > > # # o $ . $ $ o . . $ $ o o # o $ o . X X S + O   X F + X o $ $ X O   . X D ",
"F D S D D D F B > 3 > 4 4 M 4 X D D D X o o o o # < # # o o $ . $ $ . . o o o # > > d > > > 4 H D D D F F + D o < > o # X $ # F ",
"D J D D D K D H 3 p z C C 9 9 M D L D F D D D D A > > X $ o o $ $ . . G H H P X > 4 4 4 4 4 p M F D D D D D I I < 3 4 # # > d 4 ",
"o D D U F D D I D i C 9 9 9 9 9 p D L Y J L L L L A > @ # # > # # X H H F D D D L T 4 6 4 z p p p R K K K K L J D > 3 4 4 3 6 6 ",
"3 3 H D D I D D D H 6 9 9 p 9 C C i D J J E W L W L o > d 4 z > @ A X H D D I I L L @ 6 M C C 9 9 M R L K K W W L J @ 4 4 6 M z ",
"4 4 4 H U D F H D D R i M C C C C C 4 F L W L W Y L + @ 4 4 z 4 o @ > G U D D I L Q W B p C 9 9 9 9 p H I K L ! L L D @ n 4 z 4 ",
"> 3 4 6 P D I D D D I I 3 C C 9 C 9 C 3 D L E L Y L I D > 4 z 4 > # 4 3 H D I I L Q ~ ~ 4 9 V 9 9 9 9 9 H I L L W K I D T 3 4 4 ",
"# > 6 z 3 R L L L I I K I 3 9 9 C 9 C 4 > D Y W W Y L D U B 4 < @ > 4 6 M R K K L W ~ ~ K 6 0 0 9 9 9 9 C P I I L W L L L o B 3 ",
"> 4 3 4 B T F L L K K ^ ! L 3 C 9 9 p 4 > @ J W E ~ W I D F o d 3 @ B 6 C 6 H I ^ W ~ W L R M 0 9 9 C 9 9 M H I K L L L W J @ 4 ",
"> > > 3 4 4 3 U I L L L ! W I i C M p 4 > @ A L / / ~ I I F D o @ > 3 3 z p M ( ) W _ W W I R 6 9 Z 9 9 9 C 3 F L L L J W W J 3 ",
"T 3 6 4 6 3 3 B U K L K W W L I ` C C 6 T @ A o Y ~ W I J I I L o d 4 4 M 9 Z 9 ( I L W W L ) R M 9 9 0 9 C 6 3 J L W L W ~ / W ",
"D T 6 6 6 6 6 4 4 U K K ^ L K I I ` C C 4 > @ 6 B L W W W L W L J > 3 4 C 9 9 1 9 ' ) I I I K I U 6 9 9 C M 4 B 3 U Y W L E W ! ",
"J U 3 6 6 M M z 6 B I D I L L I K I T C n 6 6 M 6 3 F L W ~ E L L J @ 6 6 C 9 9 9 C P I K K K I ) R ` C C C 6 d 4 3 I W W W W W ",
"I D H B 6 C M C M 6 6 ' R K ^ K L I D i C C M M C C 6 H E W W L K W L B 6 M C C C 9 C H I U I I I K R 6 C p 6 d 3 4 > I L W L K ",
"! W I D 6 9 9 9 9 z 9 C P I I I K I I R M M 6 M C C C 6 I K L W W W W L ] 6 M M C 9 1 V ' R I ) I K I F 4 4 4 @ 4 4 4 > L W W L ",
"/ W W K D 6 C 9 9 C C 9 M H I L L K I I F 3 3 M C C z 6 6 F K L L ^ K W W ] 6 C 9 0 0 1 9 H ^ L W I D S X # # > d 4 6 > @ L ~ E ",
"[ W L I L K @ 9 C C C C z 4 H W L L K F I I ' M p 4 M p M i R I K I K K ! D 3 M 9 0 V 9 0 6 R ^ L J D   +     . # > 3 > 3 B J ~ ",
"E W L L L W L 3 p z M 6 C z 3 J J L I I L W L T 3 i 6 n 3 z 4 F D D I K K I U 6 M C 9 V 9 C B D + + S + + + ; ; o o A A > @ ' W ",
"W L L L F I K D o B 4 p M 4 4 4 D L I I I L J D > 4 4 4 3 i 4 d H H U + W W L D > @ 4 4 z 4 4 > X S   +   ; : % ; +   . @ A # @ ",
"A J L W I I D J / o > n > 4 i 3 d D J J J L I D H d 3 @ @ > 4 4 4 o X S J S D U X T > o # d > # o $ $ $ . O       ; ; + o o @ A ",
"@ @ D J D D D J Y Y   # > d > > @ # F + L J J + + + o o # < < # > < o X X X F X D   . $ $ # o o o $ $ $ . X   O X X . X # @ @ o ",
"B 4 4 @ ' ' ' A ' o o @ 4 n 4 d > 3 4 A o o o o X X o > 4 4 4 4 4 4 d > > > @ # o o # # # @ > d 4 d 3 d > @ # < @ @ < @ > > @ @ ",
"> 4 4 4 d > @ @ @ # # # > @ > > > d d d > < @ @ o # # @ 4 4 4 3 4 4 4 4 z z 4 4 B d > > > d 3 4 3 d d d d d > # o X . # # # # o ",
"> 4 4 4 4 4 4 d d 3 4 4 4 4 4 4 6 z p C p M M M 6 6 M 4 M p 6 z p p p z p p z z 4 4 d d > d d 4 4 4 4 4 4 4 4 3 > A > 4 i 4 4 3 ",
"    . . . $ X . o # @ # o $ o # . $ # > # # # # # o G o o < > > > > > < # # o < # o o $ X X . . $ $ o $ $ $ o . X   X X . O O . ",
"+ +     X O   X . $ $ $ O ;   . X   . . X . $ . . . O O X $ < > > # o o o $ $ o o $ $ $     X O O . . . . . . . X O   =       O ",
"                  O O         . O           O X . . . $ o > > .   3 > o o $ $ o $ . O     +         N N O           + + +     O ",
"; ; u ; ; ; ; h ; ; h q % % h & h h h ; ; ;   $ # # 7 # d # = { } . # d > # o o .   ; ; ; ; ; ; ; & & % & % ; ; : ; ; ; h ; ; ; ",
"  . C z z j j | p z 4 4 | 4 4  .z 4 4 i 6 z p % O < o .   O #   w o o # + + . X   p p z z z z 4 p 4 4 6 4 i 6 4 z 4 4 4 j z & ; ",
"f   4 d > > > > ..> > - > $ $ 7 d y > > > d 4 > # < o G O $ < z 6 # $ <   o o o 3 4 4 > > d > > d > > d > > > > d > > > > d ; ; ",
"% . z 4 ..> > > 4 d > > # o # # d d d d > 4 z 9 # o o d 9 9 > # @ # 9 9 d $ o O 1 n 4 3 > d d d 4 4 B d d > > > 4 > > d d 4 . ; ",
"  7 C 4 4 >  . .| d > > > > > < > d d d  .4 p 4 # $ 4 1 9 9 3 o > d 9 9 1 .   w . p z 4 4 4 4 4 4  . .4 4 d 3 3 4 d > d 4 z . ; ",
"S 7 C n 4 ..4 4 z 4 4 4 4 d d @ > > d 4 4 p 3 # > 6 1 # x . # & & - # f $ Z d % w $ p 4 4 4 4 4 z 4 4 4 4 4 4 4 4 4  .d 4 p .   ",
"  . C 4 4 4 z z p j z n z 4 d > d > d 4 z B + . 4 1 > f X.p # = v $ C w % . 1 @ .   > p 4 4 4 4 z z p p p z 4 4 z 4 4 d 4 C .   ",
"; O C 4 4 4 y $ # 6 O g . $ # .. .d 4 j d S ; @ , # h o.X.p $ = q . 9 g + + o 1 3 # . < z 4 4 4 p d . . o o 6 d ; ; z 4 d p   = ",
"; N 9 z z p # 6 3 % + X . X o 4 z j p 6 @ X > 1 1 % ; % O.9   % w   9 + X .   1 , 6 @ T o p p p C # G . + = X 4 4 > p 4 6 p % & ",
"; ; C z n p z z 3 d   . . X o . 9 C p 4 >   9 C 1 = . N x p f % h ; 9 . o . ; 9 9 0 # @ + > C 9 4 # # o o . 6 6 4 z C z z M h h ",
"; w . p z p C 4 > 4 n # 3 # o . 3 6 z z 4 # z 9   q     % p f % % . 9 N $ . . . V p 3 3 # > > 4 > 3 3 6 4 z M 4 d 9 C z p   & h ",
"  ; % ; ; h &   @ 4 0 9 3 O f g ;       5     ; +.* ; h   @ g   =   4 N 8 .   h 5 & ;     ; q ; & ; $ 4 C p M < % f h 5 ; w % f ",
"; ; h ; % q %   # > 9 9 C 4 $ & +   .   5     ; & ; h = o . ; # # 3 >   8   N % % % %     = ; % 5 $ d p z 6 3 N f %   5 ; ; ; h ",
"; ; > p p z C > ;   d p C p 4 . O O . . O ; h f f ; ; ; @.o . o . > - # > N   ; x q ; 5 % ; ; ; X > M C z d . q $ p p p C > % % ",
"%   9 j 4 z z p C M 3 > z p d . # ; ; + = $ d d 4 . f   # > > > > > < o d   O 3 # > $ f q % ; X @ 3 4 i i 4 C p C z z j z 9 5 h ",
"% 5 9 4 4 4 4 z 9 4   . < 4 < > $ X ; + $ d # # @ . % 5 > 3 d C 9 d # # o . d > o o 4 % +.= o > 3 o 4 # 3 # 4 9 z 4 4 4 4 C 5 f ",
"w   1 9 9 C 9 1 # # $ o # 4 # 4 $   . # > > # # o ;   2 > d d # d 4 > # 2 d 3 4 # o o 3 ; . B # 3 . B 3 @ # #   1 C C C 9 9 h q ",
"f f   ; % % % %   - $ # < 6 # > o . o 3 # # o G $ O $ 1 > > < o # > d # 1 < > d @ # o > 3 # > o A $ 6 @ # # > q v h h ; ; ; k q ",
"h u   % q & % & N # $ $ < 4 y >   #   $ $ X o < < o . 1 z > # $ $ . o z 1 #   # $ o . # @ # $ ; # . 3 # o @ > . ; h % ; ; ; % v ",
"h . 7 o $ . $ . # # # $ < > N # < > X . < > > > V 4 d 1 1 4 d @ $ O $ #.1 @ 3 C ; G o o @ o @   =   < o @ # # O 5 $     7 o $ x ",
"& < @ @ < < $ $ # # $ o < # $ > d # # > . o > > @ > > @ < 3 4 # o $ # . $ @ A @ & # # < 4 # o # # . @ o @ @ # . . ; %   > > < q ",
". @ # @ # @ @ @ < < o $ X   $ # O . ; . @ o > # < # o o X > d @ o > @ . # > B > . > < > o   # A > o . O . o # # @ < X . # A A . ",
"o o . o $ . . .   o o . . . o > . O ; & . # > # @ o . . . o > > @ > # @ $ # > > # o > o & ; o @ B d o o . . o # < # . . # o . o ",
"O X F # # $ o $ # o . .   . $ o   $   % q   @ $ @ o o < # $ # # . @.  . S X $ . o < # ; % . @ $ # # # . . o o # o # . + X $ o $ "
};
