/* XPM */
static char *_1747753474[] = {
/* columns rows colors chars-per-pixel */
"512 512 256 2 ",
"   c #050302",
".  c #0B0503",
"X  c #0E0906",
"o  c #0C0608",
"O  c #0E0909",
"+  c #060408",
"@  c #130604",
"#  c #150906",
"$  c #1B0B05",
"%  c #150C0B",
"&  c #1B0D0B",
"*  c #170606",
"=  c #1C110E",
"-  c #19100A",
";  c #1B0F10",
":  c #160D10",
">  c #1C1211",
",  c #171111",
"<  c #230D05",
"1  c #230E0B",
"2  c #2A0D06",
"3  c #23110E",
"4  c #2B130C",
"5  c #291207",
"6  c #32150C",
"7  c #3A160C",
"8  c #34190E",
"9  c #3B1A0D",
"0  c #361306",
"q  c #241412",
"w  c #2A1613",
"e  c #271815",
"r  c #2D1916",
"t  c #2C1B19",
"y  c #271719",
"u  c #321613",
"i  c #321A15",
"p  c #3B1C13",
"a  c #331D1A",
"s  c #391E1B",
"d  c #381713",
"f  c #2C0E0A",
"g  c #35201D",
"h  c #3A211E",
"j  c #3C2115",
"k  c #351E20",
"l  c #362220",
"z  c #3D2421",
"x  c #3E2824",
"c  c #431B0D",
"v  c #471A0B",
"b  c #431D13",
"n  c #471E16",
"m  c #531D0D",
"M  c #57220D",
"N  c #442115",
"B  c #4C2314",
"V  c #43231C",
"C  c #4B251B",
"Z  c #4C291D",
"A  c #532414",
"S  c #542A1B",
"D  c #5B2B1C",
"F  c #582717",
"G  c #502613",
"H  c #622D1C",
"J  c #662B16",
"K  c #752D16",
"L  c #68321C",
"P  c #77341B",
"I  c #68270C",
"U  c #422623",
"Y  c #462926",
"T  c #4A2B26",
"R  c #462B29",
"E  c #4C2D2A",
"W  c #492624",
"Q  c #532C24",
"!  c #522E2B",
"~  c #5A2D24",
"^  c #4E302C",
"/  c #4F3027",
"(  c #53312E",
")  c #5A332D",
"_  c #5B3125",
"`  c #563431",
"'  c #5A3633",
"]  c #5E3935",
"[  c #5E3A39",
"{  c #593736",
"}  c #503031",
"|  c #632E22",
" . c #633223",
".. c #6A3423",
"X. c #67372B",
"o. c #743A24",
"O. c #7B3C24",
"+. c #763928",
"@. c #623633",
"#. c #613A36",
"$. c #6A3B34",
"%. c #643C39",
"&. c #693F3B",
"*. c #673636",
"=. c #733D36",
"-. c #752F21",
";. c #401F20",
":. c #7C412B",
">. c #66403C",
",. c #6B413E",
"<. c #6A4136",
"1. c #72433D",
"2. c #7A4437",
"3. c #6D422D",
"4. c #6E4340",
"5. c #6A4542",
"6. c #724542",
"7. c #764945",
"8. c #7A4A46",
"9. c #7D4C49",
"0. c #794845",
"q. c #7E514D",
"w. c #693F40",
"e. c #87371A",
"r. c #93391A",
"t. c #863C25",
"y. c #933D23",
"u. c #A43D1B",
"i. c #84432B",
"p. c #8B452A",
"a. c #97472A",
"s. c #884836",
"d. c #934B33",
"f. c #984D36",
"g. c #9A5239",
"h. c #8E5138",
"j. c #A64928",
"k. c #A54D33",
"l. c #A75639",
"z. c #B75A39",
"x. c #B44F2A",
"c. c #B9613C",
"v. c #A2441D",
"b. c #C65B37",
"n. c #D0572E",
"m. c #C7633C",
"M. c #D7653A",
"N. c #CF602B",
"B. c #E86739",
"V. c #FD753B",
"C. c #F66A36",
"Z. c #E15829",
"A. c #824E4B",
"S. c #854C45",
"D. c #84514D",
"F. c #8A534C",
"G. c #985547",
"H. c #865350",
"J. c #8B5552",
"K. c #8E5955",
"L. c #925A55",
"P. c #945C59",
"I. c #985C58",
"U. c #8F4E46",
"Y. c #A85A45",
"T. c #B65D43",
"R. c #A45D56",
"E. c #9C615D",
"W. c #BA6447",
"Q. c #AF6555",
"!. c #A66764",
"~. c #B6706B",
"^. c #9D6362",
"/. c #C76848",
"(. c #D66B47",
"). c #D9734C",
"_. c #C76C53",
"`. c #CB7257",
"'. c #D87656",
"]. c #D26F51",
"[. c #E7754A",
"{. c #FB7948",
"}. c #E77A57",
"|. c #F87C54",
" X c #EA6D44",
".X c #CF796A",
"XX c #DB7156",
"oX c #FF8A3C",
"OX c #FF854A",
"+X c #EB825C",
"@X c #FE8354",
"#X c #FF8B5C",
"$X c #FB8758",
"%X c #FF955A",
"&X c #FF9548",
"*X c #FFA758",
"=X c #FFB257",
"-X c #EA8465",
";X c #FE8C63",
":X c #F88967",
">X c #FF9363",
",X c #FF9B64",
"<X c #FF946B",
"1X c #FF9B6B",
"2X c #F6916E",
"3X c #FF9C73",
"4X c #FF9877",
"5X c #F38C75",
"6X c #FFA36C",
"7X c #FFA868",
"8X c #FFB768",
"9X c #FFA473",
"0X c #FFAB74",
"qX c #FFA47B",
"wX c #FFAC7B",
"eX c #FFB37C",
"rX c #FFBB7C",
"tX c #FFB574",
"yX c #DB8169",
"uX c #FFC66A",
"iX c #FFC679",
"pX c #FFD578",
"aX c #FFD16E",
"sX c #FFCA67",
"dX c #FFAC83",
"fX c #FFA885",
"gX c #FFB483",
"hX c #FFBB84",
"jX c #FFBC8B",
"kX c #FFB48B",
"lX c #FFBB93",
"zX c #FFA992",
"xX c #EF9589",
"cX c #FFC384",
"vX c #FFC38C",
"bX c #FFCB8C",
"nX c #FFCB84",
"mX c #FFD589",
"MX c #FFC493",
"NX c #FFCB93",
"BX c #FFCC9B",
"VX c #FFC49B",
"CX c #FFD394",
"ZX c #FFD39C",
"AX c #FFDB99",
"SX c #FFE599",
"DX c #FFE68D",
"FX c #FFCBA3",
"GX c #FFD4A3",
"HX c #FFDBA4",
"JX c #FFDAAB",
"KX c #FFDAB4",
"LX c #FFE4A9",
"PX c #FFE6B6",
"IX c #FFF3AE",
"UX c #FFE9C2",
/* pixels */
"a l k a ` >.,.>.>.' >.] ,.>.#.#.#.] ] ] { ' ( ] ( / R z ` ` ^ ^ ,.( ` ' ` U R ` #.` ` %.E %.' @.` ` ` ` [ ] %.` ^ %.` ` [ ] %.%.,.,.#.] ] %.%.,.&.6.{ ,.) %.%.] ' ] %.#.%.,.,.<.#.] ,.] ] ' #.#.$.>.^ R [ ( ^ T ` E ! ' ` E ! ' ` %.E ` R R ! %.%.' #.) ` #.&.,.6.' ] @.[ %.%.&.#.#.#.#.,.] %.#.%.1.1.<.>.>.1.>.` ' ^ ( ' ` ( ` ' >./ ( ^ ^ ( T ( ^ ( ^ E ( Y x z U ( ( Y ,.' ) ] ' ' >.>.' ( ^ ` ] ( >.] ,.,.^ ^ #.E E ] ,.] ( ^ ( ' #./ ( h / T h ^ x ^ ( >.#.] ( #.%.,.%.<.#.^ ` ' ` ' ^ #.U Y / h ` ( ` Y / ` ' ' ( #.( >.8.%.] ' ] <.>.,.6.7.#.] ^ ( ` ] ^ T U Y / ^ / ( ' ( T ( Y ( ^ ` ( T ] R ] #.@.%.' ' #.' <.>.>.<.<.{ ` / ^ T ` [ x h t t ` ` ^ ' #.( ^ T x h h ^ ( ( ^ ` ( %.] ] ` ] ( ^ ( ( ( ( Y ( T Y ' >.] ` ] ] ) T T >.,.,.<.>.( ,.` ] @.#.] %.] &.#.1.,.] >.#.%.#.] ( ) ] ] ( h Y #.] / ^ ' E ` ' ! ^ ( T ( ( T R g U Y ^ ` ' ` ` ( [ ] ,.%.' ` E ( ( ' #.] ' ,.<.#.%.&.&.,.1.&.%.%.%.&.#.' ' ( { { E T ` ( ( E ( U h R / / ^ ` ] / ^ T U R ( #.[ Y ( / Y / Y ` ' ` ' Y / / ^ g Y Y ` / h ` ' ^ ^ >.#.( ,.>.] ,.] 7.7.&.8.%.%.U h U a z z a ",
"z l k x #.>.6.4.6.>.>.>.] ' ] #.%.] #.#.' ^ %.] ( ) E E #.( E E ] ] ' #.` ` ! ! 4.4.%.{ ` ' ] ( %.' ` ! ,.%.,.` ^ ` ` ' %.%.%.] 6.] #.] #.` ( %.1.8.` ` #.] ] #.' ] #.,.#.1.' @.' %.>.<.' >.,.' [ U ` #.' ( ` T ( E ( ( R ( ] ] %.E ' E ! ` E %.' Y ] #.' ,.,.%.' ^ ` ` ] ` ' %.,.' %.6.>.#.] #.,.1.1.] { ,.<.] ` T U ( [ ' ( ' Y ` / ` T T ^ ] #.] ` ` ( T T Y T E ( ' ( ,.E g ] ' ) #./ ,.<.6.] ` ( ,.7.9.#.' ( / ' ( #.6.>.,.' ( [ h ' >.( ( g Y / / ( ] ` #.,.( ,.1.,.Y [ <.` ' <.' ' ( ( T Y h / / >.Y g ] ` <.<.] >.,.<.6.,.] ^ / >.#.,.,.#.6.#.^ Y / ` Y U x U T ^ z ] ' ( ^ ` #.' E ^ ( Y E ! %.&.&.,.] ' <.<.' ` { 1.` ` [ ` ` / >.' Y j g Y / ^ x ` [ ( T ( Y g U Y ] ,.' ] ` ' @.' ' ( E ( ( ' >.T Y ^ ` ' >.>.' ( %.( ] ( ^ / ] ,.,.>.` ( ' #.%.' #.%.%.%.%.6.' ' ' <.` ` ( >.' >.( U / { ` ` ` Y R ! Y Y z ( ] ( ' Y ( h Y Y ^ ( R ( ` T ( >.] ,.( ` ( ( %.( ' ` <.' >.,.] >.#.%.6.,.6.' ` %.] ] ! Y E #.` ( E ( T Y ^ ( U Y / ` ' ` ( ` / R U Y Y T ' ] >.#.h h ` ^ / ^ / ' >.,.T h x ( >.#.` ^ ) Y ( ( >.#.' [ ( ] #.[ L.%.4.>.6.7.U U R a a y w ",
"l x x ` { ^ ^ { >.[ { >.<.] %.! E ` ] ' E ( #.{ ( ( ( ` E ' ( ' %.' ` ` [ R ! ( %.] #.' ( %.%.#.' ( ` ] 6.%.` R ( ^ ( ] ] [ %.,.,.%.%.#.#.] ( %.6.{ ' #.1.@.] #.#.' ,.%.] >./ #.<.#.] ,.( ' ( E ( T ' ^ x ' ' Y ' ' ] ( Y ] ( E U ( ' E ! E ' [ %.` E R %.] %.' E E ( ^ ' R ! ` >.] ) >.#.<.,.>.7.` >.' <.1.' #.^ E U ( ' ( ( ( ' ( ^ Y / [ ' ( ( ` <.( T ( ( ^ ( ,.6.] ( ^ z ^ Y ( ( E / ( ] >.%.' ` ,.[ ) #.( ( >.] [ #.#.>.' #.>.' ' ,.' ( ( Y ` [ ' ] T ,.,.#.&.' [ [ / ( ` >./ ' ' ` ^ ) E g / T ( ^ / h ' ,.] 6.,.,.6.] ,.#./ ( ( >.#.' ] ( ' ] ) x R R h z T ( ( ^ ^ ` R ^ / ` ` ^ T ^ E U ( ' #.] #.( ,.{ ` #.` #.#.#.Y ` ` ` ^ ` ] R U g h T h T Y Y %.R Y ^ T t T ^ #.,.} ] ( &.%.&.` ( ( ' %.{ ^ V ^ R ( ' ] ] <.' ' #.' ` ( Y ` ' ,.( ` [ >.%.#.] ' @.%.@.] #.T #.#.` ' ,.( ` U ^ T h ` Y / #.` Y ( ] ! E Y ] ^ ^ z Y ( V ^ ^ ( ^ ' ` Y Y ' #.#.] / ^ ^ E ' ] ( ( >.] #.%.#.4.>.] 4.%.' ` ] %.] ` R E E ( ^ ^ T ^ ' ( R z U ` ( ( T R ( U x / T x ( #.,.( ` / h ^ Y ` / x R ) ' ' ' / T ' ` ` ` / ` ] E ^ ( ( ' ( ] ' ' %.J.] %.' 4.#.g R E V a h r ",
"a R E ' R x x ^ x ^ R } ( ` ` E U ( ' ' ` ` ` ^ ( ( U E R ` E Y { #.! %.[ Y ( ` ' ' ] ` R ' ] ,.>.%.' %.4.[ E ! E ^ T ( %.' ' ' #.] %.#.` %.%.' #.` E #.,.] ' ! ] { ] ` #.` T [ ' [ ' #.E ( ` ' ( ' ` ( T [ ` ` ( E Y E Y E R Y E ! ` R Y R ` ` ( ! ` ` ` ] ( ( E ( ( ( ` ` [ ' ( ( ^ #.>.>.' #.] #.( ' { { ` ` ( U E ( / ( Y / Y Y Y Y ^ ( ^ ^ ' R / ^ ( ( ^ #.( ( ( Y #.^ U ^ T ' T g ^ ] ,.>.%.E T Y ( / ( ` ( ] ] ,.>.( ` ] ( / / ^ ( ( ^ Y h / ` ( h Y / ] #.( U ' ^ T >.' ' ` / x T ( Y g g Y R h x h Y V ' U ] #.,.#.` ( ` T ] ( ' ' ' ^ T x ] U g e g g z ( ( ( ^ { #.Y R ^ T / ( ( z z ( ^ ! ' ] ' ! ( ` V R ` ` ` ( Y { / [ / / Y g R g g g h h x U ' T Y T ^ h Y ( ^ ] ` ! T ( %.%.@.( ( ] >.( U R U U E ' #.' ` ' [ ` ) E x ^ ( / ( ^ T ( #.#.( ( #.! ] %.#.! ! ^ ' ( ( ( Y ( ^ ^ ^ T ` ( ( #.` Y ` R Y E R T Y Y ^ Y R g Y ` ^ / ` ^ ( ' ] ' { ) E ` T E ` %.' ( ( ( ` %.>.' U ( ) ! ( ` ( E ! ' R E U U T Y R Y Y h U Y Y T Y R ( g ^ Y Y U Y ( ' ( ^ ^ ( x h h Y T Y h R ( ' ' U x h Y ( / R ` ^ ' ^ T ( Y T / ^ E ( ( ] ` ` ] 6.[ z ' ` Y g r q ",
"z E ^ R R R R R R ^ x R ^ R E ^ R E ^ ` ` ` [ ` ^ ^ R l U E ! ` E ] E E ^ h ^ E ` R ` E ` E ] ' ` ' ' ! ( ` ( R E E E ` ` ` ( ( { %.' ` ' ' ' ] E ( ( ] ' ` ( ( ( ` { >.` ^ ` E E ( { ( T ^ E E ' ^ ' { ^ ' U Y ^ x U E U R ^ Y E R Y Y h E R ( ( Y [ ^ R E ` } ^ E { ` E ^ ( ` ^ ( ` #.] ` ( ` ^ ] ' ` ^ / ^ x E E z E ^ T U Y Y Y V h / ` ^ Y U Y E ^ ^ ' >.( E E E R E z R ` #.' h t ` ` ` ^ ! R ! R V E U E ( Y Y ( ( ' ^ / x U g Y h U V t E g E h / Y U Y T Y U T U h Y U ( R h h Y Y g r g g h g g g g g z U R T E E E E h ` ' U Y ( E Y x h T T g q e g Y T ( ^ ` ( ( x x h Y / R x a Y ( T ( ' ] ` ! T U / T Y U E h U h / U T U T g g g a 3 a g h R h T h t h a R Y ^ R E ! Y ! ' } } R ^ E ( ( T h h g U ` ^ ( ^ E ' ( T h h Y ^ ^ U R ( R E R E Y E ( ) &.( T T U Y / / h Y T g ^ ( / ` ] ] / h / E h R R z E ` T T g h U g ^ T ` / ` ' { ^ R ( ^ ^ Y ] U ( ^ ` E R ( ] ] ` U z h U E E E Y U R Y U U t h h h T z h h h h U E U Y z U z x V ^ { ( U U Y R U z h Y T ` r g U h T U g g z U h g g Y Y h U h U V g h h h z E T ( ( ` 4.] U ^ ' R a r q ",
"E ^ E R x x x x R ` x R R R R g U U R R ^ E E ^ x t l t z U E E ^ E R U U h R E Y U } E R ` ` R E Y R Y ` R R E E U x U ^ T ^ ` ( ' ^ ` R ` Y E R Y ( ] ( T ( Y ^ { ( ( E U E T ( ( ^ Y z U Y Y R ` ( ` z h h z z U Y Y z U Y R U U z z a z x E ` U g l Y E E E U / ( ^ U ^ ^ ( ^ T E ^ ` ( U E E E ( ^ Y Y h g a g h U h h g h i g g t g x h h z g z U z T T ( ( z U z z z z ` R Y t y g x R ^ E R z a h x U T h h h Y T U x h i g h g h i g U U U h g Y g U h h w U ^ h e h r g r 3 g g a r q q i g i q 3 g r k a a h R z R z g h a g a z Y g r r a i r t t g U z x h z h U V g h V U U z g E Y U h U i z z U / T T R ^ h h g x h h x x h U e > > e r r Y z Y W g g i a h Y h U E Y z z W U Y a h U ^ ^ h h g i h E Y Y T ( U U z T U h U U a z U U U T U U E E ( E h g h h T Y R h r g h V U >./ ' h h g R x x U V g z U U h h g i g h T ` ' h a Y Y T Y ^ h T ( z R ( ^ Y / / U ( / z t h V z ^ U U z a a a i r a g g h a a t t t g t g g h g i g h E U h z h z U h h h ^ g g - > g a g h r a i t t e r g r g i h g g g g w a a g z E ( ,.,.6.( a Y U g r q ",
"R z x l x x x R l l t x x R x t g z z l U U E l l t k l l l z z E Y a U h z U U U U x z z z z x g l z x ! z h z l l g z U g U Y Y Y U U U U x z T E R U U Y Y U ` R E Y U z U R U T E U z z h z z z z z a x g z z z g z g z l l a t g a a z z ^ U t t t h Y U E h Y U h z Y h h U U z U U z g t h z h g t g g g e t g g g t t r r t e r r t t t a a z z z z h g z g a a a z z x h t e t r r h Y z a e e a a a a g h g Y h h t g g g g g g a g U h h a r t g h i g t y g t r r r 3 = e y e e q y q a t r g q w w r q e a r a x w e t r r a g g 3 r = q t t > e t i g t t t t g t r g g r r r t z a h g s h h h h r g g Y h r e r g = g q g g t = > e = & q a z z a y a e a a h t r r a w r a a r e t a E Y g a e 3 q g g g h U s i a g h g g a g a a r z z r i Y g g g g g h h g h Y g g h r g h Y U g e h g x h i a a a g g h t g g w h h U T h r e y V V h ^ g T U g U h g Y V V g h h g y t g a g t a t t a a g g g y y i t e q = y e w e t g r g y g g t e g g a h t g t g t - % > = = r y r = 3 3 q = - 3 e t e g y y 3 e y y q 3 t t z Y ] #.( E ^ z a t q ",
"l l k x l x x x x x g l l g l t t t k l l l l k l t l l t k k k x U l l l t t t a t l a t l k k t g l l t k a a t t t t t t t g g g t l l l l g z l g t l l l z x t z l l g g x h h t i g g a a a s z t a t t t t t y t t t t t y e t t a t t t t y y t g a g l t t t a a g r y r i g i t t e > q q e e 3 = e e e t q e e q > > > > e e > e e t a t a r e g e e y q e y e e t e t t e , > e e e y % , > y e y q r t t t e e e = y t r r y i t t r a w t t e e e e > = = e 3 , = = = = q = 3 q > e q = = e t e = e e > > ; % ; ; - - , = > = - # & - e > - = = 3 3 w r 3 e q t e e e = e e e e 3 e e e q e - > 3 w r y e e = e e e - = - = > = = , , - , = = y a q q e e t > > e > e q > ; q > q > e e y g e y > , - q e e 3 w > > = y y t e q > e q > e e e q e e g t r t t t t t r r r r r g h x h e q r = g r r q r q g r t t g g r g g h q q 3 e e g h U g t a g h g g g g y e t r i y = 3 q q q q > q y t e e e q q > q > = = , = > 3 = e i q q = e e e = q q e q > = > > = , - , = = = = , % = - , - = = = = = = e = 3 q > q = = , = > e t ` ^ E ( h a i r ",
"l g k k k l t l l l t t t t y y y y t t y k t y y y e t y y y y a a k t t y e y y y y y y t y t t t y y e y y y y y y y e t t e y e t t t g t k t k t y l y l t t t k t t t k y t y y e y t t t t e y y y > y y y > y y > y > , > > > y e > > > > e > y > > e > y > > e e = > = > y e e y > ; ; : % , , % > ; > > > > q , , , = > , = = > , y > > y e , > , > , , , = , , e > = > > , > > , > > > , , , , > , , e > , > > > > > e e > = > > > ; e ; , > q , > > > > > , = & % % , - , , % , > , , , - , = , = , = = % % o : O % % % , , - , % O % : , % O O % % , > > , , , = % % % , % , , - , % , - % - % % % - = , - ; : > : , % % O % O % % % , = - % % , , % % , , , , , , , , : : & = > > q % , = q > , % % , = , > = , , O , % , > , > % : , , , > , > > > y > , e > , = > > = = e r a e r q > = , > e > > > > = = = e e = e e e 3 y r y = = = e w y r 3 > e e y e , , , e = > , > % : % , = , , > > > , % % % , , - , = % % , > , > > > = % , > : > % % , = % % % , % % % % % % - % % X % % % % % % , % % % % , % = > , , % % & - , % , 4.Y Y ' Y g r t ",
"e > , e e e > e > e q > q > y q y y > > > > t k l > e , x l t > w w % a ^ l , e > e e q > > > r > e q e e e > e e l t e y t - > l = > , - , , % O O % % , % , , , % , , , , % , % : % % % O O O o O % O O % O O O O O O o % % % O O % O O O % X O O O % O O % O O % O O O O O % % o o O % O % % X X X % o % o X X X o X . X . X X X X + O o + o o o X . + X . . O + X . o o . . O o o + X + o X o .       . o X X . o X o O O O O O O + o X o o . . o + X . o o + +   +   .   . . . . + + .   + .   . .   . . O O o % X % X > : + O X - X + X X . O % X X   O + . . X .   X   .     . .               X + % X o o + + X X % % % O - O . X O X . X . + . X O + . .   o X % X X X O % O % % o & q % q e q > = = % - O . X % = - % e = : % = % % % % % = % X % X . X . . + o O o O O O o % ; & % > % , , % % % % % O , , , , , > , > = , = > = e , , , > > , : = , % = % : O X . . + + . % O % % % X % % X X O % % % , X . . X . X X # - # > % % % O % - X % q % % % % % O X = e # % X , e , , = % % % % O % O X % > , X O % O O % O % % % % % = % ,.( >.T R h i e ",
"l g g Y l l l h E z R a k U Y Y x x x a x U Y E { R x x ^ } l t z % % h R x y l z U z a k x l z U ( t h y E U U t ( 5.R h E T #.U g z a l l x > y y t y e > , , , , > , , , > > e , e r t e & t > 3 e > y g a > , y l > e l t y t l % , > , % > > t t t > e e > = e e R x e t e e > l t t y t a Y U a y z Y U z R z t z g ` h t t g x g g x e q ^ y t e e g g , % , > O X # . O O O % % % % , q e y y > t g g = 3 q t y e = = - X X . X % . % X o % O t e g x y > ; % % % o . + . . X o O X o O     . X   X X O o O % X X . % , % O - = = = - q g = = % , - x e 3 e e 3 q g g - , t e , q X O X , . > , % , > e e y e - 3 z r y e = , # - z % e o e , > > - = > % g > = , = e e e q = k g a z s t T >.x g r g z g g e g g h g g a z z a E t s i x z E z t h t z U a g r y q = e t q q > % r & & = = % > > - & O - % % X % X % # - . X X - % % X . a q X . X X o X X % = e = t = g e y U g l z x h h g g a a h z x R h g g g g t g g g t l r a g g g g U U U t g z g a a t g g g t g g i g t h a t a g g a t g r t g t g g z r a l l g h g t g a E ( ( ` T h g 3 ",
"x z g x l t t z E a x k z x U k y x g y a z x x R x l x x x l l h 3 w a x x k t g z k z k k E a ^ g h g g z U z h ( ( x U r r h g U a t t t l y t t t g t > > e e e = y y e l z z h g z U g > h a g t E ( z Y g l l l y e g t g x x e t ^ g q R - U l e t h t t x g ^ h x t h U g R a e > ; e a t a i a Y r a a a U Y z U h z a h h g g t g g a t z z t a z g t a > = e > , , % o O o O e g e 3 r y a g h r q r 3 g g e 4 r t q > > g l z r a w t t a r r a ^ z Y a a > e e % e > X > e y > & % . X   X   % - X e t e % % X y > e t h e = > t h h t e r = e g y q y q r y 3 % % , t e > % - > > - , t = # e t z a E q > t w r a e > q , z g w > = l e = e - e e q a h = = r q e q & e e e e = r e 3 e e a w r a i r r h r g a V h g z a g w r U z z h r g q a t t g t t r t i h a g h i w a a a U h h ( #.a g r Y U a a h w a r t t r h h t r w 3 ,.V o X 3 w t a y s w E y g i h g z x t Y s h r a r r a w a y h V g t i a w q i e r y y q a r e U x U a y a t g r a r i t y t t r r = e g y r r i r i r a a a w r t t a r r a i t a h h r h r ` ] [ T Y h g t ",
"l x U l x g l U U U l l l U z t l t t l t l R R R x z R R x x k l w y a R R z l l x l x z k E U U E U z z E R r h ( / E g h t h U U e e e h l g g U U z x x t g g t t g t t l E z h a z #.E 3 a g z h z U g E g l x t g x t t g l z z E ' w E #.g i g h h g g h Y g / t t e l z z g q y r a h h i g z g Y z U U R U Y ( E R g z / R ^ U U h z g a ^ U E E Y a Y r t t t t t t t > , - x q Y 3 h U V h h h h h g q g h h g r h x h h Y R k R a s a a U Y e z l ` E a Y & z % e > g X h h a r R z q z 3 ` > > = X , - > > % % t r e t U 3 g h V q i a t = r h g w r r q q h = e e e t t > e e e y e q r - y E t a h h g y h g a g e g w h z w s & a q r 3 g r h g q r a s e r w r e q w a a q a a t g W g h i g z U i a T h i r h g a z a a y a g w z r h r g g a a a a a a a z U y h r r r w a a a w Y z s a z & q r g i r g a g h r t i a g a a r ( U y 3 g h ,.6.a w y h g E = t h g g h T h a a g k s a h a R h t g z a Y i W U a g i a a a g x R a a t i U h h U w r g U z h h h U g U U ` z U a h R Y U h z g V a U U g h a g h ( ^ U z U a #.] #.( ( Y g r ",
"x z g a l x l t x l g z z k Y l k y t l z x x R z R U U x x l l l t r g R R l z l x x l z x E z R x z z a U h x Y E ( j g g r Y h h g = l a q ^ x g z z } t g x l l t g x g g a g Y g U E R a g x z U U Y ( T t l g e t g g x g l l ] g U t ( z g Y U h h r h g h q g e t t g a a t i w t h h g g z z z a Y z z Y R U Y E ( r h x U z x z a h z i z ( T U z a h x r r l t y % = , - O R h g h U h Y V h Y R T t Y Y h Y t Y h r h R h h Y E Y z U a h r e l t z q z a & E e , = , % h g a h z r q t g t % - > . % = e O > q e a g r ( t t h g t h ( g # q h T 3 z h = w g r i t t t e > t a t y > e = t r U a T g U t g i h t g y r a j i a r 1 r w r g g t T h a a w w r z w r r e a a a r a a i h g y h g a Y h y g a g y y a z q r z a a g w t U a h g h h g z a g z a U E ( g g h s z a z U a h g U z a h & i y h g g i ,.{ U ^ U t z h a E h U T a - h U g % @ g a Y h s q r h i g z z R T a h h z z a r Y h h s E h a g U g z z h U U U z z z U z g g g s U a h s g z h z h h V V s U E z z U U x T U a a h x h a z g Y z U a ^ T Y Y z g ,.Y T ^ T h g g ",
"> > O   e 9.R s E %.! a z } ] ` Y e { x E Y ` U ^ E z g E R x 5.z ' E ' l l r Y h r U a h z h r U U ^ Z h.a.SXSXSXDXDXpX*X&XV.9 $ & H.{ ( ( z ` #.%.^ U >.z R [ 4.U R R R ` h z E E h U z z R U h z U R a a r E R R h ^ R x Y ( h U T a U E ' Y #.^ ( >.] / ' ] >.` U i = , , % x 7.#.h Y E E z E Y ( ( ` R U R E E E Y R Y ' T ^ E z U z E ( ` ` E U ^ ,.&.,.w -Xq 3 # U e D.j '.N X ' ,.` e g h ` 4.J >XS % T 7.h 0.V l.W.h q v /.D . ; k A p.. w 6.z L ).p . #.8.%.,.( ( ,.U g ' R Y ` E ] R ' ' ` ' ` ^ x ` 7.4.H.` U %.( ( ^ >.( ` ` ( h t q , >   x E.D.U ^ E #.,.' ] ] ^ ` >.^ ` ` ` E ] ` E Y [ #.U h ( %.' ` 8.' ( g D.b k.HXhX@ i %.R ' ( { U Y h ^ U R Y Y z ] U ` R Y a ! E R Y ` E Y 7.' ^ ' E ' r h T ^ r ,.N d.hXhX].. h R ,.Y E E ( E E Y ( ! ' %.4.6.6.[ %.%.#.] ,.] ,.U %.5.a ` P.U ( #.' %.6.' ( ( Y t t e > X # 5.D.] E E 6.( 6.%.E 6.%.^ ,.,.%.] E ( %.,.] ] ! &.( %.} %.' ` ' ] %.( %.6.%.#.' #.,.{ #.p # +.<XqXg.6 1   + x K.,.,.,.%.%.' 6.,.#.&.%.%.4.%.,.>.{ { 4.` 6.w.7.' 4.,.&.%.%.] ,.>.,.#.6.4.,.%.6.,.%.6.A.D.,.7.#.E ( ^ ^ V i e ",
"> , O % z P.' T E ] 7.Y a Y ! ' ,.z ^ R a a U Y U Y >.%.U ` U U a z z #.E z h z R z R z z h a a ' ^ t 1.s.4XiXLXSXpXpXuX=X=X*XP $ $ g ,.z g E U ] U E ( g U i t z E Y ` U z E h U U U g U ' r E U h E U z z E Y R Y / U ^ U ` U Y U R z z ' ,.Y ` ^ / ' >.>.<.,.' #.U g y = , . x 9.,.z E ` ( Y U h U U Y U U U W R ! R E R Y W Y Y U ` z R U E ^ ` ! U 6.&.( 3 -Xi 3 % t a %.8 }.S # ( ,.>.T R h ` ] F #XG - E 1.g 8.i l.l.# h % 9 W.c o > n +.o q &.a H ).9 @ 4.( #.T ( ( ^ U U i Y Y E ! ' E T R { ( ` ` ^ ^ >.%.6.` z ' ( ' ] ' >.' Y Y Y t = > ,   g D.9.h Y ' ' %.] #.>.( >.6.#.^ [ ( ( ! ` ,.^ ` 6.#.' ] ,.8.z ] U #.Y >.Q W.GXeX@ a T ^ #.' ] ,.^ g ( ` ' %.%.' ` ' } ' ` ` E ' %.E ` E ' #.] z ` ] 4.( ] T { h D.N p.jXrXT.. h z ' %.E ( ( Y E #.' ' %.` &.' &.9.,.4.U #.] #.R %.! ' z z 6.Y T ` 5.4.6.#.' ( U t = > > + O 8.D.^ Y Y ' %.( 9.7.,.6.6.4.,.%.` ,.R %.4.] 4.>.&.#.` ] ` ! ' ` 7.%.( %.8.' >.( ' 9.4.& B Q.Y.r p Y..XS o   . { A.] 6.] #.' ,.` ' ,.] ] #.,.#.' 6.' %.' ' 8.] %.4.#.%.( %.%.#.#.8.,.7.9.H.8.,.E J.9.6.8.E ,.8.( Y ] ' g g t ",
"e , . . q K.#.#.T ' R &.r z U h E %.h g E U U R ' E ' R Y [ U R z ! z U a a U a ` ` E E U g h T U { U X.z.bXmXIXDXSXSXnX=X&X&XC.v @ % 6.' z #.! z [ E R E ( z ` ` U U g z z U U Y ( r z U z Y z E U x s U g Y E Y Y ! E R T E E Y h h ^ U U T T ( Y ! %.4.,.] ] ' ` T g e = , . e 5.#.U Y U E E Y U Y Y R z R T U Y U U U E R Y U U E ( ' r T z Y z %.Y ' ] $.t -XV 4 # l Y D.p ].G . ` / U Y U a E ' L @XN # z H.h 8.j c.p.. x &.% 7 _.d 3 F D + w 6.! F ).7 # 4.6.R 6.7.' &.E ' ! ( R R ! U E ` ` 4.U U R ' U #.] #.h E ` ( T / ( %.( ( T / t > e , . t P.7.E U U ` ' ` ] 0.5.h R W #.E ' &.[ U R ' E 6.` @.E ' ,.%.%.&.! ! 9.2.(.mXhX$ g ` >.,.( ` ' #.^ E ` ' ` ] &.Y R ` U ] U ' E E Y ' 4.4.' ' %.R U ' Y ( ( [ V D.p d.cXhXl.. l R ' E [ Y ! ( ( ' %.%.E %.&.] ` ` w.] E 6.6.! &.6.] &.z Y 9.' &.' %.' 9.>.( ( U e e & > . , 9.E.{ ( U { 6.#.' 6.%.%.6.8.[ 0.` &.[ ' ' ' ` ' 7.%.%.9.R ` %.&.&.' ` 9.] ( 7.6.( 8.w L Y.j w s i 8 D z.T.  + % 0.[ 7.%.` %.%.&.&.&.6.! ] ` %.` &.&.' ' 5.&.6.` 7.%.] ^ 4.' 4.#.4.] 5.' %.0.A.( 6.0.H.I.%.%.` ! ( ` ^ Y t t ",
"> , % % r %.s Y z E U ( U Y s ( Y U ( Y ` ! z z R ` z ' s ( T T ` ` z z R g a a r a R ` ^ Y a a Y U =.K #XiXSXSXnX8XM.dXuX*X=X*Xu.$   ( [ ( a ] ' Y #.` ' Y z a E E U U E ] r U z E U z U Y Y U E U ` U z Y ` ! R Y z U U R E Y ^ E Y U Y E R R ` Y Y E ^ ] ] ( ] #.Y g e = = O g 5.( h E E U z R U E Y R z h R Y z U Y ` h Y Y Y U E z { h ( h z Y U ( #.] ] y .Xh a # U h S.8 ]._ X ` ` R ( ^ w E %.J ,XB % W ` r ,.g l.O.. w 0.W $ d R.W _.J . w A.Y | [.0 # } 4.' ` #.%.%.! Y R %.R E @.( z E ` ,.R E Y ` ' >.,.,.' T #.^ ( ( ( >.( / ( V t q > > . t 8.` q a g E U z z ! 4.#.] E &.' R ` ` %.s z R %.` ` ] ' &.6.&.%.' h ` S.'.bXhX5 r Y E 7.,.,.E %.7.` E R ,.R %.#.! 8.E ` ! [ %.' 6.! Y ,.` ' ` ' U E R T ' Y h D.8 l.nXhXs.  z U ` ` ! ` ] E [ 6.` ] ' E ` E %.` 6.%.%.z &.' [ 6.6.' z h 4.g ' #.,.>.,.] ` / z y = , >   - 7.q.E ` Y ' #.#.( ] ] ] [ 4.%.` %.4.` ] &.E ' %.` ` ] H.8.4.( 4.6.%.` E 7.' ! ] ( Y F -X< , ; q = W i B b.L .   4.D.%.w.%.' ] ` 5.&.6.] [ ` %.6.` 4.[ %.&.] 8.6.' 9.6.%.#.6.4.` ' &.4.] ] A.0.6.9.6.8.H.6.%.] z ( ^ ( U g 3 ",
"e > % % r 0.z z a Y h h z Y Y E ( a ( h r h Y R U E z ! ' ) &.[ 9.' z R ` U a w a g a z U ' U h T ) G.a.%XDXAXnXuX(.r.N.6X*X*X&XV.v   X ,.E h z ` z U ` ] %.%.a z ` z U R z x U z R R U Y &.a z U Y Y U z z E U R Y R a a s R z T R E U E ( ' ( 4.! ` R T >.] [ ] ( ( g e = = O a 7.,.U h E h U R z U Y ! ] ! a Y a h Y Y R z U z U Y z E E R U a h a U ' T ] r '.V h # g t D.a /._ X ` ` U ) ` h { &.J 3X .3 ! 1.h 1.8 l.h.+ t 6.T s p ~.S.l.F + @ &.z J }.0 * %.E 6.E E ] 5.6.E a ' z U R U Y R E ] ' &.&.@.z E %.] ` ( ,.#.( [ >.] >.) ` / g > > > . t P.q.` E z ` ^ ! ` U &.' R ( ] ' ' ` E 0.] x z z E ] R ` %.4.>.%.,.U k ) }.CXeX8 r ,.^ E ' 0.6.` ` ! ` ,.%.%.` ] ! R ! [ ,.` ] %.5.4.! 0.#.7.%.! E %.] R / U g 9.6 l.nXNXf.+ r R [ ' R ( E &.%.( ` 5.' ' &.` %.%.! ` ! R ` %.` %.6.6.8.z ` Y ' ] #.6.] #.` ( E t = , =   O ` q.^ ` U { ] ' ] ,.` #.&.6.%.' 7.&.] #.[ &.E %.R %.` 0.5.,.[ D.&.&.] ` ` &.` R ` a g.W.% o & ! E h T d O.T.$ . ] 6.&.%.] ' ' &.%.%.%.%.4.8.6.%.' %.4.%.%.%.%.%.%.%.,.#.4.&.#.#.` 9.@.[ 6.6.0.&.6.' I.0.4.8.8.( ` ` T g r $ ",
"> > O # % ,.z Y E ! Y R h Y a h ' E z E E z a a E z s Y ! R E &.! ,.&.s s ` Y z Y z r a a h h ] &.J.:.x.nXpXDXAX%Xi.4 M.{.7XoX&XOXK @   E 6.E Y U z Y a ' ! %.U z ] z z ' Y U E U s Y E Y ` ( a s E z z Y z ' g U z U U E z T z g Y z Y #.R ] &.A.h E Y ^ ( 1.,.%.] U U 3 = = O 3 ] 6.^ T { U Y R T z U ! E ] ` U U U T h U U h E a ^ h Y U ] Y U z z E Y #.#.h _.N r % U e 1.i W. .X >.7.e U >.Y ( ,.L >Xc % ! ,.g q.r c.L   / T f Q l.fXS.lXt.o @ . w P (.H % %.E ` E ` ` ' %.#.z Y ( Y E R U E E E a %.@.6.U ' E 6.( E #.U ( / ( ^ ) ` R R e > % ,   > >.D.U ,.` %.` %.` z ' E U ' ] &.E U ( %.] ` ` ! U %.] R ' ,.%.,.9.9.] ) <XvXtXj e { ^ ' ] ] ,.` ! R Y R ' %.( #.R #.R E %.6.6.8.[ A.A.5.` 8.%.' ( g ` #.^ ( h 7.d g.bXMXl.+ l E %.! ' Y ` Y R E %.' ! ' R ' ' ` 0.%.5.%.` ' %.` 6.%.5.h 0.( [ ,.] ' ,.#.] Y U t e > >   y x >.x U a ] { #.T { 9.#.,.] &.( %.[ %.0.4.%.5.%.6.` ` ' ] 0.4.' 6.] ' 5.] E %.%.E V z.+X5   { 6.,.( Y Q f.|.2   Y H.] 6.%.w.%.E %.` &.%.4.%.5.%.' ' ] %.` &.#.[ %.%.#.#.#.D.7.6.%.8.] ,.%.H.6.%.9.1.&.0.H.0.%.` ' ( E h r = ",
"3 = O X g #.z r ( R E U U R ' E z ] U s U z w a Y Y a z U s a E ` U U ] ! z z a U E U ( ` z U ' =.G.k.%XmXDXDXpXx.S $ W.B.6X&X&X&Xx.0 . & &.] E ' E r U &.! &.` ` E ! R s a Y E s a R Y E z R U z E R U ' T h ` s h U z E U ! E z Y z R %.' ' R ( h E ` ^ %.%.6.,.' Y U a , = X e #.' Y h E a U Y R Y z E ! Y ` z R U R h h Y z Y U R Y U h ( %.,.h ( Y ^ T #.^ W.8 $ % h t %.i W.D X ( A.! x z Y ( %.L 3XB # ! #.g 7.8 W.o.X R 4 l./...F  .`.XX9 W. .-./.(.c # &.' E ` z ' &.` %.%.z E E R R Y ( E R ] ' %.0.' %.%.A.z E %.] ) ^ <.#./ ` Y x g > , = . t D.6.U Y E ' R ` 5.R E ( R ` R [ ' ' %.R R z Y R Y ' ` ' E ] 6.` 6.] &.Z <XbXrXZ % ^ #.E %.` U %.R ` %.%.` ( %.T h ( ^ Y 6.s a 1 @ # a &.' 4.%.U ] ,.Y ` E E g D.p l.bXGXl.o R ' %.E ! ' ` ' ` U ] ` %.%.] ` 0.` ( E %.%.[ ] ( R 0.0.] U ,.U [ >.>.%.8.>.( ,.^ e > q ,   > #.{ ` ` x E 4.%.E T ` E E [ ! ' %.' ,.( %.[ ` ' ] ] ' ` %.%.' ( %.&.6.] ] ' ( ` ` Q l.kX9 X U #.' { ^  .l.3XX.. ) 4.[ ' 6.%.%.E %.' &.' 9.&.9.%.%.%.%.` 6.' ' [ %.] %.%.' 4.6.%.#.#.%.P.%.9.9.%.6.6.&.A.0.0.' R >.( ^ h a 3 ",
"e > X . r 7.z g z z a a a a h R U @.T E E 7.] h U ` ! W 0.E ! T 0.,.a T %.&.a z h E ` ` g z E ( 0.+.r.iXpXAXmX%XJ $ # S.m.|.iXoX&X{.I @ & z ( Y R E ( a ] R %.%.' ` z ] ` s z Y ( R U s Y U R s g Y E s ( E Y ` E E E U R U Y ] s ( U R ( ,.( ] 6.z ! ! ` ( ] ,.%.) T h 3 % % X q ' >.U ' ' g z W U ] Y E R E ] E E ( ( h ! ( E Y h Y Y U g z z ] U h z V E 7.^ Q.V q % T t 6.i l.D # >.%.} R ( h E ,.L 9Xc % Y ` t 6.5 ].G # t L -Xp $ w 1 l.k.B & 2 b d.}.L # >.#.` ` z ` %.4.] 4.U z ` %.Y Y ! ` ( R ` ` 4.U 8.,.K.&.T ] @.] ^ >.<.] x j x t > > >   e D.D.h ( ( E E ' ` ' ' %.[ R ( E ! [ 8.E ( %.' R h %.` ] ] #.%.( %.6.5.( 1XCXhXB = R ] &.4.' ' E R R ! ( ' ( ' ^ ' U ( H.E & @   . % @ ] ,.` &.` h ] D.^ R ^ h A.C W.bXFXs.o z x R Y R R %.%.] ` R ` ` ' %.6.&.5.' &.' ] [ E &.U 5.] [ Y H.U ' 1.,.#.,.( h ( E t e , > . t >.,.x l t l R E Y R z ' z U ` E ( ` H.&.&.] ] @.%.` E 4.7.[ ! [ ' 5.' %.6.' ` h ' E g.gX4   # ,.,.) #.W W.3Xv % R @.` ' 7.%.&.` &.%.%.%.[ %.P.%.%.4.4.` ] ] ' [ ' %.&.' %.} %.%.%.>.%.9.0.0.*.0.,.6.6.&.#.A.#.Y ` ` U U r q ",
"e > O X q ,.h E Y ` ( Y z s U a R T h W z ' ( Y h Y U a W E Y U &.9.! h U R z z U a t T a y #.( I.P y.8XpXDXpXj.B X ^ &.5X$XOX&X=X%Xr.0 * 1 &.E Y 6.! Y ` U E U [ %.R ' %.z z z R U U z E U U U a z z z U z W E ( Y z h U R U R z z U E ( [ ' ( H.` ( ! ] #.,.&.%.( ( Y a > > O e ` ,.Y %.U g Y h U R ( s z ' E R T ] %.z R ! ' U h E Y E z U a a Y g a T T ] ^ Q.C w % z a #.w W.D O ` %.U E U g ^ ' o.1Xc X ` >.t #.5 ].S % r h.c.- - 9.n t.p.$ 3 #.< +.}.L % 8.#.` ,.` [ R ! ( ! ` E E %.%.R Y ! Y ! E ] &.Y #.( 1.] ( 7.) #.#.>.] ] / V j g q > , . e 8.9.( ' Y ' ] [ ' 0.] ` %.( ` ' ' ` ` %.E ` %.` ! ` ` ` ! ! [ ' ' R %.Q qXAXjXS = ( 7.%.7.@.%.' E ` ` %.( #.&.Y >.Y x J.i F K K M $ o } q.4.K.,.T Y ] T U ` g 9.9 l.NXMX:.X U R %.%.' ] 8.[ 6.E 4.4.%.6.%.%.] ' #.E %.' E %.6.#.0.] ` a ,.Y E ( [ >.>.#.Y T h g > , , . e ' ^ t t y R } { %.` ` %.` { R ! a ! ,.%.] ' ' ` &.%.} ' 8.4.` ! ] 4.%.E ,.4.( ^ T z X.G.s @ % g ] z 7.T W./.d 3 ` %.` ` 9.%.' [ &.] 4.%.[ ` 4.7.w.6.&.&.%.&.%.%.,.' 5.` ] %.] &.&.H.6.%.#.0.&.,.%.%.&.A.' R ] h U E h U a = ",
"> > O   t %.s R Y Y T z Y h a Y #.( U R z z Y E U U Y s Y Y a a ' ` 0.! %.&.a r z t z E E U ` S.s.P [.uXpXmXtXF 1 & ( = Q.@X$X%XoX&XB.v < @ Y #.z ] R z 6.R #.` Y Y a z E ! h z z U E z U U Y x s z Y R R E Y R Y T R R s U T U U g Y s ' 6.R ] 8.U #.&.] 1.,.1.#.( Y h a = , % # >.q.( ( U E U Y a U Y Y U R ' ( E h ] U E z ' E z z ( z ( h h h ] ( z ] ' / T W.d u ; r a 6.d l.X.% ( 8.R [ %.h T >.L 1X0 X Y ( g 1.5 -X+.q y d.:.X - 6.k t.L + q 9.!  .#XM & %.%.E %.z %.%.` %.! ` U U U ` ` z R ,.#.R 6.4.9.T E &.&.] 6.#.] ] #.` ` ` / x t > , ;   e H.] h %.R ` ] ' ] ! E &.' U [ z U %.E ' &.' %.( ` R { ' ! ' %.! %.] %.Z dXAXNXN e ^ %.&.w.%.E R ,.] Y ( ` ,.( E #.{ h I.d z.tXOXe.0 * U 9.%.&.4.#.] D.^ h ( g D.B l.CXbXs.* s E ` ' ] 6.' 4.0.U 8.%.%.&.%.( %.] E R R %.' E ,.U 0.0.` R A.a U Y [ ' 9.1.( ( U g e > , . t 8.q.R R x ` R { ' 7.8.9.' ( 5.%.` z Y ] ' ( [ ` %.%.,.] &.8.R %.' %.%.] >.` ( E ( ,.N .XS . = # 6.^ 1.N 1Xg.q q ` 6.' %.%.8.%.R 5.9.8.8.' ` ` #.] %.%.6.] 6.[ ` ' ' &.%.%.] &.[ [ 7.6.5.&.&.%.@.] 6.%.] =.` h T V ^ h a t 3 ",
"e e % q # %.i h U s a ! z U U h ! ] U h z U Y h U r Y U a a a a r U U U ` 4.! E z ` a ' #.( 1.I.v x.iXpXmXDX@X9 & ` z t @.m.|.6XoX&X&Xe.0 * & } s E &.E &.R ! Y z ` s U T E h z r x U z s z z ! Y R R Y E E U z T U a U U h z U a U R ( ( ! h T ,.T ] #.&.&.%.1.1.#.E V a e > : > %.8.%.` E Y U Y h U Y R T Y s ' z E E R T R U U E z Y R U E s a U E R ,.@.( E /.N e 3 3 z { i z. .. ` %.x ( &.( ^ ) P ;X5 X ` ] a 0.5 <XG % w p.+.  w J.1 y.-.+ & ' i J '.A & ' ' ! ` [ ` ' E ] s ,.z R ' E R ` R ' %.` ` 5.%.,.0.8.` ' %.#.] ,.` ' ' ` ^ Y g - - ,   % 6.] z E T ' ` ] R %.' %.8.` %.R U E ] ,.%.&.%.] @.` ] ` ' %.` ( 7.` [ ! dXHXrX5 w T >.[ %.%.%.' z %.] E E ( 6.x U ` g H.C |.FXBXe.d . z %.z U #.E E 6.6.` %.;.P.p z.CXAXl.@ a E ' ` E 4.%.&.` ` R %.! ] ' 4.7.` ' ' R Y R ' %.6.%.6.` a %.E ' ( ,.4.,.( ' / Y g > , , X h !.P.' ' U ` ` E ( ' ' 1.6.9.' [ #.! ` ` ! { ] %.4.6.4.#.4.&.! A.4.&.%.' 6.4.%.8.R A.w W._.& - # t R h Q.1Xi.w a >.%.[ %.%.0.' ] } %.&.&.%.&.@.7.7.7.&.4.w.&.%.' %.&.%.%.%.6.%.%.%.9.4.6.0.H.,.4.! 5.{ ^ #.#.Y ^ / ' U g r r ",
"e > % - ` H.! h Y E #.U z Y R z U E R R z a z R U ` E a r U E E Y ! E Y ' E E Y Y W z ! %.H.8.#.i.%XLXpXDXmXL 4 * ] E Y z T.[.|.=XoX*XN.v < $ ! R z U 4.E ` @.` Y ' ] E U ( z ! U U U Y U x z h z R Y ' E U ` E ( E R Y ( U Y ! Y U z a %.1.' E ' ' ] ) ,.) ] ] &.! ( h a > > O % ,.0.R ' ` E ! ! T z T E R U R ! ' E z R ! E ] s h ` ` z a T U z z R ` ( %.) ( W.8 i a 3 t ] w g.~ . { ,.E 6.Q U ^ &.o.;XV % E ' s A.4 -X_ > e ..+.  * U w y.e.. * * u f.[.7 & %.[ E E ` ! ` ` ' ' ` ' ] R E R %.,.#.E E ` %.! ] %.9.Y E 6.( #.[ ` / ' ^ ^ Y t = , ,   > q.6.( ' U ` ` %.E U Y ' ' ` 6.9.' ' ` ] 4.4.%.5.' 6.! ` ! 8.E ] ] [ ! Q dXvX0X9 e 4.7.` %.' ' ` R ` #.] ` ` #.` ` ` a K.A #XFXFXa.g @ Y 7.` ] %.%.E ' ' ` &.k 0.f (.CXbXg.% r Y 5.5.@.#.%.6.%.%.%.Y ` ' E %.%.6.' [ ] ! ' Y R w.] &.E z 6.E #.` ` ,.' { ` j t g e % O   l ^.H.%.^ R E ] [ 6.] R ' &.9.H.#.8.%.%.6.' ( ] ' &.%.6.6.0.%.] P.A.7.%.' 4.[ ,.0.' #.E 0 -XX.w - o $ o.dXp.4 r s %.#.0.7.%.5.` %.,.4.%.] ,.5.6.%.9.7.9.H.H.%.&.' 4.&.%.0.%.%.%.[ 5.' 4.&.` &.%.%.&.( 7.( 8.>.^ ^ ,.` ' Y h r ",
"> > = - R %.h a h U U R r h a r E s R z E a U U z z Y R s a z R Y h E z E s ` z g z ! U ] 7.R.D b.nXDXpXpX%X5 = l ` a ' y R.z.{.*X&X&XoXI 0 < r 4.Y z E ] ] R s ] R ` ,.' E U ( z R z U h Y a z s E g U a Y E Y Y R h a R s ( R Y h U z ( %.! ( #.! ] ' #.@.,.#.] ( ( z r > e % % #.6.R U ( E U E R T Y R R Y T ( Y ' U U U E R U y z U ` q z r h r z z U ( ( N (.B i w = h ,.d l.L X } #.z ( Y ( E &.o.$X8 % ] %.a H.4 #XG , e B '.. . @ | j.M.A Q.+.k.(.(.L & 4.%.! Y ` ' ' ` E ` ] ! %.W E ! E Y ! U z z %.z 4.H.,.z Y #.' ] ' <.<.>./ / g x e , , X % 7.7.%.] ' R ! T ! E z ` E E ` ! ` ] ' E ] %.%.! &.' @.( ! 4.' %.&.z #.E dXAX6X0 q ^ ,.%.[ ' &.' R Y U { U ' U ` ( { e A.+.@XUXJXl.5 o R 6.` ` ] ` [ ` Y ` ' a 6.0 ).CXCXa.o s Y &.' ' K.H.5.6.` ' ' ! ! } %.4.%.' 6.] &.#.` E ] 6.%.` h ] R #.,.>.7.<.<.^ ( h q = , X X { P.J.4.%.R U E 4.{ %.E %.` 6.] 9.0.&.' ` %.%.] ] 6.[ %.%.%.%.E %.` 4.5.6.4.&.4.%.%.a 5.w U H.R > = h.9Xl.=.r a ] ( ' %.%.&.,.%.! 0.%.4.` 8.0.7.%.9.D.6.&.D.6.%.5.%.6.6.%.%.5.5.0.8.%.H.6.H.P.4.6.` %.] E ' #.( U >.' ' Y g r ",
"e > % e > ,.h z h W R R ` U U h U Y U z U U ( ! a r R U q U h a U U T U E R h U z R a ( ] 7.I.p.%XmXmXDXpXc.5 @ } z Y E z s }.XX#X&XoX*XN.v $ @ %.Y h R &.` E z ! U ` E R R U T z s U U h E E a h ' ` ' z U Y %.z Y T a Y a Y R E E ( z E 0.( ( ( T E ) %.&.,.1.,.#.] W r ; > : % ' %.E Y U z E R R Y Y U Y ! U E ! ! R U h R E U U U E E Y T Y &.z Y E h ( E p ).A r & = h 1.g l.:.. R ,.R E U ` ` @.P <XX.% %.8.k E.5 <XZ = ,.1 :.T.t.M x.;XK d @ q 0 h.[.F # 4.] ] a ` ` #.%.] R R #.` E Y T ! U ` ( ! R ` U %.,.&.U ' 0.( #.>.>.[ >.3.] x g > = = X % #.9.h R R %.! %.R [ U R E R ` [ ` ` %.` ` %.] ' ] %.' ( E &.E %.' R ! ( wXGXVXB 3 z ] ' ` R ( ! E U ! ' ( ` ` %.( ' g 8.t.|.UXKXa.3 1 z E ^ %.` ' ] %.U ` E h L.F /.NXcXa.. a U 5.` ` &.&.%.6.%.%.' ] ` E E ` %.4.` E 4.%.R ! %.D.5.E U %.R ! #.` ,.>.#.` ( x g - - O o ( D.D.6.%.R E z 9.#.#.E ] %.A.J.[ ' ` %.4.E [ 6.%.%.[ A.5.8.4.%.%.4.%.' 6.8.%.w.&.' E Y ' w ;.I.-X2X4XL d & w ^ 8.4.4.%.] %.%.,.' ] %.5.' ` %.&.' 5.8.9.5.7.4.%.%.%.%.4.9.7.8.6.9.6.6.8.7.H.K.H.7.7.,.H.8.,.] 6.' ] ' ( h i = ",
"e > % % g 8.t a s a U U Y ` U R U ( Y U z U E Y U s a U s Y E s h Y E s Y #.Y U Y Y } ] 8.J.$.x.7XSXSXDXiXL 5 3 4.h h E z t G.b.[.7X&X=X&XJ < * l } R ' ! ' ] ` E U R ' R E U R U r z Y R a s z r w g E Y h h R Y E R R U g z U ' z z ' U 4.Y E ,.( ^ ` ] %.@.,.%.] T z r > , % % ( ) U R U Y Y ` E R E Y E Y E R E R E ( Y Y R Y E E E g ! ' R h z z E r ( E d (.B = % h g ( s d.H . ^ ,.g s E U ` h p.;XN % ' 0.Y F.6 +Xb @ ,.Y % n '.zX}.<Xn # w 7.5 O.(.9 % 8.4.a R %.6.' ` E ] Y U E Y ` Y Y E a U E E h z ` E ( U T ,.' ( ` <.' ^ { ' Y g t > > O = ,.5.z E ! ' ! ` ` ! %.%.( ( R ' #.@.' E Y ] 5.` ) ' ` ( E 4.%.6.' ` E X.lXKXGXc 3 U ( ( ( ' ` ` [ ! ` ' ` ( ,.` T ( Y X.a.B.PXSXb.3 & ! ' r %.&.[ R #.6.` ] z 9...+XJXZXP . t x %.` ` E ` #.' %.&.5.%.0.E ` R R &.] ` &.&.R ` H.4.8.] g H.g ( ^ U ,.<.#.` ) R g y , O . ,.D.P.9.&.%.' ` #.E %.` E %.6.D.9.K.] ] %.[ ] ' w.6.5.9.4.8.5.0.%.6.4.&.4.%.] &.4.7.5.R ' ! & 3 C F N = w r ( 6.%.6.7.' #.%.[ ' 5.] %.` %.' 4.4.%.6.7.6.9.6.%.%.%.[ %.4.%.A.9.4.6.9.K.4.D.9.H.D.9.D.9.H.5.8.D.>.` Y Y T Y h = ",
"q = % & = P.g U a h x U z U E z a R U a Y Y U ' ` ` ] ] a r ( E z g Y U E h ( U E h ` ` H.I.B x.nXIXIXAX[.8 % g E Y s ' [ z W l.).OX&X*X=Xv.0 $ w ! s r ! ] z U E E E ( ' ! E U ! ` a g E ( ! ' U ' a a Y R s ( U z Y Y E ' r z E ( ` E ( 8.` ( ,.Y U / ) #.,.6.&.%.U U r > % % % #.,.U z s Y R U ( R z ! Y h h U E E ( E ' z U E Y ( ` ] R Y &.R Y U &.( ] U B /.B 3 # x z ) h l.o.% E 7.U z E E ^ i P 3XB @ &.6.Q I.4 +Xj % g w.s r i xX.XzXd   = ` g o./.D # D.4.%.z E ! 9.E R ( ' Y R ] R T Y ` %.a z E ' E ` #.#.x Y ,.( ( ^ ^ { ` / / R t t > > X % D.9.^ ` E R %.! Y ' R ! U ! R ! ' ( E %.` ` %.} ( E #.6.' %.4.%.E ( E ) kXGXBX6 y ^ ( ` R } %.` ' ` %.^ E E %.( ` ] T Q f.[.LXtXz.5 % R 6.Y ( E E %.' x ` [ a D.o.[.JXBXd.# h R 5.%.%.[ E ` R ` ' 6.%.%.[ E %.R ( ` ` &.4.` E ! ] F.E g 8.h ^ T ( #.` ` Y / / t > > O . ^ J.1.8.4.0.U ] 6.R ` ( Y [ 4.4.%.K.J.%.A.' &.%.8.8.H.H.!.!.9.4.6.6.8.,.] 6.6.&.8.%.%.%.U %.&.h 1 $ & r a %.0.8.,.D.9.8.5.%.%.] #.%.4.` ' [ %.w.%.0.6.8.0.9.%.9.6.%.%.4.0.9.6.8.7.9.7.D.D.D.H.H.D.8.7.4.6.[ 8.8.] ( Y h g 3 > ",
"e = % % t 7.h U g a a U z ! ( U E ` a z E Y z U U U U ] ' Y R a U z T U E z z a E h #.>.I.2.e.OXSXCXLXiX_ & & Y U U a k U ' a Y.M.[.rX=X*X%XI < * k %.r Y ' ! ( E R U ` R T ` R U ! E z Y U Y ] ' R U U ( U a Y s ( z U Y R E h E ( ` Y h ` >.] ,.' / >.` ] ' ' ,.{ E h r = > O - %.] z ! U a U U U E U ` E Y R R U s ` E E ( Y E E ' Y z U 4.E ' &.R E R %.E b (.B 1 # ( h ,.T Y...# U 9.E g U E ` 8 g.#XB # Y } s J.0 >XC % E <.r u R.) Y yXj + h D.g O.c.G % 4.` ! ` a E ! %.' 4.! E ! ' R ' ' ` ' E U R R U ,.^ ,.] ^ ` E #./ ` ^ <./ R Y i e , = X % 6.8./ ] E ' Y %.%.[ E %.! Y z R E Y #.! E ( #.( E R R [ ! &.] ` %.( ! ) kXHXvX6 r Y ( %.] R ] ` ' ` %.( ] ( ,.x / ] Y ) P ).SXrXz.2 @ R ' R ] ' Y ] ! E U ) g J.O.+XZXBXp.. W 4.&.] %.` %.( &.E ' E [ ' E &.4.%.` ' %.Y ` ! %.R ] %.R a 1./ ^ g ^ ` Y ' >./ R g q , X X >.E.` ' #.R a s R E ` z Y Y ` &.4.6.w.H.J.5.] 8.H.A.0.A.#.H.4.%.4.w.8.6.&.4.4.%.4.A.` 6.6.R W %.&.6.&.%.%.0.9.6.7.!.D.D.A.7.4.w.` ' %.%.` %.%.4.&.6.0.7.D.6.0.6.5.6.6.H.4.6.6.9.7.D.H.q.H.q.J.L.D.D.D.7.7.>.8.>.( R ( V y - , ",
"> > @ & % 6.U h ,.E Y U z z z U z U ( ( Y Y R R E E Y R ' h a U U z U z E ` E a U z z H.8.G [.nXDXLXDX6X< @ Y ( R ! z *.E E ! F.z.[.#X8X8X8XN.2 < 3 6.Y a k E z R a h ` T ( ` ( E R E ` Y Y R U ` R U z ` E ' E a E U z Y Y ! Y Y Y ! R ] ' ' ( ( E / ' <.' >.' #.' ( z r q > % = 8.%.a U Y z z a R U ` a U ! T z a h Y ` z ` z T ` ] ' Y ` h E R h E W ' &.` C [.Q a q ` g $.V l.h.. E [ ,.g V ` ` j p.<XD   %.%.s P.8 <XN % [ 8 B Y.l.q x s.Q   e D.p i.).9 % ] R ` ] R ` h Y 0.%.R z ' R ( R E ! ' Y U ! R ' z ` 6.%.( ] Y ( { / ^ ^ <.x x x > , = X X { 6.( E ] R ` ` 4.%.] 5.#.R &.R ] z ( [ ! ! ,.%.' z ! ' ` %.' x ` ( ( ! lXCXrX0 w ` ( ( ] ` ' %.' ! ] ( ` ' >.] <.( h U.d.(.SXrXz.5 @ U 6.` R ' R ` ' #.{ U y D.A ).ZXHXp.# U 5.' ! ` ] ( ` %.' &.6.' D.] ' &.! ] ] %.` ( 7.4.' E R U h ,.( ` >.R #.( ` ( ^ V g , % X X H.H.` ,.D.&.E R E E ` ` ! E ' [ 6.,.%.%.%.6.6.6.7.L.^.!.P.!.^.D.9.6.6.K.] 4.H.5.' 9.6.' 6.4.' ) Y R ( ] 9.6.7.4.4.J.J.D.A.H.7.A.' %.%.( ' %.0.5.&.9.0.H.8.A.4.4.w.%.%.%.6.H.8.9.8.8.J.D.K.D.D.D.J.,.D.9.,.,.>.8.V ( ( ^ ( a = ",
"e = % % t %.a z Y Y h U h a z U z U z z a z Y E a ( a R R Y a & R ( Y ` ! %.a r a Y &.9.=.p.{.pXIXIXiXi.1 # &.Y s a a E ` E ] g '.c.@X8X=X*XOXM $ 1 ' E ] U Y s ] R a a z ` T ( ! Y E Y R ! Y ' ( ` s R R R ! R Y z U R Y a E T h R ( R U ,.Y ` 6.R ) ' ,.#.#.) / ' / g a = , % % %.H.R W Y ( Y z ( E ! ` ( Y E U R h Y ! ! ` z Y ! ( z ` Y ` g E Y z U ` ' ( B ).S r q ( a @.h W.o.. ( %.( ( ] #.` h a.1X~ . T ,.y L.8 +XB 1 s N -Xg.= 8 t L B . e A.i i.c.N = 8.Y ( ' ' E 6.] ( E ] ` z Y R &.E E E ] U ! ! ` E ,.H.] 6.0.R T ^ <.` ( <.( h h t = % X O #.H.T ` 4.` E %.' ^ 6.4.E U E R ` ` ! ` ` ` ` 5.%.] ` ] %.%.8.E ' R ] @.jXAXhX8 w ! R ! ( ( ' ] ' ` ( 5.' ! %.] ` ` a F.P |.AXrXk.5 # U Y U #.^ >.' 6.E E ] a 5.N ).HXHXg.i Y ` %.' ` ` ' ! ' Y ' [ %.#.5.E %.' ` %.[ %.` 9.%.] [ 6.E g ,.` #.R <.<.#.^ ^ h x t = , . o 4.K.` { q.6.4.E %.^ ] ! ` ( ! 4.0.` ! 8.%.K.%.&.w.&.!.H.P.!.J.H.D.K.6.H.6.%.8.J.,.5.&.5.%.' [ %.] 6.w.] ' 4.5.6.5.H.K.P.7.A.6.H.9.5.] ` ] #.] %.%.6.0.K.9.6.6.%.%.%.%.%.%.8.H.6.7.8.7.9.q.H.D.H.q.7.D.6.,.9.6.4.E ` Y Y T h t ",
"> > # . t 8.R z ' U Y U a z s a U z U Y z z Y U E z ( %.E a E Y s h ( E ! ' [ a a a %.!.X.(.tXDXSXIXtX6 & 4 %.&.Y ] a Y x Y E a A.z.{.rX&X*X=Xe.0 < w #.U R ! Y h z ' ' E s ' U ] R ` Y R Y E z R Y Y z ) U E h U h U h z h R U h a ( ' R ' ] R 6.' ] ) ,.8.,.%.] ( ( h r = = O q #.] ` R ' ' ` ( R z R z z R U Y E Y Y z ` U Y Y R E R %.a U s a z Y z T #.` S +XS r % ` g ) i /.L # E 9.E ` >.6.` Z d.<XN @ h #.a 8.0 -XS w b Y.s.4 - ,.a :.G . a 8.s :.z.9 $ 9.,.( ' R ( h U ] T z ` ` [ ' ' ( &.&.R R U E ( ] &.K.' &.5.` ` ( ` ] >.>.#.Y h t > > X # ,.7.( %.8.` ` R ` U E ] &.%.R R R ( ! ' E ` ` ! &.} ] R ( ] ` ' E Y R X.gXZXhX7 i ( ] ' ! ` #.E ` E ` ! ( ] #.} ` [ i A.+.[.LXbXa.4 @ ^ 4.a U ( ,.E #.4.' [ z J.b /.HXHXz.3 r ] ' ` ` U E ` &.Y Y E 6.' ` w.` E U %.` %.] %.4.! ! ` R z 8.g %.#.#.5.7.<.` / x t > , . O >.!.^ [ #.J.6.%.#.%.%.] Y %.U ] ,.5.E w.&.4.6.#.&.A.8.6.H.8.H.I.^.0.0.6.6.0.5.4.0.4.0.A.%.&.' &.%.' %.%.] 6.4.A.J.9.P.K.7.D.0.A.A.] ` ' ] %.( %.%.,.9.9.A.%.%.&.4.0.' %.6.,.4.6.D.9.P.w.4.8.%.,.] ,.6.] >.#.D.6.Y x T g Y R g ",
"q > . % o &.a U z z U Y R z E z a U a z h z a h ( U R ' 0.' E R ' E Y R x Y *.U E R @.G.F M.DXDXSXDX/.- & W ` E Y U z Y r z a t ! d.+X9XuX8XuXM.v < 3 #.U h %.,.` R Y ! z z R U R ] ` E Y E @.U @.Y ] z ` z &.Y U U E Y h s s a W U ! Y R ' E E ,.Y ] ( ) %.6.6.` Y T g q % = X % %.,.Y ` R ( ' h U R E T Y R E U R U %.E E R h ` R ` ! %.' %.] r h g g h >.V S [.N r % U h %.p z...X ( 7.{ Y { 7.' i i.3Xc X l U a 8.4 }.p.Z n Q < q r D.a t.A . T D.i f.z.c % D.( ` T ' E E E ' 6.U ] ! s R T E U ` ! E R T ' %.8.4.&.` 4.Y Y ' / T ` T Y g h t 3 , % X 4.L.z 6.6.` %.` ` ` %.,.! 6.E E ! ( %.' ] ] ! ' ` %.] ` ^ ] E R ` ! E ) jXbXvXn q ] Y { ] R ` R E ` 4.R ! %.' ' E ' g J.X.$XPXvXa.s & ^ D.` ,.R ` ` z ,.^ ,.g 9.N (.AXJX(.a e ( 9.' ` } ` R ,.' E z ! ` R 6.] ] %.' ! ' %.] &.[ ` ' E Y 7.a T #.<.,.,.>.>.^ y t > , . # D.P.( 4.5.%.%.` ! ` %.&.R Y R %.` ] ' ! ] 6.&.%.' #.%.] 6.%.9.P.9.A.8.8.5.H.4.6.9.D.J.P.A.%.] ( ! A.] @.' A.4.4.9.H.P.K.H.A.w.0.8.6.' ' 6.&.#.Y %.&.,.&.6.%.0.' ' 4.` ] %.&.[ %.H.6.6.6.H.D.9.[ #.,.] 9.,.>.8.D.T h h V h h t ",
"w > % 3 r %.a r a a a z z Y E a a z z z h z a r a E s a W R 6.T ! Y ,.J.0.` &.Y ! R &.S.e.8XDXSXDXDXD # w ' a ` ] ` %.` ` ^ #.#.a R.(.$XZX=X8X*XI 0 $ U 1.( R ( E ^ ` ] R ! z R Y s ' ' W U E Y ' R U z E ! ' R ! z E E E R s W h Y z Y ! ` R ( 0.R ' ] ( 0.,.#.T ^ ( T r = , X r %.6.U U R R E T s U Y E R h U z Y z U %.z ' ] Y E ` ` z ` %.' h r g z Y / ^ c }.B e - Y t #.p ]._   ( ` 6.( ( ,.' T H fX9 % a ' y 8.5 -X-.% 1 $ w U w H.i a.S . r D.p i.z.B - 1.( x ( R R ^ ' U E ' a %.R %.R ( R z h R ' Y E [ ! ` R ` &.z z ' R ( >.( R ( g i q > O X ,.0.' } 6.` E ' %.! ! %.` 4.%.E ( ( ( E [ ] ] R Y ] ! ` E ! ` ' ` ` ! =.fXNXcXD q Y ' U #.' ' ] [ ` 4.R U ] E ^ ` E a L.v #XPXCXl.4 = ( 9.E E %.4.8.R <.] ( g 9.n ].CXHX+X5 y ] 4.' %.( ` ] %.` ] %.` %.&.' ` ` ] ! ! x ' ' J.8.' &.( h 7.h ( ` ) { ,.7.<.` g e > = . % 8.J.' J.H.6.4.' ` R ! ! ] ! ` ` &.] R E &.` %.4.%.] 6.6.0.6.4.&.P.0.A.!.J.0.%.' %.E a 6.A.] ' E &.' E R 4.0.%.6.6.9.P.0.H.P.6.6.%.,.E ! E h D.%.R w.%.%.4.&.} ,.' R Y ` ( ` 4.6.4.H.9.8.K.L.9.D.D.9.6.#.1.D.9.D.( >.T Y h h g ",
"w > O 3 % &.a h z a U z a U Y ! Y U Y U U U Y z a E z U R z ( R R Y E ] 7.z ! E E 7.8.H M.mXDXSXmX%X0 . z 6.Y E 6.` ` E E R T R z S.l.|.,X8XiXaXu.m $ 4 ' T a w Y R ! ` a ' U z E a Y ' ! E E ` %.` &.R ( ` Y h ( ] E ! E W U s z Y h E U E ` U #.Y #.,.#.#.] #.( ` ( Y r , - X a 0.0.` R ] ] ^ ` g U h E a ( a z ` ( z %.h U R Y E ] ! U h Y U ( ] U a a E #.c /.j @ t R a ,.u ].H % ^ ` ( ( x ,.( T F 9Xp e t [ i 9.5 }.~ # %.#.U ,.g 1.r p.D + z F.g a.k.H # D.` ' r U E 9.E %.h Y h %.#.R ' E ] a a E R ] U 5.%.] Y ] 4.W a ` #.#.#.<./ ` h y 3 = O X ,.D.( %.%.,.` ` ] ` ( ] R ` #.' R E %.` ( ' ` ] ' ' ] ` R ' ` E #.` ' ` kXCXcXF y Y E E ( 6.%.] ' %.' E ] ' ` #.E ` a K.S @XPXZXl.3 % ' w.R E ] %.8.R Y Y 1.Y K.9 '.ZXBX+X@ w ' #.E ' 4.#.6.] ` [ ] ! ' ` &.%.%.[ %.E ] R ] R #.%.5.Y h #.` #.] ( / ( ] / Y t = > > . O J.K.7.K.D.%.%.' R E E ] U E F.Y 3 [ %.z %.! @.A.h a H.' %.' @.6.] w a L.7.H.6.` [ & # r D.' Y h ' 8.1 % @.&.` %.&.8.K.W 3 w.H.5.5.%.E %.k q h A.] ' ] ' A.U # Y &.U k E R %.r W 9.&.&.%.` 0.4.' r ,.P.] %.1.5.,.Y >.` / U g t ",
"t > & % U #.r r a a z U U z U z r U U a a a a z a h U Y ! h ` ` U ( z ` 0.] 1.a T $.~.i.OXmXDXDXDXe.5 o x ] a T ' ] R %.%.E ' E ' & Q. X#XcXuXaXOXK < < k ' R U s h R %.} U %.T ` Y ! ! &.%.@.E ] E ! ` R E z z R s ` s ' z s w ' R E z E ` ( ( U / ' ( <.( ,.>.] ( U h h = , . h D.#.z R %.E 0.Y E s U U z E U z R ' ! ] z h w s U z ' 8.E ] R q U ( &.a i 0.B [.4 X ` X.a 1.8 '.:.. ` ' ^ E R <.( E M <Xf = t #.z 8.5 `.D % E U g >.x D.j P G O r 7.p p.l._ - 6.>.#.( h g E E ] ` ! U z %.E ' 6.A.R U z ( ` U E 6.%.R 6.&.%.R R ' ` ' ' ` ^ x w r > X % #.D.U E ' ( ( %.U R R 5.%.E E &.[ ` E Y E ! R &.' %.%.] U ` ' ] ` ^ ' ) fXCXvXp a Y E ' R w.] ( ' ] ! ! R ' ` ( R ` t E.D $XGXBXl.5 @ ' &.%.' z ` [ E #.( ( R ,.9 [.bXBX+X$ = 5.#.E x ( R ] ,.[ ' ,.6.,.' [ Y %.` ` R &.` 0.E ` E ' ! h 8.z ` %.#.#.' >.#.h t e > >   = 9.E.9.!.H.8.{ %.E ` ! E W E ! @ + q 9.R ` s A.i   o [ 0.%.%.E 8.*   # %.I.6.%.! a v * . U 7.@.k 0.y @ . w 7.%.%.R P.a * & t D.0.8.] w.` 1 @ . r 9.' ` 6.w   . ; 9.E a z 8.Y % % ' 9.' ] ' 4.#.X . % 6.7.&.[ R h #.] ` ^ Y U h ",
"t > o   a 6.a a a z z a z Y a z a U ` z a a ! h g r z U U Y ] ' Y R a U ` ( 8.E g $.U.e.nXpXDXDX7Xm % r ! z z a U z ` R @.! Y ,.J.R ~ b.<XnXuXpXuXr.v < d ] E Y z z ` ` ! U E R @.' U Y E ] E ` ! ' E Y %.( E Y R E 1.T h s R & W E W z Y ' ^ ` x ) ( ) ( #.@.' #.( a a r = = X h K.&.U R %.` ,.7.#.h h E R ` ` E a ,.U E ( z w U ' z ` R U 4.( E R Y %.g w F.9 /.5 X { ( r ,.8 '.L X ` ( E ( ` ( 8.] A 4Xu q q ' t J.4 ].D o ' ^ g T g 1.t p.H % U 7.i k.l._ - ,.,.#.>.h Y ` #.%.R ,.E a h z ! #.H.&.] E R U E ' ! ] Y ' ` ' [ ^ >.^ ' { ( ( Y y r > X % ,.6.^ U ' ' %.,.U ` R ! ` ! E ` Y ] E x R E ! ' ` ' %.] ` E Y U [ ` ` _ dXmXCXd ( / ^ ' ` 5.` ` ` ] Y ( E U %.] ! ' r K.F @XHXZXY.s = ] 6.] ' R &.` U ( ' #.U D.c [.bXCX).@ X %.7.%.U &.R ` ' %.#.' %.! %.6.%.[ ` ' ` ] ` %.%.( ' ' E a 9.g U ` ` Y ( ' <.' x g > >   # J.J.9.!.L.4.#.4.' ` ' ` s &.F J o . ` %.k ' z 2 <   > A.R U 0.8 M f . & J.A.$.W +.x.K X . ' 0.x T n K @ . a %.E ( %.B K < o ;.H.6.! 8.n j.M X + R } E ' A y.f   U 4.a E } @ @   o ' %.] ' [ f 9 *   w } } R g g <.` ,.T Y x a ",
"q > % # ; 6.U E z E U z a U Y h a h Y E E r R Y z U z h s U a ! %.( E a ` Y ] A.%.~.S (.SXSXDXmXk.6 # ] } U T a R W s U ` %.] E ` [ *.Y.;XcX8XaXiXZ.v 2 u W E r z z a h z E R Y ` 4.] %.' &.` E [ ` ' T R ! T R R s ] ] R h r a Y R E a Y #.` ( y Y ( ( ) ] ,.[ ] ' E g r = , . h &.&.Y ! ( ! ] ' 0.R E ! a Y E ` s R a %.` %.#.E E R U E E Y ] ( ( Y ! W g q.B ).r o ` ' r ] 8 +X_ # ] >.t U R ^ <.' B 4Xu & t ! r 9.6 /...o %.[ g / g <.g P D o x 7.i a.z._ - q.( #.6.U ( ( 6.U z %.R z ` z ( ( ,.%.R #.U ( R E ] ] z E %.#.' ` ' >.` / V ( h r t > X X ] H.( R E %.' 0.%.%.E U ' ! R E [ ! U E ( } ` E ! ` ' ' ' ` ( z ` ` E X.fXAXMX< h >.] #.%.6.E ` z ! ` ' R E ' ` ' ` r L.B %XLXZXz.V = E %.%.] %.' ] R ' ] ^ Y 8.9 }.CXNX(.$ # %.%.%.( %.' R ` ` %.[ %.#.] ( %.%.%.E E ` &.! ` ! &.] R a 7.h ^ ^ ' ] ` Y h / g t = > X % 9.J.#.8.9.6.' ( %.( R Y ' E a.M.f .   %.U 6.d I K   . Y &.Y ! F M.u.2 . q A.$.Z j.9XZ.m   ; !.D.i a.C.K . # J.E ] Q k. XI   @ %.F.] d p.{.n.A % # % &.n j.{.A   . 5.` *.f J y.$ . q 0.' %.1 I b.e.    U ^ l g h ^ ^ #.` U h h ",
"q = # . U 8.z U a z z z h a Y U z a U ` U Y s Y Y z U Y %.Y W z ` Y ' %.E z Y %.L.Q.L tXmXIXDXtXG 4 % U U Y ` E z U ! z U T 6.A.,.>.a U.).;XbXpXmXuXe.2 @ T } r h U h a U E E Y Y Y E %.#.' A.%.E ! E R W Y R R R h a s r z z a U g R U ^ ,.[ h t g E ( ] 1.,.] <.^ Y g r = % X h 8.0.s %.( ' E H.%.E E U E z z ` %.U ! ] ` ' E ` [ ' ' x ` E x Y z z T R h S.0 }.5 % [ ^ a ,.6 +X~ # #.6.( a e Y ( ( B 4Xu ; r ' r 9.w ].F X >.%.E #.z #.a t.D X g K.t a.l.N - 0.5.' &.` U a A.' E %.E ' R Y W Y ! %.%.' ! ! { z ] ( U W &.E ' ( #.&.&.) E ( h t y = X % ( K.' ` %.` E Y ' ] R %.R ! %.U ! ` ` ' R E %.E %.%.' ] ` ` ` Y ' U R  .qXCXgX$ x #.( ] ' 5.! ` R E E ] ! ` E ( %.' s J.S $XAXHXl.4 $ ( %.%.! 6.' ` R z ! ^ x 8.9 |.NXZX).$ 3 ] ,.^ ,.` ' ' ! ` ` ] ! %.5.( ` ' [ %.' %.8.E ] ] R ! R h ,.T #.Y ` ] ' >.Y h h t - = X - E.L.( >.,.6.4.>.>.( ( h %.4 G.O.f .   ;.L.;.K  Xn.7   # %.P.Q M.vXV.r.  o ( 6.+.;XtX{.u.2 + @.E O.%XtXZ.2 . i A.! k.|.hXn.@   q H.,.H |.AXV.a.w w a a M 1XZXM.<   f P.z 8 (.9Xr.* . l H.a J z.BX{.K   O { R Y x x E ( ` U x g ",
"y = X   U D.z e h Y U U U U z z a Y s a E z U U R z ! Y U E ( R ] R ` ! ,.' a a 6.2.a.uXpXDXDX}.5 @ t Z g E a Y R U Y z ` U ` ! Y [ ! 1.XX|.7XnXDXuXoX7 @ & 6.Y z z ! Y s a U s R W E ) ' &.A.&.` %.( ! E U Y U W z z U a E a U Y U z U ^ ] ' t i h ( ] @.6.%.%.( ( U t q - % X R H.[ a ` U ` ! R 8.E R Y ( Y Y z ( ` E R ' R h z ] ,.D.%.! ` Y a g U E E a 1.9 [.5 # ^ ' e #.8 :XX.% ] #.0.Y Y h T V M 4X4   . ' w 9.4 l.M X ,.,.( ( U ,.i a.N O h J.j k./.Z - ,.,.U [ U ! h %.( U 4.[ U U R Y s U E R ` ' ' ` %.%.' U Y #.( ( ( >.,.E #.! E U t > ,   % ] D.( z E Y z ! ' %.E E ' ` E ` ` R E ! ( s ` ` %.5.0.] ' ` ' U ( ( E #.wXcX9X# g { ` ` ' %.` ' ` ( ( ( ( ^ [ ! R ' g H.C $XLXNXa.s 3 E A.%.` &.[ %.[ R ,.` ` ,.v :XAXZX).X i ( ' ] E ` ' ] ' [ ' [ ' ! ' [ %.` ( ' ' R ` %.4.%.4.R a h 7.x R ( ,.>.>.' T h r e - , . = E.6.' ,.8.,.%.,.( ` #.h s W =.=.d @   % k f b.9XOXu.<   w %.v @X%X{.Z.v . V ~ z.vXtX6XC.e.  ; B b.vXrX{.e.  o #.J  X1X,XV.I . o ( n k.NXNX7Xn.A % 1 n (.GXcX@Xe.@ o Y 4 x.NXLXOXm   % ,.5 y.wXAXcXM.f + R H.,.5.Y Y z ( ( g e ",
"r % % # s H.U R z s U ` z z z Y a h z h E z z Y T Y s w s i W ' %.] z } %.Y ! a 0.+.<XLXDXDXuXO.8 # t a Y U h a a s z a E ! R #.' ` 5.a U.(.0XtXmXaX*XI # $ ' E ` ' ! Y W Y z U E ! R ` ! ( &.#.' ` ] &.R Y ^ ! z z Y Y a Y s a h E ( #.' >.e , g g ( U ( E 7.,.' ( z r r = % . ( 9.%.U Y R %.R E ! %.R [ Y #.z r ` R E R ` ] ` ' ! U ,.' U z R Y w z z E U 7.9 ).f # ] h w ,.j }.W o &.( 7.r E t Y U H qXb = # ` k J.d l.:.X ' ' U Y h 1.V k.A % t D.j a.k.9 - %.R %.%.' %.4.z ] Y ` Y E R T z Y U ] ' x ' E ] %.( ` h U ' E E ( #.6.>.#.( Y h e > % + X ( 9.^ U 6.` E E ] ] E E ` ] U E ` ' ` ! ] R ` ` ` &.&.%.' ` [ ( ] ( R ) fXbX$X# g #.,.%.' #.` Y ( E ! ' ! R ` [ ` w.a K.N %XAXCXl.9 o h D.0.%.` 7.K.I.J.6.w.` $.n >XSXNX'.  e 6.E ' ( ! R ` %.R ! %.` [ ' ' ' &.( ' E s ] ' ,.! 4.0.' x 9.` #.>.<.#.>.( / x g e , ,   , E.7.( %.D.8.J.#.8.T V ^ & =.@.@.d < . + % M |.OX%XC.M . X f (.0XtX&X{.u.$ N y.dXLXHXCX,XM.7   P gXZXtXtXn.A . f k.#X7X,XtX(.A . < y.9XZXrXCX@Xx.C S l.BXvX0X,XB.2   * t.gXLXbX0Xn.0   2 J  XLXbXAX0Xe.. . { D.,.T U T Y ' Y r ",
"r , X o r %.z U a z z a E R z E ( z a s z h h s a s Y h U U U a ] z } U 7.Y %.%.G.t.bXSXDXDX+Xn 3 t 4.a g z h a r U z a U ! T T ! ` %.R Q z.gXCX8XiXuXx.0 X t ' Y h Y E ! %.Y ' T #.! ! @.! ! E ' E ] ` ` R E ' z z Y h E U z h z r g U ^ t % - t h h E ( E #.8.] ( U i e - % O E H.%.s R U ' ` U ] h U h a z R z s ] R ! U E s z ` E z ` ` &.U E ' z h a r D.7 #X3 X >.] r 7.5 -XZ @ ` %.6.R R ,.' T L fXN % . R Y A.6 z.F # ] %.Y h t 1.g a.S + h D.5 z.l.8 q A.z 6.R R E ` E %.] ` ` ` ] ' ( z ` Y R ` &.U E #.' ' U ( ] ^ R ) %.%.,.] ) ( g q , % . . ] 8.( ` ] 5.' ' E R ` W ' ] ] z E E ' %.( R ( ! %.%.' %.&.%.' ^ z z E @.4XMX,X@ g ( ( ^ { #.` %.%.E E ! &.R E E } } a K.N |.HXZX[.M . & w s % q % * i w h % t ! S <XCXMX[.. g ,.#.( ` ,.` ' %.( #.! ` ` ! %.%.%.` 0.] Y %.z [ z ` ] z U D.Y <.,.] <.] ` / x t q = = . # L.7.E ] &.#.,.>.%.! h h 4 S.) _ Z 6 < . c u.|.1XtXOXZ.J $ L <XCXbX8X7XB.I t.$XLXAXPXbXrX@Xn.B.>XvXcXbXnX,Xu.M b.{.wXeXhXCX7Xj.v t.$XHXZXGXSXCX$Xd.|.jXAXjXvXnXtXj.e.z.1XLXAXcXcXwXj.* F b.vX7XcXCXAX[.0   q K.H.E ^ ^ U E T g ",
"r > O   r ' a a z U U U E Y z Y R U T z U a a s U z E h a a U h Y &.U Y #.#.( I.h.).LXSXIXSXp.N $ [ R Y r r Y Y U z h R R Y E z z E ' ` T s.1X0XmXaXiX&Xv . & %.Y s s ' E E a W T E U T ] %.( ! %.] %.Y ( ` ( R E E T R %.z h q q w U U h e e - e y a E T E ' ,.' >.T g = = > . E 8.%.E R U T ` z ,.' ( E ` z ! a a s h R U a a a U ` E Y E R U ^ ' ' Y ( t D.G ).< - [ ] w ,.b 2X~ & ` >.>.E ^ h ) V L qX9 % # Y r ,.4 c.:.X R #.Y E z ,.j z.L X Y D.w x./.Z # 6.Y ' ] ( Y E ] Y R ' z %.( Y R z R R T ! ] %.! ( ' A.z E #.E E h E ` ( ( Y h g e , % . . ( K.` ] U Y z &.6.! } ] %.Y %.! U R ' E R ] ! ` ! 0.6.' E ` E 5.` E { _ fXZX<X# g V U E ( ] ` ` ' ` ( E ' ( ` ` ` ( r K.c @XLXLX<Xa.# o 3 ( 4 g p < . . # % . i L hXAXNX).# t [ #.( ' } E ] &.` [ %.%.%.%.] E %.4.H.%.` ,.` %.` 4.8.! g 8.U ( ' >.` >.' ( R U e = = X X ,.` g a E #.6.,.( #.Y 1 %.=.$.%.T c n & a.B.C.OX*X&XV.Z.M.$XcXZXPXbX%X6X{.OXGXHXJXkXGXMXbX7X7XZXNXJXjXHXGX1XZ.|.@X0XGXFXHXmX#XC.@XGXHXJX<XlXJXCXeXvXNXZXPXMXGXZXeX{.0XbXZXHXBXZXCX1Xu.B.#X%X0X%XBXLXNXt.. . 5.E.T ^ Y U Y h g ",
"y q & . t ,.z z z ( a z E U a a U h a R ` R r w a s W U Y a s R z ' w.&.( ' &.J.P uXIXIXDXiX9 3 e @.%.! U Y R z a k i z U R Y h ! s z @.y R.[.@XtX8XuX*Xj.* o ( ` h a a Y U U h E R ! s Y ` %.*.%.( ! E ' Y E E ( E R z %.6.z ' h r r h e t x t t g h ` E ( ) ( >.( ( g = - , O 7.H.] U E ! ( %.R Y U ' E R z U z h T R %.6.' r r ` ] ` R ] ] E a ( Y R T T D.v $X8 # ] ` a %.6 :Xd % 6.6.{ 7.E g / h o.fXd . . U h 8.i l.o.X ' { z g z 6.8 l.D O Y D.i l.p.8 = ` R z E ( R Y ! ! ' ! ` ] ` ! R [ E ` Y %.` E ' 4.E %.g U ' h Y Y h R / ^ T h g > % O X . T 6.U ` ] Y E U #.! R U ] E R x ` Y ] #.Y ] ` E ` 6.%.#.' ` ` E E W R ] qXJX3X$ h ] T R ! ' ' R ! ] ` Y Y %.E ^ ` [ r P.n [.CXHXZXC.o.n m c c J M P v 6 J v 8 F (.%X%XeX|.. w &.8.R ^ ! E E #.` ! ` ` ` ' &.R ` ' ' %.&.6.%.` E 4.` T g >.T ( ( [ ,.<.' ^ R g t , > . = K.,.{ ' ^ >.,.6.,.,.3 n ) 6.&.@.! n ~ t.r.n.n.C.OX%X&X@X@XNXCXcX`.fXGXtXiXtXZXBX/.O.p.lXCXAXZXNXgXl.L '.ZXAX0X,XtXvXf.W.MXAXcX%XvXZXHXg.b :.VXJXKXJXNXvX/.O.W.JXZXAXrXtXcXc.P }.BXcX%XOX%X,X}.G t.fXLX1Xv   > E.] ` U U h g t ",
"% ; % . y ,.a r w a z Y z ` U z z h U a z Y a a h h z z a E i z r r ` E h ( E.s.+XmXIXIXDXa.c 5 r #.&.E a T h z h h h h z Y z z ` ` a E U Q ].>X7X8XpX=XV.0   z 6.E ! E Y &.! T W Y Y W ! ] ! %.@.%.%.R ` ' U E ( ' ` ( #.4.' Y z z z ( r h t t t g ( ` ( ` ^ ( ( ( Y a w = , # #.P.4.z ! E ' ` a Y Y ! E r T %.z a R Y ( 0.%.x e a s %.R U 4.] E ( E >.] z D.G }.& @ ] ` i ,.5 :XZ   ` %.w #.9.( / V L qXN X X ` r >.4 l.P O { >.^ ( h 7.8 l.S . E J.3 f.z.j $ 5.R E Y Y R E E U ] R R ! R T E ( ! E U E %.( U #.&.%.h h Y h Y ' E h ( ' Y ^ t e O X . X R K.] U a R U %.( ' ` E z E %.R %.T E R Y ' ' ` [ ' R } ' ! E Y Y ` @.' 4XGXeX@ h ' } R E [ ( ` ] ` ` ( ] 4.` 5.E ' i J.n [.nXZXLXeX0X1XC.V.V.{.OX#X%X,X%X6XwX#XbXiXcXbX|.* q %.4.%.( %.R ! ] R ' %.6.%.E %.` E z 4.%.R E ( >.U #.%.y g ,.Y ` [ ( ' >.#.` ` t e , > . & D.6.' #.E ,.%.' 7.#.1 =.I.J.#.@.@.! I.~.W.b.n.Z.V.C.{.OX%XNXwXl.p Q -XZXrXtXNX'.F j V s.MXrXrXcXc.b h H wXZXvXhXMX/.A ..f.FXCXrXcXvX/.8 T @.W.PXPXNXZX}.8 V F W.BXAXrXCX[.c N J <XHXZXeX>XqXB u 8 o.BXBXj.<   ^ ` ( ( ^ h i g ",
"& % O . e ] z ` h a z a Y h z Y U Y h U Y a a z a z g s a U z Y Y a z ] ^ t 6.:.tXSXIXIXbXG 8 3 W W ] 6.' ( z h a x s U h U z z z ` Y Y z a G.[.1XiXaXaX8Xe.. % 0.U R Y s ! U Y E R Y r E W T ' ' ) Y U ! ` ( ` E ( ` R 0.,.E 6.] Y E ` Y t t / t g E E E ] %.( U T g e = = = , q.~.` R U T E %.( Y R E ` E h E ` Y z z Y ( z %.` a s z E ` s U U h a h ^ z ,.B [.$ X ` x r ( < :Xp . ^ 8.U a E 8.( g o.9XN = , 9.h 9.8 l.3.X T >.i h U 7.i a.D   z D.3 l.c.Q = H.E ` ! ` ' E E Y Y E U ] E Y ` R ' ` ' U ` R E R E 4.h a ` E ] [ ' ` Y Y g z g e % o X . h D.] H.Y U %.a E R ' ] R Y ! R ] E ` ! U ' ` ` ] 5.] ! R E E %.` Y E @.;XNXlX$ U Y ] >.E %.` E ] ( R ' ] R ] z E %.i L.C [.eXGXHXNXZXbXNXvXrXrXZXAXCXbXvXvXbXZXNXbXcXZX(.# U &.#.,.E E ` ] R ` ] ` ] 6.` %.' ` %.E ,.4.( %.` 9.4.6.E a #.E ^ >.>./ <.` / Y h e > > + = ,.%.( #.! ' ,.T 9.r W 0.1.!.#.#.@.1.J.!..X.XfXrXcX%X7X%X0XeX).9 4 T  .4XZXCXhXL 1 3 T d qXtXrX#Xo.# d ~ l.GXvXhXhXL 8 i G }.HXBXrX9XF u g ) F qXGXcXwXD & r W L NXCXNXwXB X 3 W M fXJXeXjXL f q i p '.LX,XK X % T ` T h U g w ",
"q % % O e ,.z ( a h z R a w a Y ] U U U E w a Y z h y U r s h ' E U Y ' 6.( !.x.nXSXIXIX`.8 1 h %.^ ,.&.T z h a ! a z a q w w h a x E z z a ! T.1XvXuXuX=XV.7 . ' 9.` T Y U R Y ! ! ] s w E U E ' ' ! Y ! ( ' [ ] %.' h E 9.A.[ E %.( ] t r g h e g R U T ` >.^ Y g h r - - % , >.q.,.( Y R E ! ] Y #.E E ( T z R ( ` ! R Y a Y R &.a U R z z a ' ` s E U a &.c +X< X ` R g ( 0 -Xj O ' ] K.U z U [ i L 3X..X r h h F.4 c.L O Y ,.z h a 7.s a.F o a H.i z./.8 # 9.' 4.Y 6.U E U ' U E E ( %.U R R R ` [ z %.` E R ` 0.E U ] E E ' / >.1.>.T h y q = - X + R #.^ %.' E %.( %.R z &.! E ] ` E h ! ` ' ' ` [ %.] ' ` U E E %.] E ` ) d.Y.o.% Y ! Y #.` %.E ! ` ( U E ' 5.` ` #.%.a 9.V k.T._./.W._.W.l.l.(.z.g.l.l.W.z.T.l.T.T.z._.Y.t.& #.' &.&.Y [ E ` ] ` %.E ] ` ( ' ` ` ! ' ' &.E 9.5.,.[ ,.` U 7.%.` %.` ,.4.>.>./ h q = , . - J.A.` 6.%.] 6.Y ] % J.S.w.E ! U E #.A.E.!.9.Q W.m.L Y.-X:X9XL < w Y _ :.BXZX}.d 1 w 5.a +.BXeXP 8 $ i 9.A }.BXZX[.Z $ h Q L VXNXZX+.4 r z A.b k.BXqXO.5 a } A.u }.AXZXl.2 % e 7.p i.FXBXg.6 q Y 8.3 B lXNXM.7   ! ' R ( z z g ",
"w % % . t 9.a T E ` z s ! R Y s z a Y U *.U U w U h g U a a q h R z W R ' I.2.&XmXSXSXSXL 5 $ ( Y U ( ,.T a a a a q w r w r w r w r a z z R z Y.|.wXiXuXuX&Xy.. & 8.` { ( a U U E a ] W a W R Y h U T Y Y ! ] @.&.R 6.4.8.( U E E U E ` T x r e = h / Y Y ` ' [ ^ V h g 3 , O X 5.E.` h g E h ' h a U E E Y U Y U R a 9.T %.' %.] z #.R U E ' ] a W Y Y z z &.c [.# # ,.` h ] 8 }.d X >.6.Y #.s ( q.i B 4X_ . ! ,.g ,.w l._ X U 7.a ( t ( s a.H % a 9.4 z.l.9 - &.0.h ( ` ` R Y %.s E R ` ! ,.! ! T ] #.` E ' E ( ` U z U ' E ( ` ] ^ / #.<.( g q = % + . x q.' 4.` E R U ' 4.` Y %.a z ' ! z R E ` ` ] E ` %.' ` ( U U Y { ' ' Q S _ j & U ] @.>.` w.! ` ' ` ` ' E R s ` ` ] a 4.z D H D H H S B D ..~ D ..~ S S F A | J | F A Z p w ] ' ` 7.%.Y } ] E R ' E ] ! ` ` E E E 5.` ! 7.` ! 6.( A.E ( 7.' %.#.7.>.,.` ' ' Y g > , . = q.q.] D.,.&.` 4.U a F.J.' E W W %.( 8.F.!.!.9.1.6 a t H.=.s d 1 q * ) B '.fXD : ; ' s 0.w _.z...3 q ` E ( X.VXkXt.r 3 Y ] S i.MX/.8 4 k @.! ! F :Xa.2 g { A.%.@.A fX+Xf % Y ` h U v `.4Xn 2 r 6.( { 0 l.NXhXy.# E ) ( T Y g t ",
"y - X # e 8.U a U Y z z U U R Y U ' a Y ] z U z T U a g r a g i s a a T U D.a.iXSXDXSX%X9 5 w %.U U U ] J.1.E Y ) a a h r r a r r w r q a n z R.m.OXiXpX=X*XOX0   U H.h &.z ! ! ' ' E Y a q V U U h i U s y R ' ' %.%.E Y z z h ` ! R ! Y ^ t % e g ' ` ` ' 1.' ( T h h r , # % >.E.` T E ( z E z z w R E ' E U Y Y a ] s r %.! E W ] E ! E T ( ' E E a s Y %.F [.% % 4.^ w >.0 +X9 # ,.4.[ ' ` ' H.g M :XL # #.1.R J.j l.3.X >.D.^ U z ,.i j.H % % e 4 l.l.N = D.0.E Y ` ' ' R 6.U E E E Y ] Y E ` ` ] ' %.` ` U ` ( z U [ ( ^ ` >./ [ ] / ` Y t - % X X Y ' R %.E ` ' E ` %.' ` ! %.4.} 6.U R E ' ' %.! ` ' E ^ E E E #.' ! ! K.Q h V U a ! [ ` %.%.] ' ` ] ' %.` ( ,.R ` 6.h R 7.` n W V s h z z T b W T W Y U z z Y z Y E V U Y U ! ] ! ' 4.%.E 7.E E 7.%.] ` %.R ' [ ( %.#.h 8.%.E ` 4.7.E %.9.#.%.>.,.8.%.4.` ' h g > , . % K.4.( H.6.9.&.#.& ` A.A.` Y a - r T ( 6.A.E #.s V E #.z 6.w 1 & 3 q R (  .s.i q E &.R r W j Z $ 3 h ,.} H.( Y.`.d = Y &.u #.C i.H 4 q #.4.k 6.d O.Z p x 9.%.z 0.N +.B 4 w 8.] Y #.4 F F 5 e %.8.h 0.w S lXAX;Xv W T ( Y U t e ",
"r % O X x 9.z a Y r z ] z a U T Y ] ! ! Y ( z a E h h U h g U Y Y ' ! q %.P %XnXSXSXSXg.5 $ T D.R ( @.E 6.8.W s W % @ # @ % o r s %.&.s E U U U '.{.%X8X=X&XOXy.. & } @.#.] U ! #.! E ' ! ' Y z T W a E a h ] U z E ' ' R ` ! r s ! Y T U R R - t h / x ^ ` ` ` ( ^ U g e - # % 6.!.[ t E z z h %.E a z z E z a E z Y R ` r U ( Y E a U ,.z s T #.U ] ` U Y w.J ;X5 q 8.` g >.8 }.B - 7.q.,.,.>.,.,.$.F <XL . ] <.g K.w l. .. ' 8.z U h ] N p.P @ C w F M.l._ - %.U %.U U T ` Y ( R R ' g z ( ] h Y U ( E ! ! ` ` ` ,.U z %.` ( ` ' >.' ] ( Y U t - % . X g >.>.E ' 5.E E ' %.` E %.R %.] 4.' E U ' Y ` E ` ` ` ' ` ` E ( ^ ' R Y ( ( ( 4.E E ! x ] %.` ! ] x ` ' E H.7.%.&.R ` h r E } ' %.` ! E %.' #.' E %.@.' ,.` ! { %.%.] ' 6.&.0.%.' ` ] @.! [ ' ( &.' R H.,.#.` 4.E ( ( Y R 6.` Y ` %.h Y 6.4.>.6.%.,.6.,.<.' / t e > X = D.#.g ( 9.#.! ` 3 !.&.W i & % 3 U U V s & a U g ( E %.z & % a a r a s @.w p 5 r ,.] Y s 4.w 3 & q >.4.` ` ' S H 3 w @.' a z z 8 d q a >.w.E R @.9 3 3 { 7.9.` k Y d u % 4.%.' %.g 1.u i a U 0.4.%.E Q d d.PXbXk.U Y ( T T w r ",
"q % X @ z w.a a %.] h E ( Y Y E R U T E U a a h ( z y V V g g r t T U ,.X.m.8XmXDXmXvXD 6 # K.( U T h 3 1 % @ O # . o . . . .   . & g - t h 9.z Q.M.%X8X=X=X&XoXv * 0 E.&.,.U s Y E z z a @.R z U a a a r U ` ] Y Y %.%.! ] ( %.h ! @.%.H.R t % t h ^ E ^ ( ` / ' ( h h w - % > D.K.( ( E z %.U ' U ` r Y R R z h ( Y Y z a a R @.6.R U @.' U E ] U s ' Y U 6.v >X< q %.' h 4.9 }.h # 8.>.h 6.,.( >.$.G #X..@ ] ,.g A.8 l.o.O ,.,.>.` V ,.U k.f._ _ N P ).z.S & 6.U ` U E U E R ] R ! ! ' Y U 6.U ` ( Y E E R ] U R ( h z %.,.` ' ] <.#.>.>.T h g % X   # U K.( %.` 4.` Y ` [ 0.R ' E ] %.' %.s R R ' ] ! ' ] ' ` E ` E T E ( E ! E U ' U Y z ! Y ' &.T ` [ ` %.%.U %.[ 0.%.] R E E ` ' E ! W E ! ! U ! ` E U ] ! %.! U ` ` ` R ` ! ` ] ' ' ` ] %.5.#.#.E ' ( >.` %.] E ` #.` ` %.T { ` #.` ' z h D.` >.%.,.,.,.%.%.' T g > q X % ,.6.,.) &.#.&.r 9.A.( 3 % % ] %.` ' &.w 3 3 h h w #._ ( 3 s Y % q E E i #.a q h 0.' Y ` R &.a 4 ^ %.,.] U ! i s q z ] U ! q &.w 4 e ] &.@.#.s ,.' s t &.8.0.,.R H.k q t %.4.Y %.E E %.h z 4.#.9.9.E 0.w F ;XJX1XU Y Y T Y g e ",
"= % % . y %.a h ( %.g z R Y R E z Y ! ' %.R U s Y U g g g 3 g t t q U S.D %XiXaXmXDX>X0 < z 1.r 3 . . . % w p Q Q Z Z C N 8 - # @ .       = - % ( b.(.rX=X=X*X&XB.0 * W !.H.{ ( E W U w q Y z z z a a z U ^ R %.( ! %.E %.` %.z ! R @.R ] R i % t z ` ' ( ^ ` ` ^ ^ Y g 3 , % & 7.D.` ] a U Y %.R ( ` Y a z h W s s R R h U z R ` %.` U ' ] @.' %.T W U ! Y 6.H |.% q 4.] h 6.4 :XC # >.D.] U l T ] ) m <XA o ^ >.r ,.4 W...O ^ #.z [ g #.p p.S % $ w 5 l./.b % %.` z ` E U E R ' R ` Y R R ` #.' E E ] x E ` R R Y #.s z #.%.%.` ` >.>.] ' ( h t = O X . R D.( E ' 7.,.R ` E 6.Y ! ] ' ] ] %.` U U ' E ( ( ( ] { ( ( R E ( E Y ] ' ` ] ` ' Y %.` %.4.T E [ R ' ( ! %.%.R ,.6.` ] ( ` ' ' ` ] E ! ' ` ` ' %.] U R ] ` ` ! R ( &.w.&.E ` ! ' ! [ %.E ` #.( ,.T ' ` A.0.[ E #.%.E ( ` E ( 6.( ` h g 9.^ ` ] #.6.,.,.&.] T r > e . & D.H.' &.' ] z r ` ' z % @ r 6.E %.R [ &.T E U R [ W ] ' q a & 1 h h h h ( P.! E %.] U s a 1.J.E ) ] ( ! ) i 6.E a E ' U E a z 9.! U ! E ] ] @.Y D.I.%.&.&.&.&.! ' A.@.U %.[ %.' %.( #.8.[ &.,.` >.#.z 8.4 O.GXHX( / h Y h t e ",
"- O % . % 5.a R U %.' s E a z a a Y ` r #.P.( R i Y w % z a r r q R Q v |.*XiXmXmXDX).4 . = X   . 8 D :.p.g.W.z.z.Y.c.c.z.a.t.i.i.L F N < . X   X | N.@XpXsX=X=X&Xr.2 < C A.E.( Y Y W q r z r w 3 1 # q Y U h ! ] Y %.R Y 6.W R z R %.A.] E U % t t ' ( ' [ R T ( T Y a % & % = 7.,.g { ( h Y %.R R h E a Y U Y h q s ' U ' r E E ] } s h Y U ' W T ! ! h ! 6.v [.$ & 5.6.! 6.0 -Xb . ( 6.4.` ^ h D.) F 1XL % 8.H.t K.8 W.D O ` #.g ( h ( i p.9 o q J.j f.m.~ $ 4.4.( Y h ( ! h ` ! R z E E ( Y E U W ` R ! ' ] Y ' ` g z %.] %.<.>.` ^ ] ( / h t , % . . h q.#.` ! ! 6.R ' %.E R ( ` ' ' R ` %.] a E ` E R E ( E E ' ! R E E ' 6.A.J.P.D.D.K.9.4.R #.%.R ! U E } ( ` 5.` &.} ` ! ` R R Y ' ' R ' ] ! E ' E %.' ` ' ' Y %.` E ] 6.6.! #.' &.&.4.#.' %.Y ' ( #.Y z 8.8.7.l %.8.! Y &.z ( ( 8.4.z h 1.` #.,.,.7.8.6.,.' U e > > X = K.J.%.%.' @.a z E z q . @ ` { 4.&.7.! [ F.A.0.%.%.P.8.] Y o & a E s R R w a ] Y E ` %.R ' E E ( ( #.) E ] E Y ! s U @.z W z w z k r Y } E ! ' D.( ] &.w.&.%.6.6.( U @.( E ` 4.' ` #.` ] %.>.9.7.%.4.E #.t b 5XGXE ^ T U g q > ",
"= % % % % &.a s R a Y R E z s z h U ( i # U P.9.%.6.' r R r 3 - ' z 4 m.8XaXpXpXiXuXa.* . $ 9 M P t.e.j.c./.(.'.(.l.z.b.l.c.m.z./.z.y.P P o.F c 5 $ P 7XpXsXsX&X&X{.e.2 * 0 =.F.&.` Y w s a z & 3 r & % h s R Y { ! ' 8.! %.! W ` Y Y %.9.' U % t V Y ( ( #.[ ^ ( ( z g q = % % 8.L.U T ] E E Y z ` ! Y U h U E %.] R U U Y ] h Y Y s Y E &.w ] E ! U ' U T ,.A ).% % ,.! s A.6 ].V @ ,.( E ^ T h <.] D 3XF % 1.9.g H.w /.G X 4.6.( Y h ' j p.G % h K.4 l.k.b $ 7.^ ! R a a U R R ` h s h U ' ( E ! z R U E ' %.h %.%.a z ` ' ' ' ` ' <.( ( h g e - O . X U q.] 6.&.5.@.E E 6.H.U R ] ` ! %.Y z %.E U [ ' Y ] ( ( ' ` ( ( E ! ' R z a Y q w q E 5.` R ` %.E %.Y 4.' ! ` ` ! ` ` ] E ' ! E ' E ! ( [ ' [ U ` R ` ! ` U ] ' ! %.' ' ' %.%.R ! %.' ,.A.7.%.` ] ( ] Y ' 5.,.4.` 0.%.#.' ( 4.E ` %.E g q./ ` #.[ ,.1.4.1.] E t > > . > H.D.( 6.' E ' @ w w U R U 9.,.` ' &.] U E ] ( ! E D.E.~.[ x g ,.Y a ] E R z ! R r R ] z ` ] R ( ,.,.%.%.! ] %.#.] ( R Y R z z r Y U U W E ] R ) ( E &.%.&.%.*.6.,.! } ` U ` ' ` E %.%.4.%.&.%.,.#.#.` ` 7.V V @.} Y ( z h a q ",
"3 % % % i >.a a ( ( ! h ! U W U U a !.w .   X q r V z e ) i w 1 1 0 j.7X8XiXuXiXiXrXm.A P J e.P K t.c.l.T.Y.D T S p p B N 8 S Y.].x.l.e.r.y.p.e.K a.a.nXuX8XaX=X=XoXoXv.0 0 0 0 b W ) n Q X.W .     . 3 h r s U U ] ! 8.` ' U R ` U Y ( 5.,.^ - e g ^ Y ^ >.[ / ( ( h t q = % O 7.8.E U Y g ' U r Y ] %.` R R ! ] z R ! Y U R z Y Y E a ( ' h h U Y R s a z 0.I [.< o & @ . w M /.b . [ 4.` ` 6.E ( ' G }.K   & @ # q 6 k.N . >.#.' ' U &.d k.G + O g 5 f.a.~ ; 6.,.,.z Y T ! ] h U ' r z z U ` x #.s U ' #.R ] E Y R a U ^ ( E ` &.#.%.' T U E e % .   X g K.Y ' 9.6.%.%.W ! A.' ' x ` ` ] ` ` ! ` E E %.E } ! ` ' %.%.! U %.! 1 # % & o # . % #.` ] ` %.E 6.! 5.! ` ' E ' E ' ! #.R ` ! ` E E ` ` ` ` [ ' E ' ` E %.' Y ] ' ' ' U ' ' ' ` ' E ] ] 5.] %.] ' %.! ! 5.! ` ! %.( &.#.` Y E ] ' R h D./ ' ( ' #.#.` ^ / h e > > . = 6.6.#.,.,.' 6.] %.( ! s ! 0.P.` ` E 7.z z ! &.' R R #.7.H.` ] 4.,.R h ' a a z ' a z U z ( ` U Y } ` %.%.' ] ` #.` z U Y ' U ! r a E U z R ! R %.' R ' &.4.4.' ' R %.0.U z %.^ ! E %.[ %.' 6.%.&.%.%.( ` ' 9.%.L.( E ` Y z a w ",
"e % - % # ' a ' h U U a ' U R W a t ~.V 5 .     o o # * @ X < 9 O.x.*X8XiXnXpXuXuX{.n.I I K e.L :.H w 3 . . @ . . @ . X   .       . h D i.x.K e.r.v.x.(.gX8XsX=X=XoXoXoXN.M 0 2 2 0 v v 4 * .     # % ,.8.s a s U U ' E 4.*.] ! ' z %.^ ( ,.,.e q g Y Y U ^ <.( ' ( V e 3 , % # %.H.h Y Y h ` ( T Y U U ! ! E Y R ` U Y Y Y ' ` h z E a z %.U ] ( z a z z z 8.m  XF % > % = d l.[.0 # %.%.` ` %.E ] ] D $Xk.$ > w w i t.].2 % ( ] Y { a 4.6 j.P +   . ..l.O.~ 1 6.&.#.] R U ` %.6.E ` ' U z U R ` R %.E R ! z ` ] ] ` s U U U R ` E ! ] ( U E h e = o . . z ~.&.6.6.A.%.' W R &.E } E ! ! [ ` E ` %.E E ` E R ` ,.' E } ! E 9.a 7 H +.:.J c @ @ 5.>.E ! R ' ] ` 6.! Y E ] %.' %.! R } %.U ` E x ` E ' ` ' %.E ` ] E R ` E Y ,.] 5.` ` ' [ 4.! ] ' ` ` E ' 6.&.R ( ` 9.5.%.' R ` ' 4.%.] ' %.%.U h ,.^ #.<.>.#.<.<.' R g = > ,   & K.K.#.%.E #.( T %.( U R ! U 8.' ! %.6.%.%.} &.' ` Y E ` U E k a a E h Y E R a ` z Y ` U Y ( ` R %.! ` ' ` ' ` ` ` ` Y R ( R E ` i s ' z z ! Y %.] %.] &.%.,.6.0.6.U ] 4.( %.E ' ' ` %.%.&.&.&.0.%.,.,.4.0.` Y A.` ` E Y z a y ",
"> > = % > ^ g E E T ! h Y a a Y E s 1.+.P e.v 0 2 < $ 2 L t.a.B.%X*X8X8XaX8X8XaX7Xx.x.m.e.b 4 # .   $ 5 2 9 +.T.m.)./.i.Y.l.g.o.p % .     # $ b L r.a.:X[.iX=XaX=X=XoXC.B.B.x.I v 0 v 0 0 2 < 1 & w 4 I.*.h a z Y ` %.` H.` &.' Y Y ^ #.Y ( #.t e g T / ^ ( ` [ ( ] U g q = , % 5.9.R U R ` Y E a R E Y R U R ' U ` E z z r %.( ` E E ` a ( a E R &.Y a Y r 9.p p.y.f.d.g.s.T.d.+.Z & ' R R ` E r E ' C l.f.+.i.:.=.X.| | 1 1 &.8.z T a 1.8 f.k.f.Y.W._.l.s.f w ] #.R E E E ( R %.6.E ' ` %.! E Y R ! ' %.&.T ' Y ! E a z Y ( ' R ` U ( ` g Y a t % O O o a H.( ` W 9.&.' ! 6.5.' W Y U ] ` ' ` ] ' ` ` ' E R ` E E ' ,.E #.1.P +XO.+.S P z.1 # } 8.%.] ` E 4.U %.4.( [ ` ` s ` ' %.E ' ` ` ` ` ! ` ` ! ( ` E ` E [ Y R R %.#.R ' ` ` ' &.&.] ` %.' ' ` E ` @.[ &.%.' 5.%.R ] 0.R 0.' ( &.%.` R g 6.Y ` ( ' ( ' <.^ ^ h y , = + , 6.J.` E ` E ] T R T s z ` U 5.` %.' %.' ' ' %.! ' ' U ! ' [ E a U a Y a Y s R ` ' R E #.E E #.%.' ' [ ' #.] #.E ( %.! ' ! R ! T ! ! ! ! ` ] ` @.` ,.%.0.9.E %.0.,.' ( %.' ` 6.[ #.' [ 0.[ &.] 4.` ` 9.` 6.%.' Y R E E R Y h a ",
"& ; &   % R U r g E h W W E R z Y k r Y.x.B.OXV.V.OXV.M.N.x.z.7X*XuXuXuXuXaXuXuXOXK 0 w $ @ . $ 7 G M i.z.k.k.k.#X0X>X#X,X[.a.y.a.a.H c < . .   . $ $ t.B.tXaXpXsXsX=X&XZ.V.OX%X{.x.j.r.e.r.N.g. .3 T 1.g g h z Y R E 6.! ' ] R E ^ U T ,.^ ( z q g Y T ] E Y ( ( T U a e = , # #.9.U s E E U Y Y U Y Y U a U ( h r ] h ( ( %.R z R E ( U ( E T T ( ` T z a 0.q 1 3 f 1 8 < p 8 4 w s Y z U g >.U h 9.5 p C & 2 4 * $ 1 1 1 q R %.( ` r #.u b b 9 c D j 9 p & w %.Y ! R Y z ! T ` %.E E a ` E R ( } E %.Y z ] R z E E r z ! ` ( ] ' ' ( ( U Y g r & O O . U 0.,.' ] &.R ! ' E &.4.0.%.' R ` %.U E ` ] ` ] ` ! Y ] ( ( { R ' 1.d.4X6 e y 3 :X<   } &.[ E ' E &.%.' ' %.[ %.5.E ! ( ` E ` E E ` ` ` ` %.R #.U ` U ! ` ' ( E E %.! Y ' ' ' ' ` %.] ! 5.%.0.] %.! ` 4.0.! %.' R E ! ` E ' } %.` %.U t ,.g ` ] ' ] ( >.#.<.Y g e e + # D.J.' #.%.' E %.z Y Y z ] ( 8.,.} ` E ' [ 0.9.] ' ` z Y %.E ' Y ` #.h E &.Y %.%.&.] 6.%.4.&.6.6.6.7.6.A.9.5.7.A.[ 6.&.8.A.8.8.%.' 6.&.&.0.0.] 7.8.A.A.9.H.7.` %.6.6.%.' ' ` [ %.` ` %.%.%.%.{ ' [ ] 6.] [ ' &.T E ! E Y h a r ",
"; ; = . X z U T x ( T h E ! U k z s r G.x.{.OX&X&XoX&XV.OX&X@XAXaX8XpXuXuXiX8XpXj.0 9 v 0 9 I t.p.r.a.x.z.m.}.|.%XhX,X9X>Xx.t.'.<Xk.y.P J J v 5 5 * . # a.tXaXpXsXsXsX=XV.C.V.V.{.V.{.V.{.*XOXOXi.r &.*.g a h a s T ' ` U R ` Y ! ` E E ^ ) >.( y g U ' ( ] E ` ( ( Y g w > > % [ 9.U z a a ( E U U Y z z r ! Y ' z Y h Y Y E E R T ( E h ( z W h U h U U a R 0.a z r r r a k r U W R ' h #.U ` E h #.] #.&.U T a ! Y W ] 0.] #.E a w q Y 6.u 3 = 3 & & 3 4 a ( [ ` z E ] z U R Y ' ` E [ ] R E E R ] R ' E ( ,.R ] R a a Y E ` ` ` ] ' ' ( ( g = % O O . i D.E ' 8.&.%.` 8.E %.Y E ` %.&.E ] ] E ` ' ( ` ` %.E ^ ^ ` ` ^ ( 1.L :X< & [ * 2Xb % } [ E ] } ` 8.' E ' %.[ ' %.%.R ' ` R E Y R ! ` ' [ ` ` ' %.&.E [ E E ` R E ! ] R ] ' ' &.] %.} ` &.{ %.%.` %.! &.%.` %.` &.R ^ ( ' ! %.&.R ' z U 9.g Y ! E ( ,.5.,.` Y h e y o % 7.E.` 5.7.#.] U Y ! E U Y U 4.8.` ] %.' %.4.&.#.%.` E x ] ` z R T E U E U d q w w % 1 q r s r q & q q s w a a ! s a V z h Y W U U W T s a d w r a U s w s A.%.' ' ' %.%.R %.%.%.` ] ` %.8.6.#.7.&.E %.5.,.%.' ' { ` E T z a r ",
"% % % X   e E U Y a T h U ! z n R Y s X.(.7XaXiXtXiX*X&XiXtXrXAXiXuXuX8X8X=XaXpXN.m J J a.r.K j.a.a.Y.g.+.S @.|.,X7XtXeXM.k.N N Y.Y.T.a.l.e.K K v 0 6 $ l.iXuXpXaXsX=XsXoXoXV.V.C.V.OXOX=X&X&X[.L p S.%.z U z W U U ' %.( z T h ` E ` [ ' >.,.Y r h ( ] ( #.{ ( ( ^ z U e > > % { w.} a Y a U R R U R R ( ' ( ( Y h h E Y a z R E z h Y U z R ! R ( R s w U V 3 r a s a q r s s z E a ! ,.E E 0.( ' a r U ! s i 1 i r r T R ( R ' ] E h y E ! E T ] T E E ! ` ( #.` %.Y ! %.h %.` ` E %.U R E E z ( U T R Y ] E ` #.! a R E Y ^ ` ] #.#.#.] ( U q # O O . h H.] Y ' ] ` ` 0.E ( ` ` ` ' R ` ` ] ` E ' ` #.` ] %.( ' ` %./ ` 1.L ].. . H.f ].b % E %.E ! E %.' ' %.` %.%.( R ] ` E ` %.%.E E ` E ` ] ` E R ] %.` #.` ` %.R 8.' ( E U } &.] %.&.' E %.&.%.] ' %.5.%.%.' 6.R ` ` ` %.' %.E %.` 0.] r ,.g E ( @.] ,.>.,.T h r = > X X ^ 4.#.6.#.#.>.5.@.R z ` ! Y &.6.#.` ' ` %.%.%.E ] 6.' R ` E ' ! E s ) @.q &   . . . . . % % 3 # $ . o % # # @ # . . .   $ @ q & # @ o   . @ * o   .   . $ t A.5.` &.6.6.&.%.! %.] ] ! ' ] 4.4.&.4.4.] #.] 6.4.' { #.` U h a h ",
"% o % . X - z E T h R h ! Y Y U U z z ! '.NXCXSXSXAXmXCXnXmXaXAXAX=XiXiX*X=X&X8X&XOXn.r.r.r.e.v < 3 i & : E z 5X[.>XNX9Xc.p.$ 8.' w r 4  .a.j.e.j.e.v.V.&XtXmX8XaXaXpXpXsX=X*XoX&X*X*X8X*X=X=XB.O.u R.R U s s Y Y Y E E E z R U U Y U z ^ Y T r Y T U ( ^ ] ( E ' ^ E z w > & % %.H.' U E U h s ! U h Y R ` z Y Y a R E ! E U %.` Y s R R s Y E U Y U ( U z E Y Y Y E Y Y R Y Y ` E z R z Y U E #.` ` E ( ) D.,.U E W ' E ` ( ! ' E z z T U Y s Y ( U U ( T ' ! Y ( ,.E R R E ` ! ` E E %.E ! ! U R E ! ( Y E ! ! E %.U h ! ! ] #.' %.#.( ' T z q # o O . Y 9.%.` E %.` E 0.[ ' ` %.] ! E ` ' ` ' ] ' ] 0.R ` %.^ ` { #.^ ` 7.L +X. % K.1 :XD & ` 9.z ' E %.R %.` ' ! ! %.] ' ' ' ! ] ] ' E ' ` ] ' ' E R ` E E ' ` ` ' ' ( ( 4.%.R U ' 6.[ 4.4.` %.8.` E ' &.' ] [ [ %.%.( ' E ! ` [ ( ! %.&.9.g 7.g U x ' @.1.] ] ( h 3 , , . O >.5.R 8.>.>.#.' ` ] z E ' E w.5.Y ` ' [ ' %.%.[ ` %.] ! ' %.&.] ' z A.W p < < f $ 3 f 2 5 f 2 $ $ @ @ . . @ @ @ @ @   @ @ * $ $ 2 0 c A v F m v b 7 2 $   t 4.%.&.' &.' } %.` [ ] ] &.] ` #.4.4.6.%.{ %.7.,.q.#.( ^ E U t y a ",
"e o e # % 3 Y ( U U ' ! Y Y ! z k z R W XXdXrXAXAXLXAXDXDXAXpXSXDXuXiX8X=X&X8Xx.r.u.j.T.r.I 0 < .   . X > e e s -X4X(.W.P D @ h a k a * . $ I P b.C.OXj.v./.<XiXaXpXpXaXsXsXpXaX=XaXmXaX8X=X&X(.H 4 ~.Y z s a a a U Y ! r r U a a h h E z U Y h ( ( ( ( ( E ( ^ ( E z a e q & % %.9.U k U E z r r Y z U Y ! U ` ] a z E ' U ` ,.( #.W R ( Y Y #.` E h U h R E h W Y Y z Y U z z R E ! ] R E ( ` Y ^ z ' ,.) 9.&.h T U ] ! s ' Y z ] ( E T ( ' ( E ( E ) z R ! E E Y ] %.` E E R ` ` z z z R E ] E R E E #.] R E R E &.z R ] E E >.#.#.,.] ( ^ g e % X X   h D.( x E %.] Y R ,.! E %.[ 7.E ' ` ` ! R ` R &.A.R a ( Y ] #.^ ` #.L +X# # H.* :X7 o ' [ ' ] ` 4.' ] ' ' [ %.! ] ' E R ] ' ` z ` E U ` ! &.6.` ' E ] ( U ` ' ! 0.R %.%.z U ! 4.%.E 6.{ Y 6.8.` ] &.%.%.%.&.] &.E ` ` ` z ' E ] 9.P.%.h ,.U T U E T U Y ` / h e - , X O 5.q.^ ^ { #.7.7.] ` 6.Y E ` %.4.' ` %.6.%.` ] ` E ` ' %.` E ' ] %.( 8.4 a.b.T.H n X.;X<X3X>X>X<X#X;X#X;X;X;X>X$X$X;X$X;X9X9X9X9XqXqXgXkXVXgX0XeXeX1X$XO.$ = ,.%.&.#.&.E ] 5.' ! &.` ] 0.5.6.7.4.%.` 4.,.,.,.6.,.' Y E T U i h ",
"> O g # O O U E ' ( h ' ] h E h q r Y p .X4XJXSXmXDXAXPXmXmXiXpX8X8XiX8X*X&Xn.a.b.a.y.y.x.r.y.J v G 7 #     . . 1 d.z.O.0 X   # % @ * < 7 c 9 M c.j.a.P v '.|.eXuXaXiXaXpXpXaXuXuX=XaXuXuX8XB.z.G $ R.z U a a a h a s %.z a a U r a z E Y ' R w E ' ( ' ( ( ^ ^ ' ( Y h e e = % ` 6.g z z R %.! h U R U E R Y #.! a z R Y ( a ] ' ` E U %.E s ` z s r R s z R R U Y E z a Y E a E Y R E T ^ E ` 6.U ' ' E ) &.8.U #.U z %.} ! &.a a ` Y R U ` E R ] Y ' E Y ! E ] E z %.` E ' ` ` R ` z s R U E ( a ` ' U ` ( ` ( E ( a U ^ ( ' ( >.<.' ' ,.' h = - O O   h 7.T ( ( #.] ` #.] &.U %.R %.' ' E 6.` ` ( E Y ,.8.` ! ` %.` ( U q.G #X# X H.$ +X9 O { 8.E R @.%.' ] [ ] E E E } ` ` ` Y ' &.z %.U %.E ` ' ' w.#.` E ' ` E ` ` ' ' ] ` E E E E 4.' 6.%.' E 0.` %.` %.` ` ] ` ] ` [ ` 4.' U U [ &.8.%.h 7.t h Y ( [ ` ( ^ h y > > > + O R >.>.] [ 6.,.0.#.E ' ] ` E E [ %.` ' ` %.%.&.E ` %.` %.' R 6.E ` z H.1 i.h.R.!.$.0.=.h.i.d.d.a.l.s.h.g.i.i.p.d.g.h.i.s.i.L i.O.+.s.p.f.|.jXNXeXm.t.+.N & w %.%.%.%.9.6.] %.,.%.0.&.%.%.` 9.7.4.8.%.H.[ &.6.,.%.` E E R U a a ",
"> % g q > e ^ Y ] ' h h ' E T ,.h s &.p .XKXLXmXAXmXuXpXpXLXiXmXpXiXAXpX=XOXK C S.U._.T.x.r.e.j.a.J K J v 2 8 $ & & 9 9 $ .   # < v J K r.z.V.*XN.K n V q 4 _.2XiX8XpXaXpXaXuXaXpX8XuXiXuXuXV.a.S $ !.T U U a z w r z Y U z a a q & & 3 z ` s q R ] ' #.( ,.^ ' { ` T e > q = % ' ,.a z h U Y E ( a ` h U U ( R T U z z ' R ` E E ` R z R ] E %.! x a ! h z ( Y E r U ' Y ` E E [ ( z ' T ( ,.&.9.D.6.,.' A.&.0.' ] ! ` E ! } 6.` U ` ` ` E E U T ` ! ' E E Y R Y E Y E ` ' R ` ( E ! z Y ! R Y %.U z Y %.( ` E #.` Y a U ' ( ' ] / ' ] ` / T x - .   X . Y D.E ` { ] E E E 4.%.R R ` ' ' ] R ` E ' R ` E ` ` ` ` E ` ` ( U D.G $X- % D.< :Xc X ` P.5.R R ' %.] #.4.! %.%.U [ ' ` %.R ' ! [ ` ^ ` ` %.` %.' E ` ` ` ` ` ` z ! ` ! ' ` ` %.` ' ! &.%.' ' 4.%.` 6.R R ' ` %.%.%.R ` %.` a %.] ,.R g 7.Y / ( ] ' T E ^ U r = > > . X ` 8.h U R / ` [ %.! R z ] ( ( ( ] ` ' [ ' ` ` [ E ` ' &.%.` ` ( ` W 6.Y w p i &.E g $ 4 5 p V V N 8 6 p b s w 4 - p 3 & i 4 & 1 3 = 5 h v 4XNXM.+.W 3 # w h 8.{ %.%.%.w.#.0.6.E ] 4.%.` ! %.%.7.%.w.[ %.` E 8.4.%.%.` ` Y a a ",
"q ; t X q & ` U ( Y E Y s w w ( ( Y } U _.FXPXZXLXmXmXSXmXAXpXiXuXmXnX8X&XN.B I.3 t & r ~ T.|.T.j.v.x.m.x.P t.P a.O.O.P O.p.p.e.e.j.x.C.%X=XaXOXJ W e q r w U.:X0X*XpXaXaXaX8XuXaXaXuXaXuX8XOXj.9 # A.W h z t r h Y ,.9.&.` &.@.E z R a s a a r ( ! ` ' ( >.#.' ` ^ Y r e e > % %.6.z U U Y U R z a U U U E ' Y R U z R h Y z E z h U ' z a s s %.! x U z s Y Y %.U ( R a ! U E U E Y %.0.( 7.#.R ( Y q q n W ! ' D.,.,.' ! E } ' { ! %.] ` ' U Y E %.U ! E T ( R ! Y U [ E ` #.#.' R 6.] ! R E R %.E a ! ` U Y { U 1.g T ' W h #.#.@.8.1.,./ x -   X O . E 8.x Y ( ' %.` ! ] ' ' } E %.` ! ' %.] ] E E ` ' ' ' E } E %.( U 8.D #X3 - J.- :X9 X ^ #.` ' &.! [ ` %.&.4.&.%.` ` ] ` %.' 4.a R E E ! E ' E 6.` U ' ' U ` ` ` %.E [ ' s z ( ' ` ] ] [ [ ` ` 6.7.' %.E a Y ` R ] ' %.E 4.%.E E 5.8.( r ,.h / ` #.] / ^ ( R a > > > .   g R y y e e t R ` ] &.! E ( ( ( ' ! ' R E ' E &.%.` ' ! ' %.%.] ' %.z ' %.( U S.W w # # z K.,.,.7.7.4.&.8.6.&.,.#.' A.,.A.8.D.( ,.7.E ' S l.tX/.| # h J.9.6.,.! ` %.9.` ! &.6.' [ ' %.` %.E &.4.] ] J.%.%.&.8.%.&.' [ ^ E a t ",
"> > t & q & U z U a U z Y a y Y U g ] W .XFXPXPXmXmXDXmXpXiX8XiXuX8XnX0X*Xe.q d > ; 1 ; . & p h.W.:X/.x.N.[.[.|.M. X[.OXOXN.M.{.Z.V.*X&X*XaX*Xr.9 D.e e r > Q }.7X=X8XuXaXaXaXuXiXiXpXuX=X*X&Xa.8 . ! R q q r R #.Y ] #.#.%.] ' Y ] %.] ' 6.W a ! ' ` ` #.#.( ( #.E E h q > > % [ 6.z h U U T ' U U E z U ` %.E Y E Y E T E U ` ` z a ` U ' a a R ` z %.z E z Y U E ! ! x E U U Y ' 0.#.&.U h y @ @ # o .   : X % i R D.H.' { U z ` ` E ( ` %.! ! R ! T ' R R E ! %.%.E ' E ! ` ` ] Y ` E s #.E ` #.E E a R R E ` ( ] h U @.] T ' ' ` #.#.] ' h - % % O . ( D.^ Y ( ` #.` ` %.! ' ' ' @.` ' Y %.%.' ` Y %.%.E %.4.E ` ` ' W F.M +Xi # L.< <X0 X [ %.Y E %.' 4.E Y %.[ ! 6.' 4.` z U %.&.' ' ! E z } ` ` ' ' ` ` ( Y ' &.` ` ] 4.4.#.R E ` 5.4.R R E ` ` ` ! ] 0.8.%.z ` ] %.] 4.4.%.%.( ! ` 9.' g 8./ ` >.` >.' ( T U a q > ,   . z ` t e e y e e t x ( E ( ' ` R ` R %.%.! %.] ` ` ` %.%.%.' %.' ` %.( ^ 3 r U #.W a # o i ( g z i g h Y Y ` E ( ' ( h ( T U Y ( E 8.{ 8./ g.bXk.B . z D.E ,.%.[ R ,.%.%.%.[ ' ` ! 6.6.0.5.%.] ] ' %.6.%.E 6.w.8.%.%.#.E x z a ",
"; ; t q 3 3 a U Y a a Y U U a r U a R _ _.gXvXLXmXiXmXLXSXnX8XiXmXpXiX&XV.v @     @     . 1 U a s r w F s.Y./.'.)././.l.}.f.a.}.0XiXM.M.<X%XoXM o 4.! a e q r l.dX0X=XuXuXaXaXaX8XaXaXuX8X*X{.j.6 . a %.r w U ' ,.Y ( U Y U E #.z ( W U ( ' ! z E E z U E ' ] ( ( ( U a y > q % ^ #.Y Y z U T R ( h U z ! U ' h z Y ] ` ( T U E R E z E R ! ] R T R ( ! R ' Y E h ( %.] Y T Y ( ( 4.4.U q # # p ..T.a.d.s.V @   .   @ & Y !.~.W a Y ` ` ' 6.] Y E E ` U ( T U ( [ &.( ] z R ` %.U ] E ' ' a ! R U R ` ] ( ' ! Y ( ` %.h E $.] ] @.,.1.] %.E T V = % , , % U D.( U E ! ' ! ` &.%.&.' &.' 0.%.E z ` R U E ( >.( [ ` ` ( ! ` U F.G +Xs # J.$ :Xc . 6.6.` a ' %.&.] ` ` %.' %.] 7.` ] ! 5.,.[ z ` &.x ` ` 0.] R %.[ ' #.' [ ! ' %.` &.%.@.! R E 6.] Y E ' ! %.` ] %.&.&.` ' ! ] &.] %.R 0.( ' ' 0.' r 7.T T ] ( <.] ' T U g e = , .   ` [ k t t t e e l ` l R R ` Y ` @.&.' 7.` ] %.' ' ! ' 5.%.@.Y %.' [ ` ] ` a a 0.] y X . ( #.' ] ( ` U ' ' %.,.E %.&.] 0.>.` E ,.6.] L.H.E 3.vX$Xo.X x 7.{ 6.#.%.' 8.4.` %.] &.] R &.9.,.[ 4.,.%.%.%.6.4.] 4.&.w.%.' ' ` Y U a ",
"> > t 3 q 3 Y ] ( E U Y ! s s g i U z U.).%XNXHXAXLXDXSXCXpXSXaX8X8XiX=XV.v   M e.I v *   o E U E &.z 3 = r % f r p Z ..| d n C [.N.k.k.b.C.Z.0   . q s r t r Y.;XiX=XpXaXaXaXaXpXuX7X*X&X%XoXM.| . q 0.T W a ! %.W E a U U U ' Y U U R z ! U a %.Y ^ ^ U E { ( ^ E h a e > = % 7.,.U U g h Y h a x U z R z ] #.z U E ' ' ] R #.&.E ] ` R ` ] E Y U R T s E E ` U ( ! E 0.( ( T %.s & 4 | k.[.(.d.+.B n W i.T.Y.A r . . q > 4.9.` Y U ' ' 6.9.D.E ' ` E R R E Y E ' E &.z ' ( ' ] ` ` z #.E ` E ` h ' ! E %.( %.U T #.h E ] ) 8.,.,.,.,.,.( Y x t - = % X ( 6.E ,.' T #.@.%.' R %.Y %.0.&.' %.%.7.E #.( Y ( ` ( E ( ` E ` z L.G }.5 # K.$ ;X<   6.P.` %.` 6.%.%.R ` ` ] ] E ] ` &.T ,.0.R ! ` ` U E ` #.E ] ^ %.` %.' %.%.4.` 6.R ' %.R U a E 0.E Y R z E R ' ,.8.5.%.&.&.[ ] 4.%.] %.' ` &.%.#.t #.Y ' { ) ] ' ] ( #.h q = = .   ` [ t > g z R x ` E %.] U Y z U R 5.E ` 6.] [ { ' ' ` ] E %.` ,.' ' %.( T ' i P.%.> . X >.,.h ^ ( &.,.[ ' &.%.%.7.6.%.,.8.,.E >.6.4.K.P.E o.MX>XL # t 9.] 4.#.6.5.6.7.4.E [ >.' %.#.5.7.0.` %.4.' %.5.&.&.%.5.&.%.' ` ` E U r ",
"= = e 3 3 & a ( Y a Y E ! Y s a a i U R.+X%XbXhX8XAXAXiXHXnXiX=XaX8XnX&XOX0 $ I r.v.r.m < . W Y R a E U h U Y E s U X.i @ $ 5 S z.p.| X.x.C.x.$     @ r k W w G.).eX=X=XaXaXaXaXuX=X@X*X7X7XoXOXm.2 o ] } R ! U a Y U a z R U ( z U R R a %.] a ' T ` #.( [ #.) ( Y z w q > = % %.6.a E Y h U ] U z E z E U z E U U ` ! ( ` ! R ' ! U E Y ] Y E E R E R ( ( E Y h T R Y ,.V 8.U 1 * O.).t.S 5 $ 1 % % & % * 1 4 n +.Y.u .   $ r %.9.z ` R ' 6.%.,.` U ! E z z E z %.5.] R U ` Y E E ' ' %.R ` Y E E ( z Y ! R ` ( E ' s U &.) #.,.1.1.#.( ( g i t - % % X %.S.^ ` #.! ` R %.' %.] E ` 5.4.8.%.&.#.E ` ] E U ( 8.' E ' R %.z A.F ;Xf % K.$ :X<   %.H.E ` ` %.] } Y ! Y ` %.! 8.' ] %.4.E &.%.R %.R E R ' ` ' 4.' %.%.,.E ` 4.] %.&.0.%.Y w   3 %.] ' R ( R ` R ' %.&.` &.4.%.] &.,.&.5.! R ! %.U t ,.T ` ] ,.<.%.' ^ T h y e , . o ` ^ g g ( ` #.U J.0.0.E ] 6.E 5.%.R Y s U ! ' %.! [ ` &.%.] ` R R ' %.,.( ( y 7.( =   - #.9.( ( ` >.#.&.` E %.4.a U 9.7.,.0.#.,.E >.q.4.[ _ cXwXD X = 9.>.<.4.0.4.%.%.%.9.` ] 7.] ] %.0.' 0.E &.` 0.6.` %.&.%.6.&.6.' ! R E g ",
"> , 3 - # q h T ( h E Y z ` R s U g #.g.#X1X9X9X,X%XeXiXtX&XmXaXpXmX=X&XV.0 J Z.v.e.j.b.A . U ] E x z z ! a ! z R ] a o 5 O.<X$Xp.2 Q X.m.{.C.M c & % U r Y k S.m.0X=X8X=X=X=XsX8X=X&X#X6X7XOXB.x.2 @ z A.s W Y h ` ! Y U h Y h ' R s U R i T s ' E ' #.,.,.,.#.{ E U r q = - , ] 6.U Y h g a Y Y Y U z ! E a z U z Y R E R U s ] E E E R U %.U ! ! W Y a R Y z a s #.R 0.9.h 8 ..(.f.7 $ 1 w a U ! 6.! ] %.E i w d 8 Y.d.1   @ y 4.} E ! ] ' ( 5.] Y R ( U z Y Y z ` ' ! ` ` R ` ' E ' ` R a ' Y %.' E R ' ( E ] ` #.a E ] ( #.] &.%.<.( ( Y h t % O X o #.E.` #.` E E ' %.' ' %.0.( Y 4.[ U H.%.( %.#.h Y U ' ' R ' ' [ z P.v $X2 q L.* :X$   ,.P.' ' ' E &.6.R ! ! E [ E R g R ' 4.%.( ` E z ] ' s E ` ! #.E ,.` ` %.E ] %.&.%.#.s s & $ @ # a E ' %.&.] ' 4.%.%.#.4.4.%.` &.%.R 6.6.z a %.Y w [ h ( ] 1.%.' ( ' T U e > > + o E 7.E { #.( [ U E E R E ! %.! ! ] ' @.[ E r r z E [ %.' %.` 4.8.( U ' ( U E V #.U %   3 [ ' ( ] ( E ( %.,.E 6.%.% = 4.6.%.,.,.,.,.( ,.Y 5.N 1XgXD   - ,.#.] ^ ` 4.0.H.4.&.%.` &.9.` 5.` #.%.%.[ #.] 6.' 0.8.6.` 1.4.%.! ! U a ",
"> > % # % t V x l U U ! ' z E T h r S.G.z.m.-X:X4XdX7X7XbX7X8XiX8X7XuX*X&XM [.B.x.K F e.9 ; w ,.T R U a ! ! n [ ^ $   5 a.#X+Xr.N t 2.X.l.C.V.r.e.D E R E w a ,.x.gXuX=XsX=X=X=X=XOX%X%X{.{.@X Xp.i o y @.` %.Y z a a w R h Y s U ! U ( R z T a ] h E R ( #.,.%.] ! E a q = = = ( 8.a E ' U U a R ` a U a E ! Y z R s U a z Y U ` U R U ( ' h h ' a z ` ` U E a a a U T A.U 8 ]./.B - 3 i h g y E s x w w r a R 8.5.& 1 ..W.S @ @ 3 >.#.` ` ' R [ %.Y U ( ( E ` ! U R ( Y E ( R R ' ' ! &.R ] T U ` E ( ` E ! ` R E %.z Y ` ^ ( <.6.( ' R g x h e - % X . ] L.Y ` ` %.` ` ' ` %.! %.6.] %.,.E 0.%.' R 6.&.( ( ` ] E U ] Y h I.9 $Xd - L.$ -X<   [ 7.( ] E %.%.#.z R U a 6.E ' U U U %.R ` E ` U z %.` Y ` ' ` ! 0.,.] #.E ' 6.W 3 % % # . o q % X w q ( ' &.` ` 6.9.[ 4.6.7.%.0.6.! ' 6.( ! R R g ,.E #.` >.,.( ( ` g 8 - , , . X ` 5.E U E Y ` ] } R ! R #.R ( ! R #.7.` 0.` E ! ` ! 4.R ( ! %.0.' ] E 6.E ' %.V h #   r 6.{ ( 6.E ' ` E E E &.*     r H.` E [ #.#.] 6.R 8.V `.cXi.# @ 8.>.' 8.[ 4.6.%.4.%.w.5.` [ 8.4.' 6.4.,.,.` 6.' P.' 6.] %.,.4.6.` U h s ",
"= , X % q q r g Y ` E T ! E Y E Y g ^.Q.+.J t.W.Q.Y.lXkXtX0XiXrXnXpX8XuXuXM.oXJ _.y.P I 5 e h U ! %.&.' ' E z r @ < c l.$Xj.O.Z x h S...z.oXN.e.F V s r z T a T z.6X8X*X*X=X=X=X*X%X%XV.OXm.J b V n w s ' ] R z z U E s z Y U a g r h Y U ` a h #.z U ' E ` ` ] ( Y Y g q = % = 6.6.U W R U U ` U ! z ( z a h U z z E U 4.a R E %.z ( ,.z #.` ` U E ,.U 4.5.#.! R U ( 8.n A m._.T # 4 a Y r W E E %.U R ` %.R z 1 R H.} & 7 Q. .. X g 9.^ ( ' ' [ ` E Y E Y Y ` ` z E ' ` E %.E x ] R ' ! ! ' [ z ` ` %.R [ E E ' ` ] z ` ( T E ( ,.,.` x Y Z t 3 - -   % ' J.E R ] %.' ' ' E &.! ` 8.,.0.` %.%.9.` ` R #.( ,.%.{ ,.( ( ( r I.0 '.4 $ D.3 :X5 X ( L.U >.6.' %.' ' ` #.R [ ] 9.' E %.6.` %.%.' ' ` E ' %.R 6.E ( ] ] &.( W %.a 1 H t.m < @   @ o % #.q % ! ' ' { { 8.` ' ` [ &.5.4.R ` E Y ` 4.a 3 ( Y %.` ( >.,.T ] h g = = ,   % R 5.U Y Y z %.' ` Y ] ' E ' ' ' ' &.` %.%.E R %.Y R ` R ' Y ' %.7.%.5.R ' ! K.h g # . a ,.#.( [ %.U >.` Y *.s L J . . ` K.U %.6.,.^ ` 8.( ` l.AXp.# . 4.6.8.7.,.9.8.7.9.7.8.8.&.%.%.` ` 8.w.%.' %.( %.( ] #.6.` &.&.#.! h h a ",
"= % O g D.T h a a W %.#.,.#.s a U h ! 9.n s a 4 =.S.U.`.FX%X*XiX8XmX8XuX=X=X$X$ U Q.G.N a R E #.] H.' i W 1 . $ 5 I [.[.P G 8 ' V ^ G.p.V.V.j.0 s s z Y z U W i j.%X8X=X&X=X=X*X*XB.{.a.L 9 ) T ) *.n a Y ' %.` ( q R a Y z s a h a a a a Y U r ' ( U ( ] %.#.] ] ( E U y = = = 9.7.R h Y Y R U R ] ' a R z T z E h ' h Y z U E h a ( ] %.%.{ E r ! U E 8.%.R E Y ( #.! C '.a.q q a a h U z z T E ' s ` R ! &.#.` ` U ! 8.w u Y. .  o R ` { ] ` [ 6.` z U z E U R E ! R ` E ! ! a E E %.R U ! x U Y ! E ( ! ' ] ` ^ 6.U R ( ! U / ` 1.>.R / Z g - % O X - [ H.Y E ` ! ' ' %.E ' %.&.4.,.,.` ' %.%.%.' ` E ] ( #.( ,.>.Y ' a I.< '.4 X K.$ 4XS # ' 6.^ %.8.6.0.%.! E ! ] ` ` ,.E R %.&.E ` ' R [ ( E z Y Y ] R Y ` 0.] ( w * n j.OXOX{.x.m < 5 <   w s * l ^ ' E ! 9.[ Y E E &.8.0.@.R ' &.U ! U g 6.U ' ^ ' ] #.^ ( E z e % O   O z 5.x Y E z ' ` ` } ' %.%.` R 6.[ ] 4.( 8.' ' %.4.! R T E R ` %.#.0.%.Y %.a E.3 U @ . r 0.] ` 4.4.` ( @.E 4.f M.x.$ . e 8.( ! &.%.{ [ 8.' &.o.HXz.6 X ` 9.] #.` 8.D.6.6.7.%.4.6.%.%.[ %.' 0.,.` %.` E E ` ( 4.&.&.%.%.U z r r ",
"w = X ` E.6.U a s a Y %.! %.] W E T h p w R R k q 1 =.G._.9X0X*XbXuXuXmX=X=XB.< o X & ' %.` Y Y i W s &   @ < A k.$X).a.D 3 U l U 1. .z.V.B.J @ ,.z z R E i @.B c.8X=XuX=X*X=X&X&X&Xj.J C V U a w 3 t t U ` [ ' ,.U R h U Y R Y z U a h T ` R s ' U U ^ ( ` ^ ] E R Y h 3 = = , 0.9.E %.R Y a z R E ( z z U U R R z U Y R U ' %.a a U E R E ,.7.R ` U E ( ( ( ` E ^ 7.N T./.p % y x z h U U U Y ] ' ! ` R U U Y ` %.H.a t 9.r 7 _.i o g ` U ` ` ! 9.E Y T E Y U R U ! E E ( ] ' E ! x ! ! ( ` ' U z ' z U E E E E ' ] z R ` E ` ` >.] >./ Y x x = , O + - ' 7.Y R ! R @.%.%.' &.! ' ,.` ' %.4.` 6.` K.6.( ' E %.` %.( ( ( h E.< '.8 X L.< :XB $ E ` E ) 6.' &.0.%.R ` %.z ' %.6.E %.] ` ,.( Y ` E %.R E z ! 0.6.x %.r 3 S a.M.6X@XV.Z.{.{.b.t.P < . f a l 5.` ' %.[ 8.U E z ' H.E #.` R R ] %.` h ,.U ,.( T ( ' ] E Y h e = , . % [ 7.U U ` ` z @.K.! ' &.%.4.%.,.&.&.R ` %.` %.' %.&.] ` 6.4.&.] ] ` %.%.E U P.g q @ # a E h ,.` %.' ` E 9.! i.cXB.n . X 8.,.4.7.a ] &.0.U 0.D GX(._ % R 7.[ q.%.6.9.6.6.8.0.%.w.] 6.%.' ' ] 5.` ` 4.` %.] E 4.( %.%.4.' Y z a ",
"q : . g P.' a s s E E E ' ! ` ! ! U s Y E E R R E h u ! U.Y.4X#X#XpXiXuX=XoXoXc       X 5 - - - - X X X 2 M y.M.m.a.a.b a a ^ a V E.c x.%Xc.2 s %.U Y U z U ,.J OXpXuXaXuXuX=X=XOXr.G 8 k U ' W ; & w a Y ` ' ' ( h ] z R h R T a z z U U ' ! U >.Y U z h ( >.( ` ` z z w = , O ,.9.z E ' &.a s E E E z R U z E ( Y T E U Y ' &.' T E E ^ ` ' ' ( ' Y z ] >.E E U %.*.:.>XD = h T W h z a z U z E ' ( E Y U E U E ` 8.&.Y a 9.e D g.. e R E E ` z ' Y z U ( E E T Y ( R E ] ` ' ' E Y ! ` ! ] ' E E ' E ` U ' E ` ` ( U ^ ( E ( V / ` ' ` i e g e % O . , ,.D.T R ` ` ( %.,.E %.R ( ' #.( ` ' E ` z [ 9.>.' E ] 7.( ` ` #.Y K.< }.i X F.5 >X8 % ' A.&.` #.w.w.,.0.] ' R Y ' %.] ! ' ! ` 6.' ! z Y ` Y U U z %.' R r W +.Y.|.$XcXFXZXFXGXJXKXGXwXa.@   # 4 %.7.Y %.x ] 5.6.%.E 9.5.] ' 6.` E %.R a 6.z ' ] ' ' %.%.] E z y ; :   o [ K.R a E E Y ' 4.#.5.%.] %.&.%.%.%.` [ %.4.6.E ' 5.%.%.` ` %.%.&.5.' %.U R &.] w # % ,.' a ` ` ' ' E E { 4 <XLXhXj..   l J.q.D.,.#.' >.U D.B NX}.c . z #.4.,.8.6.D.7.7.K.6.w.%.' 7.%.%.` ! E R E ' 4.( ,.%.( ) #.] ] %.` R z ",
"> > O h 9.' s s s ` R ! U R ` ] s U T a ` q k ` R E Y q n S.+.:X>X&X7X8X&XoXoXv.0 .     .   . X X 5 v P r.x.z.a.k...3 h k U ' ! T J.L ,XOXo.# %.E r a s z ,.< j.&XpX%XpXuX8X7XB.p.c V Y E W R T 3 . 3 r U R z ! ,.T ` R E T E ] R a R a R E E ! #.( Y ` T Y ] ( U ( U a w > % - #.8.a g Y #.! h z r E T h Y ! h a z a Y R s E ' R Y ` ( [ U ^ ' E E z h %.E ' ^ r ] h m.].= a %.R g U h Y a h a k U #.z Y E U ! E ` 6.` #.Y a ` % G.< q h ] Y ,.` 0.,.U z x E #.Y ( E z R E ' E Y R Y Y Y ' ] ! R ` ` R ` U E U ' Y ( a U ( Y U ` ^ / ` ` Y g i e , O   q ] D.h ! ! ,.R ` E 6.E ] ^ ( ! %.' 4.%.` ( U E #.7.' ^ E ( [ ` %.z L.w '.p - J.5 :X5 3 %.9.! ' 6.6.` #.,.%.( ' E E E 4.R ` ' E E Y ] %.z Y E R ! a ! ' 4 n S.S.XX1XJXGXJXyX`.BXPXZXZXMXgX(.6     ; 7.' &.%.[ 9.0.' %.J.8.>.] Y ` %.a e r ] Y Y Y ] E ^ ( ( E z w & % + % 4.8.] ` Y [ Y ` ` ! 6.' ' #.` %.] %.%.` %.' %.%.%.%.%.w.] %.! ] %.&.5.%.s U ' ( q # @ 6.J.E T R ' ' Y ] V o.ZXLXLX@Xv + . ( 9.#.,.[ 4.] / ,.j 1X#XN . y E.^ 4.5.%.K.K.9.9.7.9.8.6.4.' { ' Y U U z ` 7.,.] #.{ >.,.,.>.%.] ! U ",
"= , . h 9.' U U ! ' a U z E ! &.' W Y Y 0.W w w &.%.} ` k 3 S.p.W.<XOX&X=XoXoXV.a.9 # - # 3 9 v M e.v.v.r.y.j.G u i s w s h E 4.` s.a.gXx.c y %.U R s r ,.1 J b.aXpXuX=XrX#X[.e.9 h g U s E ` V &   & a Y Y s E ! Y R ' ' R s z ! Y Y h Y ' E ) E E ' #.] %.,.] E ^ h i w , % # #.~.^ Y a R ( U ! ( R T Y h Y E U R U R a z h ( ' U E x E Y ` ( E E ( Y t i r W l ( V <XD = Y #.E z U h E g a E ` a h a ! Y U Y U U %.4.7.6.w #.y 9 2.% W ( R &.E ' %.( z U h U Y U ` ! R ` %.E T E ` T R ` E ' R ! ` ` R ' E x ' ' ( z Y #.( T R / R ` ' x g e e , % . > ] L.h R E ` ` %.&.R &.] %.` R E ' %.E ' %.%.Y E 6.,.( ,.,.,.` ' U ~.4 '.c @ D.3 +X$ 4 w.L.W R ' %.Y %.] 9.` ` ' R %.E ' ' ` H.h z &.R Y U T Y 6.1.U i $.=.) g.MXFXFXPXzX[ Y.lXJXPXKXPXJXhX#XA .   q 9.6.8.' 7.8.D.%.&.6.[ w.%.%.&.,.! a 4.a E E Y U U U U Y h e & % . O %.6.Y } Y ' E E E R [ %.8.] ' %.` ] %.E ! R ( ` 4.,.4.%.] 0.[ %.%.' 0.4.` ` %.] % # = 9.7.( %.5.%.E ' &.S '.wXZXGXcX(.o   q 8.,.4.%.#.` ( ,.V ].0XP 5 % P.,.,.%.%.9.J.4.7.9.4.9.A.6.%.5.&.' ( a a a z ] 7.' ( >.,.<.#.( ] Y a ",
"= - o U 9.z t z %.] z ` %.a a Y Y W Y V L.G.) w e 6.Y k R x 4 =.2.+.'.%XOXoXoXoXOXN.y.e.P e.r.v.j.v.j.P i.P V - w z ( T s h s a ` U.j.#XK < R *.Y l U 1.$ M x.8X=X8XiX%Xj.i.L b e g g Y ! R ! 1 @   > a U U U R ` ( E U R ( ! R R r ( E %.] ] ( E ) ' ( ( ' { ( ^ ( Y h y > = % [ 9.h ` Y U z U a E R R a a E E h U T h U R R R ' ] E a #.^ E ( U R Y ( a a a V ^ ` X.$X6 = >.E Y z a ! Y ^ U T ` %.g a Y E U R Y U %.` 6.6.] g { 2 h.@ U U E %.' ' ] R E E U z ` %.h z Y [ ] U a z ] E R R E R Y E ` ! &.U E R ( ( ` r Y >.' { R ' ` #.' / x g e , %   > ] q.E Y %.E ' %.&.h E 0.%.` E ` ' ' ] %.E ' %.U ] %.( z >.8.K.Y a D.2 '.j # D.& :X* 3 &.H.&.' ! 6.` Y %.` ` 4.` E ! ` %.! R ( E %.( ` z z ` E *.' w *.s.*.s.3XrXJXKXlXFXKXFXBXJXJXKXKXPXcXNX9XO.*   $ ' 6.w.8.%.6.[ %.%.7.E %.( R %.] h 6.U E ` ` E z Y Y Y t t > % + & H.0.Y ! a ] Y 4.%.%.! 4.4.5.` E ` %.[ 0.] Y 4.' ] 4.6.%.%.] 4.6.6.` &.%.6.' ] T # # q ,.( E T %.@.R 7.V l.jX;XJXGX3X[.A   . [ 8.6.A.5.#.#.,.Z g.cXa.j X >.` ( ' ` 4.4.7.7.6.7.6.%.6.%.] U z R ] ' ' a h #.,.9.,.' ' ] ( ( ( h ",
"% % O q 6.R U s R ! z ' ! U r a U Y ] h S.'..XW b f { *.a z a q T G.+.W.;X7XV.V.oX&XZ.r.e.e.e.v.j.a.P A n y l a r a U Y Y s R Y k G.n.x.v r ' U U %.W $ c v.*X*X&XM.a.p.L 9 p U ! i Y ) E ;.$ % @ % g z U R E E ] E E E E W E E ] T R W ! %.Y a ! s U Y ( ` E R ^ ( U h e = % % { 4.h U U ` g e U Y Y E a z U E ^ Y y T a } ,.6.[ 8.U ] 1.` ' z z ! E &.` R z R E 6.O.`.< W !.K.E.' & a #.D.1.] %.J.9.6.,.D.E g U ^ 9.L.!.I.~.` A.4 d . U U ( E ^ T ' %.R E ' U ! R a U z 4.%.E E R ` E E W Y R ( ( Y T ` E ^ R E ' R a U Y ! ( { ^ ' #.#.' x t = , % . e ( D.[ z ` ! ] @.%.} ] ! ] %.` E ' ' &.` ( ] ^ ' #.' ^ R E ` ] [ s H.5 +Xd % K.$ :X$ < { D.%.` 6.4.0.R U ` ' %.4.E ' U ' %.' R U ! ] @.! Y 6.&.' U Q Y =.T.9XNXiXcXMX>X4XXX:X|.|.fXVXzXzXKXFXBXgXm.< . % #.! ] ] %.,.#.] %.U ] R %.[ ] r ,.z ` ( T ' Y T ^ h g e > = . % >.H.` #.^ #.g ' %.E ! 6.! %.` R ' ] 6.` R Y ] ' ` ' 4.' ' E [ D.4.` 6.,.4.7.%.R % o a D.h y U ` E ' ' F fX+Xg.l.].3XdXp..   w J.E D.] 9.4.^ ) ..MXx.F   ^ ` h ] ! %.&.%.` ` ` ' ! ! Y R ` %.^ ` &.%.` h t g ] &.] >.<.^ Y ^ x ",
", , X l ,.( Y E U #.h h ( ! Y g q i E h a _.XXQ.W n y 9.0.R R g i T G.s.'.|.0X&XoXoXx.r.r.K a.v.P n f r w U Y s } s U s U h s R Y A.T.t.8 V U ' @.a # J x.V.N.N.r.e.M B 6 ( y T E { E w.U $ < 2 # q U ` l Y ` E E R U R ! R E ] E W #.R ' %.E r Y W R ` ' E E ` Y U h t = > = = >.,.h h U ( ` U U R z U ` z z s U ^ V W >.w @ 3 [ 7.,.E ` %.( ^ z z z ] ] ` U z ' U p.W.% 3 ( 5 ( ^ E w @ $ 3 % % 3 = = 3 U t i $ & $ 3 U ] U y w.1 u $ t { E ^ Y ( ( >.` ` z z ! %.a U E Y ] ` ' z Y Y R ' U s R E E E ' R ' E E %.' h ( ' E ( <.] <.^ ' Z Y e = , , . e 6.K.( ' ] %.] ' %.' 4.E E ' [ 4.Y ' &.#.E ` ,.U ( #.` ] ( %.R 4.U K.1 ).B % K.< ;X< $ } 5.' ' ( %.&.%.' %.E E >.#.,.E T E 6.%.%.E R ! E E 6.9.s d C X.l.;XvXHXBXgX|.b.a.t.| | t.}.VX.XzXKXKXNXcXeXz.< . # ( E E ] ` ' ` [ ! ' ] ' H.8.a ] R E ' [ Y ^ Y t h e - , , . O { 8.` E ( ,.` ' ' E U &.` ` ` E ' %.%.%.E ` ` ` ' %.%.` %.` R P.H.8.R 9.!.7.7.e X = ^ 9.6.( ( ` R &.Z T.wXp.j 4 8 ..-X}.B   @ ,.6.4.A.,.8.#.' D eX[.J - x 7.^ ( ` ' 5.&.4.] ' ' 4.%.&.' %.6.&.6.6.0.>.( a g h #.#.' / ( T T Y ",
"> , o R 5.U w r r W R a a r z a 3 w U h a p Q.k.f.d : * k w.6.a Y k q Q Q. X}.m.>X7Xj.0 5 = 8 V 9.%.z a w r s W E U z U r ! T T z a Q ;.W a Q ' = % P r.r.K P P F 6 w g U W U h { Y &.r + ~ A < 1 T U z E ' ` E z R E a Y ] U ] U Y #.' ' %.%.Y ! ! R ) ) ] ' ` T U x e > = = % ,.,.y g z ` U z U E E a E R z a Y E k ,.U @     % ' K.g ( ( ^ #.` R Y ] ( E z a ,.N a.a.% % X % = i a b i 3 % - % # X # = < $ w 3 = 3 - . X . X % 3 A b % r ` R a z ( ( ] ' E z Y %.` U E %.Y ` Y U ] %.! ( z R s R a Y R W E ! U ] ` a U #.` ] ` ` ' <.' x j t > : % . t #.L.( E ' ] @.%.[ %.%.` E ] ! %.] R ! #.^ U 7.Y E ' ` E ` @.( @.R J.f +Xj . H.$ -X@ = R &.` 9.E ' ' ] 4.' Y E ,.] %.%.] %.] [ %.` ` R ! U %.! s _ =...<XrX6XBXMX9Xb.+.A b s n | j._.zX4XFXqXJXGXNX<Xy.<   . > ` ` %.R U #.&.R ` ' ` H.q ' Y ' ) ' T ^ T Y g y = , > . % 7.E.8.R ( ] ( ` E %.` R ! %.' R P.[ 6.[ ! E ] &.' ] 0.4.[ ` %.4.8.%.( >.^.6.9.= O $ 7.,.( ' ^ } E &...6X).9 # & 1.g H 0Xp.<   > A.,.D.,.1.( ] ~ wX#XJ $ = 8.T Y %.' ' D.4.%.%.] &.6.5.4.[ 9.%.,.7.%.4.<.#.8.' z ] ' ( ' ' T g ",
", , X l H.z w q a z z a r q 3 r a y e q a a i .Xy.s.d @ . r ^.0.a ! z w u Y.l.].W.m.x.4 X       ; 6.K.0.[ Y z U z ! z E E h R h Y } E W U 0.R # p J M M M c 0 5 4 h i h ! h g T @.` r $ | t.< q r a E a a z U ' E ! ' ] ! ` ( Y ] Y ! ] &.%.! s %.U Y ` ( ] ( ] ( h g t > = % % ] 9.( h ( ' ` E a R h U E Y ( ] x h W 0.b p.I < + o #.,.U ] h U ' ` Y a z E ,.z ] V l.:XB V Z C S T _ Q C B C V Z V N N Z Z Z Z C V V 8 p d i i u  .k. .= r z D.U ^ Y ,.0.7.E U Y 5.U E Y ! ' E ( E ' E ` ' ` E ! ( R ] R U Y 6.] T z h Y ' E E ^ ^ { #.^ j Y t t , % o e ,.J.( R R ` ` ' #.` 5.` ! ' ' } ' ' ] #.D.#.] { Y T ` E ' ] ,.%.s I.< `.N . F.& :X$ $ ` 0.' A.%.E 4.R ` ,.' ] R U %.{ #.#.%.8.U ' %.z 6.k 7._ s ! s.}.jXZXeXgX9Xk.s.6 s @.I.*.n -.k./.fXlXfXQ.lXPXGX$XP $ % @ O ' 6.>.' 8.E ! Y ' R 6.a 6.R ' >.] ' ] E g a r q > , + % >.9.^ %.E ] ,.5.` %.' ` [ ' ' ` 4.@.] ' E ' %.` ` ' 4.' 4.! %.%.,.%.( !.A.$.2.w # % 7.7.,.' R U 6.i l.vXp.$ e q g 7.N +Xc.B   X ,.,.' 1.,.( ] N qX7Xt.# X 5.` z ` ( %.6.[ 9.] %.5.6.%.0.#.&.6.7.D.#.6.9.,.8.7.{ ( ( ] >./ ` h ",
": , . e 7.^ w 3 3 e a h h w a 3 r h T z a a a 4 0.) -.S   . ; 4.K.U R R z 2 W U.m.z.r.I 9 6 #     * k s &.6.] E z a s Y E x U ` #.&.&.W q # 4 9 m 7 0 2 p w 3 h w U U s U U s Y U # * k.t.f r ! z Y a U %.R E Y a R Y z Y ] ' ' ` E a z %.` ' z >./ Y ` ( ' ] #.E E i = > % - % #.,.z h U E ' E a U Y h ` z U E E h W 6.~ 3X>Xa.@   % %.[ R R E r E ,.` z R ` ( ' s S t.i.-...L ....+.s.H H D +.p.o.O...L L ..-.L i.s.o.L D  .i.X.| n 3 # R R Y T E ` ,.Y E ' U U U E R E U R E Y Y R E z R ' R R ` E Y ] Y h ` E ] z a ( ` R ! ` >.' ^ Y t h e q , > . t #.7.` U E ! ` ( ` Y 8.Y E ( ] #.@.] ' #.] ,.( E ] ` %.U ! ' E 0.Y I.d '.Z . 8.$ :X# - ` ' ` %.%.E ' E %.z ' &.&.%.U U ' ,.z ,.' ] ` %.` #.0.! ) s.(.CXZXZXvXeXy.n 4 W %.&.) P.K.p M l._.5XxX+.XXBXLXvXf.5 q 1 # - ] #.%.' ! R ' z ` %.w %.r ' ( ' [ >.E U a q > > > + - q.5.[ ] ` E ' ,.%.%.%.` Y ' %.R 8.%.] ` E ! %.' #.] ' ' %.U #.` ] ` ` %.T 2.3.S # g A.6.,.{ z E z S kX+XF - = [ g #.p l.1XK @   g E.>.#.` ` 6.h -XcXj.u . R ' E ( ] ' 9.%.w.&.H.&.%.! 8.0.%.6.%.&.%.A.1.8.4.9.] ( ] ' ` ( Y U ",
"& % . q H.t q q 3 y U ! ` ` z U r a E z h a h a w A.n *.f     # R K.( ! R k 3 ; W Q.k.p.e.J c 5 @ @ . 3 . % U ! #.W s U ;.z W a E s $ # 1 2 < 2 2 4 w r w V a ( U s z U W ` U &   b u.v f s %.7.%.^ R R ! U Y E h %.! R ( Y h ' U [ E ! E ] &.U ` ) ( ` #.^ ( ' E Y z q - - % % ` I.^ E z a h E E h R h U z a U h Y U 9.0 W.GX@XK @ . ; 0.4.R h ( s Y ' U E Y r 6.Y a r % & 3 3 r W x z R 6.9.a e q & & 3 a s q 1 # $ # & % & % q 1 4 3 i U ! U E Y ( ] U g ` U R s a R ( R U ( Y %.R E E E E ' %.E R ( Y U E 4.%.` %.a U ` ` R ` ^ ' >./ / g t > > =   r ,.0.( E ! Y ` ` %.( ` #.T ' ] #.W ] ] [ %.J.,.( R E %.[ ' ' #.%.U K.w '.G X 9.$ ;X$ = 5.8.E ( %.] #.[ E ] R R 6.` ` ` ` %.[ #.E %.U U U ' 9.Q  .(.tXbXAXCXcXx.H 5 i %.&.w.@.D.6.A.n n y.].xX}.:X9XhXNX[.% 6 u q . e ^ ` E a ` ] a z 8.a ,.E ` #.#.' ,.] T Y q = > % . # #.q.8.U 4.! E &.` %.%.4.&.` %.R E %.` 5.E ! ] &.%.,.` ! ,.r E ' ] %.' ] Y ' Y % q h ] U ( ' ^ 7.Z c.gXg.5 $ E ,.( z V F gX).S     ,.J.#.[ ,.] ( f.bX[.F . U [ U %.%.%.5.%.%.%.6.%.%.E E w.' 6.] 0.,.&.6.0.0.H.7.( ( E ^ U z g ",
"= % . z 7.t y > a E ' %.` E R U a a E T h a z U a q W *.6 Q $   @ w 6.K.' R i R a d g b s.k.a.K m v f < # & % w % a Y z R E ' h a @ @ 5 2 4 f q w i i g g U E ^ U R Y ! X.h O @ n c 2 s ' ] Y E ] E Y T ( U ! ! &.( %.U R Y E 6.R ! a R ` @.&.z <.R / ` ` ( ] ' ( ( E t = > % % %.9.E ` E ! U a U ( T Y U a R E z z a 5.h D W.ZX;XK # o > #.` h U Y ` ( R Y 4.U Y ! W T h h #.!.H.~.~.~.~.P.H.U w i % % a 9.Y Y U w & & i U U a ;.Y t Y %.` ! z ( h ` ] ,.U E E #.R Y Y ( R U ` W ' R E Y T ' R ] ' Y ` ] E E R ` ! %.a U ( %.` [ ^ ^ ' ` ( ^ g , % %   e ,.,.{ z U ! ' ` ( ' ] E ' T E 6.Y %.! ' ` ] 4.' %.%.E %.] [ ' &.U L.f z.G . 9.& $X* % ` 0.' ' 4.' ` %.E #.E ] 4.' E ] %.#.E [ ` #.` [ z ^ 6.S /.gXCXnXbXcXz.J 4 # Y ! %.&.#.*.' } H.F.n y.].5XMXrX,XhXwXd e i i X % R 6.%.E ] 0.Y z D.a %.U ! ` %.>.<.' ^ ( g > > , o X >.7.6.( ,.Y ' ] %.&.' U %.Y ] ,.E ` ` 0.R R E z %.,.4.7.Y R [ E ` ` E ` Y ( = . # ^ ,.E E Y ' &.+.dX}.A & g D.H.D.>.H.4 /.qXK # X R K.` ' ( h 6.B ZX#XD . > K.R %.4.%.0.7.&.' 6.6.` E ` %.' A.&.&.&.' 0.&.0.6.6.` ^ ^ T { ( U ",
"> , % ^ P.^ z z k } Y a E U z z a r a z h a h a @.W y ' =.n A 1   .   z 0.J.&.E Y R V y = $ 2.d.].z.k.J F | 6 p $ Y } r w.H.=.V i f 1 V u r s s a q U Y ( W h @.] E ` E % . f H J $ 6 @.! z Y E E z %.Y a ( R i Y ' R E Y U U ,.( ] a a Y &.E z ] T ( ' ' ( ' ^ U Y U g e = , X ` 7.U T R U U U R U ! ( U } a U U z a q 6.d H .XZX{.M X @ w J.%.U T h R ! Y ] E Y s h E h h h 6.!.K.!.~.P.] 0.U w w @ q g [ & > q U ] s 1 q U s r a U a z U ( R ` z U U %.` E R U %.' s ! E ' T ' ( T Y ` R Y ! %.! ` R ' E E ! ' ` [ E R E } E ^ / Y Y Y Y h g e , O   y 6.9.Y &.%.R Y &.[ %.%.' ' W ! ] ! %.E %.%.&.%.` ] U ' ] ! ` ' E a I.u W...  F.< #X* % %.8.#.' a ` ` %.R E ' Y #.[ ! Y 4.] 7.#.5.E ( 4.) 7.R l.kXPXHXbX1Xp...i = = [ U ! } &.%.8.' ` H.K.n t.[.zXMXhXwXMXJ > a w X   e ` 4.` E 6.%.%.9.z 6.R ! E ' ] [ #.( U a = e :   X >.9.7.E ' E R ' ` } #.` &.` Y E ( ' ! ] ! U ' R %.R ` 6.' ' 7.R ] ' ( E U #.% # % ,.] ( ^ U 4.i z.ZXf.1 # - ^ h x 3 ` i P MX(.c . > E.,.#.9.g 9.8 wX0XP . : H.` %.%.&.7.0.%.` 5.0.%.E ' 4.6.9.%.&.6.0.` %.8.6.7.' ' ^ ` U T ^ ",
"> : X U P.` ! Y E z 7.Y T T ` Y U h z z E z i r z Y h r a R.D J 0 &     o e %.I.[ E a Y z r e q s n s.s.'.}.k.7 O =.( # a R...4 r h h a 3 r r U z E U R ,.7.8.0.) w O   8 D 1 # 1 W h h ( Y U Y z ( ' E Y T E ] w Y U a z U Y E ` ' a r T ( ( z ^ U ' [ <.( ( ( ` R Y r > = % % ' %.U U R z x z ' z Y ` ! Y U R a r s g a 6.f H W.vX[.m . . r P.` x U z %.R Y E ] U ` ' E ` E ( ] K.6.U w s a a q z ` E ] #.' E ` U R ' h U E z E Y E R W R U R ( R ' ! E ! %.E R U #.Y E ' ' ( E R E Y ] ' E R ' ( ] E z ! W ( R E 8.a x ' ( ' [ >.` ` ( T x t > , ,   e 7.4.( [ 4.%.R ` ` ! ' &.R E ' E ` @.%.%.R 9.] ' ` R ` &.} &.&.` h 8.4 ].H . q.1 ;X* @ %.0.U 6.#.E &.' %.] E ` ! ! %.` ` R %.&.,.%.^ T 6.E v [.nXLXLX>Xs.N n ! z w E U R ` 4.E >.%.#.6.4.A.n t.XX4XFXMXcXl.f r w   o z ' Y 8.U E 4.4.K.U 4.#./ Y ` ) ' #.( T g t t , . X 1.F.#.,.` U z R ! 6.R ' ] 4.' E %.8.' ` [ ` E a %.5.%.' ` %.4.6.%.( ' ] 6.( # & r 6.[ E R E z A 1XbXk.# . # # X # # # 8 a.BX{.I . @ R H.%.0.%.=.Y /.0Xa.% X %.%.%.' 8.%.4.%.! #.%.%.! ` [ ,.&.&.] ] 4.#.&.6.4.6.%.` E E E z g ",
"> > o g E.( z E U a h Y h Y Y Y R h U a h h s h h T W Y t i R.t.K H 2 . . +   & ` &.A.&.` z a z Y h w r d *.*.s ' X.    . & %.A.) U k T ! ] Y ' } &.6.%.` h ( # .   5 n F 7 $ & T ' Y s E h a g Y ` Y R R s z R U z ] ` z a U Y ] 7.E ( Y ] R z ( ^ ' 4.[ ,.` Y T U h g q - % % %.J.U z T z E r U R U Y U U E R Y r a h a k 9.i X.W.jXm.v   . U A.[ z z R z h s E E ' U ] E E E E %.J.H.A.H.] %.Y R E U U R E U Y E ` z U R ! ( r Y z } T R U z Y R ( ' E U ] U ( R E Y h E Y T R E Y U ! E Y E %.E ` ' a ` Y z R E w.z Y ] ` ` ( ] ' ,.' ^ h g e , # . e #.8.#.( A.E ` ` ! E E ' ,.E ( ' ' R 6.] ` ' ! &.` ` E ] ] ' E #.s A.s c.3.. H.< :X* # 4.#.' ` E E ! R ` ! ' #.' ] [ ' ] ` ' ,.8.&.' %.&.9 [.bXnXCX:X-.8 N U U q E T R U U { #.^ 6.6.,.A.w.1.Q D `.4XFXGXlX5 ; w . o z ] ` [ a a ! } P.g >.` ' ] ) >.#.] @.T V t t > . o #.K.' 6.7.] ' Y ! ] ` ` ! ' [ E ` E ' ' ` 4.6.! ' ' %.Y &.%.! T #.9.%.] 5.z X % U 0.%.E a 8.u z.BXNX>Xe.5 < = $ & $ 5 t.#XNXrX(.0 . % 9.#.%.] E E :.eXb.2 . ` ,.' ] %.4.4.' ' [ ' &.` %.' 5.[ ' ` %.9.5.&.%.%.6.4.>.] ' ^ ( ^ ",
"> & O > 9.a h E R i E U ` ' g g z U a Y y g w g w a a q U q 3 Q W.a.m | f o .   + . q a Y 1.] #.F.! 1.&.w.1.U.;.3 7 I 7       % y U z @.T E R E k w 1 & .   . @ c J A * # 3 w s E Y Y z ( R R R ( h U ` E s U U z a W z ` Y U E ( ( ! W T #.! h ] ] %.$.] ) <.] ' T g r q % : # &.8.U z z U ! R i U z E a r ` @.w.z R ! E & h 9.1 B f.gX}.v   . r P.#.k U a z q Y E U E ' Y E R R Y ! U ' ( U Y a h z U Y U R h z E U a h U ` 4.U Y Y U E U E E U E R Y U ` R E Y ' ( E T E ( h T ! R a R ! ` Y E ' ! ` R R ` ' ( T U w z Y %.#.( <.] { ` Y Y t = % #   , >.6.( R Y ` E ` [ %.` R ` ` ] ] ` ` R E ! ( E ` E %.E ' ! ) ! %.U 9.r c.... 5.< ;X$ $ %.6.U ' ` ' %.,.z R ] #.U %.x E z ( E ` &.U &.0.9 }.AXHXNX(.| d p a E %.E R a E E a ` E R [ D.,.L.w.K.E.W A T.4XMXHX:X5 o % e R E ] 6.E ' E R 4.g ,.' ' ] ] $.,.,.<.T g e e e . . 6.H.! ,.#.#.5.' %.%.] %.] %.%.%.x ' E &.E 0.` %.` ] ` ! } ' &.( ,.6.6.` 6.3 @ # z K.4.E Y !.b p.W.+XfXhX9X$X|.[. X{.1XMXCXwX}.k.| % # ] 6.7.` Q ] +.wX@X9   t H.' 6.6.%.%.E ` ] ' 4.8.%.%.8.%.[ ` %.' #.] 5.%.,.] ] #.] ( U h ",
"> , . t 9.Y h %.#.E z ( / ( T h h U h ' ( U U a i y r U a h R a p .Xo.8 8 B <         . . . .   % 3 h < ; w & * m b.@Xe.v #       # o   @   . . .       . $ 0 J P v $ 1 i W h s ! Y ! ! E T U Y U R h U z z R h ! ! R #.R ( E W ,.#.R &.U &.' s ] ( ' ] / ] ] [ [ ^ V r q > ; % 6.7.U E U R U ' z E z R #.a x ( ! U z k 4.E % U D.& 7 O.4X/.c   . r w.6.A.&.k E ` %.R ' 6.' &.` %.` &.' 6.0.} &.U ' ' ( ` ! R ` R E ` E U z U ' ` #.U a z ` a ] Y ( E U R E ' ' R ' ` ' ` ( ' ( ` ( 4.Y Y R T R R ( ( R E Y R ( E R @.a R ` ` ` #.[ #.] ` T Y g = > %   = %.6.U ' ,.' ` ! E E 6.E ! R R ! E R ' ` ` ' ] ! R [ ,.U ' #.` #.s ,.i l.P   7.5 ;X$ # %.9.&.! ( E &.%.] ' R 6.] 0.&.E ] ` ( U #.0.9.V W.ZXAXLX).B f w W } z z Y %.E a %.x z ' R E ] %.A.{ A.!.E.=.A k.3XBX6XL . % 8.` Y &.' %.%.' 6.K.U 6.R / <.( ' >.( T ^ g = e t + % 8.K.E ,.4.` ' U ` ' ` R ! ' ' 6.' ` ^ ` ' z ' ' ` E ] %.R U ` ` E A.&.Q 1.q # # % U A.9.' I.a N D ..N G g.'.4XqX3X:X].k.p.A n Q & r w ,.&.J.A.( e :.bXrXJ . . 9.( 7.%.6.5.%.%.[ %.' ' ' 6.%.` 0.` ` ` ! ] ` %.] ] %.#.) R T U ",
"q = . l >.' q Y %.h g E T / x h U g z ' W U h h y r r U e a h ( U q n Q.! b A m c * .                   X - 0 r.B.*XtX7XN.K v @ * @ X X .     .     $ 9 A J K J 6 3 i h h U h h U s z Y z E U ( ` U z g a a ' Y a R ! %.Y Y Y U { ( T #.E 0.&.Y ,.^ #.#.( ) %.#.#.` ^ t q > & # ( ,.z U U E Y ` x z z E ! a z Y ! W r l ' 8.z a z 7.> 6  .T.-X7     * U H.D.! Y %.] 4.%.A.4.6.0.8.6.0.8.9.I.0.6.U a Y R ' ' &.` R w s w & 1 e a U h E R %.] #.&.' @.0.%.%.` 6.J.8.H.P.H.8.q.L.A.P.!.!.P.K.D.&.%.E ' R ` R Y ! #.` h ` a s R E ] ^ ^ <.#.' T h t > > , o & ! 4.x ( &.0.` %.` ! R ] ' E ' ` R ( ! ] E ] ( ' R ! &.R ! ` @.( E 7.g l.L   8.% :X3 $ %.H.` R ` ] 6.%.' ! Y 4.%.7.} ` ' ] ' ,.( #.t L $XAXBX).t.w q ] ' ' U E E z Y s E U z E ' z ( %.` ' } A.,.9.1.B /.qXeXz.$   } 6.4.! ! E U ' } %.g %.E ( >.<.( ' ] h h a e e e + * 7.A.` 4.4.[ 7.! ' %.E &.` ` ( w.! ` [ %.` ! ` ' ] E ! #.6.U E E } 6.@.U.L.R q @ . % 1 U ' 0.P.D.p i 1 & 4 N B C S A S b s 4 & 1 w ! #.>.` ( h = h M.bXrXj.$ X { 9.&.&.@.K.%.%.%.%.%.4.,.[ 4.E %.] ! 5.,.,.,.,.` ( ( { ] ^ R U ",
"> , X g %.' U s ! T W E ^ U ( ^ Y z h ` U y r E T a a a a z a h E s r o 9.t.~ J J I A 7 7 7 f < $ @ * 0 I e.N.OX*X8X%X*X8X&Xn.e.I v 0 9 v 2 7 c m J P K K M 0 8 i h U U Y h R h ' z z ' E Y R ' ` U %.Y Y h E ` R h ` ` U T ` ' E ,.) Y ] %.E s ' ( @.1.1.>.,.,.' ( T i = = , % %.6.g z U U E h Y U Y s R z ! &.w.%.U a Y ( Y } a a H.s 1 S -.'.D o   . * w % . % % * * q 3 % % @ q # 3 & a 1 s q 3 @ #   . * .   .   + .   o @ # O 1 . & % $ 1 r % & % % O o $ r 1 % 3 a - % = % & a 3 w u s 6.U %.( ] %.Y E E ] ( ` U ` E E ! ^ { ` ^ ` >.R g > > =   y %.K.%.U 9.#.z ` %.R ' ! 6.E Y ] R #.R ` E Y } E ] %.' %.] ` ! ] U %.i l...+ 4.1 }.$ - 4.8.4.} R ` ! ] ,.E ` ` ` 7.] h R D.L.4.( $ F @XjXrX[.:.6 w s &.' ] ] ` z &.E ` ` 7.z E 4.` U Y %.w.J.w.] &.8.V F dXJX1Xv   > =.5.k r a %.z ( 8.r >.Y #.` ' ` h ' Y U a e e e X % 9.9.] [ 0.' ' %.6.%.%.` [ ` ] %.] E ` &.] ` ' ! #.' R R ] 6.! ^ { H.W Q.S.A.t.I 4 # @ @ * $ w ! D.8.` s a w w 3 3 = 1 1 a ] T & r V a & . & q S h.hXAXbXz.2 % R 9.%.8.%.J.&.{ ' &.%.` &.[ 7.6.` %.` ! >.#.] 6.( ' T Y ` { U r ",
"- % O e D.%.h z W U E h Y a U Y ( U h ` ' h Y h Y h h h Y a r 3 Y a z U 3 > V G.T.a.I M K K P y.b.{.OXoXB.B.&X&X&XoXoXV.C.V.V.C.B.B.M.x.a.e.P M G J c n L 8 g r h h s T a Y r z R h h a E z ( ' z R Y E R U z 8.s %.h R Y E Y ! ! R ( ! %.1.) T ( ( [ %.%.%.] <.] #.E h q = % O 6.7.U U U Y R z R Y U z a z ] U a t 6.E h s E ' Y U r w.' % 2 F l./.0 @ . + .         .   . .   . . . @ * @ * * @ @ * 2 $ * 0 J K b 4 $ * 1 c c 5 $ * @   . . . . o @ o   . o @ # o @ . # .   . # X % % % @ x z ] T ( ] R ' Y ' R U ` a T ( T ] x Y ` #./ Y h t > % =   q %.P.` E &.] ( ] ! ` %.' [ ] Y R E ! %.! } #.Y ! ! %.` ,.' E ` ^ z <.g g.L   %.4 +X$ @ &.8.' E E ] ' ] [ %.&.#.U 5.8.' 9.D.V 4 4 J @XZXAX[...8 w T #.E W &.` ! ! Y %.R %.z Y E %.,.&.0.' ' &.%.&.A.6.a t.lXJXBXz.$ o ' D.Y R ' ' ` U 4.q 4.` #./ ( Y ` ] / z g e q > X & %.A.E %.%.%.%.6.6.5.&.' 6.` %.%.%.7.` 4.E 5.7.U U R %.%.&.' %.>.` 8.k n ! G.MX@Xr.J < X . @ # % q U W E E V E ( ' %.&.%.1.#.#.! ) s h & . @ ..{.VXNXZX'.D 4 > ` %.4.%.%.H.&.%.%.%.&.6.%.%.0.] %.4.8.%.' ] ] #.4.` ` U ` ] a e ",
"= , X t L.) U T E h T g U U T z ( ' ] g Y T ` h E h ( a a U R } a U l Y @.! w 1 W +.@.D P P I J M M M c.M.m.M.x.B.%X*X&XoXoXV.V.B.x.I 0 $ m v f 6 F 1 w h h g j i h W h U z h z z z s a ! R ! ( z E E ! z ` z a a T E ` Y E W U ! U U Y ( ] E E ( ( ` ) @.,.%.,.( ( Y g q = % > ] %.Y E U s U R a s a z z ] * @ @ O & %.E z U ` ` { z r ( %.q # d a.<X-.J e.e.e.y.j.x.j.a.a.x.x.x.b.x.x.z.b.x.(.b.b.M.C.V.{.>XdXMXqX<X;X{.{.{.C.{.C.n.x.b.x.j.x.y.e.y.y.e.e.y.e.J t.P P J K F H m m m v 9 * a k #.R z ' Y ] ` ` 4.z ] U R 6.U R Y x x E / h i e > % ,   e &.,.] R ` ! ` 6.%.` E ( ] ' ,.' ' ( ' ' U 6.' Y U %.E ] ` %.` #.z >.j a.i.X %.4 ;X< # %.0.` ! ` E ] ' ` ` %.%.6.` 7.%.7.a 4 F k.eXJXPXrXp.u 3 k %.4.&.E ' ' ' 6.} ` ' ! ] z z a ! U %.] *.0.A.6.,.3 B [.BXJXGXlXF . X 6.&.a Y z U E K.h %.E ` Y >.` T ' ` Y g e > > X q 8.I.R ' %.` E %.%.&.` ! ' &.] ` R [ ! &.%.E ,.( R ` R R %.` ^ 4.E >.} e z S s.fXwX$Xz.I F 6 4 $ @ & 3 3 r s a 3 q q $ & r s i a s g V V B (.#XjXGXqXO...3 3 T 9.H.` [ %.%.%.&.&.%.[ [ ' %.4.%.H.` %.%.` ' 6.>.#.' ( ` ^ ) h q ",
", % X t 7.E s E U U E R h E Y a W z ' s ( s E a ^ ` a a a r w ! r a r E a z s z y 3 % r V ) V  .| A v m I P K t.d.x.M.M.N. Xb.n.x.J B f p i s w u 1 3 z x E E R a Y U U E R z E h U a Y ( ` E E U s R U E ] W R h U h ! E ! Y W R U W h E @.Y s ` ' ,.7.,.,.,.>.6.' R g t = % % ` 6.g U ` U Y E Y a h a %.i f m A @ + & h h a R ] ! ' ' a h 4.! $ K .XQ.G.U.<XgX0X0X1X1X$X@X<XFXvXbXnX6X(.(.+X#X;X>X1XjXJXGXGXZX3X/.k.k.z. XkXMXBXjXwXMXBXrXhXvXhXwXeXwXdXdXvXvXiXjXvXcXvXeXvXMXgXjXhXgX9XX.r g ,.T E E Y ,.E z 7.R R i R ' ' R Y U ( E R Y g e - - ,   t q.6.^ R ` E R ] ' 5.] %.! %.` ] ' ] %.! E E 4.` a R ' R R ' ] 0.U %.x a.O.X #.4 +X< # <.] ] ' T ! ' ` ` ' D.%.9.*.V r 1 c m.9XbXSXHXAX<X7 w a 6.T ] a R R ' Y ` a U ] Y [ R h Y Y R ( ,.%.,.L.( p L [.rXLXLXJXAX:X@   r A.' ` ` R [ &.z 9.` ] ( ` [ E ^ { ` h e = , X - 7.9.' ' ,.#.( ] ' %.%.] %.] { 6.` E R 8.] %.' %.' 6.! R %.%.6.E 6.Y ( 0.Y # w b g._.3XkX>Xm.y.y.c 5 # w % % & w % # . o # 1 % 3 4 +.p. X$XNXNX<Xm.+.B w q x 0.%.9.E ` ! ' ` &.U %.{ ` &.%.%.%.%.[ ] ` [ %.&.8.&.' T ] ` ( ` z ",
", , % U 4.U r Y z s W s a U z U Y z h R R U U ' a z U ' h h a a a q z ( z z w a ( Y U y = & w ] Q Q *.D y.j.p.L t.l.l.m.k.a.e.t.d 4 4 i i w 3 r l Y a h s a z U ' r a a R Y z U U R E h z ' a U E a R a T ] %.E ! s U z Y W #.z E s T E Y ' ! a ` %.] ,.<.>.#./ ,./ ^ h r = = = #.7.z U ] Y U R E T R a 9.b [.n.y.y.f @ . q a z ' R Y ] Y U & A.1 P G.T X.` Z F o.d.B D n A F t.FXhX0Xe.o.A L B F +.t.t.d.k.k.a.e.p.I J t.T.k./.P e.P -.4XvX0Xk.J D G J F J O.fXBXcXvX[.o.K J J P J P a.J 2 g #.( ] ( ' E ` ] E ] ' Y a U ! z Y Y T ^ ^ / Y g e , - X . = 9.D.' ` ` E [ &.' ` #.4.! ` ` E } E E ` %.! 5.9.E R ' U E E ` %.` %.k g.s.. <.w +X$ # ' ] T ( ] U E R R U U %.U $ @ p k.3XHXLXLXAXAXCX}.5 @ E =.' %.` R U ( ! ` R R ! w %.] z ( ` ) #.6.] ] a S k.@XbXmXnXbXCXNXvXK . % %.! E %.z U ] g 6.U ( E E ] %.` ' Y h e t , . % D.E.( #.( ' ' ' 4.#.` ` %.' ` %.%.R ( ` %.[ ' ' %.7.6.%.E U %.{ %.' R r 6.A.Y q u S ~ :.-X4XwX3X[.m.z.P m v 9 0 c 7 0 F e.e.e.a.b.OX,XwXjX:Xa.+.B s 3 z ` E %.%.@.&.0.` %.%.0.' ' &.' %.%.` ' [ 6.%.` ` %.4.%.5.E ( E E ` ` Y ",
"= % O z F.( U ! s h E R a h s T s R R r U U ( E ` R z h z [ a z z ' h h h Y a w ] a i h Y ] g x r 1 & & 1 1 4 d 4 d d w 5 4 q w q q q a i z g h z U E z U z z Y ] U h a Y r z ( U ' a z Y ( Y s ' Y w r ( h a Y E Y Y z z R ( ( E a T E ! %.( a ] U ! ,.6.<.#.( T T h g e > > > %.9.g z E E R U R Y ! s &.7 }.0.X.j.j.t.& . : a Y U R R E E r 8.! J 2.W U # & 1 r 4 5 q 1 % $ n (.cXOXL < # , = u 4 u 7 B D H D F A 2 5 2 u 8 p d 7 6 7 J gX[.A < 5 5 1 f 4 6 -.jXtX6XA < 4 8 8 u 8 p j 4 3 y E #.E #.E E ' E z ! %.] r U ! z Y h E E ] ^ R x t = % O . = K.^.#.' E ! ! D.z ! ( ` E ` ` ` ` ` E ! 5.' %.&.` ! ` E %.) ! 8.U ' U p.a.# #.3 -X< . ] ` z ( ' ` ` ` ' %.q * * L [.9XBXBXJXHXLXLXvXMXl.3 3 5.5.z ' ! ] z z Y r s s ' ' Y 6.T z ] ] a i w 4 N l.6XAXPXvXqX9XlXGXZX(.2 . Y %.R %.6.z 6.r H.h ( E ( [ ] ` ' E g e e = + $ L.F.>.] ^ ( ] ' %.] ] ` ' 4.( 6.[ ` &.[ %.] ` ` ' %.[ %.%.4.` { #.#.,.( Y r W 1.8.W r 5 p _ f.W.l.].<XdXwXtX6X6X6XrX6X,X,XdXjXjX9X$X/.p.L +.C i w a R &.%.R 8.' 5.' ] 5.z U ' %.' ` ` ` ' [ 0.8.] ] ' ] %.%.4.! R R ! ^ Y E U ",
"& , O z &.! Y E R a s s h E a Y Y E ' ' ` z U U ( %.U R Y E z h E E h a r a E w a a Y ' a a E E a Y a z a a i a w s i a e i h Y U ` U z z U h a z z Y h z z a z E E W U E h w Y z E ! Y R E R R R E ] z T R %.` s Y R E z z ` h ' T U E ! ] E s #.} %.%.,.] #.,.>.>.V t = q e % [ 4.s a Y z E U R U U R ` a +.0.*.| b.x.P $ $ $ R U ` U E ' z 0.E | S.1.i # & q 3 q i h U g #.D /.cX(.Z 3 ,.J.D.w.w.E w 1 & r d w w q w e & w r g w 1 a F 3Xm.b % i e r w q 4 A $XnX[.9 = 3 q q w q r r w h ( [ ] T ^ ] ` R U ( ` ' ' U R ' ' [ ^ ` ` ] E / / l e , ,   t E.I.] E 4.' ] ] 6.` %.` 4.! ` E ` E ` E ` ! ` ` ` ( ` E ( ` %.4.R @.z t.l.@ >.w +X5 - ,.H.T h R R [ ( [ a i l.<X-Xz.a.K i.a.a.a.W.'.l.G 4 i [ [ R z a a ] s ` h %.( r ' R ] Y U H.Q N D F W.<X1X,Xm.i.S m F A +.].-XS o x %.' E ' ` &.i ] E ( ( E ,.' ` ) ( g e 3 =   = L.L.' >.] ( #.( #.] ,.&.E ` R A.%.E ] ! ` ` ] ] 4.' R [ ' &.%.] ' #.` #.,.' Y r s 6.D.E i 4 5 d S C S ..p.Y.W.:X;X+X'.(.z.t.K L L  .B j 8 f i Y @.F.} ] 8.' 6.>.` %.E &.%.4.' %.@.] %.' %.] %.4.%.%.] ' ' %.6.6.U R ! ( ^ x h ",
", % X R 9.] E T T Y a z s x Y E E E ! Y h g h h R E a h R z U E E E ( ] ' a q a U U ^ h z a U { U a U z z U s s z h z h R a s U h U U U z s U h a z s z U g U z z Y z U z a R ( R z R E z ' a z ! R R E Y z E ` R Y Y a s R Y U R R ! U ' %.! s ^ ] ' ` ` ( ,.,.] ] ( h q e > = w.H.z a U U T U T z R Y Y ! V X.0.) | k.e.+.8 & a ` ] z s Y l 6.} | S.0.i . w %.U a w s i e >.b z.bX(.d % >.L.~..X^.a . r a E W g T h %.' E g U [ 9.R #.m 3Xc.8 o &.! W k E #.F {.mX).< & ' z a s w z s a U E %.%.' ` ' ] h E h Y &.Y h R ' E ] ` ` ( >.^ U ` l e > =   e H.K.( ' ! #.%.%.E U U R ' E ` ` E E &.' ` E ! ! ` %.] ` ] ` [ 9.&.0.u a.g.@ <.w +X0 X ,.6.%.s ] h E ' [ q j N p p b b b b N D D B B N d y E %.4.E 6.&.a Y ! ' R U a a z ` %.a ! H.u ~ +.J h.+.H ~ ~ N u 6 w 6 s V b 4 w E %.R ` R z 4.a ` ( ` ' E ( ( ( E T h e & & . - 1.J.` ` [ ,.>.' &.' ` %.` %.E ,.5.' ! ' ' ` ` %.! 5.6.R &.4.4.` 8.%.%.%.@.%.&.' E l h s ! &.,.` z w q 4 4 d p N C B S b d p p i 4 4 r q &.Y { ] ! ' %.' ] %.! %.%.>.%.%.5.6.&.w.%.' ' &.' %.%.%.4.[ #.] ' %.5.,.h Y T U g g h ",
": % o g 0.` s W U E z U z U a s R U U h s z h s E Y h R ! U E E U R ( z h ( h a #.{ T E U g g z ' z a a Y s a a a h h h h h a h s z Y h h z R Y R a h a h w z U z R U a ` E U R Y U T ] a ,.! z s U Y E ! U Y Y ! E Y ! W Y ] h R T E @.( W ( s ! E ^ #.>.` ` >.[ ' T h w > % = %.6.h h R R ( z E R z z k ' s X.=.6.' d ..T.t.w @ q %.' ` T k %.! u 2.=.N @ w &.U z T ` ^ U >.c c.CX).4 - >.6.L.^.8.%.' %.U Y Y E ( ` Y U ( ( T Y ( E ' G wXc.9 * #.[ ' h g 1.F +XbX(.< & %.E z Y E R Y R ! U ` ' %.' [ ] E z z R E R a z R E ( E E ( #.' ( / h y , ,   e ,.,.E ' ' } %.&.6.' E R E ` E ` ` ` ' ] ] } ` ( Y ` ] ] { } 9.w.,.3 -.'.9 = A.3 '.8 X *.4.,.R E T ! #.' s u i r a w a w 3 r U ( g h g w R 6.' %.' Y ' ] z E ' ` E E a U a %.U U A.a q q ; q 3 q q w s ! E #.0.%.n w w ` 6.&.%.! %.U ' a 4.' E Y E ( ( E R U a e > , . = 7.E.' ] [ 6.] %.%.,.` 7.] E ] E %.( E [ ` ! E [ 6.%.%.' E ! ' &.6.%.4.6.%.%.' @.@.` ` ! U h a U ,.6.&.E Y i a t r a q w w a z U ( ! 8.{ %.Y Y E #.%.[ %.] 4.' ' &.[ 6.0.%.4.R %.' 5.! 5.&.%.4.%.' ] ] &.` ! %.,.Y h U h T i y ",
"> , o z 6.' Y Y U ` U U U E s a a %.Y a U a a h Y E r s z z z E E ` s 6.] R ` U E ] Y U U Y U a Y a a r a a a a h h a s a a h U Y h U z z z a a a z U h z z s T h Y R h a z E a E z T ` E Y &.T R ! Y R ] Y i U W ! R R ' s U U h E R Y %.] ) r ! E ^ ] #.] ' ` ` ^ T h e > - % [ 9.z h U Y R E U E U U z l 6.X.2.Q *.W b +.Y.-.5   q r &.H.6.} Y f &.=.W f 3 &.R E E ! U z q.G /.CXm.5 3 1.,.Y } R R ! R x Y R z U ! T U h Y W x g / _ Z gXc.j % 6.@.4.Y E =.A ).mX|.4 & 6.#.Y Y ] U Y ' ! R ' ^ ` 0.6.7.` E z ! R ' a Y ` ` ` E [ ,.%.( Y Y h & : % . e ,.7.T ] %.@.E 4.%.&.&.! ! ! ` ` ' ` ] ' 5.%.#.5.] R ' { ' ) S.g $ d.Y.d % 3 K.3 W.S # ` w.] R E E ! ' ! W z &.' h U T W a U Y W U ! E z ' %.%.( 8.H.z 5.Y #.' ,.R ` R ! R ! E z a Y W T T T T Y E h h R E z U a Y ( E >.6.%.&.z %.] ] z ,.Y T E Y R h U g E i e , ,   # >.8.' #.#.,.E.0.' %.` &.] %.E ` ( { ` ' %.( %.] 6.9.6.U z R %.5.' 0.%.%.%.%.@.%.] ! ' %.%.` 4.] Y U h z Y W E %.` ' %.! %.E Y Y ! h ' w U E [ %.%.%.4.%.' ` ' ` ' %.[ %.` %.R ` ` %.%.8.8.%.4.%.' ' [ ] %.' ' >.T ( ( T h h g ",
"> % . s &.! Y s U U ' h a R a Y Y Y R W x h R z z ' Y h E h Y z g E ! E A.a ] ! E %.,.U U U E a Y r a h a a h a a h a U h h a g g z z Y z E U U Y z ` r h a z h h h z ` E z E z s z ' ` ' E ` T ' ( ! Y &.@.! z E #.! Y ! U ! Y h a W h s R R a ' a E ^ <.( >.>.,.#.U h q > % , ' A.z z z Y U T z R z U s l a w.%.2.$.S.T d J p.o.~ $ . . > R 4.} 1 #.A.C < w J.%.` E 4.z T D.A M.CXM.9 q ' ^ z R } E R E s 1 & $ & y y z h R #.' Y ( / L jXm.j % 6.%.} E E 0.S +XmX{.< % %.%.( Y ' R ! ` ] ! %.[ %.%.D.%.' ' Y ! Y ] a z E E ( E ` ] ] / Y V h > : %   e %.6.R ' ! %.E %.z &.0.! ] ( ` ` ` [ ] ! 8.` ` &.%.w.] >.%.] - N /.s.$ ; a l P.r l.P . x K.! ! R E z ` } ! h Y U ' W ( ' *.! ,.] Y #.E ` >.E ' 4.6.4.%.s 4.` &.H.,.z ' ( R T Y Y z a h h g U z W Y T ! ` ,.E E ` %.k ] %.] U ! a Y ' ! z 6.a ( R #.` ^ U U U w > % , . - >.D.` ( #.8.,.9.8.H.' 6.` 5.! ` E ( E ! ` ] E 4.' 8.A.` E ! Y ' &.[ &.%.%.%.%.&.%.' 5.%.4.%.' &.&.' ] ` ` Y Y R z W R a Y Y R E ` ` %.} E ' ` 6.&.%.] 0.' ' E ` %.%.` @.%.` ! E ` 6.Y %.6.E ' %.' ` %.w.@.[ 4.` ( Y U Y h g g ",
", > . g &.U E a h U ` ! E ( ] ! #.U h s z U s W U U Y z E s E z U Y U &.#.W a Y R 6.s U U U ! R U U h U s s h a a U a a s z R W h z z Y z Y U z h Y z z h Y z U Y Y a E ( Y U z h U z h ^ E Y Y s R ( U ( U E s U R h E Y z T R Y h U E E Y V g ] h ' ' #.] #.>.5.' ( h r = = q %.8.z h a g ` Y E U z h h a z z E %.#.,.Q X.p n m J +.d 1 @ X : U f S.F.n < ; w.0.&.7.^.J.` H.A z.bXM.9 q 6.>.,.6.5.7.0.%.! s # @ o     % q k Y ' ! ! T  .vXm.8 X 6.J.K.H.A.6.C }.mXOX4 # L.A.6.A.F.J.9.#.%.%.4.R E 8.@.` ` ` E Y R R h z ` T E >.^ ` ^ / Y x g > , , . t 6.6.E ` ' ` ` ] E ] ] ` E E ' %.` ` ! ` &.%.#.#.4.5.%.8.e 1 /.l.a % 1 E ( Y H.E d.t.% l D.%.[ ` Y R E %.` 0.! R ` ` &.E 8.T A.[ ` ' U [ ' ` ' %.%.J.0.z a 7.8.5.U s z %.] %.E ! ! R T { ( ` ( ` ( ] E ] ' Y R E 0.6.' [ %.6.` %.! ! ' a %.a ( ( ^ ( ^ T z g t = , > X % 7.I.] ' ' 6.%.[ 7.%.] ` ` ` ] ( ` ' ] ' ' ] 4.! E 6.' 6.#.#.' ' 6.} #.' ] %.&.6.] %.%.%.&.0.` &.%.&.` ` [ 4.%.' U R E ] ' %.' ! w.E 7.E ` E ` w.0.] %.7.` &.%.&.&.' [ ] &.' ` ` ( ] E %.4.%.` ` ` 5.' %.%.] %.,.( ` x ^ Y h t ",
"> % . R 6.Y a a h h g ! ( h r i ! R Y U Y T h U z Y ` z E a a h E z ! ' 0.%.R W E %.#.U W U a T U U s a a U h a z U z z a z z R U a z U U R E a z U R a h U R E z h h s Y z U h z z E z E ( R z s a R E z E ( ] ! ! E E s Y E W U Y z a ( T e g R a / ' ' #.<.#.` / T g e > = % ` 0.z z z s z Y U Y Y g z a h E h U #.! ] ( 6.Q b b v H H v 7 & 6 -.Q.) A f + > & 1 * & q w @.A /.bX[.N % h j r & % q ' ` r i s u i & .   o % % # # q 8 O.vX Xb . E w ; w z ` v {.CX@X0 . E z 4 1 q 1 q i & w U 6.R [ 4.Y ' z E ` s Y r Y ] R ! ` >.,.[ ^ / h g > = > . t 9.,.z %.! ,.` &.5.E R ` ( } ! %.4.' @.R ` 5.` 6.%.>.] 3 N /.o.& & r R E ( ( 8.#.s.W.. g A.%.] ' 6.! Y a a [ ] ,.! %.] ' E ' [ 6.%.! R Y E &.' ` 0.9.H.' ` ` %.6.` a %.a E A.` ' U E R ( U %.` ( ( ` ' [ 6.E ` E %.9.8.' %.9.E z &.%.` a 4.R ( ' [ ( ^ ( U z l t , > X = 1.D.' ` ` #.%.[ ' 4.&.%.E %.! #.] ] E ` E %.' %.%.] %.%.%.%.6.Y %.] #.%.%.&.] @.%.%.4.9.w.4.] 4.%.%.` ` ` ` ,.4.E &.` U } %.! &.] ,.w.` %.E 4.&.' %.%.8.E 5.9.4.! ] 4.,.' %.E z ` %.R 6.[ ! ] &.] ] A.U %.] ` #./ ( ^ Y E U h ",
", > o l 7.T h a a s h R E ' h a a s a a U E R U U h #.' U a s w s Y a ( E ` ] %.) 9.T z z T i a r w a a s h h a a Y a h h z k U Y U z h z R h h U z W U a a h z h r z ' h ( a a Y E ( U z T E E #.a s U Y E h ^ s h ( R ! s z U a z Y ^ T g y t t g ( >.` #.#.' ,.( z r q = = = ' 4.r s h z a Y z z z h a h U z z z a T ] E %.#.' @.n Q n m J | f..X~.E.t.C @ @ o @ & $ @ % > K @XmX{.v .   @ X #   @ @ & r i p C Q j w 1 o o o @   $ L (.vXOXc     @ @ @ @ f e.>XCXOX0 + . . @ o o   . .   y h ] ` %.6.4.E Y E &.] ` a z ! ` ' [ ' ,.<.#.h V t > > ,   g L.q.Y R #.,.' R ' ! ' ` R E ! ` &.} ' ! ] %.' %.0.s # l.g.h @ 3 %.! W #.( ( ,.1.o.l.@ t 0.` E Y %.] ,.E R Y ` ' z ` ] [ ` ` z ,.4.&.' z E R ! %.! 6.5.&.6.4.A.%.E E #.U E %.E %.' %.R ( ! ( ( %.R 4.( ' %.%.' R ] #.4.6.6.%.' ' Y ` ' a 4.R ( ( [ ^ Y z g l t = , > + & 8.!.` ` 6.%.#.%.%.] 5.%.` ` ` ] %.( ' ` ' ' [ ] 5.&.` ' %.6.#.! 6.6.0.' ` ' %.' &.%.A.K.9.0.6.&.] ' %.%.' ( 6.%.%.&.&.E R ` ' ` %.5.0.` %.z ] %.%.4.8.4.6.0.9.,.,.%.%.,.` ' 4.` ] ` E 6.[ ' E R R ] 6.R ] ` ] ,.` { / Y ' U h ",
"% ,   g 6.! %.s U E h R h E ( ( U U E E U s E R Y E ! ! T R U T U ! W U ! ! s ` &.! @.! ( R U Y a a a a s a a u Y E ` E R z U U U U U Y U h Y z U h z ] h h U z W E R ! Y ` U E U U z Y U R Y z ( 0.E %.z E E z E s E W ! h U Y z h z z ' ] g e = g ] ( >.<.{ ' ` ) ^ t q - , = ] 8.a Y z z z h z s h U a h h h z Y E a U E h ( @.) S.*.! @.*.+.+.~.xXxXxXA.| -.L A F I m I e.|.iXmXtXj.M m c m M m v K t.Y.}.}._.X.T A F p F e.P a.v. XtXnXtXn.m v 7 c 0 7 I  XtXnXeXx.9 0 c 0 M m v m m v w h Y ' 9.,.%.] %.' R &.,.U R ' ' ` ] ,.' / ^ / g g q , %   y 9.6.` R ` ( ( ` ] ` ! E ( W E ' ] ' ' ' ` %.( #.0._ _.+.= $ W ! @.] E ( ] ( ( 8.A /.. 3 8.%.E %.] R 0.' ] ' R 4.] ` ` ' 4.[ &.4.w.8.' E &.%.[ [ E ` %.` ` 0.4.' ' [ ` ' 4.#.E R Y ` R E ( Y E ` ^ ` ! U E ] ] ` ' ' 4.[ %.%.E %.` E Y Y %.! #.' ' [ / E R R t = , >   & 6.A.' R [ 5.,.0.E E ` ] ! E 5.%.%.7.' ` ` %.%.[ ` A.6.#.] 6.&.R 6.` H.0.#.&.%.] %.} U %.A.5.` %.' ' &.' 8.` &.%.E [ %.&.6.&.' %.] &.0.' 8.` %.' 5.7.&.` 5.,.&.%.%.[ %.,.4.] ' ` ' %.E %.%.` ` #.%.` E ' E ` ` 9./ / [ ^ E h g ",
"> , o t #.a ] h h U V h z E Y s R a E s U s U z U W E U W Y R T T R ' h U z ' s ' W z a Y E s z U U s s a s U U ! ` Y &.A.J.w.U U z h Y ! a Y U R E z R ' U U U R n U ( U R Y U U R E E z ` h E E ' Y ( U Y R E z z h U T h ! R Y E ` ] ` U h = = t ( #.<.#.#.5.,./ R g q = , & %.0.z a z z U Y z z U U z a a h U T E Y z h x [ l @.U A.A.1.0.1.S.L.8.2.K..X.X.XQ.2.p.6X6X0XtXnXrXiXrXwX0X7X,X%X7X6X6XMXFX5XK.0.%.z Q d n ~._.lXlXkXcXNXJXGXJXZXgXdXwX1X<X,X6XiXbXiXbXeX,X,X1X3X0X0XtXwXqX|.e k R E %.6.' U ` z ' ` %.z R ] ] E / ( / ^ Y ' h x > , ,   e D.#.] R ' @.! ` R @.E E R ! E W [ %.' ` ' #.' i a Z 8 % 1 W Y Y E ( T ( ( ( g J.2 '.$ X ] ,.' E U E %.! 8.%.z %.z ! Y ' ] 6.5.] %.] ` 4.&.%.` ` E E E %.U ` 7.U ` R ' ` 7.%.' ' ` ] ] R R E ` 6.E %.&.' ' E z Y ! ` R %.5.%.&.6.%.] E r ] T ( ` ] ' ' E z l t q , , . > D.6.( ' ] 4.#.&.[ %.` Y ! E A.h 3 0.4.` %.! A.%.w U 8.%.,.] E 0.1.a U J.[ w.4.( 6.s w w D.7.5.%.E 6.( % &.0.%.#.' %.4.R z 8.[ &.%.%.[ %.%.6.6.%.8.H.4.' ,.D.9.0.[ [ ' %.] ' #.4.6.` ` [ ' ` E #.a ' &.4.! [ ' %.! z Y U g g a ",
"% % . k 4.U E ) V s E Y Y z h E ! Y #.R z z z W r T E Y Y s z a U U W z E E E U Y %.s R h a q h E a s Y T Y ] U T i & * % Y D.&.z z z ( U a z U T z U U E U Y Y } U T T R E z T z R ` ^ T ' ^ ( R ,.E ' U ^ E ( U z R g s a U l g t g y e { l # t e z >.` >.>.>.' ( T g q > % > &.4.z z h U U z z U h a g a z h U Y ( E Y E Y g ' U ) w S.0.*.*.&.8.%.@.w.` 9.S.K.I._.<X:X;X:X1X;X$X<X<X;X3X9XdXqXqX1X-X) } E Y U W &.` *.W A i.f.a.p.p.k.a.a.a.T.c./.(.[.}.|.'.).}.}.}.+X+X].[.(.M.m.z.T.i.w U Y ` E &.' E ] R R ] %.a E ' ' ( ^ %.#.,.) ] ( Y q > % X , q.,.^ R ' ( R R ' ' U E Y T #.! } W Y E U t o o % o % h ( ( } &.] ,.#.( ' ( r D.3 k.D X a 7.( 6.' E ' E E ] ` w.] ` ` ] ` ' !.0.` %.( %.Y ` &.` %.%.[ ' 6.R 7.%.] ' &.a ` 4.E ` %.5.@.( a E a ' ` [ %.4.%.[ ` ! &.E R ' &.&.%.] %.%.R h 0.h E ( [ #.` R z g 3 , = = + % ' K.` ` ` 7.4.0.U ] ' ' R ' z % @ W 9.%.E E @.=   X [ 0.#.( E %.$ % $ E K.6.} 6.T 1   % ` K.[ ( #.7.3 # % q.] ] ' } =.s o R J.%.6.&.' %.` a 9.H.] %.&.#.,.,.) 8.H.` ' ] ] 1.g a 6.&.` 5.@.` 8.E % 3 0.0.E %.,.,.' Y E ^ E z a ",
", % X R 6.T U W ( ! @.Y ( E W ] E ! E ! E z W U U E Y R U R ! z r R ! a W E z ( U Y z z h E U a s U s s ! S.` h & $ @ # X X : &.8.z a E R Y z z s z R E U U z z z z U W h W R Y Y Y U ^ U #.{ E U #.U T U h ( ( U Y E Y U s a r > = X & e t , - t = Y ' ` ,.[ ' ' ] E r q > & > ` %.z z a z U z z z E a z h z z U U Y ( ! E R U Y 8.V s 4.I.~ W k d w f y f r Q F Z B F A A H H F D F F D S F D | A d 4 z k W k a r s 1 : : 3 u N Z B b S S C A B F S n B S ~ | D A D A A L F F S B A F B f ; Y U ' ' %.( R E z Y Y ` s R ' %.&.#.1.%.,.<.] ^ h e , % o e 9.,.#.` ' E ' ' R ] ' ] Y ! R @.} & @ % 1 i s $ . % %.A.D.I.4.] ! ] 7.D.,.,.E %.h O.p.. t 7.%.4.%.w.' ` %.@.] 6.] A.%.&.] E 4.%.#.4.%.4.4.z ] &.%.` ] %.` &.6.#.! ,.[ ! R R %.` ` ' &.! ] ` E E E E Y ` %.R [ E %.E ` ` ' ] 6.4.%.` U a 7.E ] ' ' ` #.( U g e , , > . . T D.{ ' ( E %.%.%.@.! } Y &.0 J + ; 9.6.Y %.a 8 2   & D.] W %.s c <   % 8.A.R J.n e.v   # &.8.T A.d n %   Y 7.] T 6.s X o 3 7.7.,.&.! H.! e a P.&.&.1.] P.,.r x H.w.,.%.8.8.h % ;.A.&.] ` ' z @   o s K.4.%.%.4.( Y ( Y Y U a ",
", , X x 5.' T ] a h E i z ( U g r a T U ! z Y W U ` ` V s Y R &.U s E ! a s s Y R s s w R E ] E U Y U U J.V 3 A e.z.j.P 0 @ . . @.5.z ! z U Y U U E ! U R ! U U Y ` U U ' U U h U R U E ( Y ( U z T Y Y E Y E T g e ] Y Y q = = t l R z y ^ x % e t g ^ / ' ,.7.4.] z a q > > & 5.7.a E s a U Y U U z h z r h h E R Y E ` ` E U %.s p | 2.Q =.* : d t w ; w 1 % 2 & 3 3 3 - 3 i V V p w w w & & = 3 3 g W W W ;.! ' %.! ` W s w & w U s s a a a w e r r w q e w i g i t r 3 q ; q w > q r 3 g ( @.E ` [ U E ` E U E E a T ` ] &.] ] ,.1.>.] ( g > , % . e A.8.Y ! ` ' R E ! R U T U } ] w 1 u b S C =.Q f @ # r s U 1 r s w # # 3 U 6.6.&.E o.g.$ > ,.8.a Y ] %.` W z Y ' E &.R &.] %.6.&.5.' %.%.!.%.4.%.` 6.&.U E ` [ ] R E ] &.! %.` R E ` &.Y ( ! 4.Y ' ] Y E ] ! %.E ` ` %.E ! 6.6.[ 4.%.` a 8.g ^ Y T ,.' ( Y g e & , ,   X h 7.( #.0.( [ %.[ ] &.E *.z K x.*   t A.@.1.1 M v     U 6.&.Z F |.I   . a !.7.$.n {.r.@   e q.D.( J x.v   % 7.%.R 0.p +.5 . x H.%.E %.&.w & % ] 0.A.#.&.R 4 # & H.7.` ! J.g 2 @ % ' 9.` ` 0.c a.c   * R J.] %.%.E ^ ] T h U t ",
", > + E 0.W R E W W ! a U #.! @.R U i s ! R R a 3 T E Y Y a U U ! T ` z U s a q a h W z ( a W z T Y h 8.Q M x.7XtXiXAXvX9Xe.0 @ q 6.R h U a Y a g E E h U ! ( T U T Y s R E W h U T a U E R U ( z U Y Y E U R E r a r U s ( R z a g ( E t ( Y % 4 g ^ h %.] 7.q.1.>.( g 3 > = > { ,.h E ] h U E h E h Y g a a Y W } U Y ( E ( 7.a ..].<XhXi.8 w 3 h s k s Y a U Y U U Y s E ! Y Y R H.E.~.!.` z x t a % w a a s z s T ' ` U 1 % w & a r a U z a w y U U s w U u q r a s W q a q q r z s T ( ] ( ' ( ] ] R ` U z ] E ,.a Y [ ' ' ) ' ] #.( ( U R q % > X > >.0.E Y U [ ` [ ] %.Y ] q 3 % n =.=.=.) @.Q W 0 @ & % X * @ .   o + . . + . & g V a.o.: i 9.4.! E ' 4.E %.%.T E Y ` &.E ] R 0.` [ ] ] %.9.6.6.4.' #.` ` z R ] ,.4.R ` ` ` ( ' %.R ! ' %.R E #.E ] E E ( ` ` Y ` E [ ! R R ] &.( #.8.R g 1.Y ` ` ] [ <.( ` Y i = = = + % ` A.` ' %.4.,.` ,.%.] { >.c #X0XM   . R I.d 0 (.r.$   % ` K.u x.qX{.7   . %.,.B r.Z.u.P . . h A.8 j.C.e.  . a J.S.n P n.M . % ' 7.>.9.b H 2 . i L.8.( E.j F < + x H.E ] ' m e.@   = q.,.9.d W.jXj.2 . = 8.%.&.9.` T ` ` ^ U z ",
"% % . g 0.E s U R h ' E z Y U R ! z ! U T ! W h s h z U U s a s ` z ! z Y U s s i E h z h Y h s h U ) $.D +XtXiXiX=X*X%XcXjXa.$ o U 6.U W U U z r h a h h h h s h h z s U s ( R h E E ( z E E z ` R U k Y z Y z a Y ! ) 0.` 1.&.( ^ E z h g h - r a ] ' #.#.' ] ( ( ` g e > = > [ ,.h g R E h h h h h R w z r a E E ! R ( %.0.) L '..XzX'.B 3 q z a r a a s r w & q q w a r r r 3 a %.K.~.E.0.` { k e q q 3 Y %.!.H.#.@.#.l l E Y ; Y a l ` U ` T E z T z z a E U r U T U ! ` & r w a s a a a Y E ( E 7.` ' ( ' E ( %.a Y ) ( ,.#.,.<.%.( / U g e = %   > ] %.T R z Y U %.,.` #.i d h.=.S.S.S.L.S.S.) C t.A C L O.f.g.O.t.t.l.+.C 6 .   % +.-X6 ; ' &.&.%.` E ' W ' w.' &.' ! R %.' #.%.' ] ' ` E %.@.} ,.E 5.' %.&.Y E ! ' ` ` E E R R R ` ' ' Y ' R ` E ] E U ] E U ! U ! ` [ Y U U ! U ,.Y a g 1.Y { #.] ` ,.` ^ ^ g e = > o % >.J.E ! ( %.] ` ` %.` #.s a.ZXLXM.v   w U 6 /.JXfXe.*   ; d K @XV.V.x.2   3 s F u.Z.n.e.0   3 s J @X{.r.c   % } z A (.{.u.@ . 3 E.J.T n B.I   @ >.A.6.$.v M.0   . 9.,.&.p k.{.m . @ g ^.W P FXPX>Xr.@ @ W H.&.5.E Y Y E Y Y U ",
"% O . ' w.U a a Y Y R Y E U z a s U z a h h s U U W s Y z E a s ( ) ! h Y z w R U E E R T T h Y W W 9.Q W.nXiX8X8XOX#XdX1XhXwXF . & 9.V E E Y Y U h ( U T a Y g U Y a g z Y U U Y U Y Y E ! z R R s s a a R ` =.] ` 9.%.,.6.0.6.E z ! ` h x e - e e ( >.( ( ' ( Y U Y t 3 q = # ` ,.h U h U Y h h z h %.r a h z z U E Y V 8.T v ;X:.5..XB q e Y U h z U E ' Y w z z z s a Y ` z z U E &.%.0.9.8.0.4.#.] ` R E Y ' %.' ` &.` ] R Y z a Y ` E ! ! ( ( ,.a ` ' E ' ! x ! ` E ` 4.E a r R z Y ! s ` U ' E ' U E ` E E ( ( i z [ ) ' ( %.7.@./ / Y t = , %   > %.,.a E ] E U #.#.E ^ 1 V 2.$.F.F.S.=.$.6.) d C N C A p 9 d 4 q $ n 7 D s.+.s.W.W.D = w ,.] R 6.` ` ' z ! ! %.` ` R ! &.4.%.] %.' %.%.` R &.&.6.,.] 6.T ( 4.R ' %.` ` ' %.` ` ! R ] ,.R 6.U ' R ' %.( ' E ` U E %.] ,.` R ' ( ' 8.6.z t ,.T #.( / ] ( ` Y Y Y e , O + % 8.K.%.( ` [ ] %.' #.E 6.v 3XLXLXMXn.* @ u p.qX6XMXdXu.f : P 1XAXAXwXv.e.* # c /.tX%XC.u.I @ @ F M.#XOXB.K <   * 8 j.OX#X{.J @ . ] *.9 j.V.x.<   d !.D.V e.,Xu..   y E.W J kXLXZ.0 . % ] 7 >XLXPXLX{.A   % ' S.0.! ` ( ( U a g ",
"% , & ` J.z r a U ' s Y s R z z a z W E U U i h E h R T T Y ! h h h z s s 4.U U s Y T W U h U z Y E A.F 0XnXiXtXz.m A +.dX%XrXc.$ - 7.T a Y T ! ( %.h h r R z h a a h a U z Y a z a E U U E U a & r s E ' %.' ' %.@.5.@.] E ] ! t z r a Y ^ h - r e ( T ` ( ] #.T ( ^ g q > = , ,.9.h h z U U U Y z a E h a U h s U W U 6.! F yXY.*.&.=.$ r a U h z R a U ' ] r r U Y R z z [ Y ! E Y W z R ' ( } R Y ! R k Y R a R ` E E z E z E s q a z R a E E E ] T Y R E ! E E E 5.Y ! %.] U a z U U E U Y E U ] %.z Y ` T Y ( ( g Y ( ( %.( $.%.%.` / h r = , ,   e %.%.R R ' U W ( ,.` ' R w r s ;.` 1.*.a s 1 w & % & & & w i h Y 6.' z 3 * f p p u 5 w ` &.W T ` ` ] 0.z R ' E E ( #.' R [ 0.` ] ] &.%.%.6.z ` %.6.,.6.6.R ` E ' E E ! E ' %.` R ' Y %.` ` ( %.] ] ! Y ` ` ] R z R %.%.%.%.] ' R ' 7.( h q.Y ` ` #.#.] ( ] U U t % O   O ,.L.` ( ' Y E [ %.U 0.N l.ZXLXAXLX9Xe.* J lXFXdXMXqX|.i.+.qXBX;XfXVXfXn.I A /.NXZXvXcX>XC.J B n.#XvXAX%Xe.e.* 2 k.{.0XrXtXb.6 . > V P 9X9XC.M   . ' w D dXPX,XM . o n d $XLXPXcXj.5   4 l.LXLXLXPXjXx.1 . = J.0.' ` ] #.E h z ",
"= , X Y K.Y r U s Y z R z z s a a z z U h ! U a T U U h R W h W ( Y U ( a Y T g a U } ! Y U Y Y a R 1.P 1XSXmX>Xv u 5 p :.9X*X X$ e ^ U g z U T ! U U a h z ( ` a U h a a U a z a a r a a z Y U %.%.( ' } &.,.%.&.%.] ' ` E %.' R ' a a z U g t e e ^ ` <./ >.>.' [ ( g e = = % 6.7.h h U Y R U U R U z h a U ^ r a t &.) B ].+.r b .X .= r #.U z h U r a a U s r r z U a a U E s Y E U z ' R E E T Y Y ! U ` E E U a z U E R ' a a E a U } ` U E z ( Y ` R ! R E ' U %.` #.R E R W h U z U Y E ` U ( ! Y z R U ( ] E g h ( ' ' / ` ] <.` / R r > > %   = %.,.h ( ` ( 6.{ { %.( %.U E E k ] Y > q ` ( T 1 a a y Y R E Y h r a E @.A.] z z g z ( #.' } Y ' ` E ' ` ' [ ` ! ] ' ] ` ` ] ] ' ` %.' %.H.` !.' %.7.' 5.E &.E ' ! ] R R h ' U ! [ ` ] ` 6.! ( z ,.%.' %.z R ` E R ( %.' ] ' ` ' Y #.U h 9./ ( %.,.] ( Y ( V g e ; : . % D.S.[ #.D.' E #.] R #.F hXLXGXJXjXrXOXp.gXPX4Xp.z.].VXFX3X,X@X(.T.T.fXjXb.wXlX;X(.b.|.BXZX9XOX%X7X1X6XV.r.u.r.B.<XNXZXPXLXjXt..   e.#XvXLXGXB.v   @ M $XPXUXPX@X0 . w W.GXLXPXPX3Xe.f L MXLXcX;XFXLX1XL . . T !.] ` / ( ] h r ",
", = % E A.s Y s R T z s Y s z w a a w a w a w a U U U y a a U R a T h E ( a U r a a Y E z W R E h ^ E I hXZXFXi.w s E r D 4X,X@X< # Y R a g z Y h Y E Y z T r a w q z U r s U k i a a z z Y E E ' U R ' E ! #.%.#.] ' &.&.! E U Y ' w y ^ g t g e h ^ <.` ' 6.,.>.<./ l , = - - ` 8.z U g z z z T z U s z z h E z a z 4.s (.Y.w %.~ W.@ u E %.` R r U z U a z E i U z z E r z U z r R z r E Y ! ^ R ( a E ` U ` %.] ! z E U z Y Y w a a Y w R E Y U Y U U U R R z Y z ! ' ! Y ! z Y h a U a U z x R U ` ! R U U ` ' ( a ^ ( ' >.[ <.,.{ ` ` Y t > > , . % 6.7.{ Y ] ` ,.( ` Y 8.%.! ' %.( &.0.! ' ' s s w T r U ` ( %.( ,.%.! U a q h U 6.' Y ' E %.' E E %.] ` ' ( ( ! Y ! ` ` ! R ` %.] E R ' ] H.,.,.7.#.J.#.0.4.] ` U ` ' 4.' ` ` ` z ! ! %.] E [ 7.( ] ' ^ %.R R ` ( U ' ! R ` E ! ] ' ,.E g ,.( ' %.4.7.,.' Y ^ g > > > o % ,.7.Y 7.K.' ] ,.U >.C l.LXCX].k.3X%XV.OXNXFXp.S H +.FXwXwX1X|.k.~ | /.qXVXhX{.m.k.k.].qXJXLXLXCXNX,X<XeX{.x.C.Z.tXAXZXPXPXPXgXa.k.|.%X0XZXCX,Xb.2 b M.eXAXUXPXBXn.f d.MXLXBXkXHXLX%Xj.dXPXMXl.H W.GXLX[.v   o 9.T ' Y ( [ ' g ",
"q , # z A.R } n E ( ( E h ' ' ` z z a z w a a r i U z r z s r w a g i r r r w r a e r Y z U U ` r #.p t.nXSXgXS t & z ] 6 }.tX%XF 1 z T a Y a a s a U Y a u Y U E R a h a r 1 r a w r q w E ` ] ' T a h E z ! E ' T W E &.Y Y h z z U z t g U t e t ' ] / ' ,.>.,.' x g > > , % ] 8.g g U U Y z U h R h z ^ h U h a ` g i.'.8 6.Z '.c > i ] T ` ( Y h h a h z a a k ! k U r k E q s R Y z U U U ! R ` ( Y Y z R E %.' E h ' e w r a R a a z ! ! U U Y U z R E ( 6.Y ! r E R U a ( a R E R ` U R U ` R E ( U Y U ( 0.' z T ] ^ ' ' ` ` ^ ' / g t > e % X % ] 4.E ' 8.Y ] ] ] T 7.D.6.!.~.J.W s Y E Y w Y E w R ( ` ] %.%.' ] 4.` 5.E ] ! Y ] T &.] %.! @.R %.T ] %.#.! ! R Y a r z z U ` 4.%.( ` E %.' ,.,.>.,.7.%.%.' 4.R ` ' ' ] #.4.' ` R R ( ( ` %.R h ,.' E E ! ' E ' E ` ' #.z E z E ' 6.U g ] <.' ^ >.,.7.` g l t e > , . # &.A.] 4.,.] E ` E 6.A hXLX>X:.L a.+XjX%X@X;X9 3 u n /.}.|.;Xl.C h w M y.:X|.{.k.-.A ..d.fXPXKXLXJXJXKXMXvXtX{.V.eX1X$X;XfXJXPXZXHXLXJXLXLXGXhX0X<X{.&X0X0X<XGXPXrX{.gXLX0Xp.F `.HXZXLXLXGXk.C 3 N _.JXcXj.3 . g h ^ ( ( ( / U ",
"> > X ] A.Y U z T ! E ! ! @.] ) #.! U R ` R ( ( Y g r w a h y a a z a s a y r r a a 3 a Y a r l g <.9 ).mXLX+Xp r E q %.6 k.cXrXM   = >.g h U U a w q w a Y #.&.' ( U a E z a a U Y U z z E 4.%.J.A.&.( 7.0.&.&.&.` E Y E T z z a E ` a q t e = e - ^ ` #.#.7.8.6.` T g = e = e %.8.z z Y a U R ( U R z h U U z z h ,.N yX_ > <.F l.w q ] U U E U Y ` D.h Y ` U r r z q z u a #.R z a s z R h R U R ` Y R E E R E U ' ' z ` ! E 3 r E E a U R z E z z h h s W E 4.&.#.Y U R a E ( E R U #.! ` E R Y R E R E ( U U R ( h U ' #.' ` >.<.] ] / g e > > > . e %.8.E ` ` ( ' ] #.T E ' ` s ! !.I.&.] ' Y a i a %.! ( ] U ` E ] ` ,.,.%.' E ,.' ' ! ( ' ! ! W T A.W % $ w # # & @ % % & a r Y Y ' ' 0.' E %.%.#.6.6.%.( ] %.] ( ( ' R ( ` %.%.%.E ` U Y ! ' ' %.E ] ,.&.` ! U z E ` ` ' %.6.Y ( z %.! E D.#.#.<.>.>.' ^ x g e e > > . & ` 1.Y [ %.0.%.( 4./ l.LXAXL S X.8 i E.KXdX-.& w u b ..-XlXz.F & i ( d +.m.m.z.L 4 w s B O.<XFXVX4X<XzXdX3XeXeXwX{.b.a.l./.<XBXJXJXbXBXlXlXlXFXNXHXmXZX0XH n k.GXPXLXhXNXa.4 w A :XZXZXAX+X..w e w D dXHX,XM X % ( U x T ^ >.Y ",
"> > . ' K.R z a k U E z ! q # o     . . % . % & t >.&.R r a ! w w t a h g i y i i h q s a r h g U #.A <XmXAXi.q q [ e 6.1 K hXvXa.  X 5.h w r a w z s Y z Y E ! z E R Y T Y Y U E U E Y E ) ] h 3 y s w w w i w a %.' E R E h a a r a z a h z g i e T ^ ( ,.6.,.<.( Y t 3 = = > %.%.a h z z z ! U h U R z h R R a #.U s.`.e Y Z l.p.& k %.U Y E 7.U w ' Y ] { L.P.W 0.a & 1 & ; %.] U h g U U U a U ` ` h ' U U E E g ` R 8.#.R 3 a z ! g a U w z E R U Y Y ' ( ' ` %.R h ( R Y E ! U a E E @.] ( E Y E Y E R E E E ' h T ' ( ( ( #.>.` #.' g e 3 , , X % ] 9.Y U ' R ` ' 6.w.` ' ` Y U %.,.%.F.H.P.@.@.E ! ( ] ( %.U ] ` R %.%.&.' ' ` ( ,.&.! ! ' E U %.#.> . o . . . . . @   & $ 3 s Y ' ` E ,.4.[ E %.%.%.' 6.' E 4.` E 6.#.R ` E &.( ( ] ' ` R ! [ #.{ T >.E ! %.` W Y ] ( ` ( #.` ( ` ` U g A.] @.#.,.,.#.>.( h q q - , . = 8.8.! ] ` Y #.R $.F cXLX+XZ < s V #.$.FXl.8 < ) 9.3 9 f.BXf.i g i ' V F p.qXK 4 w ( ,.i B p.z.f.-.y.}.xX}.[.|.m.k.H b p B f.MXBXVX<X2.F.E._.5X;X<XhX6XH T s 7 ].LXPXFXz.C # E d H gXNXkXO.p a a 9.4 O.BXHX X9   ' ( T ( ( x z ",
": % . z 8.! R ' U ! s ] ' #             o     . & % a ] ! r a Y g i a a Y h h U z ( h ! ( ' T h ( W J tXpXrX+.q a %.w 8.V M eXiX@X&   } 1.g r a x z U h T U s ' E U Y U Y Y Y Y ! E E R E E i 3 @ @ 1 & & . @ . = h 4.T R Y Y z h T Y a U a z a h e ( ' ( >.T ( ` ` T t q = = , %.6.a z a z T R E E s ( a h Y U h 7.f }.S % ' c :X4 # E ' h U a U ! r 1 $ # # y U R U s r q # * % %.' a h g h U U U E E E R ` #.z E ' ' a ` 6.6.R z U R ! a U U h U h Y Y T Y ' ` ' E ( R %.( z Y ` R Y z E h E ! ! Y U R Y E E R ] ' h E #.%.( ` #.' ] / ` x = - - -   % ] 7.Y Y ` ` R ' ` ] ' U R ! E E ' R E ! 6.' U E R ! ] %.%.E ' ' E ( ! ! ' %.%.h E &.#.] E ( T ` W M A v u . 0 2 @ 1 & @ % 3 w R %.] ] U ' 4.%.` ` %.` 4.&.E ' %.! ` ( ,.#.! ! &.R %.' %.` ] ' [ ` h U ] ' 4.%.R R E ( ( R E ] ( %.{ h i 8.( ( ) ,.7.6.1.] T g e = , . % D.&.R E [ ,.Y ,.Q ).LXZX:.i i i Q @.s Y.| u g 8.E.L.s B l...3 w ] g @.p F i.i w U 4.E 7.d H h.8 a y p m *.k./.t.J b w W 3 6 T.KXhXF #.0.A.%.h.lXBXNXi.1 i E d L gXZX>XN = i h 9.p d.kXl.d 4 i T T %.n W.GXNXp.# ' [ ^ / T h g ",
"> % O U 9.W U &.A.' E &.U n f.l.z.l.k.l.l.p.n @ X . . & l 4.#.s U ' ] &.#.%.7.Y Y a g g Y ( U ! ] N [.iXDX0X ., a z t 6.h P eX0XwXv   . E 0.] ] 5.H.0.8.A.0.0.%.%.U R z E a E ! ( 6.2.W a 1 3 < 9 b N B C B N & # a 7.E ( ! z z r a z a ` U h r g g ] ` ( / ` ` ( ` U r = = = = E 5.w U U z U R Y R Y z s z h U U E b T.. Y j k./.- = ` R h a z z w X   .   . @ 3 w r & w p 0 o . % %.] Y E z z R U Y r U z ` ' ! ! ` ! U R 0.' a E U z ` R z U R h z R R Y E E E %.] Y a Y ( E E E E ( U ' E R ! E R ` Y z U ( E E R z ( ' [ ] >.<.] ] ] / x e O - %   % %.6.a x E ' ! ` ] ' ` %.E R ` ! ] %.E ! ] Y ] z R E %.' ` ] ' E ' R %.` ! 9.P.' ( %.' &.&.` h ! S b.@X{.C.n.x.x.0 . @   . @ a ' %.%.%.` ` ' ' %.' ' ] ' ` %.` E [ ` ( 8.&.` R %.( R [ 6.#.,.%.T ,.#.E %.E E %.` U ( ( E %.' R ( ( %.U a ,.( #.' ( ,.,.#.[ / g e - > . % 8.8.R ' U ( T #.H ZXAX9XB = E ) #.] s p w f R 6.] / ' - b w 3 T ,.T g 6.i u q U _ { Y s ) d V ;.s Y s w r b L ..B = i 6.h i b ).W.E Q =.0.&.U g.GX(.d & i r w n t.kXi.3 w ( E U E A i.D 3 i #.7.x ) b  .jXAXqXM X.` Y / a h t ",
"> : O a K.Y U U ! &.] %.' 8 F O.F A A A H P (.z.+.0 .   % r A.5.( ( U a r q % & = q q 1 % q 3 3 4 L 6XCXvX#X6 @ ` U k ] Y v 6X*XcXk.@   % & % % & r w r z ' ` %.9.A.6.0.!.K.%.&.0.6.q $ 8 g.M.[.(.m.l.l.l.k.g.9 % l 1.#.A.J.#.z z w U a ` ( E a / g T ( [ >.' ( ` ` T g 3 = > = E 9.! a U Y U z Y U T Y U z a a %.i ..o.% ( B <XD = r ^ E %.9.a q 4 5 c 7 0 b c b C  .l.z.|.(.K @ . w 4.Y h E U h T ' E Y h R z R %.z a w R &.,.a ` z a Y U E z U U z h ( U T R U ! 6.! ( R ` ' E Y E R R E %.E z U U Y a U U E ! ] ( h E ^ ^ ' ( ( ' ( #.] x e > , ,   # ,.6.E U U %.! ! %.` 4.E E ] ` ' R ,.[ z E [ ! ` R E ` %.' E E %.R E E ` U R ' ' E 1.@.( %.#.Y @.H |.OXOXV.V.C.Z.n.M . # X % a ` ] ' ,.] ` %.( ` ' %.%.' ] ' R ! R [ ' %.] Y ] s ` ' ! #.( ,.6.6.,.%.' ( [ %.%.4.U ' ! T ] #.%.( ( ` U a 0.#.( [ #.<.>.' ^ V h e , = . = { 4.( &.%.Y ,.V :XLXCXO.4 w #.E.I.0.U 1 u s ] %.( T 0.g % a a 7.#.7.Y ( z u a ^ ( ] ,.h 1.s w U @.) E ! w h b j w w V %.U %.V F N h ( } %.8.Q p T.c 3 h g + ' E F o.b w a 6.,.a [ z i 3 i U 0.7.' h %.4 d.JXLX}.' >.` ( E g h ",
"> % X i I.' W ! a # = 3 w.w * * # @ o % # 3 8 d.}.|.j.7 . @ 1 w 3 % % % $ . % $ $ = @ * $ * @   L 7XiXbXhXa.W = ` U a R ' b m.%XtXrXP @ . @ @ $ $ - 3 < & & % 3 w 1 w r r a ' ,.T i 7 y.>X@Xp. .4 @ # $ $ $ % @ q E @.( r q a Y w a z a h ' a a ^ w E ] ( ( ( ' ( T U e e > % e ' 4.R a R U U z U U ' ' R z z a 6.4 /.1 q U :.+X- % W R ) 8.n k 6 n t.u.K F t.O.t.l.s.@.;.&.w.T.t.. . U 4.U Y E r g Y z ' z E z T ' %.E ' z z 6.Y ] a r r a s z Y R z Y Y z Y ! z ! ,.R ` ( E ' ( z E ( U s E E ( R ' U U R a E R ( &.a ( ^ ( ^ #.` [ <.` / Y / e , > X O >.7.T E &.H.A.R %.' [ E ( R U Y U ' ' ' U E R } R E ! ' %.] &.%.! ` &.` ` ` %.R U 8.] ) ,.] %.8.K @X%X{.OX{.V.Z.V.x.@ # . % 3 ` ( ] ' ( ' [ ] ` &.%.%.%.%.` %.` E a z ` %.` %.] ` ] ` #.' #.#.` ( ( ' ` ] ] U [ ' E R z ` &.` ( ] &.U t ,.<.#.#.,.#.' >.Y g g q : , . % 8.' U Y T Y { Z -XBX4X5 % q >.6.K.!.[ E i z 9.,.` ^ g &.%.g ,.A.%.' 4.w ,.I.` { ( h #.%.z 5.7.J.D.E z r q a s & w ` ` ] ` a ' w i h b ! ) ] %.U d w x ` 5.k z ' w s q y ] ,.#.` a ,.W a a ,.9.9.1.#.` ) b '.ZXCX] ` ` U U a a ",
"> : . h 6.} 9.1.3 X @ % ; a t y s r a q i i & 4 X.5X~.+.6 . @ @ X # $ 0 2 0 v n P j.j.x.j.a.n.n.1XpXbXtX6X..1 w %.R Y y 4.6 t.3XV.cX6Xe.v 0 0 0 6 5 4 < % @ % # & & & & q & 3 i A y.@XNX>XP 5 # 1 w 3 q 1 1 q q U #.! 3 & @ q } a h a E U ' E a ( r ( E ] >.<.#.' / U r a > = y 6.A.r a r ,.Y Y U z E ( U R s ) ^ +.l.O j j f.W.@ 5 ` V ' k A t.A =.~ W b d 1 $ q w } P.H.0.!.6./.F @ o ,.] z E E z a z E ! %.R ' ( E U U ` a h r ' E U Y R h z z h E U U z U z U Y ] R Y E E R z ` E U ' ' R ( E E ! U h ` Y U ( E ( h ( ^ U U Y ` ' / ` <.#.^ t - >   # >.4.( a E A.%.T U a ! U E ] ` a z a E %.' ! R E ! ` #.E R ' ` E R ] %.E z %.9.Y ( ' #.] %.,.J./ a.#X7X7X@XOXOXV.C.k.. w o   # E ] ' ( ` ( %.E %.%.%.' ! [ E ' 4.4.! ` ' ` #.' ` ` %.#.E #.' E %.%.[ Y ( R 6.` ! E E E R Y E R U E 4.U h q.R U ( ] 1.<.,.1./ U t > > X # 5.] ' ( ( ^ 7.U a h i <.( V 7.' 4.4.E K.7.%.9.#.>.,.E ` 8.` ' #.,.Y 9.#.Y ( ^ %.' ] E &.' R 0.!.!.H.&.7.%.w.4.4.E ` ` W ] &.,.Y z T 9.%.,.%.i @.a w U .XH.6.Y s ] u w V #.#.` ] ( Y 9.H.,.9.D.K.A.,.g 6.U W U.3.] ` ,.( z h g ",
", %   h D.E ,.w +.t.f @ . @ % 3 3 q % & w W U u d R.=.~.=.A M K x.j.x.V.{.&X0XtXrXnXiXcXcXvXNXcXiX8X7XeXg.8 r ( ` U ! a E s B W.gXOXcXtX#X%XOXOXV.V.Z.N.u.r.e.I I M 2 @ @   # M |.iXmXSXx.6 & 3 h ] U s U a R E r 1 * 0 0 # q &.U Y U a E ' #.a a a E ( U ( T ( #.Y g i 3 > % & ] ,.R U U a Y R ` ` k ! a W a =.x `._ % ` j ).h.@ i ` Y ' W D P *.U.X.=.z n w i W ` 1.=.=.#.~ S.F.[.0 . = ` E ` U ` h w z ( E ! T R z ` Y E E R R z ` E a E ( ! h Y Y Y Y ' Y R U R [ ` ] z ( ' z ` ` z R Y Y ' ' ( Y U a U ' Y ( Y ( U U { #.[ <.#.] ,.#.#.{ Z t - > X X ,.D.Y z Y ,.( E ] %.] E ,.U &.%.%.Y ! E Y ` E E Y ( ! ' %.R #.] E U 4.' ` ` U U ` ' ,.( ( E.~.S b.#X%X<Xf.|.%X%X%Xt.. @ #     s ' T ! ` ` ` ` ' ] %.' } ` %.0.' %.` 4.9.%.` ' U E ` %.` [ ` %.>.' 6.' ' &.&.` ' ] ` R U ! ` >.E R &.E r %.E ( / ` ` ( { #.( E t q > . = !.<.( ( ` ( ,.,.] 6.! 7.[ ^ %.E 4.%.%.E &.` %.` U #.' 4.' #.5.` 4.P.6.` ,.8.5.' ' ' ( %.R 6.%.` 9.6.8.8.8.4.[ E ` ' %.! ` ,.R %.6.] 8.6.H.L.9.! 8.! &.A.&.,.%.Y %.0.! ' %.] %.' ' ] ' #.%.9.4.7.,.1.8.` P.~.~.K.%.` ' ` ^ U Y ",
"> >   e ,.a } i F |.|.a.7 @ O r * q & q q % 1 d ~ 9.0.2.$.a.%X#X8XtX7XtXtX8XtXuX8X0X=X7X7X0X7X7X*XOX9XT.2 r t ^ E E h ! a 7.5 | '.#XV.tXcXcXmXmXCXnXbXCXbXiXtX*X7X{.OXn.b.b.b.9XcXnXmXtX X$ $ = q @ # @ % & U w u Q K z.].< r ` U U U U R U z g ( z V h T E ^ / ( U U t y = % q K.8.' a U ] a E E U E U E z l %.q _.B $ ( P qXN X h ^ h ] s p t.W *.@.*.;.S d U Y 8.=.&.) =.*.W E.G.a.2 . t ] E U ` ` U U U U U R R z ( ' E z ( Y E U E ' r r a a ( z a U ` U U ( E ! E ] ' ` ! R ] ( z ' R ] E Y E E Y U a U ' E ^ z h T ' #.( { ` 8.' { ^ x g t - ,   X 6.6.` R ' %.H.Y Y ] ' %.4.! R Y R E ! 4.Y E Y R ! Y ' ` R %.' ` ` %.` &.' } ] E E R ` 6.U ,.9.F }.,X6X}.) gXtXcXhXH r 4 < 1   % E #.` R ` %.! %.` %.[ E ` ] ' ] 6.z %.` ` w.%.] %.[ R ] ` z Y ,.( U E R E D.&.E ` ` [ ! ] ! ' w.] ' Y r %.z { ^ ` Y / / T R R e q , . , 7.P.( E ` #.#.%.T R Y ( 5.` #.%.! E ` %.` ( 4.,.,.` 4.&.` ' 4.' 7.[ A.' %.7.%.%.8.%.Y %.#.&.' 5.' %.%.' ` ] %.%.%.%.` ( ] ] %.E E ` #.%.7.w.8.` %.! @.! ] ,.&.#.] ' %.%.] ` %.' ' ,.#.,.{ #.D.6.6.8.E.6.H.J.U.J.%.>.` ` / R V ",
", ,   U 8.h 3 q.& p z.wX[.M 9 1 o . # 3 h G M y. X .] @.@.W.).z.m.(.(./.(.$X(.#X%X0XhXgXtX6X%X%X#X(.F 7 q q ] Y s Y U R u %.&.b +.W.gX{.C.V.OXOX&X&XoXOX7X*X7X8XiXbXnXcXMXtX7XrX%X*X0X7XC.M $   @   % 3 = 1 u _ a.|.7X@XS 3 Y 7.h U U E Y E z a Y g E E ( E ( ( ' ^ ^ V w > & > %.J.Y U ` a Y U R U R a ' Y x #.t d.p * d -Xd.= r h a R a w b s.Z b z n +.t.H 1 a ! A.h W $.1.7.6.&.T.J @ o E E ! Y a z h h ' U E U z Y U ( R ! ' z a z ' ! Y r a w Y R a Y U ' U a r z ! ` ` z ` 8.E x R Y ` ' &.R E z a E R z ! Y U U U ] %.<.6.#.' ( ( h r r e > > O # 5.9.^ R ` ] 8.6.` %.' ` E ' 0.W %.U %.a E ` ! R E R R E ` %.%.' ' #.%.%.z Y ^ ` ` ( ` ,.z &.] D  XFXGXU.-XCXNXCXeX0 3 & # @     . r ( z E E %.` #.%.' ' R ` E %.%.] ] [ @.' %.%.' 5.' %.4.` ` R 9.( ! ' ` %.%.` ! ' ` 5.` U %.R %.%.z a 6.Y #.` ^ ( ( ` / Y g t e , X , 9.9.>.! [ } ' ] %.! U ,.` E %.] [ ` ] 8.%.%.] ] %.&.[ &.%.%.` %.&.%.9.%.%.J.} ' %.%.` ( ` %.#.R E ' [ 0.` %.' ` R ' &.' E [ %.R ' ' %.' 6.%.&.%.' &.%.' %.` ' 5.&.&.' ' %.[ %.%.` ' ` ' 9.&.9.%.6.8.8.A.!.9.!.9.%.] #.' U / t ",
"% :   g J.g h a #.q p L ).1XM.a.P P j.x.B.@XOX%X[.O.N p u S B O.F F H L D L L J J J M M K p.a.g.L N 6 e r h T ! U s z h s a 6.V B H t.4X4X>XqX0X1X1X0X3X#X|.@X[.}.).).).}.;X#XdXdXdXwX7X6X[.x.p.K K 2 < 2 H /. X#XwX/.D 1 q ' ( g U z z Y ,.r w h a ' ` R Y E ( Y Y Y h t > > > 8.7.Y U U z z ^ E U R W z Y z 0.U F Y.w d.W.< t h ( Y ` & N h.E.( U q r w 6 _ s 3 ( w 5 W E U J.] I.=.+.d * a U R U r U h a U E U U E z ] h Y Y ' Y ` z %.Y z ` ( E z E q s a z ( Y U U E a ` ` R ' %.a z a R ' z %.] E s Y ' ( Y R a a Y #.,.,.{ ( ` 7.` ^ h t e e > O . [ ,.^ ] ` R ( ] ! R #.#.z ` ! R 6.%.6.] R E ` R U &.! E ] 8.' ` %.' ' #.U R ( ( ' Y [ %.4.P.' O. XJXKX( kXbXtXnX<X# %     X % *   . 3 ' %.' ( U 7.] ` %.] ` R } ` ` ' ` K.' ` %.%.] ` %.8.E R #.5.Y ` 4.6.4.&.` E R R ] 9.%.&.' z %.U y ,.h E ` #.' ' ` ' / g t = , X % ,.] T ` %.%.%.R P.` R %.E R ` ` 6.( ( 6.4.%.! ,.` ' &.] 5.%.` %.` ,.%.6.%.[ 0.[ 6.` R ] ] 9.#.@.] ' ( 5.` %.%.' ` E ! ` E %.] 5.( ' E ! ' 5.&.' ] %.! 4.,.&.] 6.&.] 6.` ' ` ' ` %.` ` %.' ` ` ' w.5.%.%.1.&.9.0.] ' #.^ U V h ",
", % . q D.h E i a ] s % 5 S p.j./. XM.b.z.l.P G  .Z r $ % $ 3 $ 3 5 3 w q i w 4 w 4 i 6 8 S D V 8 - = 3 Y Y R U U s R ! R ! 3 &.&.p  .H ..I J H M J M J J F | i.L H i.F F F o. .B A h.d.a.l.z.[.#X1X<X%X%X1X<Xm./.P Q 5 3 R E h R ' E z a ( U a z z ( %.( ( ( ^ ( ( g t 3 = , > 7.7.Y ' U i h z ' z ` U U R W E 4.4 a.+.:.5 q a %.' r ' $ V =.I.F.V = = . %.w s & @ w l U @.W @.S.' !.S.f @ r E R ( a z U z U T Y U ` E R R E R ( s ! ` R ` a U R R ` U T U a R Y R E ! ` Y h U ` U &.' E ] U U r z ' ` r z R ! E &.E Y E Y { 6.#.` / >.( / U t - = > X + ,.q.x Y ! E Y E &.] R ` ! ! ' E ' %.%.%.E ( ` ` ! ' ' } ` 8.E ] ] ` R ` E E ^ R #.( 8.%.J.4.' b.wXFXFX3.JXJXtXNXY.3 8 & .   . o       w U %.%.%.' ,.A.' %.( U Y ! E ] R ] &.%.! 6.' ` ] Y E %.E @.( R %.' 4.` %.( R ! ] ] L.%.4.R ` U i %.' ` ` >.>.,./ h h g t e = O - D.,.h #.` ` ( ' &.! ' ` #.! R E ' 6.' %.%.%.` %.%.#.[ ' ' %.` w.%.&.6.7.` ( ,.' ' 4.` a ' %.' ] %.( ' %.%.] [ %.' ` ` %.%.] %.` 6.R ! ` ! #.] ] ] ` %.! R ' %.%.%.&.4.%.` ` ' ! ] %.] %.5.%.` %.4.4.' &.6.%.A.1.&.' T ^ Y x h ",
"> , . g A.( E 1.E w @.E r % < < N 9 X.b j 6 < # % q 3 t & a U Y U E R @.) $.( U z s s a p w 4 i 3 3 U h U a a U Y z ` E W ` Y & &.#.s p p p d C d p u 1 w 1 % f < & $ ; & 3 3 q i s b b C b N D G P J J i.+.o.+.G i < 3 R z z s z R Y U U %.a z ' Y ` E ,.T ( ` ] ^ h g q = - X #.D.E z ( y a ] r z Y U a R ( r H.w $ 1 # e r Y ` %.Y r @ W D.P.8.s 3 X . k =.r q W y % < & s 6 S.,.D.!.F % 3 6.U ` U z Y U Y U x Y ` U ! Y z E ] Y a R ] %.a a E E %.U ] ` a r a ] R z ` %.z U ! R E U s %.] R R z %.E R Y T ` E ] z h ] ^ ( #.<.>.,.7.>./ E g e , , X + { 7.^ R ] ( R R ! [ %.%.r R s E Y %.' ' ' U &.E ! ` ] E E &.` E R ,.,.%.] Y ] T { #.` 8.9.` X.(.MXPXFXzXPXKXcXdXA U i q 3 ; x a & ; & 3 t ' %.[ ,.E %.%.E ` %.z ` ' %.#.&.R R [ E E ! 5.&.U ] ] ' ! ` E [ ' ] %.z E a R 4.E ,.0.' 4.z h 6.Y #.,.D.<.,.] >.V w = - = X % 1.#.g 7.E ` E Y ' R ' R E E #.( { ` %.] ] %.[ E ' ' 8.0.%.&.%.R T ` %.] %.,.] 4.9.] %.' Y w.R #.' 6.] ( 0.&.` ' %.' ' E %.! 5.&.P.` ' R ' %.] ' w.E 4.6.` R ! ' ' %.%.} ' E ] ' R ] %.E %.] ! 6.4.5.#.%.1.6.#.6.6.6.%.E T g g ",
"> > + e >.' ,.W *.' r r E E s h 1 @ = $ 1 q a w i W % i # & w # & = 3 r z g 3 3 w 1 q q a t r t & & w V U a ' U R z U R z a Y Y r a ,.&.R r a a U a 6.s E ! ` 6.W ! E s T R T h W 8.%.! W s & # & 2 $ 1 % f i w r y U U ( U R a E s s h r ] ` h U x ] ' %.! E ( T ( h h > > , - ,.9.( ' ^ #.a { a z z z ! z h h a 9.u w U U R Y R ` ' q # Z *.9.%.W w @   X 3 } 0./ F [.5XX.3 _ S.A.0.A.Y.& o &.R w r w h U h z z Y ( E R Y E a R ( Y h R @.E U Y R a ` z E Y Y r E ' a U E %.Y &.R ] ` R s ` w ( ] ` E } Y ' x R 4.z a ] E &.,.' ^ ( Y x h Y t > > , % + E 7.R #.! ' R z ` ` ` 6.` ` ` E R ` #.E ! z [ %.%.z K.R ` ] ' 6.Y ( ! ` %.R z E E 7.7.,.6.] 1.(.FXKXlXzX9XqX|.t.i g r a s w w w q # 3 z h U ,.7.9.9.6.J.9.R &.z ` E ` E %.5.' ,.] ! ` #.[ ' R ' } ` ' ' %.4.&.' E E ` U &.' E ` [ H.E V ,.h / ' ' ,.' ( ` ( Y t % % o % 9.#.h &.&.E ,.E E %.E %.' U ' ` ( E ' ' %.' 6.%.' 0.H.9.] A.H.9.%.] 6.5.` #.E %.&.` 4.! k ' %.R ` ] ` %.E ] %.9.4.' ' &.' &.' ] %.0.[ U 8.5.%.` %.` ' %.' R ] %.' %.' ! ` ' E %.` } ' E ` ' E %.%.' E ` %.8.' &.[ %.] ] ( h a ",
"> > . e z q y i E } Y s w q q a U ,.Y ! a w q e q t Y z s h #.s Y z s T z #.h r s s a a q 3 & w y r h r a z E a a z a z a s Y U x z 3 % r q & q & q w i % & w a q q 1 & 1 q a & # % & a r Y @.%.' T i h a a i a 3 3 U W E ! ! W ] ' U ! Y W &.Y ! Y ] ` R ' ` #.Y ( V r e > = % ` H.E z Y U r r ] x z U U &.a h h q 3 U T y Y i U *.! U # F f.=.) z k & u $ o 1 r _ L.f 1 W ' F.P.P.=.=.Y.w O ;.H.R h w r z R z Y ! U U %.] E z ! z ( U R #.R R ! 4.] ' ' U %.%.r h %.%.a a U s %.z ( ! R s R h a ! U U U U ' E Y ] Y w %.U ! ' 8.) T / V g t t e > > O   l q.R E R ' ] ! %.` ! z ' E %.%.( ' 5.E ` z z %.U a %.8.] ! %.` %.R h ] ` r U E Y U ` Y ] E X.c.fX/.(.l./.|.<X7 t g i q i x g g %   q a q.' 9.8.#.9.6.] z ! %.' Y ` ( E %.' ] &.] [ ` ' 0.E ! E ! ( U 4.%.%.%.0.R ` ` E ` ' %.E ` 7.U g >.Y ` ' >.' <.>.>.` r q : % . % P.J.( ' ,.] E { E ' %.( ] U 8.z ,.` ` ,.&.' &.%.5.6.W q # # } 7.6.&.' &.&.H.0.A.K.@.6.,.&.E %.! ' 4.] ` 6.R E 4.U ` 0.&.E %.%.[ 9.6.[ %.` 0.%.%.! %.%.' ' ] R %.` ` ' ( ` ` ` %.%.' &.` ` &.` ' 6.5.` 4.&.0.0.6.&.&.@.%.&.E a ",
"> > o t ^ a z U W Y a k z E z & % h a h z a a a U h W ( h z W E r s a E W U ` Y a s s k E a s U a g w a a U Y T r R s r a z z z U ! ` r r z w E r U h h U } n R R U h a a E U Y z U Y W Y z a i w U w 3 R r & U a Y a T z E 6.z T %.U h ! Y h h R ] ' ` &.6.R E ' ` / t q > = X 5.7.E E E ' ` g R z U z a ' z R U Y q a ( Y Y h V ` ` &.# J 4XS U ! r q E H.w ; Q .X*.w 3 4 r ] &.A.%.!.H.r % w ` ` z ! s z U z z z U z a ` ( ! a R E R h ! ! U R ! %.a U x ' %.E E ,.E ` Y z R ( R ' %.%.R E E h ' R R U Y 8.E ' 6.U a 4.z E ( <.,.9.1.,.T t y e e > % X { 5.( #.Y E E ' ` 6.` R ' R %.` Y ] U ! R U ( ! [ 5.` E ' [ ! E ] &.E ] 4.z ] Y %.( ] ( h ` Z [.W.z.-XfXfX4X<XZ V Z V w p q q w X   1 % h 3 r q = % w y @ z ' E ' ` %.Y 5.' @.&.] E ' 4.%.] ! 5.&.' &.' %.] ` ` ! 8.4.%.' ] ` #.#.{ ! t 8.g Y ( ' >.>.' T ^ h q > ;   , ^.8.7.' 0.( ] ` ` E ` E ` R %.%.D.9.` ' ! %.( ' &.; @ < . . X t H.%.%.&.#.' z w U 6.P.] %.[ [ E %.` E ` 6.! ! ] ] R ` %.%.' w.R %.7.` &.7.( ` 6.' ] ' %.' ` 6.} ' ] ` %.[ %.` E 4.%.` E ' ! %.4.4.8.' &.%.#.&.@.] %.%.' ] ! z ",
", > . t q.x g g z R z W E U W r a Y h ( h z a z h a Y a Y E Y Y r w a a z s Y E Y ` z E W U Y x a U i g a h R h a a z s a Y a z a E z w s z U U a i E Y a ! z R h W i r r z E s s U Y Y ! ] ` U T U ( s E U ] U a z z W U ` z @.E R z E E E r r W T ` ] ! [ ' ( 1.` Y e - , = X >.8.,.U g T U E U U U U z U U U Y z z a Y R U U s a Y %.r +.lXQ ` ] 0.u ; : Y t.k.z Y w 1 1 U h @.S.1.F.A.b 6 % U z a U r a z a U z Y z E Y Y ' E h T R Y E R ! ` ' 4.` s z ' a z ( E ' E ` E z ' Y E ' %.] z ! z ! E Y E Y ! #.U ] a r 4.! ` %.[ 1.#.,.D.' h g y > , :   9.7.x ' R %.! R R E ! Y ` ` ] ' E %.] ` ` E z ! z ` %.' E E ` Y R ` Y R 1.Y R U #.T ^ ( a ,.C <X:XVXkXVXJXfX5XS.,.$.S.$.! s & @ $   . # # = 3 4 V 9 B < w z 5.R U h ! E ` E E ] ` ` ' } ' E ' ` %.E %.! 5.&.` ` [ E ` ` &.` ' ` 0.%.U g 7.Y Y #.( ,.` ' T ' ^ e > > . # P.9.%.9.%.0.] ( E Y ' ( e @ @ & z ! %.6.4.%.] H.f n ;XfXT.A @ . R E s s 3 &   # % & 5.8.` &.` [ %.%.] R %.] ' E E E ' ! [ ] %.` ' &.` ` 8.4.[ 5.4.4.&.' [ ! ] ' ' ' ! ] %.%.E E 4.4.` E ' E ` 4.' U E ' #.` ] %.%.%.#.! ! E s ",
"> >   y 8.z s U Y U h a Y y r g z R a U ! E z r z U a ( t z z ^ Y z Y s s z a s a u z U ) U z s a x w a z U Y Y a U r U r h r Y a a E U U a a h Y h z h s z T T U h E r s a U a a s R z E R %.] z Y Y E z z ' h a k U U R R %.E ] z U U z U U a V h ' >.' ' <.Y ( ( U a & > > O { D.z R h Y R E U U U U U E h s U Y ` Y a E U T E R a &.i l.yXZ @.a $ = s k f }.c s i 4 4 q @.s Q 6.) S.~.~ p   x R R ' %.s a U R a z Y z Y ( R ! z R R R E E r ` ] ! ` z U ' %.y ' ( %.z 4.' z Y T R h U ,.U E R z ! ' x r R z ` 7.a a ,.^ T ( ` ,.] #.%.%./ U t = = % . ^ q.` %.Y ` %.E ' U E T U #.E ( U ' E ( R ( R ,.h ( %.` R ` ` ` ! R E E R ( ' %.Y ` ` E z H.+.M.gXlXFXGXJXBXFXX.`.4X].@.L.&.;.a i u w h.l.d. .c F i.W.6 1 ] K.` ! R Y %.` ( ] ' ` ! ' &.%.E [ ] %.&.` ` E %.] [ ' ] ` U ' &.` ' J.9.U t ,.^ ] %.) ] %.,.$.#.Y y q > . % 6.8.%.4.%.6.4.' Y ` 4.J.D.D.r @ o # = ] 9.' ! R 6 <XJXPXGX;XH . % i d n 4 7 2 2   o j J.4.[ ] E %.&.%.` #.' ' ' ] &.` Y [ ' &.` ' R ' E 8.` ' %.%.%.%.%.! ' ] %.[ R E ] ` ' R ] ` 0.&.R E ` ` #.` ' ` ,.7.7.E %.] #.' #.E W Y ",
"> , X k 0.R s Y E U h h z h h h U [ h h E R T E U a U s g z U a w i z E Y E Y Y Y E s w h k Y s a z z r a U r a h a z s a z z a Y s g h a z U Y h h R W h z z z U s U s s a R a z r Y U R E ` R E Y Y Y z z h ` z ! R z s r s R E Y R ` [ E U h >.g ( ` ' >.>.' ( ( h a > > % . ^ D.R z z E W Y z a a z Y g R z R U U z h s R a ( ( W 6.i ].f.h ) t 1 $ w 8.q | < ; U r r ' ' % U F.S.%.xXk d . ' U z E R E ` z z W z Y E U ! U ( r i W ` #.E a Y h ! ` &.Y ( 6.E s ! R U ( ! E U ! ` Y ! R U ' #.r z U U ` R a U ,.h ( ,.Y ^ ( ] ,.,.<.,.@.U h g = > , X ` 7.h %.' ' 7.E [ z ] ( ! %.E ` E ' R E %.! ! Y ] R R ! z E ( ` U ` ` ] #.#.E ! %.U ' z E 0.a.;X X4XFXlX4XFXlX:XGXBX9XR.I..X} 1 1 % q $ < 1 # 1 > H t.3 q ` ` E E R U U E #.' U ' R ] %.%.Y ' ' &.[ ` ' Y ( @.6.E 0.%.` U ` R R 7.%.U i 8.( E ( @.#.T ,.,.^ g e > > . % 7.6.! ,.] ` %.,.' l E A.! u f b 0 @   % h % @ 6 z.GXJXHXHXlX+.w 4 : 2 P OXjXlX<XJ . # %.w.5.%.&.` [ %.] ] 7.` 5.` ` ] ` E w.` E %.' %.R ` %.` ] } ` &.%.%.E R U ] %.a U &.` E %.] [ U @.z ! R [ 7.U ^ >.%.` 8.%.%.' ] ! Y U a ",
": % . Y H.R ) ( W h T z Y h T T W ! %.` Y E h U ' ( Y U #.R U E 3 R z R z ! ` s s @.] E z W Y s W E W z z a r z z U U U a s a U T h h W U h U Y s W W Y W U h T z h U W z s U z a a R Y U a E z U ` Y E E E z h s s U E a E U ! ` z a U ` #.E z / z >.' ' ,.,.( ( ] h r q > > . ^ H.x z z T U T E h z z U h R U T z ` E h U R Y %.Y a 1.4 W.| Y Q w 3 % s 8.# +.7 o r t & r &.q U A.&.D.J.( w X [ W U ! E U Y Y w z Y z Y R E E ( Y R g U ( ` ( ' { z z R T Y ( %.E R a R E z E ! R ' U R ( Y U U ` T R ] E ! U Y R h ^ ` E ^ ^ >.[ #.] ' [ Y h t = > : . ^ K.^ U [ %.E ` E z #.h R ( E ( ' ' ] R ] R U ' R #.%.E R ! ] ` R z E Y ] &.&.E ] R 0.Y 4.) X...s./.f.f.s.g.t.'.fXkXW.F.*.L.Y % z E ' #.&.1.i A.U i.F % ! ] E E E %.R ` h ' &.` %.%.` &.%.( R E ` %.' ' R R ` %.` ! ^ 4.` %.U ( ' ` U t 6.U #.' %.1.( ` $.^ h t > > o % H.7.} 0.&.' ' ` ` ` ` h ` n 9XjX1Xj.0 * $ < M (.wXPXPXPXPXJXY.| a.K j.@XCXLXPXLX#X. # 4.9.&.6.&.[ 5.] %.%.{ %.] ` 4.] ! %.` %.( ` E ` E ( A.' ! ` ' &.' 5.6.' ( ` ' ! z R E ' ` ] ,.6.] ] 7.6.6.6.6.( 7.#.] ' %.@.%.#.` ! U a ",
", % . ` ~.&.R E ! ` z h Y T h W R E W W ! Y R Y #.( a U U ' U #.z E ! U Y U ] E R R W ! ! U E W s a Y a U ( U r a a h U z U s s h a r W W U W Y T a E R #.E U U T W a h R s a z w r U R z %.! Y a { ] %.E ` E ' U R ` ' a a Y z E T a a z ( U r x z ` ( / ' [ #.#.^ a y e y ,   x 9.^ a Y R Y z ( E z h z Y a E R Y Y ! U R R ] ( ( R 4.% Y.+.a / = #   z !.& ..N # t E Y h @.3 T A.6.A.L.&.V X %.A.! z x ! R ' z Y a Y ] Y R E E Y ! h Y R Y U E ' E E U U z ! T %.] ] ` ] E U E a R U ` U R ` Y E ! ` E a E Y ( E q U E E R T T ( #.#.t i g h y > , % . ^ E.R ' ! E %.E E ' ,.( R ( #.z E ` ` Y ' ' Y #.E ! ( ( E U E ( ( U E Y ] ] w.` 4.] ` %.( 0.a n n b C b u n p p C d 1.1.S.` > % [ Y W ( h ' U 6.4 +X4 e ,.] %.%.R ! ' w.R ( ( [ &.E ` %.&.] E E ! %.' [ ! ( ] ` ' ` ' E %.%.%.] 0.%.z T 7.( %.] ,.1.#.E ,.( T t e > . : ^.9.R 0.` 6.%.z E ` ' E Z '.LXJXJXwXB.(.}.3XqX4X}.W.l.T.f.f.+.Q.<XqXkXBXZXNXZXHXjX$   ;.9.A.A.8.&.` %.6.%.` #.6.%.] ] R ,.%.%.] %.[ E ] ( E ' ' ` #.8.' 6.' %.] &.@.9.%.%.' ' &.6.9.6.%.] } E ` ( 4.` %.7.9.9.&.] ] %.#.R Y k ",
"> , . ` ~.,.z ] ( W Y h U T ^ Y h %.! &.! R s %.E ] T ] ( 6.( ` #.U E U U R W E R ! @.&.' W a E ] W E ' z W Y a q r z E s U U r g T U a h Y Y U T ! U E ( ( W T ( E W a ` R z a z a E E E ( Y 6.a ( h ] %.( %.` h Y ' ` ` E ' Y Y h ' Y z E T a E U ' ( ^ ] E ] #.( ( r w > , . R H.! r U z Y U U R s z h E z ! s ' E %.U a U R #.&.s 0.r i.Y.e T .   X s L.w i & % ` } z E 6.s s 6.J.1.S.4.u . q s 0.A.^ ! z Y R R a U R ' z ! ` E U a h Y U E Y U ( E e h R %.h U z ` %.%.z E ' [ z z ' Y ! Y ' Y Y %.#.E z R T ` a ,.( ( ` ' ] ( #.#.g t #.T a = , % o ` 6.E R T ` ' ( ( [ #.] h Y ` E ( ` Y %.( ! ( ' ] E ` ( E E ` ` ' R ' U ' ` 4.%.,.` U R E ( ] 1.` ! h h q W %.@.r ! W @.A.) % % #.>.` 8.&.] 9.h +.W.& a 8.{ Y E ' ] ' ! ` E R ! ' ,.E %.%.E z R E E ` [ %.U E ` ` ` %.' %.` ` %.6.%.R h 6.( ' [ 8.1.,.] ] ^ x r > > . ; q.4.` ,.4.] ] ` R ( @.E V 3XHXHXHXJX3X/.f.+.F N N p N n S C d c B | D +.f.'.kXJXeXA . + & t 6.E.H.%.%.[ %.4.4.%.A.6.8.] Y %.U 8.w.#.#.R @.%.` [ w.%.A.L.P.K.K.P.6.&.=.w.%.' W U a r w w % % 3 . # & % # 3 g ,.J.( { ,.#.R U U ",
", % . E !.6.Y Y 8.R Y z Y Y U T W ' ! ` %.%.@.R R ( ! E Y 6.#.Y #.%.E ,.U R E E ' ] ` &.' 9.E W T ! W E ( E U x R s Y E R E Y Y W Y h g U V T ! U U T ( T ( ( E E R W k s r E s a E h ! ] &.%.&.Y &.U U ) ] %.` ( R R z E U ' h ) ! Y E r U z a E h ( Y ^ #.^ ( >.` h h q > ; o t 8.E a a U Y h U U z z a R a z U a E E E ! E z W ] k ] ` d `.% W . . t g V 1.( a q H.0.Y U w.E i ] 2.@.2.`.C ; . @ o Y 6.' z U E ' E ` z Y R s Y R R E Y Y U ( E E a 6.h r U E ( U a R E %.E ] E E Y U ( E ! E %.z R T ( R E R ( Y h ' ^ ` ' ` ( >.>.6.1.#.#.( e > - # . ' 7.' R ( ] R ( ' ^ ] ` E R ' E E ] U z E Y R ` ' ] R R ` ! E ! ! ] ' ' R R %.,.&.&.` U ' @.U Y 6.&.6.#.a s e ] #.,.s r T h.f o ' q.8.' R #.>.4 +X4 q ' } R E R s E Y ' R %.] ] E %.E Y ` %.%.! @.R ` R [ E ' ` ` ` ` %.E ` E ' &.4.` r ,.E ( ( ] A.1.1.] Y h t > > . & 6.%.` 7.0.%.( ] Y Y ' 6.N dXAXHXvX/.L b 3 q & & 3 q w r r r 3 q r 3 3 u B F | i.fX/.< .   @ : r %.J.A.0.{ 8.4.[ ' x ' &.#.] ` ] 8.9.,.6.4.8.,.6.&.) E ] ] ' a 1 r w & % o . o . # * $ @ # # * @ # @ .     .   t ,.( ] ! R U a ",
", , . R A.6.' U ' Y U W h W ( T a Y 6.&.' ] } E 8.r s 0.! ` T U ' 6.& E *.U h U ! Y 6.6.L.@.' ` U T #.' ] %.R a h h z R E 6.( T Y U h U U T ( ) Y ! ) ] ,.] 6.( ! @.W Y R E z W U } E E ! 4.' &.U ] 1.E ,.%.7.( 0.] ! ` E E E z T ( ! h h h g a z g 4.{ ( ` { 8.] ' / x q > q + k H.( z h z h z U Y U z U z U a U ` ` ' ( z U U Y E ! Y 7.& }.1 g % X a R R #.,.i o > } J.%.A.' T S.@.p Q H  .Y.=.@ . o r %.5.U z R U ` E E ! R Y U U E ( ` R ` E Y Y ( E Y R Y Y E h ( E z U z %.E Y E E ! R U ' ` ( ' %.! ` 6.Y z r 9.Y ` ] / ( ' ,.1.<.` V Y t q , # O R D.T U ( E ( ] ' ^ ] R Y E ( ` ` ^ R ! E E E ( R ( ` ` R ' E ' R H.0.E ` x 8.R ] ` R R R #.] Y %.#.T R T ` ` ] W ! 6.z q l.S . U 9.#.&.Y 4.N ..f.# a @.Y ! ] U Y ' W R R ( ! %.` ] [ ( ] R Y ( [ 4.T ' 6.' ` ` ' E %.E ` R ` ! ` &.U r 8.( E T ( #.7.,.@./ a 3 > ,   % &.6.4.E.J.%.] E ( ( %.R z.NXLXMXp.5 3 # r s E %.8.] *.&.@.] ! 0.K.S.' Y d 1 3 r %.~.G.r.0 @ +   % 3 ;.=.8.6.D.&.' w r ( Y 7.4.%.` ,.,.] #.s a w w q % @ o @ . . 2 < $ * < 6 b +.T.(. X|.|.$X|.[.m.j.J 9 5 . . X ( ` ( E ! U r ",
"> , . R 9.T 1.E s h E R ( U T ,.' % A.0.E ] Y 4.E 1 # ] A.#.' h 8.T 1 o &.! a s z %.%.$ U ^.#.` ( W &.&.1 ` D.T T h s } E 3 %.8.T U g V U ] E %.,.E ! @.%.@.I.%.&.6.A.E ! a U U ( U 6.1.! @.E U ! ] #.g R 4.%.( ] E Y ` Y Y ` a ' ' ! T a ' E U E r ` T ^ ( ' ) <.,.( h t q y X a 8.z a U z z a z h h z h Y Y x a z z &.` z R a R T i w 6.w h.W . 3 % 3 g %.%.Q Z 3   % r ' &.k ~ ! ; 4 4 f 1 $ f.l.0   . % ` 4.%.Y ! R Y Y &.Y U Y R E Y ! h Y ` E a Y R s U ' ` E z T ` #.E R U E E ' Y ,.z z E U E R ! E U %.] a g 9.( / / Y ( ( 1.[ ` ( ^ T t > = O % ` L.! U R Y z #.U ( ( E E ^ ! ( E T ] E R Y Y ` E ! ' ` E E ! ( R &.%.E ` r @.` %.z ] s Y E R ` ! ` E 4.h ] ] ! T #.` E a ..B o z 4.{ ' ( D.N _.i % } 7.] ( ` z U R R R W R %.%.Y %.` Y ! %.( ` ( &.] ( R &.%.%.R ` E ! ' ` ( [ E 4.! r 7.E ( ` T ( %.] %.' g e = % . % 9.9.` H.A.6.6.! 6.' Y z.NXAXAX>X4 ; 4 w i 6.( E ,.%.%.6.%.0.6.&.] U ' 9.H.7.Y w | 9.W.$X{.n.n #   o @ o q ` U z w q & @ # & q w & 3 # o .   @ . & 0 A m t.t.f.l.(.|.;X<X#X:X<X<X;X}.<X3X<X;X).).-X1XqX1XM.a.A $ ,.] ` ! R z a ",
"> > . { ~.] ` E h h a h E ! %.1.# . w H.' ! T >.i 2 . = P.' h ] 6.4 5   w A.z h E 1.q . o #.q.} %.( 8.a @ & J.T a U Y 1.h # = I.P.' Y z k H.V 3 Y 7.U ' %.%.A.7.r 3 D.' a Y z %.6.w a ^.E.} ' %.#.A.V # % #.' ` ! E ^ E E z U z E ' @.#.a ' r q z = U h R ^ #.' ' ' ( T i y q o q 6.%.a R Y s s U z a a U s z z Y U E ! ] ' E E T Y h i ` R s G.  @ X @ # ; F Q.A C g X . # = s.s.w q a & W U < F fX).g.*   @ a 9.4.Y ` ` Y ' Y E E z E Y ! E Y Y R U ( %.z E ( Y Y ` E U Y Y ` s U Y T %.,.R U ( R ( z E R ( ,.( ( a #.z ( Y ` V Y ] ] ' ( E g r - > X   9.7.R %.4.` U ` ] E ] ` ' r ' ( ,.^ #.` ] @.` ] E &.%.E R ' ` ` 4.E %.' R %.E &.H.` R E E Y R Y ( z ( ! E E U ' ` ] T Q s f.L X a #.( %.J.! s.Q.# g %.( %.%.#.] a Y ] ] ] ` ' &.%.` %.E ] 4.' ! } E %.[ 0.[ ' 4.Y ] ( ! ' ' E ' 5.[ Y a ,.' ' #.T ( ^ >.#.( h e = , . % 9.,.z A.D.%.6.6.&.! T.ZXCXHXAX<X< .   @ o 3 & 3 r & q a y w 1 w 3 1 : & # # @ 6 =. . X%X%X%X6X].6 & @ . X o @ X o % 1 $ . . @ . .   $ 2 0 v K y.M.B.;X;X@X<XgXdX[.T.t.+. ...X.S b n S S A b b p N _ o.g.W.<X Xr.#.,.,.` R g g ",
"> : o R J.^ R #.( W U U g z P.U B $   s J.W 1.` H b.@ @ t >.g 8.d J [.$   0.6.a &.s b F . . q.] E 8.W d $   a 9.Y a ( ] V & . % 0.w.Y z ( ! w o = J.,.R ' T A.i   % T J.T U Y 0.w @ @ 1 A.&.Y E 6.z 1 <   w q.` [ ` E ' ` U Y k ! ( E R a ! s i g % z U ( ' ] ,.' ` T ( q q y O a %.R q s z z z R R a a s Y Y Y z r Y Y ] E ` E a ^ z h y #.3 | s.1 - 5 1 V _.1 q & 6 C r a s.+.* > E 6.z &.r ; l.d.n i./.p   @ r 9.} E %.R E z z E ' ` E Y R Y T R U ! U w h U h a U ! R ( U ( U U R R E ' %.z R U z E Y U Y 4.' E g 6.h ^ ` ( [ ` @.#.1.>.E Y y > > X   ` #.R E U %.R s h ] ` %.9.` ' ( E x U ! %.` ` ` &.` @.! ! E ` R 4.D.] ` x E ` ! ` ' ' E U E R E ( R E U ' 6.' h E %.` ~ d /.n - ' ] z =.5.A }.< q ' ,.E #.] ` [ ` Y } ! E ( ` %.! ' R ' ! ] 7.` ! E ( ' ( U ( ' ( R ` E E ' E ! ] %.U a 9.( E Y ] ^ ' T U U U e = , . % 6.H.( 0.8.&.,.0.' g.BXAXZXCXGXJX1Xj.v 0 $     .         . o   . . @ < f v M P j.L /.>XrX0X%X$XwXwX#Xm.F J e.j.u.j.j.a.j.y.a.k.x.b.M. X{.{.{.{.{.C.{.;Xp.l.O.o...B i & $ 3 w r w r t U w s w w r y 3 5 3 X.L dX7X,.<.' / / U t ",
"> %   z H.R Y 6.U z z s U ,.A.M gXP     U ' @.v M.nXr.. o q ' ( n ,XcXL   & &.@.' 6 j.kXc + y H.) ' d P /.@ X 0.9.h D.4 d._.@   3 q.' s A.s I 5 . ; I.' W 9.] 9 K @ % 6.7.h #.U d t..   w H.Y %.' 7 f.+X* $ Y %.( z %.! E z ` U T E T ! U ,.E k U & ! Y ( ( ` ,.' E ( h t > > % & ] %.a a r E z s R Y U z z ` ! Y R U E E ` a E ` h g g r a ,.# | -Xc i q w 3 3 U H.T % 3 i 5 = u ` #.w.` 5 f _.+.r % 1 n T.X.. @ a J.&.z E ! Y U U E E Y R R Y R ` Y ( 6.` R z Y z a E ` ' ' ` z ' ( U R z ! ' ! T E #.r E E E T Y a 6.T ^ ' ` <.] <./ ( ( ^ T t q > O X ,.[ g 6.%.7.E U ,.%.` ] %.` E R ^ ` 6.U ' ' ` ! ' ] R ( ` ` ' ] ( 0.' E %.' ` E #.! ` z ` T a E ] ' U ! R ` R %.^ %.A.) H :X8 e 1.' ' F.a O...% %.#.! ' ` ] ( &.#.5.Y U R ` ! ' E ( 5.R R ! &.` ` ` E ! %.%.%.%.%.` R [ ! E ` %.E &.z a 6.z ( U g U ^ ( ^ ( h q , = X o 6.%.] ,.A.4.A.&.s.MXrXhXNXbXhXNXHXBXtX|.b.y.t.O.i.d.f.l.W.m.(.(.}.|.$X$XqXeX#X>X7XtXtXcXNXBXvXhXbXCXZXNXMXNXbXbXMXvXcXNXNXBXGXBXwXhXMXHXVXFXKXZX0X;Xa.Q 4 4 w % 1 r E %.w.R ^ T z } ` ` ] %.( r T E ( q i 1 W.HX,.#.` ^ ( U g ",
"> , . q 0.! T Y E ( l h ( D._ |.%X{.v . . > f a.tXrX,Xm     ,.i j.vXbX>X0 @ l P.V -.tXbX;X<   ` L.! ..9XFXP   # H.J.( 7 #XbXz.*   ! A.A.1 J qXx.@   g ,.#.%.p (.eXB . % 1.Y 7.6 d.wX/.:   t 6.4.4 l.NXBXd.. q 0.6.E ! R ' r a ! s R R T E #.U w z & ' E E T ` ' %.( T T r > > O % U 4.U Y ! U R R z U z z z h R a E z a U ` E Y E ^ ( U h r E z & U.s.% 3 1 s ! r 1 #.&.! u r a W %.%.R 1 F '.H < 3 h R & f G.| + + r 0.] Y Y U U U ! ' U T E U z W R U E R ! Y R U E a R z R %.Y R E E U E U ` Y R ( ,.' Y E ] U U y 4.E ' ] ( [ ,.,.>.,.,.^ h t q > O . >.7.g ( Y H.%.R Y ` ` ( ,.E E E ] ` ! U ! Y ` ,.' R ` ` ! ` E &.%.] %.U R %.E R ( ` ` ` Y ' 6.R z E z ' Y R ` %.( F.4.W }.p.2 e 5.` H.{ Z `.$ r 4.] ` U ! [ E E #.4.' ( ( ` %.' R ,.` ` ` ` E ` ' ` ` E ` ` ` 5.( 6.@.` %.' ` ' R ' Y r %.g ^ ` ( Y T ^ E T U 3 , , + o %.&.E ,.7.K.J.2.kXMXAXAXCXNXbX6XcXbXCXNXvXkX1X}.].T.z.c.z.l./.z./.[.+XkXFXJXjXZX7X%XOXcXAXGXZXBXGXHXGXGXJXZXvXNXhXtX7XrXHXPXPXPXKXJXMXHXFXUXPXHXNX,XM.v w 4 U ! ( &.0.H.0.0.%.7.8.9.6.8.&.H.H.6.] 1.( J.,.i [.ZX#.( T E Y h g ",
"> >   r 8.R ] ! z R ! Y $.I.i.OX%XOXx.7 @ 2 I n.C.C.n.P * . * 7 N.OXOXZ.e.@ * r b x.{.C.Z.I   # i 8 j.V.C.x.< . ; a 8 v.#XC.V.M   @ &.( L @XiX7XK @ o &.S.u k.tXiXB.< o 3 x w K <X=.jXk.@ o E d l.6XrXnX3X8 o t &.` R ' E ( U s z z ' U ! U h r h > ( ] ^ ( ( #.%.#.' U k > > % = ` E r r R h E T a ! U h a z z a z U E U R z ^ R i ( { U R e 5.h $ $. .. . w 6.1.a # q E h t h =.' w & s./._ # , t p ` ,.: w f.s.o @ q A.! Y Y R U ! #.U Y E T z R ' ( ( ( R %.U z z Y R ! ' R E ( ( [ W R E E s E E T %.R T ] ( #.a D.h >.#.` #.,.,.8.1.#.h h e > , % X R D.h U U ' 4.' ` E R %.' R ! #.E ] %.[ R R T %.! ` ( z ] E R ` %.6.` ' %.R ! ! ] ' ` ' U z ` &.E ` U ( R R E ] ' =.Q H (.c w t ( ] <.V _.3 a U %.,.%.[ ` E ! E E ` ` ` U ' ` ' ` %.` Y ! E ] ` %.` 8.! ! } ' %.E R %.R ( U ( E E ' z t 7.E E ^ ( ^ U U ^ Y a g = > X % %.%.U D.D.H.K.I..XBXgXBXHXGXZXNXcXhX].p.H b b d 8 u d 8 8 8 8 7 C D f.'.@XlXjXcX0XtX7X%XbXHXhXJXJXdX'.T.W.W./.].'.}.+X<XkXFXKXUXPXFXVXPXPXKXJXGXZXhX@Xu.M X       o . % & e e z E ` ` U ( T h z t = q % $ +.0XZXE E ( z h U h ",
", >   a %.z U 6.` r E ! A.W |.7X,X@X{.N.u.B.@X#X%X7X*XOXn.A e.6XnXiXmXcX,XL . % i. Xt.N.#X|.F @ A  XtXiXtX0X#X8 $ p t.tXnXrX,X{.<   * 6 /.7X%X#XV.v   $ : I qXtX%X{.j.#   @ m {.t.) <X$Xv . . 0 n.&X%X%XwXl.X = r Y E 0.6.U a z ' s V h h U E r a q E R ^ ( >.] ] %.@.! a q > % > 0.%.Y Y Y Y ` E z R R h U U U z E a U E U E U 6.R a E T ( a 3 6.a 5 ].L . . q 6.E z E z U Q %.k $ B /.l.5 % w g ^ U y a %.1 * k.... + s K.` Y a U ( ` R E E %.Y U R E ( ( E ' ' ! ( Y E T Y ' ! U ` #.U R Y ! R R %.z R Y E E ( >.g #.( Y ' ( <.#.>.` ) #.` Y e e > + . x q.' Y 4.! R ! ' &.U E Y R ! Y #.! 6.` ! ] ' %.` { ` ] E R E R ] %.%.` ,.' ! ] ` R ' %.] z ` a ` E t ! ( Y } ` z ] S z...1 i h ,.] 3 G.G % W { %.` %.' E %.' z x ` %.E %.] 7.%.R ` E E Y R ' R ] 9.A.] ] ' ] ' @.` ] ` &.' Y ' ' ] z a 6.U E x ` ] ( ` Y Y y > > > . > A.! ( 8.,.8.] D.P.4XKXgXvXGXHXFX).H n d 1 $ 1 w r w a a a a s a a 4 6 -.x.|.zXFXPXPXLXrXiXhXjX-Xp.F b 4 9 S A D +.X.S D P O.+.+.g.Y.f.W.fXkX3X|.z.9X<XB.j.t.A 6 < @ .         X X     .   . . . % # 5 B l.1XCX#XE ( ( E h U g ",
"% : . g ,.a g U E U R [ 8.s.jX7XtXtXtXtX7X0X*XtX,X7XJXrX7X7X7X,X0X@X[.JXZXqX/.@XnX`.1.L.W.8X,XF B.tXAXnXpXrXrX#Xd j.1XCXHXHXbXZX$X4 4 m.#XOX|.P $Xx.f . J OX&X}.-.b.{.e.1 k.#XwX2.4.+.M.|.i.c @X7X8X{.K j.9XN o = *.%.E >.( T E U s W a Y ' %.( U w ' E ( ( ( %.%.E R W z e > , > %.! E i z z U E ] a z z a g z h a &.Y R h z U Y E U U z z E z r 6.i 9 }.n   o z P.R ! ,.E r % d ]./.F < > s T #.` z { q a 6.q u l.=.@ @ E H.R r r U %.' E E %.T R U W E ' U Y R E ] ' T E z R z ] z ' ` a Y U z T E ! E R ! Y Y ( x 1.Y ' ( <.#.) ` ] ,.( <.Y g > , X O x 7.g z ' E z ] [ 6.` U ( ( R ` E R R R ( ' R E E ` ` 4.! Y Y ` ` ] %.` %.%.' ` ` Y ' %.E 7.%.z [ U ` h U E 4.E 6.h i.-X6 w 4 U 7.3 :.U.$ k %.' ] 6.] %.%.Y U ] ` %.' R E R %.0.! ( ` %.` R ! E %.%.9.' E %.6.] 4.R ` ` ` E ` E ` E U a 7.r E ` ^ ` ( ] h U t = > , . X q.%.E F.%.%.^ ` A.J.W.fXVXtXNX`.2 f 3 q s D.0.) ! ! ! ] ` W E ` &.8.U 4 u K <XBXHXHXJXCX1Xy.O.H B q > & 3 = & 4 w w f w V i 3 3 1 w 5 4 b _ D b w n ~ X.X.d.T.XX$X;X}.W./.f.=.~ b 7 c 7 0 7 v P y.k.).wXwX[.l.B ( #.] ' T U a ",
"> :   g 8.h a U ` ' ` H.s.fXVXhXLXHXAXnXrXrX%XC.b.p.'.9X*X%X%X7X#XP b ~.BXJXZXZXAXS.9.2.xXrXbXcXbXcXMXW.yXZXcXnX).$XcXbXjX:XJXJXZXz.4XBXNXvXd.=.y.$Xn.x.<XcX9Xh.1.G.0X%Xl.0XtX5Xs.@.~.lXcXhX6X,XtXwXG ' ~.M.p.. e = #.U ( U Y h R h Y a h U E r T r ( ,.( #.' #.` ! ' Y a e > % & 6.%.Y R R s E a ! a E s Y U U a q #.T z ( h U E Y E U U h h ] h = 6.7 z.m.v + > ] ! e q @ 9 f.}.O.2 . 3 s R ` #.( ` ' Y i l 0.s w l.A   . z [ a t z z U Y U %.E z E E R z ! Y R z a E Y &.h ( E ( ] ( ' R ` R z ! E R E ` U Y [ ` i ,.U ^ ) ] ,.] ,.[ >.^ ( T t > - + O x >.^ a ] R U ! %.` E ` R R ` ( ] E T ` ' ` ! E ! U E %.' ` E R ` %.' ( ! %.E R %.Y R ! ' ` w.R ] ! R ' z U E 9.T H -X:.i g i ,.V V Y.* r ( 6.' ' E %.%.] #.E ! E ` 8.U ` Y T %.' ` ` R Y Y ( R ( E [ %.R E ' %.5.` ' %.( ( ` R ] ` ! a 8.Y E / ` / [ / ( / h = , % . % J.,.` ,.8.] #.E #.#.] :.4XZXbX..3 * & % & w U ) #.8.8.6.#.8.%.} %.&.,.i V I 4XlXJXKXNXz.F d 4 1 1 a E ] ) 4.6.&.9.P.K.F.V i Y E R ! ) h r r 3 z ! ' ;.W s U w % & 4 Q B L s./.}.'.}.$X;X#X<X<X<X3X3X-Xl.O._ j 3 ] ( #.( ^ Y i ",
", , . t 9.E R a s Y &.F.:.bXlX;Xc.5XlXbXtX7X%X(...s 6 T.hXtXwXbXx.S Y u -XJXNXGXBXU.%.1..XKXcXrXcXbXqX+.;..XJXbXiXrXtXtX).C Y.KXGXNXeXhXMXp.1.9.-X%XtXtXtXrX4X6.A.~.ZXbXtX0X,X:.! T &..XjX1X,X%XwXO.' ( 6.-XkXC . # z E >.E ( ] a U a U E 8.U t t g %.,.' ' ( >.#.] ] a i e > % % ` ` U a U z R Y ` z z z a a z s g ` R U E z z z z h U h R h ( ( g ` a O.dXu.f   & $ @ 2 z.z.H 4 % q Y z R E z E ` E ( E #.z h 8.r p _.n + % 6.6.h W U T R a ' ! R U Y Y ! R U E %.( q z %.R T Y R ' ' ! ( x ` s R Y a Y U U ( T ] a ,.! &.6.,.,.q.7.,.>./ ` h t = ,   X { q.R E %.` ` a ] ] ` ] R ! ` ] &.E T U z ` R E ` U %.` ' [ E E ! ' %.] ` ` &.] %.R %.] Y E ] R Y ` U ) E U E ` V z.T.D p i D./ b `.w 3 ' &.0.0.5.' %.R %.] ! ` ` E %.#.R z T R ' R [ 9.' E ( Y R ( R ' E ' E ! %.' ` ( 6.%.` ] ` 6.a a 6.{ Y Y U ' ,.` ( / h t = , . & D.6.%.0.H.{ ' ! 8.R 5.T K jXGX.XS 0 @ .   o * q q W ! ( h s Q s h t % < | /.kXKXPXFX:.5 5 3 q ] 4.,.&.,.0.%.&.` %.H.9.' w.! 7.I.H.6.&.0.' U Y a s r w ) ! &.,.] i w 1 3 % % $ f w c N B A b d 9 j N V i 8 3 r U ] %.' ] ( U h ",
"> > . [ F.( U @.Y E I.X.;XvXfXA H D U.qX7X@X@Xd.C #.% n 4X,XtX#XM g W = | zXrXGXjX:.E ) $.xXGXbXcXiX}.C E < U.VXtXrXiX[.n s f Y.FXcXNXbX;X_ a @.d.wXtXtX0X;XX.E ,.$..XrXtXrXqXj E ` 0.L.zX7X7XnX_.s ( ,.K.T FXyX  = & #.Y ( ^ { ! a r U ` ] R w g r ( ' #.>.#./ %.( ' ( w e > = - ` ` U z z U g U U z x Y z T z z z R ` z U h z #.Y z g h W E Y ( Y p Y B -X*.A * u A K j.J # * = & z ` Y E Y ` U g z z R ` E a z 6.w F /.f + * 6.' h U z E ( h z ' R T R ` Y Y U E ,.a U E ( R E h ! ] w U z E E R %.z W R z { #.` h &.( #.&.,.' >.1.#.^ Y Y T e > = . - R >.R E %.! } U R ` ` ] ` ` E ` R U %.E U E ( g ! a R ` ! %.! ` 5.' ` [ ` Y %.` %.' ` 6.] U Y Y z E ,.R ( U ] h O.:XL d h ] U N `.4 % s ] ] @.%.R ' ` #.] %.' z ! ! %.' &.( E ( ` ! E ` A.` ` ( ` ( z ' E 5.R ` ` ` ! ( ` 4.` ` %.%.R e 6.%.E T ^ / Y R ` / h t > , X q E.8.E 4.K.} U ] E ` E Y n |.hXHXBXOXj.M < @ #       . . . o   % % 2 J b.>XBXPXJXPXa.4 w q r U ,.@.%.%.8.H.] ' ! ' %.J.7.A.&.&.%.P.~.!.%.z Y R E W ] ! ! ' ( E E #.] s 1 q h ! s a a r q r w a w w = 3 t w T ,.5.' ( [ ] E ( U ",
"> ,   R J.h z U h 6.I.g.rXrX/.1 s 6 7 ..zXeX|.D 4 a } u ..3XV.O.C a i w p O.dX%X).F h ( p | _.hXnX$Xm u U n S f.hXAX1XF f s b n .X0X6X;Xi.p t r S d.NX0XtXO.' _ ,.z C :X1XZXh.s Q #.E %.~.lX%X1Xc U Z ,.>.t Q.gXD o 3 r ( Y 6.( R E q & s w r 3 h 3 ` #.,.` ( <.&.6.Y h g y > % e ,.` U U U R g U Y z h z g E E U Y a W U a z Y z z U z Y h s U ] Y i ] & Q I.s.+.J j.T.v f & * 7.q & R E Y ` ` E ] U z R R ] ` r z 1.r D Y.. + q 6.U w ] Y E U Y Y ' ] a R %.%.E z %.R a ( R E ' 4.Y 0.R T a s R ( ' ! ( E z y ' %.h ,.,.1.<.>.>.<.,.<.( T x V i = , . - ^ #.g 4.E ' E R ] U z U R R ! ` %.R ' R T R ! ` ' s R ` %.Y ! U ` 4.4.6.%.` ` 8.` ' w.6.%.( ! Y Y U R U ! @.i g.'.L 8 a ( s b '.u % s ' &.` E ] #.' ` ' ` %.' a R R ( %.` ( E E R Y ` E ' E R ' %.%.! ` E ] [ ! ` ] %.[ ( ' ! R ] ! ' w 4.' T x Y ,./ R T Y g > > = . % D.D.0.,.9.7.( R %.a E R N [.%XtXhXZXgX4X<Xz.J 7 0 c c M 7 < K y.M.$XhXBXLXPXPXLXwXH 4 z e U ` ,.` ,.,.,.] ,.%.! %.E 5.] E &.5.0.4.9.K.6.6.P.!.6.%.Y 3 k a U z V ' E E @ a i z a Y z Y Y E ! %.,.%.,.E E U ^ [ ] [ ' #.( ( T h ",
", ,   #.J.a r W ' H.=.;XtXeX~ 1 =.! s b t.4Xh.w s U a V Q z.}.7 1 U ,.h ! d k.}.v u u g !  .J 4XeXa.w w ! [ b D l.qXl.< 3 s ! Q A :X[.l.u q = 3 s ~ }.%X}.p E ' $.T 4 -.gX|.$ r ] ` _ @.L }.;Xl.i / @.' 1.g h 9X-X3 % 3 U E Y [ E U E h Y z a 3 h r ^ ( 6.' #.D.&.] E U t = > % q 6.( g z U E E h Y R a ` a a Y ( s U R ] z h a Y U h U h R R Y U ( ] ] s r ) U.Y.Y.H Y.b f $ . z e o O a Y } ( z ] U U Y E ( ] } w a R # +.g.@   y D.T E E ! R Y R ' ' E s a ' E ( E E z U ] %.z z E ` ] ( ' z R ( ! R ` #.' z ` ` a @.6.&.>.1.,.6.1.,.,.>.x g g > , . , x ' h x %.` ` ! %.` %.z a ( #.' E ' E ! U R Y Y ` ( h R %.Y ` [ ` E @.%.` ` 4.6.%.` ` [ 8.' &.%.R U E U *.!  .<Xa.d i r T N ].p & @.E R ( ` ' ` 6.( ' ` R 9.R Y ` %.` E T R ( ] ! ` @.( 0.' ` z %.] ( ! %.' @.R ' Y E %.] E %.' ' %.( a ,.] ( ' R ` / h Z h g > > , X % 8.A.] 0.5.%.6.R #.U Y R ! s.lX9XgX#Xa.+.J l.3X>X|.{.#X#X#X|.,X0X<XM.z.<XJXLXGXJX(.p 1 z R ` ` 6.%.` 4.7.z Y ( 6.R ' ] 4.%.' ' 8.0.' ' 5.' %.7.9.P.E.L.K.A.E Y r a U ! &.F.&.%.#.Y ` ` R ! ! } ( U Y ( ( ] ( H.` %.#.#.] / T g ",
"> %   E A.z h ! 8.L.+.wXhX/.w # H.7.&.C H ..N q s ] a 9.s n ~ 4 3 [ ' s 6.U H H 1 3 #.Y Y ( F t.}.A 1 [ ^ @.L.N B /.n 1 U 6.r 0.p +./.D % w 9.t ! Z O.}.i.r ! ` s U W S Y.S # r ! ) ] Y b G `.B 4 @.s W ' ( = /.@X3.# t 3 ( T ' ! Y ! U #.a h % h E ' ( ( [ ' ,.,.#.! U z > = % & %.#.z U s U E ( R ! a R ( h a E Y U a Y z z U h z U U W Y i z U E i g %.# h ( X.U.@.=.T d 4 %     o . . % w 1 z U U U Y R E ( ! R r Y E % t. .. o s 6.! R z R R T E E ] U U U ' R ' E ] Y z U ] z h R ( W ` Y s E ` E R ] 6.E ( E a E A.#.#.,.#.,.A.7.q.7.( V g > , . - x R x ` 8.` ` ' 5.E 5.E ` E ` ` R R ' E ( Y ! Y ' E %.` ' ] E ` ` ` ` ] ` ' ` ' [ %.` ` E %.' E ` ` g 0.s ~ 2Xl.;Xp w 3 ~ '.a > s J.A.4.` ` ` #.7.` ` ] %.! E R E ( ` %.E ` %.U R R %.R E ` %.` E 6.%.` ] [ ] ] ' ` ` ] ' %.%.#.R ] E g 6.^ / ' 7.' ,.` R V g > : , . % 8.P.' ' &.( 6.E R E h h 0.p X.g.g.+.6 1 1 8 s L +XHXAXLXSXZX>Xt.F A S J (.VXHXdXD = % 6.%.%.] ' 9.^ ( F.( ] ` %.' ' %.w.%.8.[ H.4.%.4.6.%.%.6.0.] 6.%.' 4.A.A.` #.' %.4.%.%.' %.[ %.' ` 6.4.] 9.%.,.%.>.>.' ,.#.] >.' %.^ U h ",
", % . ` 6.h a #.8.Q ;XbXwXX.& a ! U 6.' & 4 & r ' s i U 8.i n 1 ;.&.Y z T E a 6 1 z ' E a 6.a c _ 4 i ' E a 1.E u ~ 1 % %.E Y k 0.6 X.4 q W &.E U *.b | d r ,.a .   E 4 b & = D.0.6.a z W d ~ 1 g 8.D.6.%.%.r B <XG.3 3 > T / [ U E ( z ` a Y U ( g ( ' ] ( >.,.,.#.' U a q = O > &.( Y E z E U E a ! U U ] U a ( U s U h h E h a a z a g a q z h ( z a #.3 w r E ~.&.U z Q n d d * # @     o % t ( E Y U E ` ' } ! g q ' a w W.n o * %.7.U R U x Y E U ! E U U z ! R h T E ! E ! Y E z U Y E R z z h Y z R ! ` ] ( a a A.' >.' ] ( >.' >.<.( T t e >   e R E g U Y ! 6.R W E &.` R ` Y Y E ! Y ( R ` Y U Y ( %.` ! ' Y ` ( ( R 4.#.' ] ! ] %.E E ` ' ] ' E E >.3 ~ |.c.6X/.8 i S _.% & s #.&.0.` 0.%.] ` ( ' ` ! ' ] ` ' R ( %.' ' %.&.R &.( &.] 4.] ' Y ! ` ` &.E ' R ` ' [ ` 8.' %.[ ! z ! ( g 5.R / Y ,.,.` ' ' Y t e > > . % 0.7.E [ 7.,.6.! z R ( Y U ] Z V p 3 w W E E ;.5 L qX0XcXcXtXp.d w a a i b F L c 2 @ t H.A.%.6.,.D.,.>.#.,.] ` 9.6.%.A.%.K.0.%.%.` ' [ 4.%.] ` ` U 5.] %.] ` E %.R ` ` ' ' %.E ` E 6.,.%.4.` ` ] ,.,.,.` ' ' ,.,.Y ` ' ' ' E g ",
"> ,   r 5.k z %.S.=.tXrX}.w % ' U h a ,.U 3 3 U U a U a ( #.1 w ! R Y U s 4.` f a ) ) U h h 0.d i 1 Y E E ( a A.w 6 q r ! Y Y t Y U 6 3 y ( s U i R ' s & q !.9.r t %.W d & i &.0.J.1.E A.i w & ( T ( 6.A.1.V 4 h.2.( X g 3 >.U a %.#.R R a ( s Y U ` ` <.6.,.#.8.' ` z r e = O & ` ' a ( h U Y U h Y R E %.! R z U R h R U U z a z a a U Y Y z w Y z q a r 1 h r I.~.;.a # n ) Q 8 4 f 5 $ @ . # E Y W U Y ` Y #.' ( z q 6.1 7 Y.d   : %.%.U U Y Y R ` ' R z R h z E E Y z R ! ` R ` E U Y R Y E Y U z Y T E U E E a z 9.] ` #.>.<.<.#.[ ( V g t e = X > E T t T &.] ! &.&.' E a h ! ' a E ] R %.z ' E Y z R ] [ R ' [ ' ' ( ` ` E [ ' { %.%.[ ` ` E ` %.' 6.g ..'.}.9X@Xl.T C  .; 1 U %.` 0.z %.6.%.] [ ] 8.` ` E #.{ ' E ` &.E &.' 6.` R %.%.6.] ' ` R R ` ` [ &.5.E ` ' ' ! ` E ] %.' Y ` ' i 6.g ( ' #.>.] ` ,.( z > > > . * ' 0.s ! 6.A.,.` Y E ' ( R r %.,.J.T E Y &.` @.W b x.MXNXMXT.6 & E ] ! &.d 6 1 r w l ` %.4.4.0.#.,.8.#.E.D.8.1.&.#.A.6.8.%.9.%.' ] ` ` ` ' ` %.' ` %.%.' ` %.' ] ` E ` %.' } &.' ` &.4.! ] %.' #.( ' ,.' [ #.,.,.^ ` ( T U g 4 ",
", >   g %.a ( T % Q '.fXS q y _ a a h 4 8.a q T k Y a s a ' R h Y E U U Y a 0.` a ! E U U r U &.3 i ^ h h Y ! z 6.w w U a k U s q 8.R q h T s U a q { s w x Y R ^ U a 8.a 1 E ! ( ' @.Y U 9.z z %.h T E A.,.T 1 d S.V q . . U ( U E %.%.' a a a h r E ( ( ' >.,.6.' E Y l > , X > %.R h z ` E z Y Y U Y E Y ! z R U h h h z R W a Y a r z r T U a a T Y w W & a @.' I.T s q E ' 6.%.h p w 1 & #   > z U E U U ( Y E Y #.l & 6.& F T.#   3 7.' z E z ! E Y U E ! Y h U Y %.E U z E E R E U Y h Y Y U R U h ! U E E ( a h D.U ^ T ( ' >.>.,.T / U g = =   e ( ^ i ' R %.' ' 9.4.a ] Y %.] U Y ] ` %.h U z E ( z ` ! &.` ' [ &.%.! ` ` ' ` ! %.%.] %.` %.E #.8.g ..;X+X1X;X|.k.n ! $ q a R %.E 5.%.` %.' 6.] R R E ( z ' E ( ] E [ ' ( [ ` %.E ' E ' T %.U E ` R ` &.' &.' E ' ` [ ' ` ` 8.w.R ' Y t 6.g / { #.) 1.,.( U s e > ; o X w.P.&.R ` A.0.6.R z ' %.U z w a U z R ! =.[ F.0.r N F s.J b f w &.@.r R 6.E s V ! { 8.7.' &.6.>.>.[ ] K.%.1.E %.' ` ' ' 0.H.4.4.[ %.` ` %.E &.E ' ' 4.] ' ! &.%.%.` %.` &.` ] ` ` ( 6.,.%.' ( ] ' ] ^ ` >.` ' 6.` E Y Y g a q ",
"; >   z &.h H.9.4.W i X.) U V #.] R W i a a h a a g a U s i h T W U R W E U E ] U Y Y R k T z h s a s U z z Y a s s h U a z a U a h z r U a z E z a a z i a Y g h h r a h a U ` Y R @.E s U ] a E W Y U ! ( ,.8.1.J.h D.` # r ( U h E ] ] T i t g e #./ ' >.#.q.%.,.` z r e > O & ` ` w R E ! z h U z z z U ` ' Y a U r U g E h U z U z z r a U U r Y T w %.% u R & r s h E ' 1.8.8.8.@.@.V 6 = @   a h ( Y ^ %.E E Y z Y r a ' * o.Y.@ @ h 9.T R U ' ( Y R Y ! ` U ! R ! ] E Y ^ U E ' ` ` a z U g ` U a z Y h E ' h g 7.` ^ ( <.] #.#.,.%.U a y > >   > ( ` q 8.E E ] ` 4.4.` %.] %.! h z ! U E E %.Y z ` E E ` ` ' ` ( ' ' ' ` ' 4.` ` @.4.#.%.9.6.6.&.4 Y./.;X>X>X#XB.].X.& r Y E %.R W ! ( ' ( ^ >.] ] #.U 7.6.' z ( ' ` E #.U } E E ` } ` E E ` ' ] ( E ! ' ' E [ E R &.6.&.` ] [ %.` ! ` i ,.g ] ' >.,.7.<.( ` h e , > X % ] K.^ ) Y %.] ] ` z R 0.%.( x R a z ( ^ >.%.U ` %.a u p s f e %.8.>.E U R a h ' ' 6.1.F.R ! #.%.4.R %.A.%.9.] ,.Y ] E ,.%.6.9.[ 8.%.Y ] %.} ' ' 6.5.&.[ [ #.[ ` ` ' ' } %.E ' 6.&.E 5.] ' %.` %.4.5.! ` 6.` &.&.R Y ( U h a e ",
"> >   R w.z 0.~.~.H.A.! ! k z ! h T U a s a i g a h i h a a h U E s z U T Y T ! z %.s s a s z E h a r h U ! z R U ] z ( g a U a z W E z h h a z U h h a r i a a a h z a r h a z Y U E ] #.} #.g h s E g h U a >.I.!.>.( U t Y W w T ( E ] #.3 w t t ` { #.>.>.,.%.%.[ ! y > > O ; ] ` g R a U E U h s R R E E %.' R U h z a E U a R R a ! a z a h w s R a ! k n E q t d Z #.0.6.S.8.0.%.0.) T 4 & . & r Y U R Y ' U z z z R = ( U 4 g.~ . o E ,.Y k Y ( E E U R E U U ! ( R Y ` ` E E h { Y ( ( U U h ! s ! ( h T ] g i 7.` #.) ) #.#.<.%.] ] g e > : . q E ( r R ( ,.' ' ! ' ! R ! R ! z E ,.%.` U ` ' r Y ! R Y U ( E ] } ] ] ` [ ` ` ` ] 4.w.%.0.4.> p W.].1X#X>X|. X|. .f 1 h ( ^ %.U #.R ( ) Y #.' A.#.,.T ,.,.6.%.%.Y ( ! ` ] E ! z U &.&.' ! ] 4.! 6.( ` ] %.%.0.E U %.' %.5.` ` E ' ' E g 8.T ` #.` ,.8.( / / h e = % . % #.1.' a Y ' ^ ` %.a a U ( %.^ z &.s z #.7.x ` } a &.` W a %.%.` 7.! %.6.6.%.z ! 6.8.' 6.%.8.] ] ' @.] 0.0.%.8.,.#.^ ( E #.,.,.6.6.0.%.' 6.R %.%.' ! ' #.' E ' ' ` E %.%.' ` %.%.%.` ' ] &.0.H.' 0.6.] &.' [ %.' ! R U Y h h a ",
": >   s %.a s 6..XH.!.0.a s a h ( ) T U r g i w z a a a w z a h a s h Y h s R U ` R Y s z z z z a U s z E z a E s Y U E a r r a R z R z Y x a a z Y U i a y a h a a w h 3 a r E E E ! %.W ' ] W Y s a a g U h h ' E.J.{ Y g ` E ! z U z ' 6.a q t g <.>.{ #.7.<.%.%.%.T w = , X q 6.E z #.h a s h z a z Y ` ` ` U z R h a U U R Y E a U Y a h a a x a Y U w 4.d *.* ; w u N $.%.1.#.1.S.#.<.#.U 4 - o 3 g U U Y E E h ^ a ' U 3 ) a 6 /.9 . e 6.%.Y U T ( %.E ( U Y ` R U R U U Y R U Y T z s E E ( h ` h Y R R Y ( h g { ) >.6.7.#.,.] ( / E h e > ,   e U R a a z ! ] %.' ! &.` ' ] Y E ! ` %.#.' E %.Y E h Y s T R E ` E ` ] E ' @.Y ` %.w.8.J.U u s.'.$X,X>X{.@X;Xk.n 1 q k R R ` 6.,.[ ( #.9.,.7.] 6.9.,.6.9.6.7.6.6.R ] 5.4.6.] ` &.` w.' #.#.] ' %.6.( ' %.8.&.6.] R ` ' { %.` 8.! E ] R g 8.x ' / ( <.#.` ] T x > = , . . { H.,.E g #.U ( 0.R h U U ! ] ! ! z Y U ` Y Y %.E w a R R U [ 7.0.@.' 9.0.4.( ' ' L.0.( Y [ %.' &.' &.,.8.&.8.,.) [ z ( 6.D.%.%.9.6.E %.&.E &.0.` ' ] %.%.' ` ' ] E %.%.%.E ` ! %.' 5.` #.w.%.%.] [ %.6.] R ` ] ( %.E U Y z a ",
": >   a ' z U Y x 9.8.' W a E W h ( U s h a g y r a a a a a g h Y r a Y U h Y h ` ` z ` U U s z U z a a z a a z k s s U U Y r w w a z z z z a h a h a a U h h a a r w w a R r a z T R ! U U W h E h a h i a T U U { 7.] ( Y R E U ' ] a h ' g h r h ,.1.` #.#.6.%.E %.g w = = X t 9.' r %.w a U z Y R z z ! z ! h a ( Y E z U E Y %.` z a q a E s s a a U r %.6 ].B o r w S C U h R ' =.,.E ,.%.w & @ % T E E ( R Y z h k z ` s > &.& d _.$ o 3 1.( Y R Y T R a ( ( ' ! R s %.' Y Y z z Y E U Y E ( Y Y Y R Y ! ^ #.U U [ >.>.1.,.6.,.,.8.$.' E t , ,   t ] ,.U E ] z g ] 6.( &.' ! z ` %.R E ( ] 0.' 0.U z ` R E R U h ' ( ! ' ( ( E ] D.&.1.@.w V /.}.<X0X6X>X%X<Xg.u a s U T E U ' ,.J.L.,.E U 8.1.' ,.1.%.) %.] 8.8.&.K.0.%.&.6.A.#.&.#.` 6.&.%.0.&.&.A.H.%.%.4.0.A.0.%.4.U ` ` ' 8.] E ' R x ,.T ( >.( ' ] ' ` / h t > , . # ,.L.( %.7.,.U ` ] ` ! h a %.( z r E ' z E U ( a R ! z s E %.' E 0.4.R ! ( %.%.w.6.!.E z ` E E 8.A.%.] 6.%.] ,.z w e 3 g #.7.] w.` 4.6.%.` } ' ` ' ` ] %.` ' ' ` ' %.' &.&.&.` ' &.] %.#.' %.` ' %.&.%.#.&.] %.%.( { ] ( ` ^ Y ",
", ,   E %.s R i k z %.E r a Y i i T a U U h r t r a a y y i U r a s g z h h U z Y Y z s Y a a z z a a a U R s a s a r z U R ' z a w s r h Y z z t z s a h q a a a r z r r a U r R R ! h Y s Y r h z w r a z z ! h %.( U a W h Y q h %.z Y / E z / h ,.6.>.7.5.1.%.*.E E a = = . q ,.U = ] Y z Y z Y z E z Y T [ U h a U ! s U r z h Y ] U a a U z r s h R a ! y a.f.@ e &.s V s % % % a ) h h E ( 3 . # a 6.%.U Y U E k z Y ! } w e #.$  .h.. % W 9.s R z Y ' E U ( ` Y ` E z Y Y R E U R R U h E z U z ! U ( E Y ` U Y ( ) #.>.' ' ,.,.) ' ] / t > , . g 6.D.Y z ( ( ' ! 6.&.6.Y ! ! R ] ' ' ! E R z &.^ E ] ` ` U ] z U Y ` ( ( 0.Y q s y = < Y.Y.-XeXtX,X%X0X;XL 6 w a ! ` z ( X.g w w q 1 % - = 1 % % % & o * & # q % $ % $ & 1 q & ; q 1 w 1 y w a w s s z a r w a w a %.%.` ` ` 4.' ` E ` i H.E ( ,.#.,.>.` ` ^ Y t > = X X 8.E.U ' R ' Y Y Y ` R E h E %.>.R s z Y z R ( ` E z R R ' ,.! #.] %.4.' ' E ` ' ! H.%.' ] ` E 6.%.%.@.%.E I.i 3 Y % . y D.0.1.E %.&.%.A.,.' ` %.` R ` E ` ] 6.` 8.%.' ` ' %.E ` ! ' 4.5.[ ` %.] 4.4.&.%.` ] %.%.( ` #.%.` E E ",
"> >   a @.r k h Y Y U E s a r U g ' 3 y g a r i w t i w r a h r t h a U s h U z z Y a z Y U a z Y z a U a R U s a Y r a a a s Y a r h z h a z a a r Y z z z s a a r e a w a a U a U ! U a ! U Y a a z w r 3 y g h Y E { U R ' U ,.h E E i q a h T t <.1.<.1.7.7.1.%.' E w > , # U 7.` r Y E a z Y Y a 8.U z ! E U Y U z E Y z z z ! a E U h r a U z a a a a E x L m.p . W U s #.5 % q & r @.n w ~ s.6   : k 7.7.` R ' U R U T ` E q ( U & T...  q %.%.E Y Y ^ ( R E E E Y ` Y R T R z T U E h ( E E U R Y T Y R a E Y z ( ' ` ( >.<.<.#.' ` / h g , e + x L.D.8.' R %.Y ' %.' 6.! R ! U E R E &.&.6.E R %.E h ^ E U R %.z U #.( E ^ r % 2 i s.|.[.gXhX6XeXeX4XU.f i g a i R ) ,.6.W . o @ . @ : * # . . 1 # @ @ @ @ * @ @ * * @ @ @ o . # o @ . . @ @             .   .   a ( Y ! [ ! %.E 4.! Y U 7.a ' ] >.,.,.` <.h z g y > . O J.q.a 6.^ E ( E a a ( E Y ' ] 5.R U E ` s Y E U ] U E E ' &.] E ` ` ` ' H.6.[ ,.a %.A.` s ` ! R 9.A.9.1.h E.d '.PXQ.o % H.1.%.#.6.1.,.1.A.&.#.%.] %.' [ ( E &.} ` %.' %.[ %.` ' ` ' [ %.' %.%.` 4.%.#.%.%.] ,.,.^ ( ' ] E x a ",
"% >   t ' z r R E @.a U w h ( a g T a s w i a r 3 r q w 3 3 w t r h z a z a a z z r a r Y r s z U U a a r r Y s ' & a i U a Y E s a Y U z a z s z a r a U a Y z r a r a a a a r Y Y r z z Y k Y a z 3 e r q r 4 w U h ( h r R E ] E a E ` t g g Y t ` >.1.7.7.1.' ' Y a r q > % ' J.,.r q U Y h ( U z Y ( a z a R U T U U z R z U z R a h s z ( h z U z k h r #.5 -X0 . t l 4 p.2.  w 7.R ( ' t % n t.n . % q } 8.%.U R E z Y Y E ( 3 ] a d W.w . ; 1.] h E z ^ E U a E U E ` U ` Y E Y ! Y U s E E z h Y U R ( a E h a T U ` ( ' #.>.7.>.^ / g y e > + l H.8.h R ! ' Y Y z ] 0.s z Y R E ! E R %.] ' U ( 6.z ( %.R ( Y ' g ` z i d 8 J M.|.#X7XhX#X@X1X<Xg.p 6 a r U ' U T @.%.r 1 w u u 7 B D F A Q $.U.-X4X:X'.b././.z.-X+X;XXX(.].c.T./.c./.T.c.T.l.T.l.f.k.f.k.k.K m a ` { ` ` Y ' E ` ] ` z 6.U #.#.,.,.7.` ` T z g > > o . ( 7.E E 7.E z %.U h ' R Y Y R U ! ` E a U E ! ` U Y Y ( ' a ' R ' E %.' 4.!.#.P.%.a R %.` %.E %.' 7.E [ r J.N 3XPX+X  = 7.8.9.&.%.,.0.` @.' ] &.( ` %.' ( ` ' %.4.] ! ` %.%.] ! ` %.' ! ] %.' ` ] ` ,.` %.` 6.( ( ^ ^ ( E h a ",
"> >   a ' s z u Y 6.! E T i a U W w y r i a g U U h t h a r r i q a w a z a z Y a r a r x ! z a a z w Y z s U U ' E h s a r w U Y r a U a z a h z Y R T z a U r t 1 z a q a z z s R z U z a a r U R z a a h h y h U g ( ' Y w U U ` ^ Y h h h 3 e g ' ,.,.q.,.] ,.W s a y > = > #.J.E h z a U z U Y a %.U U ' s Y z R Y z Y z Y Y h ( h U U r a U h s a a z e 0.- z.f.# q D.% v }.* . [ !.H.! %.k ; w S.t.1 . @ r 5.&.Y a Y U Y ( ' h y #.; Z f.o O r 6.( z U U R ` ` E ` E ! R R ! h ! ( R U ( R R ( a h E R E E E E s U ( E Y ` T ,.,.' / h t e y > . g 9.8.Y E ' R ,.] W ! &.! E a ( ! R ` ! E %.` ] [ ! ` h ` ` R #.U ` w $ B l.OX0XtXrX7X#X{.$X<XH 4 r a z ! %.%.E h ! > % 2 -.n B V B C C T Q Q $.0.s B H F A N c  .+.J J m A F n ..D B A S n H H H F D +.L +.i.:X'.= ' T ] ` %.6.` E E ] a ,.^ ( ( <.[ #.,.' E Y t > : X X ` 7.E ' &.` ` ( ` z g E ' ` E U a R ] %.U R E Y U h w z R ( z Y Y ` E ` ,.%.9.6.%.R ! ! [ z ] %.R P.%.` j L.9 <XZX2X  q S.0.] 6.&.#.,.] %.A.%.&.&.w.] ' ! %.6.] 8.%.] [ ] E [ [ ] Y &.] ] ' ' ' %.&.w.` E ' 4.,.{ ` ( ( R a e ",
"= ,   a { k Y s E ( ( ( R ! Y h U E Y E ( T h W h ( ( ( %.6.U g w q a U a h a E R U s z T E z %.a h a z s r z ( %.z h a a U a ! s R s s s z Y R R z s z s a h W a a a i 3 r a r Y t U } U ;.s U z a a a a z Y r r z z ` R q r R a E E U U a z h g g ' ,.] q.' ( ) E E g = q = O ( ,.' Y U U z E Y a a ( ! U z R h h z ( a U U h U Y E E U z U h a U U h r r 3 ! ( A <X1 $ &.' 5 k.D . ; A.I.A.] H.6.1 1 D Y.C . X % T 8.] Y a U ` ! Y r k @.% +.U.. % U ,.U U ^ ( R ' E E ( ( ' ' E ` z x ! R U Y ' W ` ! R Y Y E ! R h ( ] ( <.#.( ] >.#./ g e > , , X t 8.4.Y ' R ] ` ' E ` %.R ] h ( a Y ,.U 9.] ` ] ` ( ` ( Y z ! #.3 & P z.9XAXbXtX@XV.$XeX$X:.4 4 h ! %.&.&.] ] 6.z 3 f J t.G.1.=.2. .] V W Q s r 3 & % $ & % & % 1 * % % 1 & # @ @ @ o % % % % $ & $ 1 = % % 1 c G.3 ( ^ %.` E %.( ! ] %.i 9.( ( ' ( ( ` #.#.Y h e > , X . x >.` R { ` E ] E %.E R %.' [ 0.R z ` E %.a ` U 4.Y R ! ` ` R Y h ( ( U 6.%.` ] ' ' %.' E ` ` %.a 8.6.6.a E.b +XbXc.% % 1.1.,.#.#.' 6.&.` &.%.%.5.%.&.%.A.&.[ 8.E %.` %.` [ %.` [ %.%.` ' &.[ ` #.%.w.&.%.] 5.%.( ' ( ] ( U y ",
"= , . e ' z U s T ' W T Y U h r W ( ( z r & # .   . @ o o r { ,.] w 3 z Y h a a h U s U U ! U a ( T y w U a U U ( z E U r a a Y s a Y E s Y U R ! ! Y ! r a T s Y a z E ! Y [ %.` ` %.R } i a s r s z a z R U r s r z z ( E U %.( ( ! R z Y z w g Y >.#.,.6.( ( E Y V g y 3 = X z 6.z Y z Y h U R z q ' z z Y Y w E z U ` z U T U z R U Y h h z z U U z r g r e 8.< '.2 + l H.& O./.@   [ [ } Y W E A.a o 4 g.=.f . . & ' H.` R E R U U r ] U $ Y.V   % 7.>.U Y ( ' R E ( h U %.z &.z E R R R U Y ' R Y E z z ! R ( E h h ' ( ,.#.{ ] #./ / / g t - ,   e 4.[ U @.` ` Y [ E ` ,.6.%.] &.' Y ,.E 6.%.{ E ' #.Y Y #.z = < l.1XZXvXcX0XOX{.$X@Xf.B - - i / 0.( ` %.! %.0.a f n @.~..XxXQ.0.L.$.E Q @.Z E 4 3 h #.7.@.! ' &.` ` ' ( E ! 4.0.w.' 4.` %.@.*.} ) ] Y R ! z Y f Z q ( ( ` ' [ 4.%.h ' &.z <.( ( <.' ( >.' <.' Y e e , X o } 5.[ ] ' ` E ` ( U z ! E ' ` ' ] ! z R %.%.Y ( U ` U U ' ' Y E Y Y E ' ,.z %.` &.[ ] [ ` ' 4.z U ` #.[ z ~.b $XhXa.@ = 6.A.,.6.&.4.6.@.@.4.0.] ` &.4.4.` ' ' %.%.&.4.` ' ` ! ' ` [ ,.' ` 0.%.' ] %.] %.] %.%.D.#.' ,.#.) W g ",
"% ,   t %.s a 1 a h ) ( T h W a h E h 1 & # # = q X   . o . % = ^ q.U y a z z U a z a z E a T U R T Y a Y a z r a Y q U U U h U E T Y ( U h T U U E Y U U 1 w.0.8.[ V Y z z a Y k W ! 4.^.E.6.6.a ( R h U z U R a a a z R ! ` ` 4.' ' s z E #.z q V >.6.,.,.^ ` ( ( U g e = = X #.H.z h a z Y Y E U U ( U h Y T a Y a a Y R R a a z z U z h U R h h a U h a g r <.3 f.F . r D.e c }.A o a 4.R Y ` U w E 6.& 1 D h.S . . % e ` 8.` U Y z ! q #.> b `.@   y q.( E T ` ` R R U E ] ' { ( z E ! E Y Y ` R Y U U Y ( T E ( a z ` E E 7.6.<.#.] / R g = - -   t 6.,.U E E %.' ` ` Y ' ( U E ` ` R ` Y 4.] ' T ! #.' z r d =./.6X@X#X7X9X[.z.i.F d w i i t U ] ,.#.6.] 6.! w & d *.!.^.I.6.H.A.F.J.D.,.@.( s & 3 i U 1.4.] 6.6.@.( ! %.( ] ( &.E E E z ` Y ' ' E ` 1.#.#.E P.1 Z = ' ' #.T 4.] ' E 6.6.g 6.( $.' ,./ <.{ / / Y e - , X O ^ q.^ %.' %.! z E %.U R E ` E U ' 6.R a T &.U ( Y ( R Y ` ' ' ( %.^ U #.9.` %.` ,.%.' %.[ ` ! ' #.%.%.&.a E.n 4XLX(.& % 8.6.,.#.' 9.9.8.%.4.,.A.%.[ 0.w.%.%.! ` 4.%.%.%.[ %.&.` &.%.#.' E ] ` %.' ' ` %.%.%.0.%.] @.%.%.` U i ",
"% >   t { R s R r g ) W h a V T E & # $ 1 3 a q q q & s 3 # . X   x H.U a a a U h a a a z r h R R #.g a z a r s a U E h ! ! R a T R Y T a z z z U Y E R ( z ' @.W E w & & # & 1 > > & % % q k D.9.A.E h z h U z s E ! E ( ( ,.z 6.4.R T ! z U a g h ` ,.<.[ #.#.^ U g h t , = O ` A.R h a a z U z h z Y U E a z U z ` U U z z ] Y U z Y z h a a U a a a h h k r ` s i.p.. % ' E 1 O.].@ : 7.} U U ! R q E 9.W e 1 s.=.i . o @ i #.7.#.^ x y a %.&  .Y.@ X U 7.x E E ( ] Y z U E E E ` E R E ! U T Y U ] h U U R Y R R r a ( ` Y / #.,.>.' ` g e , , ,   t 8.5.U E 5.R E ( %.U R U ' E R R %.E E ( ' %.E E h w p Y.0XZXhX1XwX:Xs.c N j B i s W ( <.h ( 8.@.( T w a 1 w Q F.L.F.F.=.J.L.S.I.I.S.S.$.7.q # 3 3 4 w r q s w 3 & & q . % o e : * & @ q w u i z r a Y a w ( 3 Q % E ( ,.` ` &.6.E R ] a %.E ] ( ( >.>.7.' Y Y e , , O . ^ ^.U E 8.4.R E R ! ' a R ! &.U E 4.] E ' ] h %.R ! ' E E &.' U E ] #.` 4.R #.' %.E ] ] 6.] ! R z ` ] ( U I.n ;XIX}.1 3 0.6.#.K.' %.0.#.] ,.#.%.&.' 6.&.5.' ( ' [ %.%.%.0.` E ' ' %.&.` ` [ ` ` ` [ ' &.&.5.7.' %.' %.' ! U r ",
"% ;   t 4.0.U a a 3 E E 8.@.E a # 2 u s u T r s ( s q Y G.V #       t D.r a z a a a z a h h z ! E z z U a R Y E r w Y a U ` U h U U W U s s R s z z %.] 0.} s a w * @   # # * $ * .     . X o $ q z 8.P.] a s ! T R E ] ' E %.r E Y ! Y z E R U / x ' >.,.>.>.6.%.] U a 3 = % X ` 9.! a a h a Y h a R E U ! ` E z z Y %.y a Y a %.y r ! U U z r a a h U U a a e Y x F T.. * W D.@ A ).6 . ! 6.} E Y U s ' W a W ! & 6 -.G.f   # % r 4.K.] R a R } & s.| + : ` %.Y z ` E %.U z E ` E ! E Y E %.U E ( a ( U ` h ( ( ] R U U E z E ^ R >.,.#.( h l = , , . t 7.7.x ! Y ! &.Y ` ] E r g E ^ #.' E E E ( h q 3 5 i.}.eX;XW.f.O._ 4 5 r z ( ] ! s z R E h h ' ,.( a e & ~ I.xX!.A.=.$.K.!.F.J.F.!.E.H.,.1.T w - $ . @ $ . o X O .       .   .   .     . O @ @ # @ @ #   % % $ W # U E E R ! %.A.` R E i A.R ( ] >.>.,.<.#.' R t - , X   x P.R a ' ` ` ' Y E ] R z 9.` ( R ` ' U R ` ! R E E #.R s E ' ' [ ' ,.] ' ( ( 6.%.z T #.! E E ' #.` 6.' U K.B #XAX|.5 % %.6.&.,.' U ' q.#.,.>.' ' ' %.,.9.' E &.] ' Y %.6.%.! ' %.%.%.E ` %.` ` 4.` ' 0.6.6.%.' ` ` ` T Y s w ",
", ;   z 6.z %.] T U ( ) ] h w i w W Q p U U # a ' s r s k U w % .   . [ ` i s Y h & U T w ` R E T Y ( z E a R E ` w z W Y E ' U ! ! W U R Y ! W ] U %.@.s 3 $ u A +.-.l.T.O.| ..s.s.Y.+.~ u w . . % o z A.&.z l R R R E E ' ` %.@.@.! ' E z ] a ^ ` ' ` >.1.q.,.1.,.^ h e - % X 7.,.g h U R r ` z h Y s R a z E z z a %.T a h z %.r z h ' a z h a z g i s E a a a [ 3 }.2 @ l 6.! 3 d...  q 0.z E U Y Y A.w *   ; W E & u Y...w   % & U D.8.` = @.r d '.7 + u ] ` w Y #.' Y E ( a R ' ' E z ! h ` ` Y ^ z Y z R U %.( s g ( E E T h / >.] ` Z t - , > . e 9.D.V E R %.E ] ! ` 0.a r h ^ E h z 3 % . & 1 Q X.2.D F | F c 4 3 h ,.' h q T ' U ( ` D.( Y ( <.( V +.]..XxXJ.0.H.D.L.E.E.9.2.9.I.F.,.9.8.( +.:.d.f.h.g.g.g.g.g.G.g.l.g.l.h.g.d.i.:.:.+.+. .+.L o.D _  .S +.d.T = ( ' ( ( z ' P.[ ( E i %.' ( ( ( ,.] <.1.` T t e = O . { 7.#.R ,.' %.%.E %.' %.r Y %.` ( R %.` Y E z ` %.x E ] &.z E ( ( >.%.` >.U #.R 0.%.E 6.R ' ] R ( %.E &.a S.n -XCX<X5 . %.&.A.6.1.U ) ] ` ,.,.5.,.%.] %.&.9.4.{ &.%.! ` 6.5.0.#.E %.&.[ ' ] ` %.` ` %.&.6.H.E %.` ] ' E ( E a ",
": >   ' J.E z E T U h %.3 w ' $.d ! 8.) r 1 @ 1 a q s z r 1 s w 3 .   % 8.U a z U a a T T a R E Y R E a R ! U Y U ` z U R z R ! U U a ! i r E U 6.` q % 2 O.c.d.H S f 1 * 1 < y 1 & 4 b D H t.g.C .   + & ! H.z z U z #.s ( ` ] T T R U E a 6.U g V ` ^ #.) <.5.6.,.( g e = % = #.D.T y a w q Y R R Y E U ' r z h Y h E g T r Y 6.a Y g ( h h z a h U a a s z U a A.= /.+.. U %.0.% O.z.@   &.! W W R &.#.p e.v @ b & u u w Z g.G.$ . # a ( D.&.q %.& A _.% % q 6.' a U ( Y ] ` ` %.a %.R E ` R ( ` E T U W E Y E E ] h z ` z ` ' [ ` ` 1.( h e = , , . e 4.,.g R ( E ` ' T a h Y w % % % % & ; = > 3 = r e $ e & % j E Y U a R g U ( h T ' ( ` ( ' U 1.$.+.T.;XQ.H.I.J.A.E.R.K.I.I.&.0.@.( #.w 0.E p D d.p.i.i.i.O.p.:.+.i.d.d.i.:.i.l.g.l.f.k.W.f._.T.l.c.]./.c.W.].g.N w z %.R 4.Y a 0.] ,.( s ,.z E >.>.<.^ >.,.` R t > , %   a 5.! ] U %.E ' ] U ] ! %.z ` %.0.%.%.4.( ' R &.Y ` U ! %.] U T ' ' ' >.<.#.,.( ( &.] T s Y #.' %.( 7.#.T J.n }.wX$X5 . H.%.,.,.8.( E ' 6.%.9.H.%.&.%.] ,.4.,.8.` 6.U ` &.J.H.&.! ` R E %.4.! %.` E ] 0.4.8.[ W E ` ! ' E E a ",
": > . E H.R ' U U h Q g @.~.L.#.W Z 2.@.,.] % % & Y ` R @.a w &.r .     R 5.z E U W h E ' U @.` Y E r z h R z U E Y ! s s W U s Y ! ' E U z Y A.R $ 8 t.}.a.b 3 * 3 q q u w d u d w r q q & d d s.l.A $ .   e ' z a E ` >.! r ] z Y T ' ( E U U g h ( ` ` ` ` [ %.6.' a q = % = 6.A.Y z U E T s E h R z E ` z ' U q 4.a h Y z Y ( ] T a z U e U U y h Y a h a U t %.U G ].  . s 8.1 D ;X5 o ` w.T E a A.U D }.d.z.r.o o 4.X.w $ F Y.S %   # r @.%.R &.$ P s.. % a [ ! R E Y s R E ! ' ] ` E R ^ E 8.z ( ( h R R ( E ' Y T R E U ` 5.' >./ T / g > = , . g K.8.[ U %.U U h R T E q . . q % % & q = q t V g T #.Y W ^ ( z h W W ' ( U U { U ` E ] h ^ U P.W v i.D | W ) W ) } } W ` S.&.r 3 3 3 r r q w = - 3 3 r 3 1 < % - & 4 q 3 4 q w 3 5 u 6 j 6 p U j p @.n Z D N V & s R E 8.Y #.E ( U ' E a ] R %.^ / >.#.^ >.' / g > > %   t >.E ' k R ] ' R ( [ E %.R ` E ] #.Y Y ] E %.] R ' z ' ! R 8.` #.#.( ] 5.T ,.#.' %.E ' &.a U ,.,.Y ' ] U I.c ).eX{.4 . 4.6.8.] A.L.,.( 9.6.9.P.A.[ 8.4.] 0.( 5.&.&.] z { 7.7.4.` ,.%.` ] %.' 4.] %.Y ` [ 8.6.] ` 4.&.] T U y ",
", >   E ,.R W U a E ) s F.R.R.9.U D.) W %.z = # y ( s 3 a 6.& 1 T q .   w H.h h R W z W R z z ! U #.z U z U z a z a z a z a a U ! E %.%.R 1.$.a $ l.].+.4 # & = u Y h Y i a q - z q a %.9.%.w $ 1 d | Y.b .   & 7.[ l U ,.,.T a ( w R U [ E #.y 3 U ^ ] ' ,.<.` @.] #.g 4 = , - 9.9.( E a z U z U R a z Y ! ` ` a R R #.E a %.a h E E U a z h a U z U z z z z l k g 8.8 T.f + # z w 5 ].p.. g ,.Y ' a I.d L fXd.fX).8 . a ] 4.E # % S G.=.. o & s s &.t $ Y.=.. # ( >.U r Y Y ' ! U E &.4.R U Y s ' U ` R E R E E Y E a U ` ^ ( ` #.( ( ] T Y t , % , . y D.,.E E 0.( %.! E %.] U # q g a R E W ( ! ' &.U s #.U ^ ! U ( U ( Y ^ ` R T E ` ` U U Y E R 9.` w 1 ; f f & > r a W ! s %.3 w 6.U ! k w #.` a q a %.0.A.9.8.4.0.D.0.8.6.D.6.6.' @.` %.E ' ' W h s r r w w w & 3 r %.R 4.E %.E z z ( ! h 6.Y E ' ' E %.<.^ #.R x q > ,   ^ q.^ g U z ^ ] 4.` R E #.E R ' %.#.R ` %.R 8.E R Y Y E &.E E %.5.9.E.,.8.` ,.>.K.( ] ' ` ( U #.T ! ,.%.U K.N }.cX>X7   %.w.#.' %.F.0.&.6.6.&.#.,.,.6.#.1.' ' r 4.` ! z %.8.` E ` %.%.,.6.%.` ' ` %.%.&.E ' ` ' ` ] %.E E z r ",
", = . R 8.Y Y U y 0.W s 1.F.U.!.E D.8.#.g 3 $ r ( h W h h U &.* ! a *   & 0.h z h a U z U s s U s Y V a z ! r z ! Y h s h z s h s E W W U 6.$ B c.x.4 % % q w h Y w i a ! E U Y ' W w q 1 z 6.%.R & q n g.O.o   > 4.z z ` ,.[ Y ` } a z Y ( D.a = h ^ ] ` >.<.' ( ' V g y = % e ,.9.h ^ z a z U a R ( T ! ' R ' ] z U w U h E z z z h z U U U z h g z z a g g t h 3 0.- +.k.2 @ @ W # K ].X = 1.E %.k 0.u a.-X..O.4X... r %.q R %.a 3 f X.Y.n o X q s P.q 4 W.b @ > 5.( Y %.Y R ` ` s R &.` E z Y Y Y U z ( ' ( ` ( ` a z E ( ] 7.<.>.( ] ^ Y t q - % . = 7.%.U E ,.6.R ` ] K.%.a k h I.H.( ( U E @.) &.#.Y Y E R ( ( ] E R T ( R %.a R R ^ ` ` U R U R E.%.' a Y W } 6.6.E ' r w w k 6.) ' } Y ) &.a % q a 3 3 a a i y a r a r w a r a Y s a U ;.E %.! } &.] &.A.%.4.0.w.K.] a ` %.` ] ` ( E R a %.U R ` ( ) ' ] ' ] / g e , - X x E.{ ^ ` ` h E %.%.' U %.%.%.( ` ( 4.%.` ! %.' &.U Y ` ` ! a R ! h h ] D.D.!.9.J.9.' h E E Y T &.4.&.,.R L.d /.0X6XA o ' 1.0.&.&.&.&.%.8.K.F.8.F.! W T % % 1 o q ' ,.R [ %.&.E ' ] &.4.%.&.! ! &.%.' %.] ' ' ' E Y ^ ( Y Y h ",
": > . U ,.Y T W a ( &.q 1.S.F.,.F.L.1.3 = a a y g a i a a q ( g w U e @ . %.Y T U s W z T R Y h U k U z E z s Y E z z a w a z z ` R z s 6.a n +Xd.f @ i s Y q U Y k E Y ( ( U T h E Y E z a q w z 6.Y 1 6 +.g.@ . x 0.' ] ,.U h s ' s U Y Y ,.g = x Y E ` ' #.[ ] ( U t q > , % ` 9.Y Y Y a r U a h ` R ' a E E %.' U U a E Y E z U a z h h h a z g z h z g z a W r #.5 H }.J J @ @ w 2 :X$ = 8.4.R E E 5 +XL q = ..`.$ o ` ` w a ! &.s & d X.Y.& .   q ] & B ].*   t 4.a ` R R E 4.z ] %.` ' Y R Y U a U ` Y R ` ` ' a Y ! E ( ( ' ` #.` Y h t e , %   q >.' E ` ] 6.' ` R 5.%.T U E %.#.` ` ` ' ` ` ' ( h U R U ` R ` %.R E ( #.! ` R ' ! ! ( E ' ` ` R W %.' ' Y E Y A.&.%.%.0.6.! a a W E R a & . @ ! ` ] ( ! %.[ ` ' [ E &.^ R ' ( R ` E ^ E ' %.U s s Y Y E #.%.! ! E &.' E 6.%.&.R ' 6.Y h 7.E ` ` ` ' { #.' / x l - > ,   x H.{ h Y [ z E [ ` ! ` ' 4.%.%.] U @.` %.E R ' ` ` ` E E ` } %.s o o * q y j ( %.D.A.8.` Y ( R %.6.%.0.a 7.w x.V.,Xt.. [ 8.0.6.) 9.9.&.6.A.F.D.T w 1 % * $ 2 . # 5.] ( z ] ` %.` ' ' ' %.%.R ` %.7.w.6.%.E ] 4.a U R R E h a ",
", , o x %.h U a g i U r r / F.!.F.I.r . t #.t z g g U U z z g E 3 1.b # . U 9.h U h E s Y ! z h ( E a Y ^ U h z R R z a w a z h a V U %.s 4 /.L z % r h W a r w a W Y z h i W h U E U z z U a Y r & 4.' & 8 =...  . 4.` ' ( ,.h Y W s z U E ' h 3 Y ( ' / ' ] <.,.] h r q = - & ] P.E h ( R Y ` z z s E Y E U z Y ` ' ! h a z z U E z Y h h U z a h z U U h g a z i ( s J I.0.|.(.X.d p. X6 + [ K.&.9.W c ].9 e g 8 ].9 X l H.z } w a &.@.w u u G.X.o   & } f ..T.$ . R @.' ' a t R E E ' ( E U z Y E s z E Y z ! ] E U U ( ( R / ` #.` ( R U t q , , . > 7.] z ( ` 4.7.@.' ' E E R ) ,.( T Y Y R %.z E &.' U ` E ( T U ( ` E ^ U ! ` ` ( E Y Y U U ! ` ' U E @.E ` E R } *.] &.&.&.0.8.6.&.R x w # . h ' ` ! ` ( ! E %.' 0.R ` ` ' ` #.Y T ] ! ` &.( ' %.E } ' r w q ` 4.%.R z E ( %.' ,.( } z r %.` &.' #.#.1.#.` / R g e , -   e K.{ Y z ` ( E ` ` %.! %.! %.%.[ %.R ' E 0.] z ` R ` 8.[ ` U ! n u @ +   X X # # 3 h z E &.,.6.%.%.%.%.T #.5 ;X@XOXa.. %.E @.&.&.0.0.6.) U g e $ p h Z T.).;Xs.. E ! E U &.4.%.} ` ] ` 6.%.%.` E [ 8.4.0.! R [ z a a a r a a ",
"% > . g { h h h s a w R x i ( E.~.xXk . R 8.w U z h h a h h 3 D.$ 8 _.W . 1 ,.h s Y ( T Y U T ' R Y a s U U U ] g a h h a a T U ` U Y ' p -XY.& = a 6.' Y #.z R R z Y h a a U z U ' a h h Y Y a E U w g ,.% d W.<   g ,.^ ,.( ( U a a R h Y #.a e g ( ^ ( ' ' >.>.#.( g r - , % ` 7.! z ` ' Y ! U E U z ] h ' z s a h R U z z U z a R U U z h R z z h U a U a g z a ` V +.) #.Q n +.Q 4X%XN   . q ' J.b i.l.5 % 9.$ a.... q 9.x @.U Y w a ' 1.q 2 ..T.<   : s A d.O.. > ! #.%.R E E ` R ! E R U E ! T z z Y ! h Y ] U e R R E Y ^ ` ( >.Y / x e > > > o > 8.6.^ ' R ` H.8.%.0.%.( z E ' ` ' ` ( h U ' R ` ` ` E E ' ( ` ` R %.! U R E ' E Y R Y ` E R Y R R U R E E E [ Y ! &.6.( Y @.` ^..X~.~.~.^ a z ( ( %.` E ` Y R ' ` %.] U ` w.( Y E Y ( E 4.E %.! ] #.r 3 3 k r z &.( E 7.E E 4.4.` 6.U h 9.Y [ >.' >.6.<.` Y / x e > ,   t H.#.` U Y ( %.U ` ` ' ] %.&.] 6.R 6.z ` 4.` ] 0.` E ` ! E ( ^ _.<X:XY.6 # .   . @ X # % % w s ' 6.A.w.8.i P GXNX@XK @ 6.A.6.,.@.D.R y q 3 4 N 3.4XfX}.[.T.+.9 X { ' #.%.E 4.%.` Y R ` ` %.4.E E E %.9.H.' ' ( h Y Y E V t q ",
", = X t ( U a g r z k a e %.! h T { ,.  = 8.! a h t g g h U a 7.i & k l   = H.R a W E Y U T s z E E z s U Y Y R E ( E a R z a = T a =.R L ].$ % = > z E a Y r a s g r h Y E y a h ! R z a z h z R E ,.r a ] & H W.. % 6.T >.( x E ( z Y U Y %.z e h Y ' ( ( ] ( / Y ( h e , % q [ %.z a Y E U E z ] z R ( a z &.q a h ( U a s U z h U z z U z z Y a z z a z z U l a %.g U D.@.q & & B ..4Xz.<     # 3 S (.P @ 3 ' t S g..   >.' R @.Y } x r s &.z % t.}.J $ 7 -.n _.f $ a &.! z R U ' ! ` %.R U R R ` Y U T R R R ! ` Y ! ! R ` ` ` #.' ] Y ` g = > = + > 7.6.R ( U R ` ` ' ' &.( &.( ,.' E U ( %.z ` E ` %.E E U ` U ' R E ( ] ` E E ] #.R R W ` U ' E Y T T T ' #.Y } #.R ! 4.%.` ] R 4.7.P.K.!.^.R U ^ E #.,.( E ' E ' %.' &.%.U [ 6.` z ! ' %.E [ [ &.! 3 e & * % o % $ a ] E 8.E %.7.%.` R g 6.^ R ( T ^ <.] ,.#./ x t , ,   e 8.%.U z #.[ R E ( E E %.' %.] ( ' 4.' ] ` ` ! ` [ ` %.4.Y R &.4 :./.<X<X;Xz.k.P B 7 1 $   @ o >   k ' U F b.6XNXtXF   % &.A.H.U $ 4 d _ Y.yXGXJX$XW.+.A p & % V &.,.' ' 5.%.%.%.] ` U ! 5.0.%.` ` Y ` 0.5.] #.^ ` ^ E t g g ",
"- , + h #.Y r U s s g z U q y 0.q Z 2X8 . t 6.U a t i h g g h ! 0.w R R . % 8.P.( h h ! E ! W R T E h a U z a Y Y E z Y R g z z U x S.4 }.:.r % & 3 & r # & & & # q q z h s z U U E E T U ` r U U R ` E r ] a 7 W.d . E ( h ( h U Y ' h T Y 4.U t U #.( >.<.>.' ' ` / x 3 , , - 5.7.a w w Y Y U g U Y U E E z g Y r Y U Y R U a U U h h h h z z a h z z h z a U U R &.p ) #.) 3 = h u 4  .3X[.k.u o 5 z.+X- & ( g #.5 ].6 . Y ] R W U R ! @.a 3 %.i s g.kX(.j.J b | z . t z D.%.z z %.z E U ' ` E R E R Y E E z E ' ! a U %.R ! / ` ' 6.` T ( x = , ,   = 4.6.` #.' ` ! U Y ` %.E ( E %.' ` ( U [ E R U z ` E ! ^ R ! ` E ` R R ' E ` ] ` ( ` E ! ! R Y E Y E Y W ' ' Y #.` U ' %.' ` ! ' E 7.6.4.4.' E #.a R ] &.E &.` R ` ` E ( %.,.' ' R ' #.! %.E E 0.q 1 S +.1.n 1   # a ' ` ] %.Y %.8.,.] g ( ^ ^ <.<.R ` <.] ' R x t > >   , 5.%.g ` ` #.E ` ` ! R %.! 4.] %.' Y ` %.R E R %.z E %.>.[ w.%.3 9 O.i.+.l.T./.).:XwX9X$X-.5 * $ @ @ . < y.;XgX6X,Xy.@ . $ w 3 @ 8 `.MXJXMX-Xl.:.S N p 5 * w ! 6.] ) %.' ] 0.%.&.%.%.E z x ` 0.' 4.' E %.#.4.>.E ^ U Y h h w ",
"% % . z ( g g h z s i h W Y V g H.p $X:.+ . 9.a h a h z h r W g ,.1 ( a . . % Y L.%.W z R z h T ` R ] Y R E E h U a a W U Y x z U #.,.H 3X) J.7.a V V p ! =.) u % # & q Y k U z z U z Y ! R Y a z z z R Y r &.& t.O.X i L.( ] E z T a h h r %.z h ( ( ' ( ( ,.' ` Y h h = = % % w.q.Y x a a U U U U z ` z ` #.z E a h E U R h U Y Y U a Y z z U z z h a h z a U U %._ ...Xl.+.q w 0.1.3 s /.MXz.s.}.:X+XF $ a ' y 8.% l.o.. e 8.R z Y z ] E ) h r &.& n XXzXt.Y.~ U.2.# : r } 9.E r E ' ` E ' ( E ! Y U ` Y %.a U ` E a h E ` #.' ' ' ` ( Y x h > - - X e 8.,.( ' ` ' ` ] R E ` E U %.%.4.Y ` Y ] ` #.E ` U ` E ^ ( Y E E ! E ( E E ` ' ` [ ! ( R Y ' Y T Y R ! U R E ] ` [ %.%.8.A.H.` %.' [ ` ` z E E H.` ! Y %.[ E %.' ` ] U ( U %.' ' ( ( %.5.' ` 6.) B /.;Xd.i.G._.2 o E ] E E ( ` E %.&.] e ' ^ ^ ' { ,.` ' ] ' ^ h e > >   e 6.,.U ' ` ] ' ' ` ! ` ` E ' ' ! %.( ` &.[ 6.' ' h R ` ^ E R *.R t 3 4 5 4 3 V 8 5 D Y.'.4X$X|.|.t.v J b.{.kXeX0X0X@XK f 1 A a.:XjXkX+Xp.L F 6 3 1 w a a { 6.#.&.#.%.] %.` 9.] ] &.` %.&.z ` %.5.Y %.! ` ` ` E ( ( T T E U a ",
", , . R ' s U a x Y s U z z R s 1.C k.}.@ o Y Y z i a h a r h U 4.a s h V o   o 3 U J.6.' W T z E W U h Y Y E a R W w s a z U U r &.V d.2XQ ~..X.X&.) Z i s.2.@._ p w 1 @ @ w Y a r z a E U R s Y W T s %.> } w +./.# > D.^ ` ( U U h h U z 1.z r t ( ^ ,.[ / <.( ' ( h = & % % E %.r s q s z g z a U h Y h ] U ! Y r a U U s a ( Y U z a z z z a a U l z a z U U %.C l.1X`.c % Y i 6.d C $X/.i % 1 6 4 1 r ] #.z ] z 0 ].@ X ,.] s s z Y ( R E a r 4.1 ..G.U w _ Q yXQ.X w h #.0.E R E ] E ! ` U E z U R R ` U U E >.g U ` ( ,.>.{ ` ` x ' h h t > = . e q.#.z ' E z E ' [ [ ` E ! [ ` 4.&.%.[ R Y ] a R s E ' E z ` R E ` E ' ' E R ] ] &.! ! ! U E ( R E R R ] E } &.` R #.&.%.` !.` %.' 8.a h Y #.h %.` ` %.' ' ( ' 6.%.' ` [ ' ` ' ,.` ( %.,.,.#.F.Z /.wXL 2 & w H W.@ s &.^ %.` E U ` 6.[ U ,.T 6.] <.q.1.>.' ' / g q > >   > 9.D.E U ` R ` %.` R [ E ` ` R ' &.z R R 6.6.%.4.` U U ` Y ^ U E } 8.' ] E r w W z 1 s ~ A +.g.}.fXlX4XM.|.{.#X%X%XOX@X}.;X;X[.z.O.D N 4 4 % q k 6.8.9.` ' ,.@.Y ' &.%.` %.] Y ' %.4.' #.! 6.%.( ( ` ] ] ( &.' #.] %.' z U x ",
"= % + R #.U s U U z s u s s z z @.( D x.N . & = % w 3 r ! E T s 6.& q ` ! q $     o 1 4.4.E R a E W ! a z w Y z %.^ U z Y h a a k =.s /.+.6.F.R.!.F.!.!.! X.S.2.*.p Q s w % @ a ' &.#.Y 6.] 4.` ' &.9.' &.[ ! s B $X# X J.` >.,.T T z U Y s Y Y h U #.` ^ { ` >.] Y R a q % % O E %.z U s a a z h R R a W R ` E a E R a h z z z Y r U a a a z z U z z U z a z z ! V  .1XiX+.= q Y #._ b O.9XB e i s r 1 a a ( ` h y 9.& g.B X U J.! U R z h x s E w h ` 4 ..n 3 5 g N s.* q z s 9.` Y Y ! ! z E ( E ( Y R T Y U U E #.h z ( ' #.[ >.<.,.' ( U t e = = . e 6.#.Y ' ` E U ' Y #.` ` T E ^ 6.%.! A.Y 6.E %.R a ! U ! ( Y E E ` E %.%.' ( R %.%.] E ` R Y E Y R E E Y %.&.` ! ` ] 8.&.' ^.%.4.T 8.A.( z D.( %.%.%.} R E ` ! ! ` ` E ] ' E ( D.( @.( 0.%.] J.N wX).S 1 E } 5 l.p t z #.^ R %.a ' ` %.h 7.( ] { [ >.] ) ' / V g > > e . t 5.9.` ' E E ` ( E ' ` @.R ` ( ' 5.] ` a %.&.6.! ` ' } ` ' %.%.%.E E Y Y 6.z E } y r q 3 $ 1 d +.t.].;Xn.;X|.B.%XhXtX X|.(.s.S p 4 3 1 w s %.6.7.E E ] &.' D.,.] ! z ,.a E 8.` ` ( 6.E %.#.[ 9.[ ` ( ` %.E ' #.' ' R U Y z z ",
", > . a ] E Y U w U U Y s U s r ' U B a.J - & q   O q Y ! @.T & R k & l 3 r h i # . . q t 4.,.U i a ` U s r ! z ( T E U s s z a a 6.a V i ) I.8.I.I.L.E.L.) 1.$.X.#.W p 4 @ $ & i h a r U a U T i s W U s r g z c 1X7 + [ / ' Y E R W U Y E ! y U h ' ' T ( >.' ' U g r = % % > ` { x } a z r s a ! ] z E Y Y z R ! 4.E a z [ ] a U U z z a z z U U Y Y U U Y p 4.C j.bX+X7 & z Y q.h F c.+X5 - h E ^ E ! Y a z E q E t  .O.@ % D.%.z z R Y R E E h a ` z 9 W.S 1 4 3 i 1   ;.a a ` Y U ` %.Y l E R U Y Y T R U ^ R ` g h ` ] #.` ] >.>.` Y V t = , =   , 7.>.Y ( E W E E 5.E ` ( ` E ! [ D.E 9.` ] E R E z ' s ] ` ' ( U ` ( ! ' R ' [ R ( ` %.%.a %.' ( E U R Y ' ' ] E ` } %.' [ 4.%.8.4.F.6.,.' ,.( 8.5.` %.#.Y E z ` ` %.z z #.#.U #.] E E 8.@.Y 6.Z hXd.9 = a J.p p.S e U &.E ] ,.' ' ' ! t ` ` ( / ] 1.,.#.` / R h > > ,   = 8.7.U ` ` %.] ' #.` R ` E ` 0.' W ! ,.' %.x ' ` ,.R ` E 6.&.U ` 6.%.E ( 6.z U Y ;.z W } &.%.! w ~ y.<XM.Z.<XVXhXbXhXV.x.H ! a i k 3 # % r Y E ' 4.E ! ` E 4.] ` R T x ` R &.6.` ' w.' [ ' %.( z ] ` R ] ,.Y U ^ x Y U h R a ",
"> , . E ' W W R a s z z U s s s T ( w /.z.. & q     3 ' @.p i r & 7.{ k a 3 r U  . .q . o , ,.#.E z W E z R r a Y R i E Y U W ! V 0.i _ u W $.7.8.9.F.D.~.S.0.I.1.$.1.Z W 1 @ . # . % # % & * % # # % % % % . 1 F #XH o >.^ ` ( T W ] U R a A.z U U ' ' ' Y ,.' ,./ z a q % % % E w.U R U a z U a a Y E h ( ! E z a E ' U g U ` U a U Y R Y h E E E ) @.#.] ( @.! F @XvXi.5 4 ,.%.( Z P 7XP < t T r t s W ' ` a g h s } 4 T.* . z 8.^ z z Y U ( E ( U q 6.1 L l.4 X t 1 O   % U R ` Y z E R E ! h T R E Y ! U ] z Y / i h >.' ( Y ' <.,.#.` h e , % % . > >.' U ' U Y E R E ` ` 4.Y #.! ` H.%.%.' ' T E U Y ` R Y E E [ R ` %.[ ` ! E ` ( [ ' %.&.` U E ( ' ' T R E ' #.%.` E ! ' 6.!.8.9.&.0.8.F.,.,.,.,.9.%.H.9.Y E %.` 6.[ %.` ^ D.( ' ' ( 8.( ] ^ ,.D jXP 3 r &.6.p h.S q k 9.] R ` ` %.` ` h 1.( #./ ^ ' 1.1.^ / Y t e , e   = 5.D.U E ! ] U ' E ( ] %.5.%.` [ R E ,.&.} ' ` ` ] ' E E @.5.E ' %.} Y Y ,.` Y U 9.E s a s r E *.f e.(.|.|.3X9X3XbXAXdXt.i %.w . * . # @ @ a ] 4.A.4.! %.` ' %.( H.%.R E U 0.%.[ ! %.%.%.4.,.4.E s ` ` ] { #.E ` ! R h a w q ",
"% % o R &.E T E Y w a g Y W U t h _ % 5X).@ w       % #.d d & % q a q r [ w.% o w *.` w   . w 9.( U E U T h ( ] Y ! ! a ! s z h z ]  .4X .w w Y U g T E Y s Y ! ( i 4 i 4 d 3 p p 8 4 w 4 4 u u 6 d 6 6 u 4 9 O.+XhXP . ( ^ ' U Y T ' E s a ! r h T #.] >.] >.] ,.#.U g = , % % 6.7.a ( U U a a a a h Y z U R Y z ` ` R R E U ` h a a z R Y W U r 1 r w i i w t n z.:X/.4 o w 8.&.N A [.$X8 = #.%.x R R ( ,.E E U h r H.% i.+.. = 8.H.,.a ` U ' U Y #.6.U { & /.X.. % 1.r % o h z a E r ' R ( R s a U E ' R Y Y E ' E z W ] #.' >.>.7.#.#.' h g = % -   > %.%.E E R E U U E ` #.%.` %.' ` %.[ 7.&.%.&.` E ` ! R E E R ' E %.' ! %.R ! ( ` ' ] ! ! @.,.R R E ! ` R Y ` %.] ` ` ` ' E 9.,.7.#.%.4.' ' ' ` [ &.E 8.A.&.' ' ' ' &.&.#.E { ( ] ' 1.` ,.1.' @.:.eXL # x 8.q.p p.S > g 7.E E ` %.4.' [ g <.T ( ( ( ] #.#.] / / t q > >   = 4.7.x ( [ ! ` E ` ! &.%.` ` ` ' R R h ! %.` ! ( %.%.%.R ' 4.z [ ` [ R ( %.( ` E E ! E Y #.E x *.W F /.BXz.W.|.|.<XrX4X0.a s # $ & @ q @   & ( E %.A.%.4.&.' %.Y ' 4.U R z ` 6.5.E &.' ' ` ` &.6.` E ] #.8.>.` ( ^ U h a r & ",
"> : X ^ H.' U U h V g g z T T U h 8.V .X[.o & .   o % s n A # % % : t r & z 6.! & U ` E q . o a A.a z U R U E ) ! E ! Y z z r a q.8.C S $.;.R *.) S ! $.8.8.%.1.2.F.9.] V S H ..-.o.o.-.-.o.-.O.t.=.t.O.O.+.t.l.+.M N @ ` Y ( ( ! ) ' ( %.E ! U h U ` 4.] ( <.' ' ] U g > & % % %.8.E ` x R Y z U h Y h U h ! R E ( Y s @.T ! @.T Y s U W i = # % # . o . # @ 9 k.Y.&.n 1   # % i S a.0XD $ U #.E Y Y Y z ,.Y T T U r ( E 5 W.f . > ' P.,.#.%.! ' ( 1.D.) 1.# N (.& o : 4.a % s ` ' T ! z s ( E ` Y R U Y ` Y Y E %.A.z Y ( ( ] ,.<.#.,.>.Z h t > : % . e 0.` E E ` R %.E U E ` ` ] ` %.%.&.] &.5.0.] ` ' ` ,.] [ Y ! ! ' E ` ` ` #.#.#.` ( 4.[ ] R ! [ ] ' R %.T R U R ' ' ` ` E ] [ %.6.E ] A.8.5.4.` %.%.9.%.%.%.&.[ ( 5.%.%.` ` ' ' ' ` 6.#.,.%._ T s.wXS $ V 1.q.i l.Q > h H.#.] E [ E ] ] z ,.R ^ ( ' ' ' 1.[ ' x t q > >   % 6.4.` E ] E E ( R ` ' &.` 6.] ] ,.` ! %.` %.[ #.! ] &.&.' %.E %.%.( R #.' #.' z %.] E ! %.' [ P.#.A [.HX(.t.f.'.wXBXfX2.Q T Z w i u w . . # U ' ` %.A.%.w.#.] 6.5.&.#.R h ] 7.%.] R ` ' %.%.( %.' ' ] E 6.,.>.t Y T a = w = ",
": % . z A.( s h h g g U a s E W T 6.U G.6X4 a +   @ r s G.4 q     > a a h q q r 9.z 3 ` ] &   . q # r z s z R R E %.l E ! ( z i U ,.i 1 4 & & ; 3 f q w r t q = g r h - 3 4 # # X . @ # & 6 5 4 4 f 3 1 f 6 < 3 & 4 4 % ' ( ) T ' &.#.T E a ' U a Y E %.' / ] #.' ( / g = = % % [ 4.U U w z a R R z U T ( ( a E h E Y a U E U T ( h a ! T 2 & 4 d N b n b A P $XeXU.0.s.J $ @ & M ).wXl.6 y ^ R E U Y z Y ,.{ ' E h w & ,.u S R.@ . % q r z R U U &.Y Y h % a +.<XC % # z ] 4.` ` E %.R ] z E ' R Y T R Y Y T Y z ] D.a U ! E ( ) ,.,.1.>.( / g > : %   e 9.Y E ` ! E E ! ! R E %.! [ ! %.#.%.` %.6.' ( R ' Y ] [ ` E ` E %.z %.%.%.` R R E ,.%.5.' ( ` ( ! R U Y ! ` R ` E ` E %.' %.,.4.] 4.,.K.7.q.6.8.%.[ ' ` ` ] %.] ` %.] #.6.( ] ] ( ^ ] ,.) ! V h.,XB % U ( 7.8 p.G e z 4.>.] U ` ' %.4.g ,.` ' ( ,.] #.1.>.{ R g > - >   = 4.D.U %.%.` ` 6.' 6.` ` E ` ' ` %.! ( %.%.` ,.,.' ` E ` ` E ` %.! ] ' &.%.' %.%.%.a ! R %.' &.!._ b (.#X3X}.a.Y.:XBXzX1Xs.W Z s b w & @ . . r E } ^ ] %.5.! ' ` 6.! #.6.%.] 9.4.&.K.6.[ ` %.' #.` ] [ ' 4.D.,.t g z g a q e ",
", , . t 4.) h h U U U V E U s U #.J.E S #X6 } 1 @ . E 6 Q.w & . .   # w z a E s w J.t $ ` p 1 a a % w ! U s E z Y R ^ ` ( z Y z a %.E.h w h t a k w q q a k a a a a 3 = r $ t h V h w 4 w q r 3 w r r a a u a s w a U T ,.T U ' @.( %.! s Y ] U a U Y &.' ` ' ( [ ) U g q % % % 5.9.' E a h W Y z h a R z ` U E Y ! z ! r r a W ! h U ) r ( ! E Q 1.k.].;X:X}.-Xl.V @.fXwX$X|.|.wX>Xp.n 3 a #.E R U U ( ` J.( ] ( h x i a ] 5 +.Y.p *   % 1 q @ # % . $ 4 V Y.}.B N 4 i [ a a U ' U z %.E E R E ! E ! ( Y z U R R Y 8.s ] 6.h T ) ] ] #.) ' U x q & =   > 4.! z ( ' R ` ' ( R R ` ! @.' ' %.' ` ` 4.' R U ' Y #.' ` U E ' ' R E E E 6.,.Y ( ! R ] E %.] E ' E E E R ! ' E ` %.E E E ,.] 4.' ] ,.E Y #.#.6.] J.4.' 4.0.6.%.[ 7.` 9.9.#.#.>.#.#.#.>.E >.s p.#XN $ ) ( 8.i g.S t E A.] @.T R E 0.[ h #.E [ ] >.` ` >.,.<.[ x e > , X > ' %.` ` E &.R ,.' %.U ,.E ' ` ` R ' ( ' %.` R 6.] ,.` ` ] E E [ R ! E &.6.R ( E ` h E R ] %.F.9.3 K 9X<Xz.l.n f s.;XKXGXs.W T V U i 3 * @ o X U E [ %.] &.[ ! ` 6.E %.5.@.6.6.%.%.6.6.8.[ %.4.%.` %.4.,.D.8.,.h h l t g > > ",
"> : . z 7.U a z r a s a Y U U ^ Y [ 6.8 (.N t h a > 8.a 6.& W W s < q @ o & 1 h D.R a q & ) Q i Y 1 % 6.>.z a z T x h W T Y $.( U q ] 0.3 & w a U 1 i a a z R Y F.6.E E q % q i w w w w & 4 3 3 w i s a s z r a & s s Y ' ! ! =.6.` R 6.U W ! h s U ( 6.` %.` ( ' ] ( g = = - % } %.Y ] z z z Y z E R h a a E R h a z E h E U a s a a R u w * $ % % & $ & 4 3 4 p b V F H -.o.L D B d i w E ' E R z U E z Y 8.^ ( U z k = ] ] % b +.Y.2.d   . % * Z d././.k.D w 5 % r T #.( Y ( E ' z ( ` U ' E Y Y E E ( R Y W Y z 6.a E ( U V ( #.) ( ` ` Y r = , ,   z D.z { U R T ! ' ! %.' ( ] ] ! ] %.] ` U &.` ' ` ' E E } ] E ' ] E %.] ! ` ' %.} ' ! ! R Y ' ' z E U ` U Y Y R R E ( ` E E %.E ' E ] 0.9.%.#.&.6.' ' %.' ' H.4.%.{ ] D.4.6.%.[ E #.( ,.` z D.Q W.).5 3 6.( ,.i s.S l ( H.5.( ,.%.R 6.8.g 1.^ ` #.( #.<.] >.) ( g > % , o e q.J.7.' ` ' [ ` U %.E ] ' ' ' 0.! R R ! } ' ' ' %.( 6.` E E ] ` %.` ` E ! T ^ ] ,.T Y ` ( >.! r F |.MXc.D j T E d f.4XKXFXU.T V U s w 3 3 3 # % ^ %.] z { ] ` ] %.%.Y 8.H.6.4.&.` E %.4.E %.%.%.E #.6.,.] P.&.Y U U Y g e = ",
", ,   z D.R W k r a s a h T T s V l F.w f.d.$ E Y r W w E T $.s.*.Q 6 s f @ $   q w Q T a @.*.a % % . & 4.4.E z z a U U U a ,.U U ( h h U s E ! ( U z a U ( z U U ! ! P.9.s h a z E w a h h z s h Y U Y #.E Y ] z W ` ! ' 6.a W ` %.! R U ' ' U a E ' ,.[ #.' #.<.] T t 3 = % % 6.&.a a s Y Y Y U a z Y ( z Y T ` R U z E z s h z r Y ` 3 % % r r a w 3 w w w r q a n w & 1 4 # 1 q q a ^ E ! R E Y U z z z R ] ( ! E ` z & { E q 1 2 C s.d.W.Y._./.p.G 8 % % e a E #.U E E %.z T E Y E %.%.z R ' Y U R E ( ( T Y Y h s W ' E ( ( ( #.@.` R / g = - - . g P.( ' ( ` Y Y E R E ! Y E ' E ' ' ` %.%.` ` E R ' ! ] ` } T ] ` R ' ] E ] E 5.' %.%.' ' z E ] R E %.R #.E U ( z ! R U E ( ' ` ' [ E ` 5.9.6.6.&.' 4.%.,.( 6.6.#.` ' &.6.6.6.6.( ' E ` ] z 9.D +Xc.& = ,.E ,.i :.S g R E.8.^ E ! ' 4.7.h ,.Y <.,.>.>.6.' <.( ' Y t y >   y 9.q.E ` %.U ` 9.4.` %.! &.} ] E ,.` U ' E R R E ' R [ %.%.` ] E Y ] Y %.R R U ( Y ) ( [ ,.<.a ~ (.gX}.o.4 = Y ! U s g.FXKXhXS s Q Q d i 3 r y . U @.7.E ( E T %.4.%.' A.%.` %.0.%.' 4.H.` 4.%.&.E ` E ( R %.&.] { Y g g Y t ",
", , . x P.T R ! w a s a a T W T E z &.! ~ ].6 w z q z q w 3 &.=.| b b p d d r # . a X.8.P.U U w r q % . % } P.t h Y a a r g E U ( U ( V a z w a E z ` s h ! ( U Y a a R z h h a g h z q z a z x Y E z z T U a Y a ' R ! Y ] R E E E w.` x z %.Y a E ] %.( #.,.^ ^ ( Y t = = % - ` ' r U R z R s z Y a U R T z U R z ` Y U U Y Y R r h 6.a % r a q z U a h h U a s U %.! T E ] U { E Y U E U E R Y E U Y R Y E U ` ' %.] E E 3 a ( #.g % & i V 4 < - 3 - 3 a h U a a U ` g U ( ( ' ' U z ! E E E ! E ( U Y E R ` ' U ( W Y 6.#.! ` ) >.] ` / E g > , ,   t J.Y ( %.E U R E ( U #.' ' E ] ] E ` ( R Y ! R U ' E ' &.&.&.4.9.0.8.&.%.' ! ' %.` ' ] ' %.` ! Y ' ` ' U { ( ( Y ! ` Y Y R ` ' ] ] 4.%.` @.&.5.] %.` [ ,.( %.#.] %.' 4.#.] %.#.%.{ ,.%.0.U 6.D 9Xl.# r ,.^ H.a :.B g z 6.%.^ ` U U ` L.g 7.V { ` ,.<.,.,.` ^ Y R g > ,   > 7.7.R ` ! ` ' ] &.' ` ` ' E %.` %.' ' %.R E R E E E E U ` a E E ` R E E E R ( E Y t ^ ( 1.T 9 '.VXc.o.d q a 6.#.' s N -XKXNXg.s W T a 4 i i i - r ( %.6.J.R z 7.4.%.6.0.P.7.' 6.4.6.4.6.[ ' ,.%.%.[ E ' E ' ' ` #.] T E h g ",
"= = . l 4.! W E W z s U T ( U Y W W E &.4 2X+.o a a ! ;.1 s z =.*.@.! Q ! b d w # * n 6.q ; r k r q % %   O [ P.( ^ a Y h r ] i h E W h a z ` z R g E R R a h g Y q a U Y U a h r a U a a w U w y E E U z E U ( a U ' U ' %.T E z ` &.E ` U ! z a E ] %.( ( { ] ` ' / g q , % & 4.&.w Y ! U z Y Y E a a z ( E ' ! W U z z Y E T ] Y a ! &.T r a a s r w w q w = @ & > % = # 3 r q a U R U R E E z U R Y Y ( U R ' ( %.U R E ! z h t ' ,.E U ( T h g U U U a h W E R E E ( #.U #.,.{ E z z U ` ( E R R E R E E ` Y T %.Y U ] #.%.[ ) ] ] ' ' / g e > = X e D.E ' ,.! ' Y ! ' ' ! &.%.` Y &.&.( 1.] U ` ] %.#.] ] *.' E q r s R R ! 0.6.4.%.' ' ' ! E R ( E ' R R ` E T Y ( ( ( ( ( R ' ` %.` &.%.` 4.[ ' ] U 0.] %.` ` { ( ] ' %.4.' 4.` ( ' ' 4.' 4.#.t.$XP . r K.h A.p o.j t R [ ` E ,.U U a 0.t >.Y Y ] ,.7.7.,.<.] R g e e >   t 9.0.R ` %.] ( ` ( ] ] E %.] ` ` ] ' ' %.%.Y R ] %.4.%.R 6.! %.%.E ! E Y %.' z U ' ^ ( P.#.3 d.MX>X:.4 3 r [ !.L.] _ ' N :XGXwXd.w j j a i r 4 w q ,.6.%.&.,.a %.K.8.[ E Y 4.5.0.4.&.&.' %.%.%.&.E [ R R #.U ! E ^ ' / h h g ",
"> : . U %.E z a h Y Y Y U U U z U W r w.s :.[.% + k ~.w.1 ' ! *.U.@.$.@.S.) X.p w @ % & 1 q Y a q a e a O   X x K.' h U z V U E s T U Y Y Y ! Y Y E ^ z ( U z z ' R h w r s g a r a z a a z h a q U s a a z U s Y z U Y R E #.` E R #.( R R ! Y t ` ' ( ' E ,.( ] ( h a q = , % %.4.a U Y U Y Y z U T E ] R h R ` h Y z R U U h R Y U a g z z w z U h a z h h i 3 a E U z z a R z R E R Y R Y ' U W Y E T ' Y Y R R ( R U ( E Y ` Y r 3 q q a a r h q h h z E E ` E ` ] z ! ] R ( #.4.` a a E E R E R s z T ! ( U E E a Y 1.#.] >.) #.] @.( ^ t q , > . t 9.Y ` 8.[ R R ` ( %.#.! ] ' ` E %.] E U #.^ h r a a w q q % o   .   . @ > r E H.J.] R 4.] U ` #.' Y U ` { ( ^ E ( ( ( ( E %.` E E &.%.[ ' ' %.%.' ] [ #.( ( ( { 7.D.#.%.4.,.7.^ E #.q.! L.d z.@Xn # q K.x D.i H N a R 7.%.%.4.R ( 5.6.t >.h ` { <.>.8.,.>./ h g e , ,   e K.5.E ' ` 8.] %.R %.] ' ' ,.' { z ` 4.' 8.` #.! ] %.%.[ ] ' Y %.` ` %.%.E %.#.z E [ %.,.i P %XhXa.N q 3 Y ,.8.6.L.P.6.U m $XJXjXs.4 Z U U V w h $ h ,.#.%.] ( &.0.A.` %.` %.9.4.6.4.9.%.%.6.9.%.R ( ` ` 6.] g ( ` / T T U e ",
"> >   U 7.z a U ! z U ' s z a s W Y z ! 1.4 <Xh.+ + 9.P.U 3 ) s =.I.U.S.S.@.R V V r % @   ; 1 %.Y h a ' g %   o h E.E z Y ( h U U a R W s a Y U Y h E T U h E ( z a R Y U a z s r U x a h a z r z x U a k z U z z a U R Y R ] E h ` T ' u R %.,.h z ' ] ] ' ( #.#.#.U a e : & % 4.&.z a U E T E Y U E R W ( z ( { ( E U h E Y U Y U U z U s a a a U E g U h h a r 3 z h h h r h z r z ! R U Y %.( R ! R Y R ` Y ' U %.! ] E E ! T Y Y ( z z T ( U T U z z z h R U ` a U ( U z a ( E z E ` U R ] h E E %.h Y ( E h ` ( a U ' ' #.,.,.] ) ( ( ^ g % O %   t 9.z E 8.0.' E R Y #.] ] } %.] ' R E &.W a . X O # @ @ * 4 0 0 6 0 0 5 * @ @ $ : { K.%.' ` r r E %.E ! g U ' #.E E ' ( ( T ` ^ [ ^ 6.%.E ,.R ] E ` #.' ,.{ Y ( { %.%.D.%.0.>.7.,.] ) ,.@.#.| FXqX9 X h D.Y q.i X.V r Y &.R ` ' R ! ] D.h <.` ( ' ' 9.1.6.( / T g e e >   q 7.4.R ' ' ] E ! %.5.E E %.R ` 0.` U ` %.%.` Y @.%.' #.%.( E ! [ ` ( ` #.E ' ^ E [ %.S.h B +XMXa.X.3 - E ' T %.E ' 4.a 4.a +.VXGXdX( Z W E Q 4 h 3 = E ' ' ' ` 5.%.K.%.` E [ %.' ` %.%.%.! ' 4.6.( ` R ' ] 0.( T ` ` >.h h g ",
", >   z &.z a Y a U h E @.! U a z U Y w 8.s W.VX4 . y K.P.a q 0.@.0.2.=.*.w ) i W f q % @   . Y U E a 4 Y t % . . a H.^ y g U g ! h h E R z z ( Y z U U W a ( ' ! R U U w a a a z U a a a z a a z Y E w Y s a Y a U R U U z z U z ( ) ( U z ` a a z ( ( #.] >.>.] ( x e = > % ; 6.4.z z z U R E U U U R g ! Y U ^ ( E [ U T ` z T U R U U x U U y a U a a a U a a g E T U ( U E Y U U R E E ` %.^ E ` E R E R ` E U z ( ' ' E E E U ` U E z y Y z R ' z z ( s ( a ` R E E ` z s %.' ` #.z a g R U U ` E R U E ` ( ` ' T T ) ' ` %.,.,.,.<.( ^ g e % %   y D.Y E 5.` %.` E ! >.Y R 4.R Y ! 1.) a i 2 A v P P r.x.M.#X6X,X@XOXOXB.n.K 0 @ .   w ! ` ! a # # % % q % $ q U ` ` ( T ` ( ` ( ] ` ` 5.4.( Y ` E ! ' ` ' ` ` ^ 4.7.#.4.6.7.5.{ >.,.>.,.A.( o.qXjXB   l F.R H.r S 4 e z 7.` ] %.Y R R L.( >.Y ' ` <.1.,.,.<.` ( g > > =   y 5.%.! ] %.4.E E ] 8.%.' %.%.] ( 4.E ' %.%.] ' E ] &.7.{ ! ! ' ! ` ' E ` ` ( ( #.U F.W b /.cX/.D w 3 z ` ` ( 5.` %.' ' s w.B z.vXJXjX ./ W W g t 3 - E #.] %.U U } 0.` %.] &.P.R ' ! E %.Y R %.0.' ' ( R T ( ( ` ] ' ^ T h 3 ",
"> >   a 4.Y a k s z s U Y Y z s a z W a W Y s.fX`.* o { .X[ s V &.' &.S.S.Q ) Q 6 4 & i $ %   $ 1 w h w = U t % . X h E.1.g ( T h a z U a a z z W Y ( R U ` U s ( R ! E z R a h a z z s a r a h a z z a z U a z s a z z U U z Y T z U E W R E U g Y Y ( Y ` #.#.] ^ U w q : % % w.[ z E z z h z z a R E ( E E ( E ( #.%.,.] { q a R a h h U z z a g U g z a h U h U Y E g y U ( ] R R Y z z r %.6.` T Y R ` E W ` U Y ` %.` ( R E ^ ( E E ( ( ! h W E U R U U U z E Y E ] ( R ` E ^ ' ' E U Y z Y z U ` ( Y z ` ] E %.g h #.#.] #.,.( <.,.<.T t > : %   q D.U R ` ' ! E E ] ! ! * Y &.Y 6.@.' =.l.M. X{.{.>XeXhXhXvXvXMXvXjXvX@X{.C.n.y.v @   @ & 3 3 w 1 $ . @ q r @ @ R 9.7.8.s r a ` %.%.%.0.D.0.4.8.6.5.4.&.6.%.%.] >.9.6.4.P.7.A.9.,.J.L.E.R.T P M.z.n @ ' I.' J.5 S p > a ' [ ` ] ' E @.P.h ,./ ( ' >.6.>.1.#.` Y x t > ,   t 9.[ R } ` &.` ! E ' %.' %.E %.' 4.` ' ' ` ] ` ' R %.9.#.6.%.7.%.R ] %.` ,.[ ' Y ` R 9 l.MX'.F $ 3 a { %.' ` &.&.` %.` Y s } Z +XlXCXqX_ U W V 3 # @ h Y ' [ E U Y ' [ ^ %.%.8.9.} ' ` %.%.] 5.0.` &.z ! R Y ' ' ` ' ' h U g ",
"> > + g ] U a s Y z U a z a s Y s U U Y a A.w O.z.Q   O J.P.%.% w %.,.A.D.W t ) u i q V u # @ $ a w q 9.q & E w r   . q P.` h U T U E R E ] a V h s h T V R Y a z U z ( h h h h Y a z U R s a z z U ! r s g a r z U z ] s U Y Y W U a U Y ! ` s r R ! ] ( ' E ] ( ( / r q = % & 4.#.h E R Y T r z a z Y h E Y a 0.R g X O @ # 3 3 } } a s U R T R U h z g a a V ` U - # @   o % % # @ o *     @ l q.9.( E R ! ` ' E x E ' ! U ( E ` ` E E Y ` Y h U z R T ! ( R Y U ! a E E E Y #.Y R E ' E z z Y ! z z ( E R U #.%.] R h ] ` <.,.<.#.' ,.` / g > > %   e L.U #.( ` #.' ` 0.1.T 3 # H.1.@.6.X.=.k.:XjX:XwXBXvX[.a.s.i.s.i.G..X5X|.@X{.{.n.v.H % d V Q p C B s d i w #   o w h a # # # # - > 3 y U V a r d s E r s h i a 4 w w i W w a a r u u q a p '.wX1XB . q x % k j o.n e U E R E E Y Y E K.g ^ T ' ] ,.,.1.] ] ' / h e > >   a q.9.E ` ` E E R ( ' R ( %.R ` ` ' E ' %.[ ' ` ` ! E 0.%.' %.&.' %.%.` ' ` ' ' 7.[ 8 c.jX}.:.f q w ' #.` ' [ } ( ] ' 8.%.a ' ;.B 3XZXBX+.r Y d u 3 X q E &.E %.Y E ` E %.' ] [ %.[ @.[ ] ' ' Y 5.#.H.7.^ #.x ( >.' / Y V g g ",
"> , . R %.z u r a s z U a s h z a s k a r E E $ d./.X X w 0.a [ k 3 i #.] @.U 6.E 3 a @.&.3 # . 3 a r h H.r e a a q .   g K.>.g d s ! U z ( h E E ] h h s E ( ' h z a a R U E a R a s Y s z R z z a E z s a a U z h z z ` z s ! ' E ! E Y T ' U a R ! E ( ( ' ' T U Y 3 q - % % { ' h U Y U Y U z a U z T E ! w % o # < 5 2 1   . % a ! a a Y Y a z E ! a h r T ` 4 B D B 9 6 A A ) Q @.` h W   % h 9.#.! ' E E ' E ! R R Y R T E z E ( z z E ( U z U Y ' U R E U ] ( ` z R Y Y ' z Y ! ( ' Y ( U R Y E R ( ( h ( R ( Y x ( >.' ` >.,.6.T ( h t > % % . e H.U ^ %.( ^ { ` D.$.T T # t 1.) S.) 8.xX&.H L L F b < 4 i d V h U L.S.Q.T.[.wXhX$Xn.c h ~ Q Q Q ) Q % % %         . o . o X . .           @   .     .   .   . o               .   @ o < f.GXKXjXg.@       . 9 c.$.e U #.&.9.z Y U ( H.g #.[ #.>.<.7.[ <.#.` Y g e > , . l q.[ %.E #.` ' ` %.E ' ` ' %.,.,.' %.%.4.' ` &.' ! R ' { 5.' ' { [ E ' ` ' [ >.7.r g.hX#XL 6 & q U ! ` 4.R %.%.%.%.` 6.%.Y a w.s t.FXVX/.N t w a g . = U 4.%.%.%.%.` ] R ' %.&.&.! 5.4.! ] #.' E E 4.U %.` R / >.,.#.( g g r ",
"> > . R 6.z a w r z z s z W h w a U a s a q *.r ~ lX/.. # { 6.i Y H.1 q ( j y Y 3 3 $.E &.s w # # 1 U a e H.r w >.V r . o y H.%.R z Y ! U T g a z z a a h g W R U Y s z a r U a ` U s i a w q U z z a s E Y s a r z R a Y U ` U ! U U ' h T ! ( a r ' ` ' ^ #.%.Y h Y g r - % - ,.,.q U E z Y g a k a z Y 8.E q f j.n.B.@X@XM.M .   o q E h E x Y a z E a a h ' p /.|.>X9X9X;XqXkX5X!.R.&.;.`.L . O h H.] ] ` R ! Y } ! R Y ( E R Y z U U U U z U R ` z ` ` U ' R E E ' U z ` T T ! ( T U Y h ' T ( R z z z U z E ` @.h x T / <.( #.,.<./ T ^ t q , ,   t 8.z ^ ] ^ ^ ( ^ ^.) 4 u %   % ;.W T S.E.h w i W g w r 3 - i E n E ,.2.=.*.S.=.W.VXdX>X/.k.:X2.2.T.|.[.#X:X5X'.g.Y.G.2.~ A L W.`.Q.h.X.N u 4 2 b T p $ 0 O.X.c A Y.]._.T.].}.:X}.:X:X;XzXVXjXjXwXdX3X-X-XW.g.$XeX:.y x } ` ] E a ' U 9.a >.( ` ] #.#.,.,.>.<./ g = > ,   x J.%.R ` E [ E ` 6.%.! Y ` ! ' %.` ] ' 4.` ! ' ] ] R ] ` 0.,.%.[ 4.%.%.%.^ Y >.T S qXwXd.p - w U [ ( E ` &.8.&.` 5.8.,.] ` E s ( n <XGXgXl.d 3 w w @ r R R ! E %.` ` ] ! R %.%.%.E ` ` &.] [ ,.%.( z h Y 9.z ( %.#.] ` Y h e ",
": :   U 0.%.T Y a Y z Y z s U u & s z z z a s &.4 }.6XS + o 7.] w q %.U 3 r 3 > a ( 0.] h q # & e & r Y r q 6.q h U Q 6 .   y H.! z ( ` U h a Y U U Y a h U U z a Y a a U z z U z R E R r R z a a z s a R U a w a a ` U U U Y ( s Y Y s ( 6.#.' h a Y E ( ' ,.' ( Y Y r y , % O %.>.z U Y z U z U ' r Y ` A.r I {.7XvXZXZXJXvX<Xk.$   X 5.a U E z z ! h s s ! W | U.b Q O.i.O.i.g.F W h R Y N Y.V + % 9.I.%.] E E ! E R Y U E U E U U Y z z Y E h Y E ] ( ] s E U U ] %.z R ' Y E U R E U R Y ( ( ( R ` E U ' h E E ' U Y ^ ' #.T >.>.6.( / T t e > =   e J.Y x #.( T ( ( !.Y r B 8 . . o 1 _ 0.<.U t i T U 1 # # . X # i p ( D.*.%.E 1.#.'.gXMXbX<XJXBXVXKXGXhXBXBXlXBXBXMXqX(.(.<XhXeX6XeXdXzXgX1XMX>X;XgX1X:X<X;X9X$X|.>X+X}.(.#X}.).}.:X}.>X>X<X9XqXqX3X3X#X$XfX4X$XeX:.t Y %.#.` R a E %.9.i ] U ' ' @.0.8.<.#.{ { h e > >   z q.5.( R ( R ' ` ' &.%.[ R ' ' [ ' %.%.E %.{ ' &.' ,.E ` ` %.,.( #.6.5.%.>.( ( N /.cXW.Z # 3 h ` ' &.! %.%.%.%.! ] #.8.%.] &.t ' V S 2XqXlXQ.$ 3 3 & ( R ] R E ,.E E ` ` ' %.6.%.7.8.Y ] R 6.&.9.K.%.0.,.8.6.,.,.( >.` Y / h ",
", % . g 4.E U U a U s a T Y z a a a a a w a q 6.a N dX}.@ @ w ,.Y s w R %.q t t E W ! ! T # 3 % q a z k a i q A.z q d ~ 3   . z J.` a h ( h a z E z U a h a R a z a ` a a z z Y a U s R U a ( i r U u a s Y w r r a Y a U R s U E h E ! ! Y T T e r T U ] ' ' #.` ( Y r 3 - - % 6.6.q E R U U z a R a z E E B {.iXNX%X(.].fXKXGX0Xz.@   ] Y a U Y E z U V g ,.b /.@.T 3 4 N p 6 r 3 a 3 U ) d 1.F.3   & K.&.%.E R ` ! R R ` R U U R T U U Y R z z z R R R E Y ! R ( ' ` E R a z R E T ' U U Y ! R ( U U ` R R ( Y R W z ( E ` ] ' >.` ' ( g g g > > ;   > 0.E a ( { T E ' !.W U Y.4X3 6 A 4 V n i 3 # @ 3 g @ f & $ 6 Q @.G.!.P.I.F._ ) %.Q.JXjX>X(.zX<X|.4X<XBXJXKXKXKXJXFXlX$XkXBXGXKXGXqX-X}././.fXfXMXMXdX}./.z.W.[.9X9XdXwXwXeXeXqX9X3X1X9X9XgXjXMXgXgXVXMXlXlXwXqXMX:.t T 9.4.E ! Y Y R A.h #.g >.] ` ,.1.,.,./ Y a e > ,   } H.E %.! E ] ` &.` R %.6.R ( [ 4.%.' 6.%.] &.` %.` 6.E %.U ` ' ` &.&.7.4.' E E f.dXa._ # w w %.U ^ 6.Y ' 6.K.5.%.%.E %.8.6.4.H.a 5.g D <XMXGXG.$ % ^ ,.` %.E U 4.%.%.&.%.' U ] ' 6.H.4.4.5.] ' 4.8.P.Y 7.<.L.6.<.' ` ' x / V ",
"= , + a 6.Y a a s U W Y U U s 3 s ' U k a a W a A.a :.gXO.. . ' A.s z e q &.U Y E w % % . & E h & U h a g U a & D.g q _ z 5 @ % z J.E h h h g i s h a h a a a h z a g z z z h a a z a z R U ] U s U a a W z a i s U z a z U s ` #.! s s E R U R a a E Y E ( ,.' ' #.Y g = = % % 8.4.z a ( z s w r r s U %.W p.nXAXcXl.b 9 D W.PXZX>XM . i ,.z x Y E z E g ,.g s.@X*.U = % r ! ' ( 9.0.S $.W 6.S.X.Q .   E 6.' ' E ! E R ( E E Y Y Y E E E U U U U z T ` U z E E ! z ` ` h #.a U R E R R R Y a R W R Y T R U ' 6.E ( Y a Y ( ( #.' ' <.,.( ^ U e % % %   e 8.g R Y ` h Y T A.h p t.+.w .XkX#X+XT.2.X.d.P  .....l.x. X$XY.2.A.1.6.S.i.+.8 z 2.k.P L O.J O.t.d.p.t.z.P -.J O.O.O.t.g.W.W.W.`.].}.<X<X}.T.l._.<XfXfX4XqXlXkXlXwXdXdXdXdXdXdXqXwXdXdXqXqXdXhXeXgXgXwX9XgXjXvXgXD a U 6.` ' } E R E A.g >.R T <.` <.6.1.,./ h t e , %   l 7.4.( %.R ` ` ` ` E E ` ] ] E &.%.0.#.%.%.` ` %.5.%.&.] ] ! ` ' w.E %.7.w.7.V 2.l.T % r a ` J.' ` ] E R ! ] @.] 4.[ ] ,.9.H.8.' T ' h V W.5XQ.# # h 4.! %.%.E E &.` ` ` %.7.%.[ ` 8.0.6.J.%.%.' ' 5.,.( 4.,.q.{ <.] / Y E h ",
", % . t w.E h z a s Y s u a a a w z Y s U r U w ` ` 4 $X6Xb + & 0.Y r Y h w ! ,.w r e % q ! W & w %.Y a z z U r e D.r r ) Y.v   % U I.h h U q i z a R a Y z a z a U U h a h z z h h U U Y a h U a s s a z U U s u a Y T a ' U h ` ! E Y ! ' a ( a a Y R ! ! E E Y ^ h r q - O % #.%.' z T U g a a a w z q.b ).AXbX$Xw w 1 r p fXHXhXp.  & ] a z ' z R U Z ( 5 '.}.W h 4 ' 1 % % ) Q V @.V 3 E A.s.~ w . ; A.%.Y ^ ` ' ( E E ! ` Y z Y ! R U U Y E z E E ! z T ( Y z ( %.Y R ! E Y Y z E z Y h Y E ! R E U s z 6.U ( R r E ^ ( ` ' ' ^ ' / / Y g > O O   e D.x R T ] ^ ( T Y 9.3 w i V X.d.Y.T././.'.+X>X3X9XwXwXqXqX9Xh.@.X.#.Q Z b N p b V N N 5 a i d 6 p 8 b 4 u u 1 1 f w 4 5 f a W T _ @.` W ~ W T N Q @.@. .*.Q $. .=.X.n Q N V Z B Z X.) Q Q Q $.+.2.+.U.G.s.:.2.X.5 E W w.{ } ' z E ` J.g #.Y / ' >.>.,.7.7.' ( l > , , . ` 9.U ` 4.E ` ( Y ` %.R ] ` ` &.! 5.! %.5.6.%.' %.[ ' ,.` ] [ E R 4.' %.%.] 5.J.w.4 & 3 w ] %.( ] ] ` E ] E Y &.%.` #.[ 4.H.9.6.0.0.Y %.r 3 W U ] ,.Y w.` ' ` R ` %.6.` 8.` 6.0.4.%.0.7.%.8.%.4.! %.E [ ] ,.H.6.] #.( x / / g ",
"= , . l 6.R a Y R U U Y z z k Y W w s a s a W z i %.% ..ZX_.* @ q 0.g h W U a ^ ` h U ^ 8.! % s E z a a h a z T w q 8.q 1 n '.b   % Y 4.h T t h a a a r h z U U z h a h U a z h U h U U R z a ` E a U U a z z R a a z z R z E U U ! Y U ' E z h a a ! ! ( ) %.,./ h g t = - % = J.%.z z U U U g r r z e 1.9 <XIXbXf.d ; 3 s w k.JXbX(.& % ' ' z U ` z a ' h H 9XO.& 4 3 3 U.h @ w +.W.6 r q 1 @.,.#.C   o &.9.Y z U R E Y s ` Y Y Y Y R U ' h U z h U E E R U h @.R ] E ! U R Y Y E U Y Y ' s R Y ( Y E ! Y z ` ( U R U T Y ( ] >.>.<.>.>.` [ z e % X   e A.Y s U ] U T / h ( ' z e 3 5 2 p C A G B S _ G D  .D D G D Z B ~ u 3 q 3 q d s W Y s g z z s r a y r w q 1 r a t a h >.0.8.] ! %.0.H.A.I.J.9.D.D.D.8.H.!.8.8.H.q.P.J.9.8.7.8.9.A.J.L.P.H.K.K.!.P.J.7.P.K.!.H.5.4.&.' 6.*.} ! ( R ! 9.g %.h / >.' >.,.1.,.] ( x t > O + { H.] R %.' ' ! ' Y ' E R %.' ' ' &.&.,.4.%.%.4.%.` %.' ' ` ` ! Y ! &.] %.5.( 7.9.0.a k E #.` E { ` ] E ! %.R ` { ` E &.' 8.H.%.] 0.%.,.0.,.7.E.L.7.] 6.6.E %.E %.%.%.` [ %.4.4.[ J.6.9.` 4.4.` %.` ! ] ^ ` K.] ] #.' ` Y R t ",
"% >   r ! a h a h U a Y z a w z E h U a y w i Y r ( 9.@ W.>X+.@ @ 4.#.g z U s U Y a Y ] &.K.' ' ! z h s U h h z T w y 8.u 3  .}.< . % ' A.Y a k U z ( h h Y Y U z a h h h a h a a h s T s T U Y E h g a h h g a h a Y ( E E Y w w ! ! ! #.r U z 4 t ` ' ( ] ] ] Y R h r 3 % % X ,.%.E Y E z s Y s R a a ) p 6XLXZXp.3 & 3 h $.a.BXCX+Xp # *.E x ( ! U a ,.N +X+XN # i E ,.3 X.~ i.Y.f r k [ # r S.%.*.&   r H.E U z T ( Y W R E ( E R R Y ! U R Y z Y E R R U s R W R ( ] Y R ! Y Y R h U R R Y Y Y z U Y U ] U ` E ^ U ( ' ` ] ` ' <.{ ,.<.^ x t > , . t E.g U E U U E E E h a Y ' 6.&.} a r w w % w 1 1 3 3 = 3 3 3 1 1 * q a ' %.! ' ,.] ( s W R ' 8.0.,.%.] h #.6.( T ! ' ' ! E ] 6.` ] E ` U ` 5.^ #.' ` ( ` { %.` ' 0.` 6.,.( #.` E ' #.] ' ` ( #.0.8.,.>.,.,.,.&.6.6.&.( %.#.} @.R U ' A.i ,.i E ^ ] [ ] ] <.] / h e , X . E 5.g t / { T ( U U Y ] R ! ` %.[ &.%.0.%.&.%.,.%.%.,.@.' %.5.%.} U ] ] ] ] ,.' %.] ] E %.` ( ( { ( ,.%.#.#.` U E Y #.[ E 6.8.8.%.%.0.8.8.%.U ' 7.9.%.` 5.` 4.s #.#.' #.4.' 8.0.' 0.6.] %.%.D.%.5.0.%.%.] E 4.8.' @.%.` E U h ",
"O :   a &.Y z r h s a U z i % # z h s U U h g a a 3 4.k n [.1Xb   = q.h a T U Y W W a E R ' U E E ! z ! s z g a a U w y H.e $ -.].6   o ' 4.U U Y h a z a s h h U Y z R a h h z h z U R s q a Y Y h h h h U g z h r Y h ' %.a ' h a a ` ! z a s r g ( T ] ` / ' ( ` a q = , # % 6.( z Y E ' z Y z a R z 7.N 9XLXAXo.3 $ q g @.k.GXbX$Xb % ' E s Y Y a h &.G wXW.4 - & y U %.1 ~ ~ 1 ; a y a E % 8.,.@.w   % q.E Y U Y ! Y Y E ` ] R W ] Y R E s Y a ' a Y z Y T z Y Y h E U Y z E E E R E E Y Y E E Y Y ( h q ,.Y ^ T g ` / ` ] #.<.#.` / ` Y g e , > . = D.g ( U ( Y a U t #.T z z u w k ` %.A.%.&.W T E E ( ` ( ] ' ! ` &.` U w r a i Y W W T s h Y Y E ! ' @.w r ' a ] ( ' #.%.( Y ` ` ` ' #.E R 0.' ,.E R ( ] E ' U ` ] Y %.z E %.#.( { E E ' ' z R ` >.,.( ` ` D.E [ 4.%.&.' ' ' E Y R E 0.g ,.Y U R #.9.,.,.,.` ( h t > X O { q.{ ( g ( #.] U ( U ! Y ,.' ' ' #.&.6.' 6.4.] [ 5.%.%.%.! %.&.[ R Y R ' %.%.%.%.R ] ` 6.5.` E z { Y ( ' D.' R ` ' U %.%.4.8.w.6.,.6.%.%.,.q.] ,.J.#.( %.` %.R ] 6.` %.#.%.4.` [ 4.7.9.4.6.7.9.! 6.%.U %.[ ' %.%.4.! E ! U h ",
": %   E H.( g r r a a h h &.a & a z U E a h h a z a a 0.4 k.|.k.. . U 7.s W U V U U Y Y E W W Y U V h E U z Y h i h a U h H.% 5 O.d.$   # 4.4.w r g g 3 a a a q %.a r h a s Y R E ' U z W ! & ! Y h W U Y ' h a a h z #.E &.U ] E i a a a U h T e i T ] ] 1.` ` ] T E g e = O % 6.] z E %.z R U ( h z k 4.9 wXSXcXD % = ' ' V l.MXmX1X7 % @.( Y R Y a ] Q L wXD @ % . $ $ a w.q a ! 3 i u @ ;.1 8.9.&.*.. @ 5.] E T ( R E R U R ^ E z Y Y Y E Y U r ` Y ( z R Y U z Y Y U R U z Y ' Y Y E U U E E R ( R Y %.a ( ^ ^ ` g ' <.,.7.<.` T ` ` / h t e % , . = D.( E T ( z Y U Y U ] Y &.#.R ' Y U a a r r a a h Y a i y s y u r s E U r U a h ^ Y E R h Y R E R ' ` ^ R E >.U E ^ ^ %.] ( ] E E ` E ' ' ! E ' ' E ( [ E ` ` ] ' ( ] E T E U ' E ` ^ E E E T E 6.] ' ( ` %.>.@.] &.%.[ ] ` E U W ' 5.r >.Y E ^ #.[ 8.>.[ R T l e > O X { 7.>.^ h ^ ' E Y Y U Y 6.Y #.^ ` [ %.6.%.0.8.] ' 4.&.9.6.&.8.` [ ` z h ( ] @.` ' #.` 4.%.6.' { %.%.( %.R ` #.( ' ` z Y ' ! ` [ 8.5.%.6.4.6.,.6.4.9.4.4.8.&.%.a R %.[ 8.9.' 9.E { %.8.D.9.H.7.9.E %.%.E 6.4.9.0.] &.%.' ) h h ",
", ,   U 9.E E z a s W z h Y U s q R a r a r a z z z q 6.g 5 1XeXn   O 7.` a U h s a s W U U U ! a w U a U h h a z a r Y q z 9.% 7 J +.*   % 4.! w q a s y Y U a U a r z a r a r z z R T a R 3 r w W U h h R W h r z Y E 6.' a ` E a z a w ` h R 3 t ` >.' <.,.>.,.T g i q , % % H.' U U ' R Y z U s z z 7.v hXAXrXD = & ( ] j P hXAX1X8 # 6.z a i k q ! j k.1X8 i p u = % # r 0.=.u n z &.;.6 L Z E.6.A.@ o U ' U Y s U Y R U Y Y W Y Y Y E ! E Y h z U R U U Y Y U Y ! R T T E U Y E h E U Y E U ' E ` T %.( E Y ( Y t #.` ' ,.>.{ ^ ^ ( ` h g q , % . , q.U ] ( T E r a 3 r #.Y #.' ' ! } ! ' T ! Y U E R ( ( T T } ! ! z a U ( z E h Y ( l R R W z T ( E 6.&.( ( Y ' E U z U R ! E ` ( ` E E ] ' ' E Y ' ' ` %.%.' E ` %.' ( E %.' U R E R ` Y U ` R ( >.] ' E E %.#.%.5.,.%.%.` %.E Y r ' 9.w { U ( ^ <.#.,.<.' h h l > = O O [ q.` [ ( U E g ^ z Y ( E ' ' [ ! %.' 5.[ A.,.6.%.[ A.5.6.%.%.%.` E ` U E Y %.Y ' ] R %.%.6.&.] ' 6.%.` ` #.] ! %.6.4.R &.%.U { &.,.( ,.@.5.6.#.` ,.6.6.4.6.7.0.Y x E ` 5.,.9.D.^ %.@.5.4.4.' 9.4.' ' 5.8.%.A.4.#.%.] ' ] a z ",
"> , . t 9.U z g r w r w % Y w s Y E U z a w a z k U z e 9.q i.vX:X6 . r I.T 3 U a a s R U T U Y Y U U R Y a w a h h z %.U w h &.o 4 p.t.  . 3 9.^ g i U s E z Y R z g s z a a h g z E U a h s 1 3 W ' h R Y Y Y U Y %.Y z E ' #.R ( s U r Y a w = g ] ( ( ` >.,.[ / h t q = % % 6.' E ` ! R R U E a E s 9.7 vXAXtX .3 E Y 1.i J eXAX9Xp O &.! z ` ] w ! N m.:X8 ' p  .`.=.# * 3 U =.b f T s n A a E.0.Q &   i ] h ^ U T ! R Y Y Y Y R R E ` E R U z s E E E z T R h E Y E Y ! R ( Y R ! E R U Y U ! ( ,.a Y ` Y h ( E y ,.E T ` <.R ' #.>./ U h > , # . > J.` h ,.&.U U %.z z R ' E ' ' #.Y ! ( E ] R Y E E E ' E ` z Y ! Y Y z z ( z ( E E Y z ' z z Y Y %.A.,.>.U ] U ] ` ,.h E R %.#.Y E U E ` ` ` ` R &.` &.E ` E ` R ' R 4.E E #.! E ' %.R U Y E E ( 7.,.%.R [ %.&.%.] ] &.%.` ] ` ! z ` ] w ] U E ( ' ] ,.<.#.#.^ x t , X % 7.H.>.] %.Y [ r Y w a Y a E E ' ` ` %.( E #.( 4.%.0.0.8.%.8.6.` ` %.' ` ! ' ] E R z ' E &.' &.R ` ' #.( R ' ' ` ! ` E %.E 4.^ ' ' ] ' 5.%.%.4.8.,.[ ,.7.7.] ] %.w.' E ( ' 4.6.8.%.4.%.>.6.8.z [ %.%.Y w.0.4.9.] @.%.#.' ' Y a ",
"= >   h H.( z V h U a u i %.E a h z U U E a a i U Y s a Y <.q <XMXs.+ = z E Y h a T a a a U T Y U z W E %.R q a a q % R z ! q E 6.f 9 Q.d.& . % 9.( U U Y U U Y h Y h h U h z U a z U U z U h Y r V ( R h h z R U E ] Y ] ` U ] #.! ' ' ' U a w q g ( ] ( ' ] 1.] ( h i % % % % 9.%.w R ' ` h U z a R z 6.9 MXmX0XB $ ` h D.h M eXAX6X6 X 4.' Y z E r U D z.(.d q ! W A.L.s.u n ~ I.4.3 3 u 1 s 4 #.@.B b X y #.z U h Y E ` U E ` U ( U R Y E Y Y Y a Y U U U E U ` z R Y ! Y Y ] z Y Y U ` E E E E ( E E Y Y { T E Y r D.` ( { ` ` / ' ,./ g g t = =   > 9.R a ' E R 3 Y U &.r ( z R ' %.E R R E Y s U Y Y ' g E Y U ' R z R Y Y z z U ( U E U U R U U R E 9.%.6.( ` Y T ] Y x Y h %.( ( ( ] ( ' z ` Y R %.E E ` E ! %.U ! ! [ %.5.` ' ` ] ` #.E ` z U E ] #.#.] %.] [ [ %.' 4.%.%.` ( ' ` E ' i ,.h ( ` >.%.%.' >.' ` l > e   % K.K.[ 6.] ] %.( ( a z R a Y U %.` ` ' %.%.%.! 4.#.%.H.4.] 6.9.,.' ` ` %.` E ` ( ( E #.' ' } ] ( ] &.` ( U E ] 5.z R ` ] ,.U 4.` U ' ( %.%.4.` ` ^ ( h { ' %.&.E ] ' ! U ( %.' 4.4.0.%.,.,.9.%.[ %.%.R E ' 6.%.%.R ! ' ! ! z s ",
"= > . r ,.E s U h s s a r W ' U U R a E ( w a y a a s ! q D.g C lXfX* o % 4.! y a h a a a s r U z W W U E >.E U ( r V ( U ! U t U %.* b l.`.    % ,.' h z R R R z a z z h Y a a z ` 7.Y E U a U r ' U U s h R a h z ( R R ( h Y #.,.` ` U Y z a q r T &.' [ >.6.' ' ^ y & % % % A.#.U U ( ' r E a z a a 6.b cXLXeXC # ] U ,.V G dXAX0X8 X 4.` ] R R z Q -.z.<XN i ! Q s 3 1 X.}.b Y i s 1 w s R % @.A.=.7 . = ' z z Y U z Y Y E E ' s ` &.#.! Y U E Y E ( ! E ` U R Y Y R U ' E ( s U ! Y T E z ( ^ ` Y ' ( h ( Y ] a r 4.U ^ ' >.` T #.<.( h g e = % . = >.( T E E ( U U Y U z h R ( E &.( ` U ( R E ` E E ` ( U E g E ( Y z a Y a z Y U U Y U ( Y U U Y ` %.E ] ' ^ 8.( 6.F.` ' ( &.' %.6.Y ( ] ( E %.E ' 9.R #.` E ( U &.&.R ! %.#.` ( ` ! ' %.T %.E ^ %.( #.E @.` &.8.6.] 6.%.w.' %.' ' ' %.a ,.U E ( ] 4.,.>.>.#./ l e > X % 8.9.Y 6.0.4.] ' ' a g E a Y U U %.%.( ` 5.' } [ 9.P.5.6.Y 7.&.,.%.%.A.5.! ` ` E R ' R 6.` #.' ( ,.! 5.#.' Y ' %.^ ` ! ,.9.( ` #.6.4.Y ] 6.%.6.{ #.%.U ,.#.8.` E ' 4.0.] U 0.] 9.5.%.` ,.7.6.,.&.] 6.5.,.' ' ` ,.] ! ( ( R U h ",
", > . g &.R a a s a h w w h U ! r ! T a R h z h a h r ! h h A.3 :.BXl.o   Y 4.a a s a 1 u U a R T E E ^ h ' ` i ( R a ( U z R E a A.[ & h '.W.%   & ( E h k s R Y z Y a Y Y R r a h ' ( E Y Y Y U Y s E E s z ^ a E E ! U R T a h ( T a a ] ( i r h E %.,.#.( ,.( ( h g e % % & 6.%.x a U x z w ( h z a %.S NXAXgXB $ ( U 8.E M wXAXhXd X %.#.( ! E s  .J ]./.j a a 1 w r a S k.1 ;.w 3 w t z x 1 ) A.F.4   3 4.^ h h E Y E Y ( ! x E E R ( R Y R ` Y U R z z z h h z z E s ` ! ' E h R a Y ' ` z U z E ( U ` E ( { Y i ,.h E ` #.>.( ' ' T T g q = , . % ' E T ( ` R U Y R U a z z R ` E E R ( E E z ! E ` z ` ( ( U Y z E E a U %.z Y Y Y Y R ' E Y s z ( ( ] ,.#.#.5.>./ = r r y i w # g ` ,.E 5.E ,.` R >.%.` #.#.#.%.' K.%.` %.[ ` E ` ` ( >.( h ' ^ ,.( ` ' ` [ &.6.&.` [ ` ` ` E E E ` ] q ,.R E ] ' ` ] #.` ' ^ t e > O O 8.q.a E %.%.#.E E ( h U U E ] . u 7.! E ` ! &.` 3 6.P.9.` %.} 4.! q %.9.` E %.E ] ) # r 6.` R ( T &.E a 6.' Y ^ ` Y 6.U ] 6.E ` z #.E E %.U ` 6.z %.` Y ' 1.h h >.4.H.` E #.U q 7.#.` { ] ' 1.4.& r D.%.%.&.#.%.R R U E ( U a ",
"> , . z #.z a h U U s s W a h Y y z U h U h r U U z w z a q ' E f fX1Xn . @ 4.z t t q w t r a U h E ( E g E ` E ! R r Y z ( s s U w &.@.1 d p.Y.@   3 %.D.r a z h R Y z Y U R z r U U ` h a z r r ` w h U R U E Y U E #.U ! %.,.s E ( h U R T r w r Y T ( [ ` ` ' / U a e , % = J.] U ` R U U s z h ^ r 6.B NXAXtX .& z h ,.E J eXSXeX9 % 0.E R z E i _ B /.p.w a I.%.Y a %.u t.$ 3 E #.W Y Y R r ! F.F.!   1 &.` Y a U Y U ` R ` ( Y ' E U ' U Y R E E ` ' ! R E U Y z R U T R E R Y U E T E [ U z U U E U E E Y ] h r &.U U ^ ' ^ ,.<.<.] h t , = , X = 5.T E T ' E U U ] U Y z Y R ' E ` R ! E R ` ( E ! E ` ! ` z E z U a h U E z ! Y R r E E E ! U E ' ! E ^ ( r h w 3 % % w w 1 = w o o q U 5.' ' } E E %.%.( E ' %.T #.%.` %.] %.' ` ! ' 7.%.] %.#.' ! 0.' ( %.' &.8.%.[ 0.' ` E R ] ! ` t #.x ` ` >.] ( ( ^ R V g > > O - J.D.#.^ #.A.` ` ` { z ! a #.& +   U ! E Y ! Y O O t H.*.%.Y ! D.r X % A.#.' T Y %.i o % } A.%.x z A.s 1 Y 9.R ( Y U A.u > U ,.] #.' = ! W s % ] A.] *.` 0.E % . ` 6.6.' s 0.q o h J.%.,.' E $.w . % &.D.` ` 4.%.E ( E z R E z ",
"> >   a ,.g r i T E U a a s s h h h z U E z a w w a z a E q y ] % i.jX<X< @ r ` w a a a q z s a a h E Y h Y ' w a E a ( i ' z Y h ! & H.` % p +.T.$ . # #.#.z g z U h U Y T E ( h Y Y Y U h a a a ! U z g s U ` Y U U W ( T ] ( E s W h a Y q a = i Y ( ( ' ] ) ( Y U a = % % @ 8.E z Y z z h a z a U a 1.v ZXAXtXD & ^ a #.E L 0XAXhX8 O #.( Y Y z h i 9 c.P @ a a q q w %.9 g.w e w T U Y z ` q Y !.J.9.# & 4.! r a Y k k W R R E ` Y #.E E E E Y U z R ` ^ W U ( R Y U Y R Y E Y z U U E R ] R z Y Y z R Y z Y ` Y a 4.U E T / ' [ >./ ] / e - - -   e J.#.^ Y ` R Y z Y U a a z &.z R ` ' E E T E E R U E E ( z Y Y R E z z R Y U R ] U s U ( ^ ' E E ' T Y 3 # # i = q q p i i = # & X @   . % E w.[ &.( R R E U ` E ' T 5.[ ` R E ' ` ` R E ` U ] ' 6.z R ' ` ` ` ! 5.&.E ` ` [ ' ` E ! E e <./ #.>.<.>.,.' / ` U e = > o X q.D.^ ,.%.%.#.' ` Y ` y E ! n c . o ! ` s ,.% f . $ ` A.} R 0.n w @ : z 0.' z ] V M 2   @ #.%.z 7.W % . 1 @.] @.s #.s *   o ! ' E z 1 a w * % & 8.%.E #.` 4 <   e K.8.k 4.p $   . E 0.{ E &.g v f + % A.&.` %.9.' ( E z a a a ",
"q > X t 7.z a g h h Y r a r s a h h U i a a y E a 3 a U h T w ] h 2 ].MXY.  : w.t r Y s 3 r s r z E ( E a a U h U a s h U r a ] R a 3 q ] %.% 3 S W.@   % w.9.l Y h s h z a U a a U U h a a R a z U U h a a h E E E a w U ! z ` U r r h r a z a q g ( ( >.#.] ( ( ( U a = % % = 0.R z R U a a r a a h h 7.C ZXAXeXS q T h 1.) L wXAXrX8 % ' U a g z V 6.1 /.'.@ & ' a i r 9.6 2.p t z ' Y ( U [ % a I.0.!.w . ` 0.` E Y ! E Y E U E E Y R Y ^ h E Y E E Y ' ' Y ! ` z U U Y Y U E ] Y z Y R a R ! U R ` R U a a U ( U a 7.R ( E / ( ' #.#.Y R g , O ,   e 7.,.U Y ( R U R E E a w Y R ! ! z 5.` ] U Y E ,.Y E R ( U Y U z z z h Y z z Y E U } T R U E ] %.s r a % 4 s.g.g.d.g.l.l.i.h.2.X.Q % % @ . . O t 5.9.{ ' ` ( Y ] ( U ` 0.%.R ' #.] U Y E U U R R ,.] R z %.%.E R 0.4.&.R ' Y %.` ] ] R g 6.h { #.1.>.` >.] Y x e > , X % D.L.( ( ' #.4.( ( E U V ^ c n.n.< . w 5.( @.3 e.0 . w A.%.! a I y.0 o & %.&.Y ,.c B.K @ @ r 9.} X.9 e.*   t q.T ' ] 7 e.2   i i r 3 w b K I . . a z % 3.V K r.    ^ 6.n &.1 a.0   % ,.` 5.E 7 j.u.@ + k 7.` ` 6.E E E ( U U r ",
"> > X g 6.E a h a r h E h a s h U a Y a a a z s U U a r h U g 3 D.t F |.{.$ X E a w a a w r z a a g Y E E R U ( U a r R h R s U ! U ' s r @.&.w $ N _.f . * 9.R a s a a R E U T a h a U a s R U r U U z z U U a ` h E R R %.U Y E w s a Y E z w q z ^ ^ ( %.] ^ ^ ( U r = % X % J.] a T E z a w r w r 3 7.D GXAXeXS % R U 1.( F wXbX7X8 % 6.U E ( U h 8.g W.lX4 o &.' g 4 ] w w 3 r ,.E W ^ U ' 1 s L.F.U.q . % q z ` ' R z s E #.Y ( E E Y E Y R ! E %.R ( %.z R ` U ` a U Y E Y ! U U Y U ` a ! U E ( h ' ( Y U ( T g 8.E E ` ^ ^ #.` ' Y x g e - ,   3 H.%.( ! R s z ! R ] Y a a ` E ' ! ( E ] %.! ' ] ` ( R R ! R Y Y R U h T R R U s ` s U a R E h # i X.p.'.G.h.-.B N Q N C C B D i.Q.s.X.6 & . . . o ` 7.6.^ Y %.%.` ` ` ( ! ( ] #.] ` ' E ' ! ` U H.E ' U E ` %.] %.&.[ ` %.` %.Y E ( U r >.V ` ` ' #.>.<.{ T h q > , o % D.4.Y #.] ,.' %.^ T E T Q j.0X$XK .   ` 8.< F  Xe.  + h ] 8.n b.V.K . o & z ' p k.7XZ.0   & V P.V P {.K . . ^ ` 7.i K V.e.@ i T Z w w K Z.u.2 . % @ X $ m Z.x.0   % ,.@.p m |.r.# . V ,.>.6 K dX1XI   * w.0.` &.! ' E ( Y U r ",
"> > X ^ #.U x z U R U a E z a a z h a U a z U R a a h a a a U r U Y T zX7X6 . y % . . # a r s a z s z z U U h #.! k h ` U U a U h V T ( ( U $.2.p & X.i.  @ g ,.a z a a z R E s Y s z h U z z T r a U U U z U s U E U ] E T r Y x a h h h ' U Y 3 Y #.' ( ' >.( a a a w = % % - H.%.a h Y h a i a a a i >...AXCXtXF % z g 1.( F #X7X%X4 % H.U ( U z h 6.) :.jXS   ( >.T a r #.*.V - ,.,.E U Y 1.a V V &.p Z 2.o . . # a 5.%.a z T R ( Y Y ( ^ T Y Y U Y T Y ! z Y Y ] z Y U z ! U ` U Y Y ! E E a ` U ( Y ] U %.t ( T z q.( / ( ^ { / ' ` / R t = , %   > 8.>.U ( %.Y U Y a ` E h a U z ,.! ` U R ] R ! ] ' ` R Y E ` E Y Y h Y Y E ` ,.U [ r k Y U = % s `.W.f.+.V 6 3 & $ # % & $ & & w u B P ..:.Z q       = 9.,.` ] ` ( ' E %.E &.' ` 0.! R ` ` #.' s &.` ' U R E ( ] ' ' ` %.! %.E E R E R w <.Y ( #.,.<.,.] ( T g e > , . % 9.,.U &.[ ] [ %.' E s %.L {.vXgX Xm   a k 7 x.NX|.0   % ] $.t.1XcXZ.5 o o & r P #XAX,Xu.v @ @ i b [.AXB.0   @ = % m B.OXB.7 h S Q Y -.j.Z.Z.e.f $ 3 * n n.V.C.e.@ . < > 5 n.tX@XJ   . s g M |.LXLX X0   3 F.&.6.R #.` ^ ( U r ",
"> , . R K.( g z r z Y a h h E U w r z h h h a U a a a h g a x a a 5.s `.kXN . 1 & 1 & @ e ` R r a q E ! E E i s U s W E R R T Y 4.W %.#.( i ) ) @.w @.9.@   > 5.x a a r z U R R R U s s ` a T U Y z a a R a U U R Y h ' ( { Y U U a E g h E U z q V #.#.#.7.>.( a z a r = > % > P.,.a R h z h w y r a w 7.P NXCX0XB & E r &.( B M.OX%X6 % ,.R ` E h r ` ,.S $Xz.@ X 7.#.` ( &.4 3 # # #.J.[ >.Q ~ +.8 Q Z 3 g.`.+.c o @ 3 >.%.a a ` Y Y ( E z ( E z E ` Y R U ` E ! Y ! U U T E ! E ` Y Y U ` ` E E ' a h z U ! U ' h t 1.T ' ` ` ` ` ` Y { / g e - % X e q.,.Y R E ! T a R z E z h Y E U E E ! E E E ! E ! ' ` ` E E Y R E U z a a 6.' E ` } ! ( # i Y.}.d.D V & * q w W ' 1.&.&.%.6.#.U u w 8 n A L d.Q > . . ; 7.%.] #.` E R ] ` ' ` R ` R R ` E ` E U [ ' E ' E ! R %.%.' %.0.,.&.' ! ` ! U h >.E ^ ( <.>.` #.Y ^ a e e > . % J.7.T &.` 8.%.` %.Y %.) k.vXcXbXjXx.$ + 1 t.qXvXgXx.&   w C b.MXvX,Xn.F 1 & H {.jXnXbX{.u.v   d v.eXbX0Xx.$ @ 1 A n.V.C.V.M V ~ X.t.n.C.C.Z.n.e.V C J Z.C.C.C.n.K * $ d n.%XtXtXn.f o % 9 a.bXHXLXcXy..   Y 0.9./ ` ` T x V h ",
"> > . l >.' g h z z E a z g h T ( q a z a a a z a a a r U g a z r ' ,.n wXd.$ w s V 4 # . R &.E z s w Y Y ! K.D.K.&.&.A.A.%.%.E #.h w # @   # 3 a W 1.2.b $ $ #.! a z a U U z E U U h h ! h R U U U z h U z z Y E E R ( ` E E U ' y Y Y r E U t e g >.>.1.,.] <.Y r q t = - = > K.9.Y Y ( z h g a a r w 7.F bXbXeX9 & ( i ,.( c x.*X@X4 @ 6.E E U E Y a 5.a p.].$   q 3 q ^ B `.-.g . = g #.Z 3..X9 3 ; % 3 / ;XVX@Xk.2 + X Y 7.R h T h x T T Y ( Y ` ! ! R R ( U E Y R E Y E R ` R %.E E ( ! E R U E ( U E E ( z ( x t 7.Y ' ' ] #.#.' / Y R g > , -   > ,.4.U ( Y R Y ( ( ` E R a h ( ` ( E E ( ` ] E &.R ` ` U ! Y T R ! Y ` s R R ] E z Y ' w X.;Xd.G N p # q &.&.w W z h U E Y h s r T 9.%.3 = b G L h.) . . & 9.6.' 7.` U ` R E ' ] ] ] E ` ` R R R E %.! ` E R ' ] %.9.A.%.5.E ! %.' ` Y z 7.( ' #.>.^ / ^ / z h t > > X & J.D.] @.%.&.` ! %.R &.A 1XZXbXCXZXwXe.$ A [.NXeXhXtXj.$ @ J >XhXtXtXOXj.7 T b.0XtXtXCXiXC.u.c a.>XiX7XrX%Xy.< a.M.{.{.V.V.M.b @.@.O. X{.V.V.C.j.X.t.B.V.{.V.{.C.Z.u.x.n.{.%X%XcXrXu.2 8 P #XCXbXAXHX#XM   X >.9.T ^ / ( h h g ",
"> > . g 8.( a i ( U h h h E Y U Y a U Y g s a a h z a a h a z l g 3 8.C p.y.S b W 6 % # . % s A.! w # . o . % q q a 3 u a w a 3 . $ * A t.O.B 6 ~ W.:.Q.+.4 y %.] U U z U Y U z U a U Y U Y s h U U R a r r z T Y U Y E a T T E h h U ` z Y z y - h ( ` ' ( [ ' E E q & & , % X 7.#.z E ( ( U y r a a w ,.v NXnXeX4 % ` z ] T B (.0X>X4   ! E ( R ' U z ` R 6 [.p.@ . 3 r B Q.+.i 2.V & % 5 2.`.5 & h a a a ~ 4XBXJXgX/.p   . r E R Y E Y h ^ U T x E ] E Y ( E R z Y Y U z R Y ! R ! Y T E R Y R x E ! a Y E x ^ Y g g 1./ ( ^ ) <.>.{ / R x i e = , + > ,.[ Y Y ! ( z E Y E E T U U U ^ ' ` R ! R ' ( ' ` ` R ` T R ( E E U R U a z a E U ! 1 H >XO.N w = = Y %.W #.( #.6.E R ' ,.] @.Y s q E >.' q 6 c B Y.h.#   a H.( &.%.E z ` ' R ` ' ' ! R ! ` ] ( ' R E ] ` U E [ E K.D.6.( #.E %.[ ] R h ,.Y ^ ( 7.>.' ' ` E t t e y . % 9.8.h %.4.' ` ] Y ! i l.ZXNXjX4XVXGXwXt.(.cXhXGXNXcX>Xe.+.|.bXjXcX6X1XZ.0 +.#XtX0XhXtXhX%XV.n.@XhXhXhXtXrXOXb.{.{.$X%X6X%X%X/.d Q }.VXvX6X@X{.n.W x.{.|.OX%XOX{.C.Z.C.{.OX%XtXrXnX7Xr.K {.bXiXMXvXJXmXB.< + g q.( ` / T h g e ",
"> , o t >.( g h a Y U r E a U a u a a s z r a a w a a a s a z g z t } ! b j.y.F @.C b w r @ + O 3 Q ..w @       . @ . . % . . 5 v L p.a.r.r.(.|.+.h.=.=.u r q #.z z z z a a s a a r E E E s W a z U U R R U s U U z U R h z ' U z ! s U z R a t t a ^ ` ( ' ` >.' E r = > & % % q.E z E ( R ( R w g w a ,.v NXnX3X& 3 ] z 6.E b  XNX7Xu @ % h R U T U U 3 8.r B ).Y.2 & U Z d q e y a @.X.W.+.4 4 a ( ( E w H [.kX/.p.W.}.t.@ @ 3 y = a E Y z U ( Y Y R Y E E ( ` ` z U R h h h E E Y R Y ( U z ( E E E ( Y ( E U R z a 1./ ^ E ) &.<.,.( Y U g q > , O q 7.>.U R E ' ] ] %.Y Y a z z ( ` ` ! R E E ` ` ` ` 4.E E ( E R R h E R R ' T ! V %.w L +Xi.Z & e a 5.h U ! E ` ` 9.` ( E ` ` ] ' ! ! a a z 4.&.& p F g.V . % E D.( ! 4.%.` ` } ` E ` %.' ` ` z ] E ! U ] #.! ' ] ` #.[ ] ` E [ ] U ' z g ,.U T ^ ' >.' <.' R g t > e . % 5.q.U ' #.' #.( U 1.c <XZXBXi.j -XHXZXBXwXcXZX_.'.VXCX0X;XgXNXFXVXGXeX7X[.|.wXNXvX:XGXbXiX6X0XtXBXJXHXHXNXcX9XwXjXNXMXjXJXLXJXg.f.:XlXlXfXGXhX#X|.gXvXvXvXNXbX%X%XOXOX1XrXeX}.lXNXeX7X@XNXCX1XO.-.+XHX0XP + . %.' ' Y Y z U g ",
", , . g ^ T ^ g h a U r a E Y U a a q w U a a z z E r s U s a z z a k @.p [.x.=.*.Q V p 3 ` ~ f -.+.Y.X.(.y.K m b p 4 6 9 v J e.M.m.b.z.).'.O.i & w & 1 1 = z Y U z z s E h Y a U a U Y E U U U U E z Y z a h a z U U Y z U U Y Y ' g E h R h t e E ,.#.6.8.,.1.' Y g q > > % % 9.( Y E ' E Y Y g a s w ] N GXnX>X$ q #.a ' @.b ;XGXrXi 3 = = #.U T ! E R r 5.1 ..jX/.4 1 q r q w D.R r % $ e a ( E #.%.i +.a.;X+.1 3 i F }.l.5 % 3 4 . = U R z U ( U Y z z Y U E ( E a U z a U R E U ` z T R z z R Y E U U U E ` %.h w A.^ E ( %.%.7.#.' ^ Y g > % > o e 6.5.z T R U ' R R h ! R z Y z R E E E E R R ` %.E ] E ( E ` ( ' ! E ( E ' z E ] Y ..'.O.T # 3 z a ! ( %.` ` ` ^ E 4.! ` ] 4.! q s q % & q 1 Y 6.r N A Z . # . ,.D.` E R E ` ' E E ` E R ` [ E ! R ` ` ` ] ] 6.( ^ ( ' #.&.[ ` ` ' ' R q 4.( ( T ( 8.>.` ( / h t e >   % 8.6.U E %.%.%.` ( / :.CXZX<X4 w N 4XZXHXhXhX'.< p T.cXvXZXeXcXl.J g.VXGXHXGXHXNXl.D h.BXZXAXLXZXgXa.O.W.lXPXLXJXLXfXa.p.l.wX@X4X4Xz.T.a.a./.kXHXhXkX3X;Xj.p.-XVXZXNXbXCX>XL 7 H <XJXLXLXAXbXi.8 4 L MXAX|.$   1 ( ] ' #.( U g ",
"> , . a 8.E U z Y a h g z z a U r s z i a s a a a s U s k Y U h z a i ' d /./.X.X.n w 3 r f | |.y.Q 2.E.yXgX{.M.k.a.z.).(.W.p.L n n V p w r a q z a 3 & r z h h z & a R z z U s a u s z R h a z a z U T E U Y h E z h ( U E R Y z Y E Y z Y a y q T ,.,.%.6.%.S.] z a = % = - % 7.] ( E ' E U h z y a a @.c nXiX;X# r 7.a #.*.n 3XLXjXi = $ . t ( a h E Y r U ` 5 h.fXw O 1 Y ] s > r ! ( ( h Y @.0.U 4 L M.}.A & q ` ^ $ d s.' i i 3 % & a E E E T Y R ' g ' R x ` #.E U U U U U E U ! ( U ( R z E Y ] E Y R z E E Y a 6.] ( #.#.#.1.#.' ' x g e > =   e 6.8.U R ) ' Y R ' E R Y E E z E E ` Y #.' ` E %.! ' ` ' ` ( ( U @.z ( E E ` U 4._ yXW._ $ y z E h a E E ` z E ' ! E %.' #.#.( Y s u # . % w a q A.r i $ X % - h 9.#.,.] ' ' ` ` ' ` [ ] %.` ` U ] E 4.R ' ( #.#.E ! ! ] ,.0.%.` U ` z q ] U ( T #.,.] ( ` R h g e = . O 9.8.Y ( E [ ' E ' 7 <XZXHX:.$ g h P hXBXGXMXG % 5 B <XcXeXMX/.9 u C p.FXHXHXBX[.N i b g.NXhXHXMXf.7 w p L FXPXFX0Xt.B d N g.ZXHXPXkXk. .D  .p.l.a././.F 9 8 b | T.z.).+XJ # % 4 b 3XHXBXZX(.4 i g 8 l.JXcXe.. % ^ z E ] ( h t ",
", % O ` ,.^ U U U h z Y U U E Y Y E a h U s s s z s h R Y z U Y h Y W &.p z.o.#.*.d q w { ` Q !.G._ <.1.xXXX:X.XY.p.p.B 0 f f 3 1 & q w k n r a Y ! z s e i E h R ' U @.&.&.' ( &.&.' ' ! s h s ! s T R U U z h a z Y z a h z z z a a h s U U E g ( #.,.0.0.0.&.&.z z e , = % O 9.^ h E E ! h a a a a U ,.G bXpX>X# q #.R 0.E A 9XLXNXp & 3 . t { ] U U Y R w ' ,.4 Q._.$ . % ' %.a i 3 r h g Y @.1 u f.#X#Xv % s a & } ,.q 5 ] ) j i r i . 3 x E T R T z s z ] s U ` ` R z z z ' Y Y h Y R E E s U U R ` E h ! U ( U a 6.] ' { ( ] ,.1.' / x h y , ;   e 9.6.R U E %.( U ! ( U E ! ' R ! ( E U ` ` ` ! E E Y r z ' ! ) h ] Y U ` z ^ ! 9.j fXg.w 3 r W z R ! R ! 4.z } R ( %.( #.&.1.1.! s r 1 q h # & 3 & s w r @ . X q J.Y %.5.` E ! ' ` %.` ] a Y %.' ` E ' ` %.( R { ( ` ] E ( ` ` ' ` E U a ,.( ^ >.` <.] >./ Y g e e > X X #.8.#.( E ( T ` U O.jXcX6X< > U 4.d f.NXGXQ.& : U a P vXhXwX .w 4 Y c }.vXcXgXL & e ( B 2XcXcX1XF 3 a r 7 '.JXHX3XD 5 3 V 9 -XHXHX3Xv 3 g W V D fXGXW.7 < r ' p ].HXLX/.6 $ i %.4 P VXhX9XB q E ,.3 9 <XLX>X9   R ( E ^ ' h r ",
"# X . g K.U h ' U s y g Y a U a a a U w z s U U ! ] s U U W a U Y U T #.N +Xc._.Y.S % = &.$.' .X_ ] ( @.8.1.g i f & & & 1 q r s W h Y w 3 s s Y r w a g r q 3 e w i s a U h i r k s a Y #.D.@.R z g g h U z z Y z a E z r a U Y Y U a U E #.a z t ^ #.8.8.A.0.6.#.Y x t % # % - 8.E T ' ' R ( U t i h g 1.v NXiX1X& 3 ,.h 6.@.F qXPXAXN > r # e %.E r R R Y R > R s C }.z.. . # %.! z a } s q # & F [.9Xz.N w s ^ #.Y t e 9.w & Z C 5 w g 3 . X z #.z E ' z a ( ` E z ! ` R ! U E E U Y U U z R a U Y U a U ` U ( E s w 8.] ` ] @.,.,.,.' ( Y g e , =   e 7.` U R Y %.` E ( ] z s z R E E E R ` R ] R z R ' 5.E Y %.#.' ' ! z ` ` E Y Y 0.T 5XX.& > r E h Y z h ! ' Y a E r h r Y %.8.X.X.$.2._ W W w & % % 1 s ] i X - # 0.] ,.] } %.E ` &.%.6.#.Y r ' E ` R E ] ( %.` %.%.' [ %.] ` %.4.` ! s g ,.T R ` / ] ` ' ' T Y t > = + X { ,.,.( E ( h ,.j @XcXhXf.# $ >.z &.0 }.Q.$ o R z &.d z.FXp.6 ; R Y V L gXvXW.6 $ y ) ( c 3XMXi.4 h ( s E D kXZXk.& g 3 ' W A }.:XD q r ! ! U c }.9XF f & Y 8.w J wX0XB & i ] z Y 7 /.VX..4 s 5.( 4.5 d.FXbXb.X ( ^ ` ^ ^ h r ",
"% o . t 8.#.U T ( ! h z T U h h r U z a z a s s s ] ! ' T Y z z a i E #.B gX0XY. .3 = U E ' %.=.Q &.1.$.@.3 = % q U ! E a z a q w = a w U z z R U r i %.g @ # % & o           . @ & o % # q &.D.6.4.h h z h U h U z R %.U h h ` z z z U R [ z s q Y E #.' 0.J.6.%.` T t - X X O 6.E a ! E E U U a t g g ,.B CXiX1X3 w 0.U 9.` F 9XLXNXN w w % = R E h U z W R U w %.u L $XJ . . w ] w @ % 8 S P z.>X[.H d 3 Y ' Y ( ^ 4.q > ,.r 3 _ Q % p r # . . z E Y ! R U R E E U U ` E U U Y U R Y E ! E T R h U Y ` Y E ` E R a q #.' &.,.,.1.' <.' / U g q = = . e 8.6.U T Y &.' a E %.( h U U E ! ' z E Y ` ` R E ( ! ` ] R %.Y ` %.E U R Y R ' #. .h.Q 1 3 ' W W R ! ( ` U r % @   . # 1 ! 1.7.1.S.@.1.=.X.=.S C n ~ @.$.Q # $ # #.#.] ] 6.%.@.8.! 7.%.6.%.Y &.%.E ' E U ( [ E 8.` ' ' R ] ` %.&.` ! x r 9.h / >.#.,.' >.T Y h g e > o - H.8.U ] ] @.' ) P vX0X0Xb X R 4.a ] h 4 5 # V &.z k ! n h.u & a A.Y %.u Y.-XS - q #.w E U ..].0 d T h q D.n T.-XN 3 w U t ,.d t.W.5 w a ] z 0.6 h.g.6 = T ' k ,.s +.p.4 3 U ,.Y %.d B :.d 3 W #.g ( s N 9XLXjXJ U U ( ( ( U t ",
"% O X Y ,.T ^ h a h U z a z h Y z r E s a U h h U s w Y U V U h a g ( ! P cXbXgXA 3 r i T R ! ~ U.<.Q ) d - q $ # a z h U E h s T ! h U W ! z a U ' A.U a i h r i 1 i :.+.H  .D _  .o   . + . & r ,.D.( W x z h h z ! E h U a Y z ' z z E E z l w E ) #.' 6.8.8.%.' h e = % X O 8.E a R R U z R i i e g 1.c mXcXwX3 a D.h 9.Y M 0XAXbXS q i . % ^ E h E W R ) z E y #.6 Y.Y.$ @   o w b t.j.[.<Xc.P i 1 j U U T Y Y z U ( h 3 #.V < D p # g r 3 @   1 U ! z z ( a E a U E E U Y h z Y ` U ! R ] U z a a ( E z ' Y ( Y a 6.%.] %.,.&.&.&.U ` U g e = ,   e #.{ h z R ` 6.U ! Y R ! E U E T E E R T @.E ` ] ` R E z ^ ` ( ' ,.7.z E ` a %.5.) f & % s %.' ( s r ( Q w d r 4 q 5 a d Q ) 1.8.S.1.1.$.=.=.$.X.X.=.$.Q V @ @ & E 9.( %.' &.Y ` ' %.' %.E [ } 4.' Y ` ! ` ] ` ` ` ` ' Y ' E %.! ' ' Y r ,.Y ' / >.<.<.,./ x h e > > o % ,.7.T ( U E 1.j ).cXhXW.# , ` ` [ t %.3 3 r %.&.6.q 4.w p 1 f } #.E r %.4 8 & r T ^ z = ,.4 p 5 Y V i U a 8.8 N 3 t 7.%.U s E 8 8 = t ` E z Y *.8 8 & y %.E ^ V h 6 6 > i %.) ! w %.8 p 4 h #.,.( i ,.& J NXAX$XU h E ^ E h h ",
"% , X g 6.` ^ ' U i s r Y a a U r U Y z s a a a U ] Y ' a h h a t x #.N d.CXcX<X4 5 a %.' 4.%.+.4X+.g.C u t w t Y z s E Y &.@.U Y T U Y z ` ! q 3 # = 4 g U i i Z T a Q j p p d b X.g.:.=.u & . . X y 1.7.Y z h z a x ! z Y h U z R g U z E z t y E E ' #.%.0.0.#.' ^ h > = - % H.R T E ( E Y R U h t z 1.c CXbX1X5 q 4.h 8.z A 0XSXCXG g w # . U R g ' E E T k Y w ' i *.!.2.i u C C n y.<Xc.D j 8 w U Y U E T ( ( E z Y ` r = ,.t 3 @.i 5 j - w % # a ` E ( E ` ' ` R ' %.R Y Y ! R E U U ' ] ! Y R h r U h ' U E R w >.' %.%.,.7.$.,.` ^ U g e , -   e 9.,.Y ` E ` ] Y R Y U ` R Y E R @.E R R ` ` ! %.@.Y ( ' E ( ` ( %.[ %.` ] R %.#.#.w o   k i a T h U @.) s Z V N s s j W h ( 2.,.$.$.6.6.2.8.S.=.`  .*./ V # & . y q.' ] %.K.&.R ` ] %.] U ! ' ! ` ' ` ` ' ] %.` ` ' ' ` 4.E ( ( ' ] h t 1.( ] >.>.>.>.] ] U g t e > O , >.6.( ( T h ] n ;X<X<X5 = t ' %.' W E %.] z ` } %.R i w.r r a ! } E V U U a 4 e ( Y ` a ' W w a 7.7.i Y w ] a a i g ^ ( x a 6.r r i h #.U ] % ' s w q ( 4.] 4.z 7.y q i U &.( E s s ' a a R w.,.%.z %.( T $.W.g.T Y z h U U i ",
", % . q { z z T R Y ` a z z r z U z s U E h E h U ^ h U a ^ g z g h #.9 >XNXcX].w & T %.#.K.n P nXMXW.4 h 3 3 h r U E Y E ( a E ^ U s Y U T 1.T d V = w Q r 3 % u a T 3 1 q 3 $ & # & w p D s.2.& + # & U 0.` z Y z Y U U U U U ` a h a U ( z l > E / ` ' <.,.q.%.( ` h r = , % 4.E U ' E ( ! U U U t t 8.G BXbX$X$ 3 %.h 6.( N 9XSXmXD = q $ . z E T E E ` R R z z Y a s S.I.Q b F.1.@.1.V $ q R E z R R ' a R W z U z E R E h 3 5.i 1 ) j q i w 3 $ % a U z U R Y ] ( R ` ' U s E h ( R a E U h U E R U U Y Y T ( #.i 1.,.@.%.&.,.%.' ] / g t e > : . > 8.9.Y Y ` ! E E ( ! ` E ` R E %.' x z a z R ( ( ' R ` ] ' Y E ` ] U ' R ' ' %.w.=.X.3 # & = 3 w h i $.V i p p i V V ' ! W T %.) X.=.6.6.$.$.2.8.8.1.1.) h 4 $ X t 9.E %.%.' [ ' ` ' 7.&.` ] ` %.! ` 4.z ' ` ` ` ` ! } E ( E ` ` ` ] E t ,.' <.,.<.<.7.#.<./ g g e > O & ,.8.%.] %.} 4.s Q N r r z } ] 4.` %.U ` ` R ` E E %.E ` 8.Y Y ! ! 6.! w %.0.R E ] E R Y a 4.8.9.7.A.) %.Y a ] %.! ( ` R U Y a 6.] h g E z ' ^ a ,.6.z ' %.` ` ' U 6.%.R Y ! ( ` a U ( 5.U ' [ >.#.E Y 4.D.E.9.>.^ Y h g g g r ",
"% ,   z ,.U z [ ' T 8.h E a x a Y h g h z U Y z T ( E U U g g V g ( #.v wXZXvX..w r ' s &.@.6 (.nXbXp.3 U D.h 3 ( q h r U ! ,.Y Y ' U U ( 6.&.Z Q 1.S.=.r r U %.' &.1.' T E h i u a U 3 & % $ B f.| 3   o w 6.4.a a U z U Y z a Y Y z z z Y z g t ^ ^ ' #.>.,.{ >.,.Y a q = % = 9.R ] %.R R z h h h t r ] D vXiX[.& q %.z 4.V G :XAXmXL & & .   r Y Y R z ` R ] r ( i ] q 0.D.L.0.2.D.X.@.s @ . r w.` U R Y ] h U Y x U Y E E E g r 7.a 3 W j h T g i w o ^ Y ^ Y z R ` z E U %.Y E ( s T z Y ` Y h ` U s Y ! h h T R s #.,.#.#.#.%.%.' ' Y U g e > , . y 8.9.( 4.E R E R ` R U ] U E R ] Y ] ! ' z Y R R E E E R Y ' E Y %.! ] ' E E ` w.s.4X .3 = $ w w V T U s s s ! W ( V Q V @._  .$.1.$.=.=.&.2.,.2.@.X.) ) Z i - X t 9.>.! 4.%.` ` %.` 9.%.R %.` x R Y 4.5.` ` ` E ` ` ` ` ` ! R U ` R R g ,./ T { ] >.>.{ ^ ` x t e > O o ( 6.' R ^ ( &.q.7.7.] z h ( U &.( ,.` U ` E E ` ` 4.8.` U ! Y } ! %.] ] ,.Y z a Y @.R U U a ` #.R E q 6.@.! Y a W ` E ( &.z Y ' ( U E U ` ` ' R r ! ( ` E ' ` #.s ] U %.` R ` ! R R Y %.%.E %.%.U ,.] E [ E 8.` ] ` Y g t t e ",
"% %   = 6.R w U a a %.a z U s h h h z a R Y a h z g ( x Y ( e h 3 A.b /.AXHX-Xp 5 a ` R 6.U b >XcXgXM % ( ' t U i z a a a h T ( Y h U ! Y 6.! i ! E i h 1.1.S.@.) ( ! W u % @ % % q a h ,.! % $ 1 ~ f.S o X ; 9.%.l a h z U E z a z U a z R z a e Y T ' ` >.<.#.' ] Y h q = = X A.] h ] E E a Y h a a r 2.G bXnXm.% t 9.h 6.) A @XSXcXF y & .   r z U T E ` ( W Y ` h ] 3 s S.I.1./ 6.6.@.X.% . o w w.` T s ( U z U Y E T h U R ( t g >.q w _ 4 i j g $ . w E E s } Y ! U U E Y a Y ] ` ' Y U ( R w R r a a ` E R ( U a ] %.,.,.$.] <.' ( / h g > > , . t 7.7.z ' ( E ! Y ' R E ( z R ` ` ] ( ! ` ( Y ( U E E [ R Y E E ` E h E ( E E ] &.$.Y.i.g.s.:.h.s.g.g.<.&.*.! ! V T T ] #.,.,.( 1.$.0.=.9.A.8.%.] @.] ] $.s = & a z 7.%.` ` ! %.] ' ` 4.%.4.E %.Y E ] R 6.0.' E ` ' ` ] ` ] ` ' E E ] h i >.z [ #.1.,.' #.) / g t > > X % ( 9.( ` W T R E U ` ` E z R U %.%.%.E ` ' E ` ` ^ } %.' %.R R Y R ` ] ] &.' ' U ' ( U E U ` h ^ g R { s a r Y ` ! E ' ( ' ( R ( ( ( ( R ( ( ( E h E ' ! ' [ ` ( ( ] E ' #.z ` 4.a a E ' R ' U ' z ,.E ( ] ' ] >.( ^ x e q e = ",
"% , . g q.^ h z s z ` U z %.h a z z a r z a U z 4.E T h g ( 1.h g %.B wXZXZXf.3 r R U s S.i K eXhX@X5 q #.h T T ! ! W s U r w E ] z h U ' a i @.U i T 1.8.1.$.] Q T E a & o = q l U y q 1 a ,.T r # 8 Y.U.* o % A.E z z z h U R U U z h U z E l t T ( ` ( >.>.#.<.>.E g a = = % H.` ` ] R Y a a h a w g 6.D bXnXz.- e ,.h ,.,.N M.AXrXB t = .   z Y z U a U U U E E T h ( q 8.S.8.@.7.,.@.,.%.3 * o 3 4.&.R z U E Y R ^ ( ( R W T { w E 6.t N 1.w h V i @ & g T U z Y ` U Y E E z R Y R U ] z ` E ' ` s E R ` Y %.T ( a ) ] %.,.,.,.>.] ( Y g e y > > . e 9.5.E E R ! E E R ! Y E 4.s s R E T %.R Y Y ' z Y Y E ' Y R ! ` ' Y h %.! U ,.( & V _ B $.B A S F p 4 w y w a ( ,.w 3 % w a a 1 a s r h a r q 3 3 a T V 4 & q r U ` ` ] ' ! } ` %.,.,.` ' 9.A.] ] ] s E %.6.! ` ( ^ E ! ` ` } E ` ` R a 6.[ #.#.1.,.#.^ Y ` h e e > + X T 8.Y T ` U U ` z R ! Y ` U T Y [ ' ` Y ' ` E ! ` ' [ ` ( ] %.] z U U k A.8.U z U ` a Y U R [ ` U %.^ &.} R R R R Y ! ` ` R ` ' ^ ( E E T ' ] U Y ' ( ^ U ` ` ( ( E >.` 0.E h ` 6.U Y E #.` E ' U #.%.( { %.( ] ( Y R g g r t ",
": , . > ^ t t g R U z ! h U U z = a T g ( T h g z i h g Y r ( ] ,.( i.rXcXeXS 5 a ` s E ,.5 /.bXrXc.1 - K.U a a z U h W h a a a U ! Y 8.E i 6.y h 6.,.<.2.1.Q h V Y W r a > * a k R E R U z % q ! W % < i.R.@   t 0.h U E Y z z z h h h U z h e t ( ( ' ` ' >.#.,.] ^ t y = % = %.` s 4.,.U a s z r t h ,.G cXnXm.# 3 ,.g #.' c M.rXrXD r q $   r r a Y Y E Y a U ( z r 5.# 7.E.1.8.<.%.#.6.8.`.a.* o > ' %.R a U U E T z z #.U U } ( a R U a p ) r p a 3 # h U R U E Y U E Y Y R ! R ! ' ` ` z R ` T z U a ! R z h ] h ( T ,.,.>.] ) ( ( Y g t y > > . e D.( E E h ` Y E E R Y E %.] R E 4.s ' ! ! E %.] z ( ! R U h ( R ' ] %.E [ ` ` [ R & % 5 4 w 4 5 w & h a a W E a a r s ( 1.%.W s a s ( s s E ! W U U a i t a a R Y ( E E ! ` E ( ` ' H.4.E %.%.U %.` ! ! E ! #.` 5.' E 4.E ' ` T R R ( g 4.x U ` ` 7.,.<.E ' / t e e O # ' 6.( ! Y ( ' Y R Y ! R z ' R #.>.' ` ( ' %.E ` ( ] 4.] ' ` ` &.' E z [ E ' R ! E %.( z a ( R E s R ' ] @.` ` T #.a Y %.E ` ! E E ` ` ` ' ( ! a U a a } @.R ' U U U U { } ( ' r ` ,.' T #.R E ` ' ( U ^ ( E ,.( / / ' Y Y g i ",
"O % . t ^ g q z h ( ( s z E ` R z U ` ,.#.Y h a Y a a h s U T Y F.p ).bXNXY.Q 4 z ( z 9.a 0 1XcXeXo.# h 4.U Y R s g h U h h a i z h ! ' 8 S.g ( D.$._ <.) 1.) @.E a V z s s k ` s E E Y z z ] z % ` &.& f =.Y.@ % ` 6.a ( U Y R U U Y z U E r a t Y ( ` / <.>.` Y T T t 3 % # > 9.%.g ' ( R Y z i g ( a ,.G vXnXz.# 3 ] h ( Z A {.7X0Xn r w = . s R z E ( %.%.E z Y Y y { 3 { yXE.F.9.$.$.8.W ' lXz.6   % *.8.` g R ^ Y ^ R ] { ^ z z h r 8.E = _ i 3 g w # r T #.s U ( E R R z h R U ` ! ( 7.[ U ! ] R R ' a Y Y E E s E ) ' ( ,.,.6.] ( T g e e > > + t ,.1.U ' Y R E E E E E Y E 6.` [ E ` ` [ ! ! x %.! ' ! E @.! R ! ] h ' E ' R ` ( 6.U 4.%.' ` { 5.R ,.0.H.I.P.!.A.#.] T D.@.%.T E ' E ( 1.%.] ' T T Y U V E T ( ] E ,.( ] E ` [ ! %.%.5.%.%.` %.z E ' R R R ` ] ' ,.' ` %.Y ` %.' R ' U r >.U U #.] >.#.<.` / h g > > . % #.8.V ` s R U ` R U Y ` U U Y E ` ' ` ' ' ] ] ` ^ 5.] ` [ ! ` 6.[ ` ` Y ` ` ` ] U ( ' Y ` E [ 9.%.[ %.R E ` a %.U ` E ` 7.' ` ` ' R ( ,.R %.( E E ( ( ' @.w.A.! #.#.E ' D.%.w.R ( ] #.,.%.%.` ` 6.] U U ( ' %.( ] #.#.' T a q ",
"O O   , >.R r r z h R E ( ] a z U Y ] ( h h h U h h h s s a E F.' A 7XnXcXi.4 3 ( U E 1.5 I bXnXwXF % [ *.E r a U ! g z z h 3 E U T A.W +.d.d 0.&.$.( / V g h w a w a T Y %.Y a r a ! ' s E z z k q ; #.q $ s.F   % 8.Y U E E h z a z E E E h a y Y T ^ ( ' ` T { / U i % % % > 8.[ z E ] E Y Y a e U q ,.v vXnX).$ t 1./ ` ' M @XtX7XA i = # # y U a E ] E E R E ( z h T U j K.F.A.F.1.] ,.1 &  .:X-Xf . % E A.' Y ( E E E ` E E z U U z w ,.z w 3.4 w q y # g ( E a z ` ! ( h Y ( U %.R U %.E U U R Y E E ' E h T ( s E @.#.E ,.1.,.( ' ^ g r > > >   y D.] R %.Y Y ( R Y E ` R ! ' ( E z Y ' ' ' ( ` E ( R R R ] ] h ( Y U E T ,.U Y ] U ` R z z e U W E ' ' &.~.A.#.0.6.#.E V h h ( U s a ] ,.7.K.H.6.( 0.] 9.Y E ( ] R %.` %.` %.] ` ! ] 0.' ( %.4.` ` ` @.R ] ` ` ` ' %.%.%.%.%.] ' U ` z r 9.Y z Y ' >.#.[ E R t > > , X - { 9.Y h U s a s a s a z U s U ` ` ` z ` ' ` ` ` ! ' ' ] ' E ` %.' E %.` ' %.[ %.' E ` E ^ ` E ' ' Y U %.E ' U E R ` %.#.' E ( ` %.Y #.5.] %.' Y h E ' ! %.#.%.( #.=.E @.w.%.z 0.E R R ' 6.6.` ' %.9.( E #.Y >.' #.,.' h h r 3 ",
"% O . = E h a a w w Y Y Y ! ' R E ^ U h E ` t a z E h a r h a ] N z.cXCX3XS 3 E A.W _ &.w m.bXAXdX7 & &.E k r z z U z a h h h a z ) ' c '.F Y &.*.! T U g j r w } ' z a s R E z z x a Y R k Y a ` z k % 6.& C /.$ . ! #.U a W a h g U z E U T h y U ` T ` #.` ` Y U h i & X X % A.` ` 6.Y [ U s U V g g <.M vXiX[.& = 9.T / / P cX7XOXA U a w & h ( z z U Y 9.U ' ( a ^ r ,.= 1.L.7.1.>.9.s # q g N /.-Xp   o Y 4.&.E Y z a Y U E Y Y T ( r t @.w 8 Y.3 > $ # 3 R z Y ` ] E ] ' s R z ] Y E E ` U Y ( Y Y Y z R a E %.z T &.#.! ) 6.,.%.' T Y t > , : . t 7.#.z ` ( U E W z U Y E T ( E R E E Y ' ` &.' ` R U ' E #.' E ' ` R U Y ( h R %.&.U ' E a ^ U E U U ] %.E H.%.,.] E z ( ) ( ! ' ] ' ! ` ,.#.4.! ` 6.8.J.D.&.E ( ] E E ! E ` %.E %.R ` ` ' ' [ ` E ! ` ] R %.R ` ' ' &.8.%.4.6.` U ' ` a 6.g ) ^ ' %.8.,./ ^ x g = > X % >.8.U R U R E R R Y R z R ' %.,.4.4.4.%.' ' ' R ` ' ` ] %.E %.' #.` E ` R ` ] R 0.,.R ,.E ' E ( R ` } ` ' ' z R R ! &.5.[ ' ] ` Y R Y %.` E ` ' a @.( s R ! 6.E %.&.U %.9.` R 9.` H.` ] 6.%.%.[ #.8.[ ,.{ ( U Y 8.>.' T h r y ",
", %   3 ( z U h s ! z h ( T ^ T Y t h a R T T U y U x h T Y ' W t.<XAXZX).2 3 E U = E s A 9XmXAX@X5 o ^ J.` r r U Y E a R R h w a 6.u i.;Xs ( @.S.%.Y 3 3 E #.Y h U a z z a U a h U r a R z s w U U ` r z Y 2 l.i.. l { E g ( U a h Y U E E h a r T ' #.( ^ ( <./ ^ h r = % # X 0.U U 0.5.6.r z z a a a 4.G vXrX).# 3 ,.! _ $.f.AX#X#XB g Q i r E ' a z ( E ' %.U E h R U 0.q 6.H.L.F.] $.G.@ @ ' r d g.4X| . @ w 9.A.` U E ` E g a h Y U E w U ,.1 D 1.& $ 3 @ a ( ( h Y E ` 7.` R E z ' Y ' [ h z E Y Y U E U U Y ( a R @.1.%.E ,.&.( / T R e = , -   e 7.Y h ( &.Y E Y Y U R U R U ` Y R ] Y ] z ! %.4.E z R Y R ` ] E ` ' Y R Y E 3 4.%.E ` { q y Y } E Y ` Y U W U Y #.&.] D.&.&.' 0.&.} R h #.] E ` ) a a !.9.' U E ! Y ] R U ` 4.' E ,.' ] Y ` %.' z A.' #.Y U s ` [ @.` ' ] &.( ! Y ' ! r ,.U E E h ' %.%.] Y h t > > o X [ D.' E ! R U Y E E ' U &.A.E r w u %.A.&.R { } ` } *.` #.%.%.6.,.7.%.4.&.%.%.E ,.9.8.6.{ #.%.] [ 7.` 6.,.%.' ' ] ] %.7.W i a 4 % & 3 k s a r s r r q q a z k Y k U a a E h U a i E E ! ] ( ] %.[ 6.7.#.%.%.6.4.4.,.] ( Y g 3 ",
", O   % ^ U U W R T h ( Y U a E a r a a h r r a r 3 U U V t E n /.cXiXCXz.5 & * @ 3 $ N a.{.7XiX%XA     z ` a r Y r r a ( a E h z %.8 (.(.4 g ' ( ( E ( ' T U s z a w a U z a Y U z s s a U a z w z ' ! w w.% m }.$ % 7.h g Y T h a z h z z z z r h E Y z ( ` ' ^ ^ h q & # % = K.R a R #.` ` a a w w a &.F NXiX|.* w #.Y T W i.AXOX@Xp W h w 3 E E z h a z Y z E ` z T h ` ] T 1.D.g w h -X9 % q Y q 7 p.<Xd.@   : &.7.` E U Y s a U h U E E & 6.h 1 :.G.@ # % a h %.Y s R R Y E U h z U ! E U U U R Y U Y E z U Y ( h Y ] %.#.%.1.,.) / h r t = - ,   t J.` U R R ' U E Y ! z E z Y R Y Y ! %.%.' Y U %.6.( R R U E Y E z ' ! R E z r ! R z 7.T #   . e %.z Y #.] s Y ' ! ' R U %.&.*.&.w.%.%.U ' ] ^ ,.h % @ a %.' ' T ( R ] ' E ` E ,.%.6.R U U ( ] %.%.' %.%.R 4.#.R ' R ' ` ` 6.' ` ` ` { U 6.y U ( Y Y ( ( E h h g > e . X ` F.' ' R ! ( ` ` T ] 9.Y . # . . % o r 6.&.R } ! [ ! ` ' ' z E E ` E R E R E ( R ( ] %.%.` ' 6.] Y ! %.Y ] z g y = 3 r a h V s w W V 1.6.W ! 1.X.$.! s s 1 W ! ) V W i U n ) W s s s U i 1 r a w r a q 3 $ r R 6.,.] ) E Y g ",
"= ,   > E a U z %.! h h U Y z ( Y i = 3 q w q z a w % $ # $ 2 a.,XrXrXAXB.2 o @ X . 3 ].NXbX{.(.k.W.X.X % ! E a U i & q h a Y W l E 6 1Xp.3 h V V ^ E U U W i r U r r Y z s Y z U s h q s a T U U k r ! k E ! p ].D @ %.g g U E U a z a z R a z i U z h E ' ( ] ( U g t = - % % 9.E x ` U E E z U U z r @.G AXrX+X$ = ] Y ( W +.1X%X#Xc i g 3 = R U U h z R Y Y h U E h W a &.3 { E X a i L W.$ % & %.a w O.}._   o % R 9.,.Y h ' Y z z a g R U q 9.a $ h.V O # z z E Y ! h r ( s ` z a R s ' ' U Y ` E E Y U z z ^ ` U h E ' %.>.1.%.' / e R i e , %   t D.[ g %.Y Y R E T R z E h Y z R ] ` E ' %.%.E z ( ' Y ( ( 6.U z ( R ' R ` ] U h R 6.a . @ @ .   = x ` T #.( #.a & X @ o X . * ; x 6.` T U ( %.U j 9 . q R E U E ` z R ` z ` Y E ( 6.>.( E ` Y 4.[ E ` ` &.Y ! %.! E ( ' U E ` ] E ` ' a 6.h ( E z U g h Y T g q % > X # ' q./ ' U 6.( %.( ( 1.1 @ I j.z.S *   o w %.0.E ( ' E Y 8.k X . X # . @ o @ * # @   . % % % % o %   . X .   . . . X 3 i i w d w $ i w 3 t 1 r w a T s i 1 @ = 1 1 r 3 q 1 4 r w w i i h W s W T h s E h r 3 % . &.#.#.( ( z i ",
", =   - z q R W ' ( U ( ( h z h g ( $ % & U s @ % 6 9 F y.j.M.{.OX7X7XrX,XM.5X`.Q.Y.,XZXNX7X$XF 8 8 O.Z   & w.a Y ( s #.w Y Y h x E 9 1XJ * a R.%.W ) ,.6.#.' ,.8.&.%.1.%.%.%.] &.A.8.&.! %.0.%.6.#.' ` J.z E.d a.+.. R %.h U E E z E Y E E R E e { ( ( T >.4.[ / ^ U h 3 - % , 0.! z ( E Y Y U r w E z #.B ZXiX@X$ = ( ] ' ) L (.gX@Xo.w g = z U ( E Y a h ! E U Y E R ( w &.% ` R . > ^ < /._   X r 6.U &  .W.W.d   o r 7.,.( a U E r E z U E g a A.q 7 W.= o a 7.g a ( %.R a r z E Y z R E ` z U E ' ! h R a U E U a W E ] #.] ' ' ' / r x e = , -   t H.#.z Y ! ] ' ( z T s E ( U R z U ' R ! R ( &.' R ` %.h ! ' ` Y U ` ( ! Y ! z r s 6.Q O. Xn y @ + > R g #.#.q . @ . @       . + . w H.U ( 1.r 4 J K < & s 6.! Y E ,.E ( ! ] [ { %.%.#.%.z E ` %.A.` ` ] ` %.( ` ] [ R ` %.Y z ! ] [ E a 9.z E E E Y h Y Y h a % : = + - >.D.' ] U ` U 4.R 1.w J |.gXBXJXFX;XP @   3 J.0.' ( ( T 0.p u 1 b B ~ D F b A F F B d q q f q 1 1 d p b j V A F H D _ D Q C V V w f q 1 3 q % w V d b N N N d b b V b Z S B V N C C Q _ C N Z S D @._ ~ S F W w %.%.&.[ Y a g ",
"q > + O t t = t Y Y R ( E z a h ,.^ 3 q * # _ Y.'.>X3X9XtXjXeX0X,X%X7X0XrXNXvX,X#X@XOX{.#XwXH & s k p Y.d # Y #.U E R R h U T a R Q N wXF . X t q $ w 3 w i w 3 i 3 r t i a w w w r w u r a a u r w y r z & &.w k.z.& r %.z z Y ` U z E U E r t t T ^ ,.] ,.,.%.Y ( Y t = % % % %.! z [ ` ' U q a h a w 1.c NXnX+X# 3 ,.>.8.Y B (.ZX,XD w 3 3 t x R T ' a U z U E R R z Y g ( 4 Z h.+   ( - +.W.$ . k } U w 3 F W.+X$.  O , ` P.4.( Y ,.R Y Y R U r T ` % | Q.. # R [ ' U T &.&.z Y ' E ' z ! T Y ` a z E R E h h Y Y Y x Y ' ' ` / / ` ` Y x r > > %   g J.[ E a T Y E ' ! R R z T @.! E ` ! ' R E ! U Y ` ! ' ( %.U U ( ( Y E E ! Y r Y a 9.f L }.>X_ #   o x 0.z & 6 K /.|.}.-X}.z.7 .     } ,.T q $ d.;XF & q Y &.` T z #.R U ! ( ] E ,.E.E 5.! ` 5.6.P.E R &.' %.] %.] ] R ` %.z E a R ' %.a ,.Y T Y E E x a z E z t = = X % ' D.' U ^ ,.( E ,.U P 0XvXNXBXFXGXJXVXk.@   a 9.{ ^ ` U ] M |.gX+Xb.:X}.'.z./.}.$X;X}././._././._./.].'.].).'.].'.W.l.W.l.g.W.Y.:.G.h.h.h.g.g.g.s...L Q.z._.W.W./.W.W.]./.W.W.W.W./.W.l._.W./.c.W.:.i.W././.0.H.[ / / ( U g r ",
"- > . O t > = h x R h h ' ! z Y ~.J.i # w C p c F D F ..p.p.t.P L ..J i.P L l.W.z././.].G d 1 q q A.U N p # a #.U 5 q ( h q a a ` R c 1Xa.X   . O # # . # o . o . . X               . . # . % .     .   . @ @ v l.N.4 & 6.t z z U Y ` a ' ' U y e U E E ,.6.,.] ( / h r = = % e 8.E r ' R ] h U a h h y 7.B bXcX(.1 - ) 8.K.V 9 b.CXtXD $ 7.>.g U a z ( z U z U h R ! z ` y z U j <Xq   g h 4 +XF + & 7.a } s & i }.<Xs.q o . l >.>.q.t ] E ! U U E q 6.U 1 O.X.. = ( 5.T h E ] x U U r h R E Y E E ( T ( U U z U ^ ^ h h ( ( ' ` R { ^ g Y Y r = : , + l D.>.U R R E E Y ' R E U U x ` ` x z R T U E %.z E %.,.E ` #.U ( E h ( z { R %.E r U z w ../.4X3.o   & 6.$ D M.$Xf.F F F L W.9Xa.*   . & % B m.<XO.f % w ' } &.Y U U ^ E a ' %.( h ' ` A.' %.^ r %.&.Y a E ` } &.&.%.T ` 4.` ! z a ` ] w ] U ` U U E ` E a h t = # % + = >.D.` E ( ! ] T E A 1XZXtX;XP t.2XMXBXlX|   . ( 6.! W U ] P jXNXh.9 b B F F _  .G V u 6 4 w 6 8 8 V d 4 8 i 4 5 4 5 1 4 p 8 j d d 6 N 6 b p u p p d d N Q p C V Z C s u 6 6 p 9 N B j Q A B  .B N B ~ B p g l >.` / ` ] ` i r ",
", = + l ` w t t a U Y z U U E a 8.%.& $ % 3 1 = 3 3 s _ | C d N C N d p d 6 3 5 w u 4 3 4 i u u U a 4.& = 3 ( S.U g a a z ^ y s E x B m.).P h.2.G.g.h.f.h.h.s.h.h.U.h.s.h.s.i.2.:.2.2.:.+.X.X._ ~ S _ S S T +.].;Xa.5 % >.a U E z z x ' a ( Y h t E ` W T 6.,.( T x g e = , % % K.%.z E %.#.w Y r a i a #.F hXnX[.< = &.,.D.V 9 B.7XtXF @ ' ( T R a z E Y U h U U z z U ` E l 6.< /.Q   - 9.$ t.].&   W 0.t x z % j R.W..Xi     % ` q.U t h { h a Y Y w &.1 4 _.N . > 8.%.` ` ` U ` U ' r r R R U Y R U R E Y z z E ( g U ( ` ( ` h Y Y / Y e e = , : . t 8.( U Y U ' E T U U E z U Y E Y ` Y ! Y ` a ` Y ' R R R U ' R U ( E ( T E R z ( ^ q Y ' 4 :.l.<XX.%   q B OXl.d & % $ $ & 9 i.).J * . # F |.}.P 5 1 % ! T r w W r 3 3 & @ 3 U E E U ,.8.6.6.U z ` R ,.E Y Y ' R %.5.] ` %.E E E U ' &.w [ ^ U ' ( ^ ( ( U V g e , % . % ] A.' ( ( ] x ,.h l.AXbX1Xc w w b '.vXCX|.0   e 6.( R h ^ p.gXhXC q % * 1 q e w > q q q q 3 q w r q r t h ^ ` ` ` ` U s W T h s n W W s U W s W s h U z h a Y W W z ;.s h W Y a a i a a w w r i r r r r q q r [ ] ] ( ( ( h t ",
"> , + [ .X9.U U E a ` a z s s R z %.i h U h i W *.R ! k s d i w r z r a i a a r z r V U a w E h W s h ` 4 h U [ #.U a z r Y z a ' ! 4 j _ N N Z C V S 9 A n b C Z N 8 d 4 6 2 2 2 4 6 2 6 d 6 4 4 5 5 Q 6 u 7 8 c p r q #.T R E z z U E #.Y U z e U ` #.#.9.7.' ^ h i r e = % % H.` ! Y ` 6.E U a a w r #.H bXnX|.# r 6.#.' V 9 $X%X0XA . E E g ^ ! a h a h R U E z z a R %.a 9.3 :.`.+   >.( N $XB   : 4.} k *.U # # W !.,.n .   . g ,.1.U Y Y E Y ] Y a ' % c _.% + a H.,.R z %.E 6.%.Y ( z ! %.] ( ! R Y U ` 4 g Y h U ^ ( #.T Y ) / / Y g e = % % . g E.{ z ` ] ` E E E R E z x ! ! R R E ` ' %.' x ( #.] ' z ( z %.#.U ! ' ' U E E z T D.w z U 9 | a.fXn $ w a.0XF % w a U ( E Q h +.Y.a r F |.$XP 4 3 y ' 8.@.&.a 3 w g s a q o . r g ' U %.` D.' ! ^ Y ' E %.E ! 4.} ' ` ` ] U Y ` ` ! 5.a 6.Y ' ( ` ` ( ^ ( h h t , > + , >.9.) / #.T E ,.B <XZXMXi.w 4 w r C jXvXdXK . % #.&.] h ^ p.hX<X2 > &.) ' w.4.%.%.` ' %.@.&.E ' ( #.7.( ) >.] R E E E U ` #.^ R E ! } R Y ` R ' T #.' Y U T ! } ] ! ` ] ' ,.,.@.) ! %.8.,.E ] R &.' 6.,.8.] W V %.,.#.( h a e ",
"= , . l 6.0.U g z Y R s z a U a h a r = q & 3 w 7.!.U e & % & = & w q r q 3 q q = 3 = 3 r w E z Y E h r q w ! 5.z z a R Y z z a s 8.U w 3 3 & & % & 3 % % & 1 w 3 % & & * % & & $ % * $ & & $ @ $ # = # # $ & # % & 3 i E ` U ` z a z U #.Y Y z r E ' [ ` %.>.T h Y g 3 q = % # q.Y T E #.#.] U i r s U ,.L NXbX#X$ q 7.( ( g L tX%X#X... [ E R h Y E ` U a a z U h h Y Y E Y ' E F :X%   g K.p d.l.= o ` 5.} U ! ' & & &.&.| u #   . % U %.6.E x a z ] w ` &.% +.s.  . R 5.E a Y h z z Y ( ( U ! ] R ( ' E z E z E a z Y E ' ( E Y z E U z g e = > ,   t D.E t ] ' %.` { E ! %.` } ] w.' ! &.#.&.7.H.' Y w.7.4.%.&.] E 1.' #.%.0.%.,.] { E ' ,.( x ) d D a.2Xj *.f.[.d @ U ,.E ] W A.W _ !.Y +./.[.A 3 3 E 9.D.8.D.1.Z p w p a i s w & % s Y ] ] 9.A.#.#.{ *.&.' &.#.%.,.,.4.7.H.6.%.U U U ^ %.q ,.Y R &.U ( E Y h h g g = > X % %.7.` U ' R z 6.F jXAXgXN > s ` %.< /.vXNX).% o } 8.R z ' O.6X$X# = 1.( ( U ( U ` a z E Y ! R g E z ' ] z ( ( } ` w.` R ! E %.` E ` ] ` Y ` E Y z U [ ' ` } s ! R Y z %.%.#.` E ` ! ' ] U U E z U a U s ` i U h 8.6.1.( R x y ",
"% : . z A.U z U h z z R U s z a a U Y z U a z z l ` %.s u a a U a h h Y a w h z a U i g a W ] R z U Y U z h a ' E a r U z i w x w w h r q q a r i g T ( a E Y z T Y U i z Y E W ] Y h &.%.( E ,.` T w z ' ! ' Y ! ,.' R a z z g h U z U T Y U s q z [ ' ! #.' ( / Y h g y % % , D.' ' E ` g U z h a U r E L NXnX<X< q ,.x ` V H jX6X0XL . ( ( z E r z E Y R a s z s a a h h k w 0.8 }.w   # 9.h D }.9 . a 7.E E K.E E a w $.@.c 4 1 #     # s ' { z z ] h % &.y 3 _.F . % %.] E ` z ` Y E E ' %.( E ] E E U E %.` E ` g h ( #.^ ( ^ ( g U U i t , > ,   a L.Y r x E U E ' W a 1 q % $ * w * 3 w o r w q r * & % q % % & & % % w $ = = # & & % % & # w i 3 3  .K.) s.n $   % a @ % # U n @.!.1.*.+.9 3 & 3 h 3 g W ) V T Q ( W d 1 1 * 1 % $ & g & r a r & ; i r q s r k ! q w r R ` ` %.E E E 4.r ,.R z E ' R ( ` x x e e , , X % ,.8.%.r R U R ' H BXcXwX5 X Y a #.W +.jXcX;X4 . Y 9.%.U %.i.jX3X% > 5.^ ' ] ' #.7.[ U ( ` Y %.` 4.#.( ,.' >.( Y E %.` ] ' ( ,.( %.%.' ' %.` 6.E ] Y E ' ( ! R Y &.R ` &.&.E R &.` R ,.D.4.#.8.( ! ( [ ! ] Y i h &.%.] ` ^ T h ",
"> , . a 4.U a s U ( U E U U z U U a h z z U z a a w q z E h s k a R z U Y z r z r h z g a E Y #.h U a U z h Y E a ` a z ! z a Y a w W q q w g i r t 3 h q a u w s a g s a a u 3 g q r R h s q a z a a r t q s R W U a E z U Y ] a z a U R ! E a y s Y &.6.,.%.] ' h r t r & % = P.( E %.%.` g a a h a z E B MXnX,X5 r 1.E 4.U Z P f.f.c q U E V R Y R R T h h z z h Y z a U Y w 8.w _...  = { <.5 +XP - O %.' %.&.4.U s 3 W 1.] V s u =     . % a { !.>.l w r 8.% 9 W.r . e 9.] U ] ] U U z R E ` %.z ' %.! E ! ^ Y ( g U ^ ] ( E ( U Y Y t g y = = , . g D.U ' g U U ` Y ^ ( .     . . o . % . . .   . . . X o # # . @ # % .   . X .   .   . > % % X 3 s i T D.D.0.=.< o . o @ # $ & 0 *.U.S.6.A.w w . X # o # % # & a h @.=.=. .n 2 & 4 @ . O . . . * * * * & $ @ . . . . @ % k E E U E U ' 4.a ,.R Y E ,.( ,.` ^ g t - = > X # ` 8.%.} [ R U &.o.CXNX9X$ o #.` Y %.L jXhX1Xp . U 6.E R @.i.hX;X% w 0.>.#.E ,.' [ ' U %.' E R U ' 4.` ' ( ,.' ' ! %.[ %.7.` %.4.&.6.%.' %.( ' ] %.! ` ] E %.' E E %.%.%.` ! E ] ' ' %.[ 8.( ,.%.` ,.R R ! E Y q ( ,.6.] ( h g ",
"% : o z 0.! U a h U s z E Y W R a a z E a a a z U R s r U h a Y a a h h a a a z a Y Y z h a R E Y T R h Y s U R Y Y Y h T R h R t U z E a a r g z a a U r q h a U U W T U U U W T E U ! U h U Y Y Y T h h Y ` W E ' Y Y E s z ' z ` r h h ] h g e w T ,.9.,.,.( ' h r r > = % = 9.` ( ] 4.' z r r y r z ( c hXbX1X5 q ,.x ` 7.d 8 6 3 3 a #.R ( E T h Y R ` a a U Y U ` a U s & ` w p.h.X o g A.3 d.'.& o ! 8.R ' %.` @.3 &.#.E ] ) W V ! s & . O X { 7.0.' r Y [ % D Y.X . t ,.R E U ` R ` ( E ` &.%.E ' E R E E E #.z g T / ^ E E T E Y E g e = , % o g E.#.Y ,.E z a ( ,.) M K +.3.t.+.s.i.p.t.p.s.t.i.+.X.+.o...X.D ~ D S S F Z C C B b p N j p N d B T ] K.P.F.$.d 4 n 8 8 9 7 S z.2.,.D.S.I.1.S b N 9 d c B C Z V C C _  .X.K T.a.K e.e.t.t.p.p.j.x.x.x.j.j.a.P A p < f & a h 7.z U z E 8.r %.! ! Y E ( E ^ / x h > > > X O ] 0.&.} U ` z @.L ZXZX-X1 % %.Y ^ %.M MXvXqX8   z 9.( ( $.+.1X[.# 3 5.E ` E ` ` #.` %.%.( ! %.z R ,.^ ] ` ' ` E %.E ` ` ] 4.#.` ] %.,.%.4.&.' %.8.%.' E E ` ` ' ' ! ' %.` ] ( T U %.R ] #.8.[ ] %.' %.' &.E Y w #.%.,.,.( U r ",
"% % . t ,.( Y s i q 6.w Y Y ! z z U z z Y h z z h z a w W r r W s a h z z w r a a a h h a a a R h h ' z R R U R a E U Y z s h z g U U U h g a a h ( a s h a r r i h z T U U V U Y U h a U a h h z r U r ! T U ( s W a h T g ( ( Y a r a h @.U U > w ` %.%.' %./ ( T q q = & % , D.^ E { ,.' U w U a y a %.B 9XcX>X5 & 4.h r #.,.Y 3 i W ( ( ! ( ( E Y U ' U ! x Y Y W Y a ( Y a h T S _.X . y ,.' B 1Xb . a 7.x Y [ h &.3 ) =.=.) 2.,.( E ..W. ..   . - T 6.%.3 #.k 1 T.+.  O ( 6.] ! R E ,.( E E #.E } Y ! ` R U Y #.R Y #.( [ ^ E #.] ^ Y T t > = , . t K.( x E ' ` g U ,.G.eX;Xd.:.i.i.s.s.}./.a.i.p.p.p.s.i.i.l.h.d.p.f.l.l.z.z.l.c./.W.c.c.]./.(.'.}.s.W V ( 2.%.$.+X[.'.}.+X$X#XfXX.` Q &.@.Y.T.].].].).}.}.'.}..XY.2.=.=.t.t.z.).(.[.[.).].(.'.$X<XdX;X+X+X$X+X-XW.S. .% l r 4.Y E T ] ,.h ,.T >.#.[ ( V ( / h e e > q X O ' J.' #.[ R U ,.o.NXCX#X8 # ,.E ^ R S MXNX3X4   g 7.E h <.i.,X|.o r 5.] ( ' ,.E 4.E &.E ` E ' ' ` ` Y [ ' ( ( ( ^ ] ` 6.E ( 7.] ' Y @.` ` E ] 4.A.6.5.] %.' 5.` ' %.( ] ] ' ] &.Y %.Y U E ] %.4.%.%.4.( #.( a T ` #.,.%.R h g ",
"o O X g #.E U Y s r s W a a Y U ] R h a a a h U U a U z s r a z Y z a a a a a g a h g a h s a z E Y z z Y ! i U R T z E s a s R V g g U g h h T r U r w a z w r r r a h Y E U Y T @.h z z z w a h h U Y U T s T ! U z U a a U Y ' ` Y R s E U a > q ' ] ! E ' / T ( z e > , % = K.[ { ` ] ' ^ q r r w a ( G 9XnX6X4 q 8.` z w ( 1.] g t U r g g %.,.E E ` R Y E R U R a E z ( Y g 7.@ ^ -   q ^ I.5 /.i.O X >.z U ! R %.& ' 0.S.,.( V q 3 - p i._.~ %   . # ' %.;.6.% < /.d . # ' E Y R Y ( ( E E ' %.] U z a z h Y ' Y W E ( ' ] #.U ] ` Y U g > % , . e D.` E Y ,.E ` U ' s.gX+.w = q s p V -. .4 h s 1 4 3 4 4 4 6 4 4 4 8 8 i 4 Z g V 9 b B N N N N N h p i w d Z p...j c p 7 9 9 G H s q i d N X.C p N N G F  .l R &.&.&.%.} Q S s.+.L  ._ D  . .D p.T.p.....H L p E 7.D.= a r ( z h Y ' ,.q ` T ' <.7.' 1.' T g t > ; ; + O E 4.E [ { ' ` 8.i.HXCX1Xc # 8.8.x ( c jXvX3X4 o R 7.z h <.i.hXdX1 y =.E E ( ' ] %.! [ R E ( R E #.! ` ( 1.,.' ] E } ' E { R ' ( %.&.] #.` E h ' 6.0.4.&.A.0.` [ >.6.[ U 5.E %.%.] %.,.E ` ] U %.U ] ] U E g 4 >.` <.1.] T g 3 ",
"O O   t 7.E g Y z r ! U E s Y h Y W h z a r r a a z z r U i Y s z w Y x a U q h z r a r w r a a z a a z s U z U s Y r w s U & & $ - g h i U a h a h a i a r Y s q h a q W ] h T U R U h E Y h R T g z r r E W s Y a R E R z U Y ` R R E Y E Y a e e R %.R ' ,.( / ^ h e = , O % q.{ R { E ,.E T r r r r #.A 1XnX1X5 w H.z z E ( z ^ E { ] E a U z ( ! h ' ( z r U ( R U E h h Y r 1.- 4 R @   % #.4 p.c.$ . ` R z U a ( 1 A.&.( @.T 3 # a t & % p t.W.S     . 3 U @.6.& _ Q.@ . q &.a i U R E E ` ] 4.] ` Y ! ! Y E E g z ^ ` #.' >.' [ #.( x g e = =   q 6.E ` ( z T U R %.h.}.p q Y ' h Y @...s.& Y %.( ' ` ( h U Y a U y w w e t 3 3 3 3 w w = % & 3 3 1 q q q % 4 l.7 % & & & 1 g c d.w & & % 3 $ % > % = 4 1 i E D.P.I.J.L.0.@.Q d 3 - & & - 5 - = 0 h.0 $ ; & & & U { ( % U Y U h h ^ ^ ,.g ,.x ` T >.` >.>.h U g q > ; . X E 6.Y { U ( R $.:.AXCX1Xc % 9.6.T / 7 kXCXqX4 X R 9.[ T ` s.MXgX4 ; 8.%.6.,.,.4.,.6.4.%.%.#.( 6.4.%.] %.8.,.,.,.4.&.0.0.4.5.D.%.,.0.A.9.K.%.` 4.6.,.6.%.!.K.] D.H.J.4.%.8.%.6.%.1.,.4.%.%.4.%.] 7.%.4.%.] 8.r ,.' >.' U U g 3 ",
"% o + t [ E a E U U z R s U T s a R z ' U h z a s w a r U a Y U Y a U ! E ] ( T Y z ^ E U E %.x ( E #.R ' 8.] ! u 3 r s & Y s % % . . r h Y ( ( 6.E ` ' W ' E E ( ( T a z %.h ! U Y W Y T z g R U z U a a s z U U W h U T E z z ` U E h h ( T a > e Y ' ( #.%.' g g i e & , % > q.} R 7.( %.z ' U T a a 6.S ;XvX#X3 r 8.] a y ( ^ Y z Y E ( i y R Y Y U h 6.w a a ! Y z R T E a Y h R - g r     3 t G +X< . ^ { s z Y ] w $.A.F.F.) - # I.L.T V 3 & b Y.Y.d . . . e 5.U 1 g.s..   x D.a U E ' U z x ' %.' U ` R z h E z z ( ] #.' ' ] %.' ` ^ g q > , X > %.g h ^ ( ( U E @.h.(.V = V T h q 0.| +.& T ( W ( U ( h ! ( ( %./ W E ] ' ' ` %.E ] 6.9.1.4.0.@.6.@.&.] 4.3 _.2 # P.E %.z 9.4 W.& q F.&.1.F.&.E X.h E W T s %.A.A.I.J.%.&.' z 3 e V [ [ %.#.5.4 Q.@ e E.6.4.g > Y U % U ( ' Y Y U ( ,.r >.( ` ` #.` ` ,.' t e e , > + X ] 8.( %.>.E ^ X.L AXbX1X7 # %.#.( / c MXZXqXr . ' H.R U ] P {.$X0   w & x E E R ` E E E z z q & q r 3 = e g h y U r r k a i q W E E a E Y E r w a U g k Y E & t a Y U h Y s ' h ' E ] k ' %.E ' z %.` U 6.!.i >.' ' 6.) h g t ",
"% % o x 9.R s U h z 3 ( Y Y s a h h h R Y z U a a s i U r R E ! z T W E s h ! i a w h T h a E g g h h h U U ] 6.j N - O + . X . X X   . o q a r R g z V z U W U R z z z a z a %.7.a h U a z U T E U T ! U h U ( h Y z Y U z U U ( E z ] Y ] ( h y q Y ( Y { E <.( Y z w > > = % 0.{ ! &.>.' E z h a g g 6.F ;XnX$X< 3 ,.] %.h Y R ' ` E ,.h Y U a E ` z R Y E s U T E z E z z U h a ] q 3 Q.B @ . q 5 :X0 @ a } h U ( Y -..XY U R 7.1 . V 8.#.Y @.R % & C W.f.$   o * &.y 4 /.|   # ] ' z z E Y U h Y E E h Y Y %.Y z i i ( ( ( <.' #.<.@.] E g r = , . q 7.h Y E R ( Y R H.h.).i & U U U w 9.H d.% a } U ! E h Y ( ] E #.T E R E R W U Y ' ( ,.( 7.' ( &.6.@.( Y 9.i ].$ * %.' ' V [ w /.# y ^.,.%.@.' 6.K.A.&.D.!.&.] ] ! ' ! ' @.z a a 1 U ( ' #.U F.r _.. w D.#.>.Y ( w z % s z ` ( z R ' 6.r &.z ( ' %.%.] / ^ x g = > , o O ` 6.( #.[ ! E *.i.ZXbX1Xb # #.! %.! B FXZXwX4 . E 9.' E ( H 3XM.7 o @       . o # . . # < < @ # < d 7 8 6 # .         . X # . .   . . . * 1 2 < $ @ * * < $ < * $ # # @ . @ . X . X % X X X . X X X X O & = U ) ( ' ' U g t r ",
"% :   t 8.' z a U W 3 s T z Y z h U h Y ` z a z a r w w 3 Y z Y E z #.! 3 3 y # & % q & & # 3 3 - 3 3 3 3 # & a g 3 4 Y.yXW.o.W.Y._ # q # #   . @ @ % % @ @ # @ % & @ @ @ @ % @ [ E h Y U Y h R ( s #.Y U U E R z Y Y z h U Y E Y ` E h E E z U 4 w ' ] ^ ` ` T T a Y z t > & , K.` x ] %.E ` a t h U i &.D <XcX$X$ w ( W E h R U E [ a 4.T R z z a E a ` %.R U r R U h Y Y U Y U r ] - 6.A.Y.j.c @ u ;Xc @ U K.' E ^ N z.<X& 1 e A.| & a E.6.J.! #.6.g % 2 z.l.0 + o o @.q A /.$   % &.E U z U z ,.Y ( %.z ( ^ U ` ( E E ( #.#.[ ,.,.7.%.%.( g y > , X t #.U ` a ] a z h ,.h.}.b O 3 o o . 3 F O.  @ + # % q $ @ # 1 # $ # = @ % 3 % q # w # r y 3 w 3 & z w r w ' q z.2 @ Y r u 1 E 1 W.* X T i 4 r q w e Y a W U A.&.' U U a z w a q $ % # 1 3 a s ! r T.@ # Y 4 q a ! = ] # U z ` Y Y W %.,.q &.h ` ] ' %.%.( g g g = , > X O #.6.` R ` E ! s d.HXmX1XN . ,.E E _ F GXNX4X4 . U 7.E E ( M ;X;Xk.P t.O.K +...o.:.(.qXkX9XOXm.b.(.B.|.#X:X}././.(.Y.~ Q Q i.d.d.d.p.f.k.B.#X1X1X#X XB. X{.{.|.$X;X3X1X;X#X(.l.Y.R.G.2. .D D Q D ~ _ Q N B H S.K.U g h V g g r ",
"% O   a 0.` r U z h z r Y a z s s s r a ` R R z x a w z s z a a U %.( i f # # $   # $ $ < $ # # 4 # $ $ < @ # 4 - = ].W.l.l.l.c.c.].N i m F 2 @ . . @ .   # < @ # # @ # @ @ . . q [ s E E W U ( T E z ` Y w z ,.a U z z E U U z U U E U ' E z t q y ] ,.( >.,.[ ^ U z Y r > = X 7.{ ` ' U %.E z U U h U [ B 1XiX$X* q %.U g ( E s g ! U a z E s z h s U h R ! Y U Y z R z z a Y z a E = A.R.=.a./.C t.B.H   * W E ( w c }.l.% ` t i -Xp . #.J.J.K.E.4.9.1.% 4 F.V u f X % i 2 f.T.$   a 4.h U h ! R E ( R ( U E z &.! U W ] %.] #.,.<.' ] ] ' U q > = X g P.( E E %.T R Y { h.}.D @ . .     < o.M @   . @ @ . @ @ o o @ . .       +   . o o % . o . q q   . . o @ # p a.0   # X . X * 7 p.* o @ % # # @ % @ @ @ % o = & r q r a k r 3 & @ O @   . o % % b a.$ % # # % # = z ` O x l ( ( Y R ` &.q 4.( ' %.#.' #.T V x g = - = X % ' D.z } Y Y } s f.ZXbX,X8 @ #.] ! ) F ZXNXqX5 @ Y E.x U T m s.a./.(./.(.}.).}./.].`.}.'.'././.T.T./.T.].c.z.l.l.W.c.z.T.z./.z.z.].T./././.].'.'.'.]./././.].].).).+X'.'.+X'.'.-X-X+X}.+X$X>X#X;X<X<X3X3X3X<XR.,.( T T h i 3 3 ",
": : . r #.] U U Y h z a z V z Y U W ! U U U z U Y a r w w q U U r 8.d L y.|.<X(./.j.e.a.P a.a.l./.c.z.p.k.l.i.d.l.f.k.a.f.j.k.c.a.l.p.l.z.1X6X#X;X#X;X<X[.x.b.x.e.a.r.j.e.d.L @ 1 5.h W Y Y E E a Y U z s E w h z E U a U Y a a z g r z Y E Y i r w Y #.' ,.%.%.,.^ z a r q % % 4.' R ] ` R U ( a 3 w g ' c 6XiX$X< q %.h z U Y ! R z E a U R T E Y Y Y h U E h Y Y a z Y a U a z a X.i @.~ &.i d B '.qXP @ . + $ > r S Q.g = Y [ & c...  z 7.( 4.F..XE.0.#.a U A.Q S b $ # n 7 T.F     R #.U ( ( r Y ` ( E E E a z %.T ! %.! #.%.#.%.,.] ] ^ U t = =   r ,.U R E ' ` R R 4.F.<X}.T.W.T.z.W.].1X$XXXm.z.z.T.l.l.d.s.t.+.+.+.+...| D B C C B N B B N N b b b b 8 4 b i.b.t.p d 8 d d b d.x.F b N d b p b d 7 p p 9 b 9 8 b b b b b n b b 9 d 7 p 9 d 9 B s.c.L 9 6 p 8 8 D +.( # U l ` E R R ! ] s &.z ( ( #.0.&.( Y R g e , %   o &.H.E Y ` U R i f.CXcX1X9 X { ! T ) F BXNXdX4 . R H.[ ( ,.5 d u N S S _ F F X.G S ..X.S G N N S n p c N V p s b T H ..+. . .B b _ A b b V 4 < 3 < 4 4 4 4 5 u p u 4 w 8 9 Z G D :.o.D B G B B D _ D D S F d a t ( ,.^ Y g 3 g ",
"> :   t %.' z z a U U T z z s U a a E a Y z U s R U r a i r a k z 8.f A wX|.|.M. X|.(.b.m.M.(.).M.m.[./.(.(.m.(.[.(.(.m.m.W.m.(./.z.W.z.m.[.$XrXvX9X6X,XOX{.,XwXFXZXrXhX0X9X<X2 % #.h U Y E U z h W R z U E x U U h z E z ( U h Y Y r z z Y e w i r g W R { #.] ( ] E U e > % % w.` z R &.E z E ^ a r z 8.S MXiX1X< i 8.a U z a a U E ` E h R U E U Y E h z z Y z s Y Y a h E z z U R Q ( ] ` - % - c }.fXy.n . % V :.$.z % r q 6.q t.k.# # ,.( z ! #.w.' %.,.t z *.S.C n n J @.=.C *   & 6.E U ` E ( Y E E E z E z ] U h #.( #.,.<.) #.@.1.( U t = , . g H.` z ! R ^ E Y &.4.r w w d N 4 w N N B D D H ~  .H H ..o.+.+.+.+.:.d.O.p.p.O.d.t.g.f.a.g.a.a.p.a.f.x.d.d.g.a.d.k.g.a.k.f.f.l.f.l.k.f.g.l.f.a.d.d.a.p.z.l.l.l.k.d.l.l.z.l.T.l.l.l.k.k.z.l.l.l.Y.l.k.T.l.T.z.z._.i.Q o x s ` ' R Y ] ' g 9.' #.] #.&.( ( U h h e , % o % 4.0.' Y } ` E a l.ZXnX1Xb % &.` ` T A NXNXqX4   a 9.E ! 6.a a r * % & & $ 3 q & 3 w 1 1 r r r a s a d a t k a z ;.a r r 4 a w r r r w 1 = a q g q w & 3 w r z s a h q g 3 = $ % # $ # # # $ % & $ $ % $ $ % & # ( T ( h g g r ",
"= > . a &.' r h Y h U U a U a r T s s R U U z U r s ! U a r w W a A.b z.wX@XOX}.$X;X3X1X1XwX>X#X1X;X1X>X#X#X|.9XhXjXjXeX>X1X3X9X>X|.).#X;X1XwXOX0XgX9X0XeX6XtXbXcX>XAXAXLXJXfX6 > 7.` U U E a Y R a E z h @.E U U z U a a z ` z U U z U Y ` h r t h h U ^ ` ' ^ ,.( Y ( r = % = 8.] a ] ' U U U T z a a %.H NXiX;X& i 7.Y h R E ` U z ` Y U U R U ` U R E a z Y R z a ] U s r W z ' r #.^ #.i # q E 3 8 .Xt.(.}.O.|.l.~ 1 & T h W a A m.2   R { s w a ` ( U r Y z y H.!.@.R.X.Q | S s +   h 5.Y ( R E T ` ,.h U z E R U Y ] ' ] >.#.,.7.,.] ( x e = , X t q.E z U Y E R T R %.8.&.0.9.0.6.' a q q q & & & & 3 % # 3 & % $ % w & & 1 & 3 3 w V 6 u 4 u w 6 2 i 4 d p d p 8 6 8 6 4 4 6 8 p 6 6 6 6 4 6 d 7 5 4 4 4 8 i 4 8 8 6 d d d 6 b p 9 8 8 u b n s p n N p b n V V B p 4 = z W ' R ! Y R 6.z 8.E #.#.] 1.8.] ( T t e e , . % 4.P.] ' Y } Y z d.CXcX,X9 % 6.w.T ' A MXvXqX4   R 9.U s Y &.6.4.#.] #.#.&.&.#.[ ' %.&.%.} ] ! } E ! } z } E z E 6.%.8.8.7.7.9.%.' &.' 6.%.6.%.1.7.q.4.9.9.6.6.J.A.A.7.D.,.9.%.,.] &.6.*.' @.%.#.] ' #.! 8.4.8.6.h ^ ^ T U t r ",
"> > o l 9.] a E r r a U r z s s k V s a Y s h z r w s & z U r a z 0.u }.cXiXrXbX`.X.@.+.i.p.p.i.O.P p.t.e.p.i.d.:.d.i.d.l.f.z.z./.k.a.XXz.z.W.f.d.Y.W.-X4X'./.+XlX{.NXCXJXPXgX7 q 6.R Y U ( h z E U r a U U Y W ! U ! z a U ! Y E g z U z ' U w a a E U / ^ ` R ( U Y z q = % & A.` a E ' ' U U a h h t #. .hXiX$X1 3 [ E U E E ! T Y R z s z R z T Y a a z k R a R Y ( k h a U Y E 1 *.<.#.$ % q R i V A.S.) b C s._ i & w [ W a ! d :XJ @ q D.Y U r z z a z a Y k a 9.A.H.U %.&.Q b f     Y ` ^ ( E E ` ( ( z Y ` #.s h ( #.%.#.[ 6.6.1.#.` T t q > . t 9.( U z Y Y U Y R h R T E U E T ( ( U U T ( ! ] ' ,.#.,.,.%.] %.%.( ,.' E ] ' E ! ' ' ' h Y W Y Y a w k k u k s r k a a a a s s a a a a g a i a i h i a h g h h h s s a z r a a a a a s s ;.n s s a s a z Y [ ` ! ' Y E ` ! [ ] R ' ` a 6.` %.#.#.&.#.h T Y q e e > o % %.D.{ ` ! ;.E U d.GXvX>XB & 1.' ( ( G MXvXfX8   a D.Y Y ( R R r R E U R Y z U U U ( R U Y U U ' ` E } z a W ` s E ' ' ! a U E E Y R z E ` U h g Y Y ' ^ z U U E a E Y U E U a R U h z Y a w a i U h w Y a h E ( / U / U g g t ",
"> ; X = ( ' g Y h z r a z a a Y s h h z E z a a g a a a r r r r Y =.p r.%XOX%X+X3 V t 3 1 1 < 4 Z u d 8 d p 9 d p d b 8 N C C n n C A s.| N 3 3 4 p p b 8 i a a Q -XlXvXGXLXkX9 - 8.U z z U U T U E %.Y z z ! ( s U Y U s W U R Y h a Y Y ' T y a ^ Y Y T [ ^ R r a a r q > > % 0.] a E R U a U r h ^ i 5.n gXrX@X< y ] h q a U ! Y R h T R E z z h Y U T a Y W z z U U R W s s ! a V %.%.y % % U ! w T %.` u ; 3 w i = q R ' E r $.w `.T.* % &.! } ! a s U R R q &.r a H.*.w & k Y ) f.&   q w.Y ^ ` ' E ( z E ! ` 4.! V ( E ^ ( <.#.,.#.' ( h t > >   t 4.! h U a U Y ! z U a r s U z U U Y z ' a a % $ 3 q r 3 y i i a r = a h 3 i a g i U 0.%.$ ; * w k E Y E { W E ! } %.! T E W E U Y Y ! E T E ( T T W ( T E V T V ( R U ( Y ( Y E ! W R E Y @.%.&.} E %.' &.#.,.` 0.7.[ Y %.` ' E ! R ' a 6.E ] ] ) 1.&.6.T ( z t > , . % %.D.Y ` ' { Y *.l.HXvX1XB # %.' ` _ c MXBXwX6   Y A.R ` ` ` ' ' 4.#.( ( >.>.{ ` ^ ` ! %.' ] ! } } ' [ #.z ' [ ' E ` ' &.] R ` %.#.4.` E ` ] %.' >.>.%.%.%.] ] &.#.#.>.7.6.1.%.#.#.{ [ >.` Y ] E ) #.U %.U Y ] >.Y V g a g q 3 ",
"> > X h ,.( h h z W h Y a z z Y U r E w a h z a a a a g g a s U Y Y d t.V.{.,Xd.T @.r i h r 3 3 & 3 w 1 & f w 1 r f q 1 w q q 3 & w 3 w < s q 1 s r i w W w r q s b D /.1XJXkXc % 9.h E z z a U ` Y Y U U h R Y R a h U z W a z Y U a z U %.z g t U ^ [ U ( ' / ` a E h q > = % 7.%.a U U E z a a a a a &.2 1XiX#X1 3 E ] V h Y E E Y z s U U U h U z ! s z U Y s s a a T U W s %.a 8.! T # X a W Y r 0.#.a % w ! U E Y a h R R a R X.8 <X9 . R 6.R T ] a s a E z & } a ' V a % r r @.-Xt.:   k %.( ] ,.z #.z z E >.' ! ` %.( ] #.#.<.#.^ / ` g t , , X y #.U i r a U U ` ` a r y r R E U Y z U ` &.^ ` z z R ' ! ! E E E ( U U ( s h ' s ' ) 6.' & %.& U r a z U E R z ( z R U U U z z E U z E E ` U U R T Y T U R Y Y U z U r Y R ` a ' R %.! z a R &.%.` R ] E E R #.E R ( ( ` ` ` ! U E ! ( a 0.{ ] ] ` >.>.' ` Y Y t > > . % %.P.U } w.%.E ' k.BXbX,Xb . { ` ( ( 9 cXBXgX6   z A.! U a U ( ( ( ` ( E %.] ` ` ` ! E R ! ` ' ' E ( R ` ` ^ ( 6.[ %.%.` %.' [ ' %.%.' ` ! Y ` ( E { #.7.D.#.{ ' ! ' 6.0.5.! %.] ' ` R ] 4.%.%.7.' ` ' %.E U ! ' U Y / h r 3 e ",
"q y o a ,.] p h U ] s h s s a a a h z r U s a z h g h z a a a U ' T i H {.OX@Xo.g 4 % w h 3 g h a 1 # & q a r w 4 a a Y K.K.! q a &.#.#.a w.] s 3 U U u U r U r @.s | l.{.BXMXd > 9.( 4.a ` R h U h W R Y a U Y z Y z W T Y ' r U R ` z z Y h y g Y U T ^ ' T Y ' ( E h e = q > 0.] w a R a z a h z a r %.b jXtX>X1 y &.R U g Y x ( ( Y ( h z U z z s a & a u R W z z T E E ! ! z 4.8.%.= X r ,.` w s 0.6.q % i R 3 = q a z a Y R ; 6.= g.+.  > 5.` Y ' E E U z E z a Y 3 ] r X ; r w H.6.> . . h T ' %.( Y ( z U Y R Y z E ] ' ^ >.>.' { ^ R h t > , % t %.^ h z a U U ` ` R U h a r z z U a ( R ! Y R ' Y Y E ` z Y E ! E E E ! T ( E ! E 1.$.) a r a R R U z R Y E E ( T ! R ( R ' E E E ' ' ) <.` >.( R Y R E U ! ' ! ! ] z Y z ( z ( %.4.%.! z U %.` &.' E E E R ( ] ( ( ] ' E ` E U ' ` ' a 6.E ] ,.` <.<./ ` ` Y t > > X % 6.H.E } E { E *.d.BXbX>X9 . ` ` Y ( c jXNXwXp   r J.&.( z z T E ,.' ] ` ` ` ' E ! ` ` ' [ ` %.( %.%.' %.` 4.( %.` ' ] ' [ %.' ] ] %.6.R E ( ! ' { #.] ` U 9.] %.( ' %.' %.! %.` E %.z ( @.' ' #.%.E %.' Y ^ ( ( [ ` ` Y h e e ",
"> > X h ,.#.r a z E Y h z U z a s ] Y r z a r a h h g h r r z Y W U Q S  X{.OX$Xf.& g a h y i y a r q q w w w 3 % q i q r Y ' a r U k E s U ' Y U Y s s ( a i i @.( H z.qX1XkX& > 8.E ! E U ] R U h U E ] z a a T U h U U a h s a z z z { E z q t Y ` ^ Y ( / ( Y Y Y g y > = % H.%.w z U z z a h a h r 4.N lXrX7X6 q ,.Y U z a z Y ] Y R z U R z U U U s Y T Y U W h ( } z Y r s U.@.U # . y ) t w =.1.z & = E R U h z z U z a W r E g s z.% @ z %.a z U E z z R U R ! x ` ! %   q ' r E w 1 q = U ] ] ` W ( Y ^ ( ` h Y ` ` ( >.<.#.[ ' ] Y h e , = X g ,.` g E Y h a U z ' E h h U z z U h #.! %.E R E Y R R ` z E U Y Y Y Y g Y Y U a T 0.0.i w ! ` R Y ! E R U R ' E a R U R Y R R U R ] E ` E ( ] ] ' R ` ` ' E E Y Y ] E U ! U z T ] ' R ' U Y ! ` [ a E ( E R ` ] ( E ] ' ( %.R R ( &.Y g 9.( ' [ >.,.] ` ` T T g > , + o 6.J.T R U ` E Z a.cXcX1X9 . ,.' ( ] c gXbXwXp   y D.' ] %.E U a a w l h T ' %.4.%.%.%.] %.[ ,.( ] ' E E &.9.%.` ` #.^ R ' ( ] ` [ %.[ ` ` ! &.>.1.,.D.D.#.6.6.` U ] &.&.` w.Y R ` %.U R %.[ ' 0.` %.E 9.( E ' T E ( ^ ` Y i q ",
"> , . = ( E g a z z Y z a g a z a ( E W h z U z z a 3 i U q s h z V ) B  X{.$X@X@Xp 3 s U Y T g W a # r h h h h s r a ' s U W ! Y E Y Y Y ! Y ! } Y ` U U Y U x 8.W t.|.k.|.+.@ @ e h z ( U E z T ` T h ] &.z a U U h U Y s T a h s T Y U ^ i r t T ' ` ( Y ` T U T t a e q = , H.6.h U U z a r h a q r >.9 0XcX9X4 = ^ R T E Y z R ' h Y s z U s U Y E E ' ! q q 4 q & 3 1 $ 3 6.$.1.V #   .   4 2.0.X.% & a ( a z z U h h z R U a a 9.% _.P o % 4.&.` ` Y ] U R Y ] U E n =.4 1 @ a a w 1 1 w q ( ( h E R E U Y Y 4.Y h Y ( ' #.,.<.<./ ] R h t , , X a 7.( g U h R ` Y r a z h z a U U z a Y z h Y R R s ' E ` r s z R U U ( ( a ` 6.! ] ( r a Y ! ` ! a z Y E E U ( %.' Y Y Y T U ! ^ 6.] ' %.' ` ^ E ` ! E E ` E ! ' E R %.` E U h z ' ] R E Y Y R ` %.E E R E ^ E ! ( ] ! %.&.] ,.E R %.R g 8.T >.<.>.,.' #.( R g t > = o o ,.D.` W ! ` } s d.BXcX>X6 X { ( E $.c dXNXwXp . h 0.T ( #.8.S.1.#.s z h w % o w q & & & w & < $ % & & # # ( #.4.#.%.4.] ] &.[ [ ' 6.%.,.9.E ( 6.` ' ^ h h ( 0.0.6.8.4.w.Y E 7.' { 0.' U ' R E %.` ` ( R &.&.] ] ' ] ( T U g q ",
"e > o k #.] h h a U E Y s R Y U Y U a V s U a h a r r y r 4 q 4 E 8 _ k.{.@X|.OX{.4 % a t h E s s z r a z U z Y i q U T W h U U E ( z z k s E ! ] %.' ` z U U a *.s J #X{.j.7 . . = 3 U U Y R E U s E U T E Y r r E s ' h s U U g h E Y Y Y g g t / ` ^ / ( R T ( R T r y q - = A.w.a Y U T a a a a i r %.A ,XbX0Xp = 7.Y Y ' Y z R ` R Y Y z z z U U &.! $ .   * 7 < < f < Z 0.S.9.1.C 5 & 4 V 2.&.Q.+.& q E E h h s a R a s x U Y r %.T 4 '.p   % q a E %.,.( w 3 g h e s.s.t.p * a &.w 1 w % h E ,.` E #.z z h U ' h h ` T ' ,.>.<.5.` <.` x t > , . t 5.' a U Y Y ! ` U z h h U U h Y z U a a h h ` %.R U ! R z ' ' U z z E W Y R W *.3 s Y Y Y ] ' ( ^ E ` ' E ` E E ` T E U ` x E Y ( ` U R ' ' #.` R E R ` ` ` R ` ( z E ` E E ] E E ` E R ' R E ! } ` R E U E ` ( ] R 4.` ' #.%.%.` #.R a ,.( ,.>.( ,.] ` ' ( g t = O + X ,.D.( T R E ` h p.NXcX<Xp @ 4.E E ( m wXNXwXN   g S.` E %.%.3 r % @ X # * . @ # $ @ & $ $ < f 0 7 0 2 # & V ,.E ` 4.&.6.] %.%.] ' ,.J.` t - # % #   .     . # % q g >.D.A.' E %.9.E.` U ` T ! [ } #.7.U ^ 6.( >.` ' ` U z a y ",
"> > @ r 6.' a a U z z U W U i s Y s a a Y U U a a r r r z g q r ! p B M.{.@X@XOX@Xd   w g r h U a z s a s U a z s h z W a h U Y U U ( ! ` s U W ! ` U ! W s z E &.s D |.x.t.6 u   & q ' Y ` E z a w g ! r U ] ' E s W ` h h U z h z z h Y Y g t g Y / ( Y ' ( / T R U h e > = % 9.%.a x E h a a r i y r ' N ,XcX0XG X J.T R ! ( E U W Y Y U z Y z z Y ,.i G.'.].>X9X3XqXfXkXfXL.2.,.D.G.-XY.W.U.$.X.) 1 & U E z Y R h h z s U z z Y Y q ,.1 ..W.9 .   $ # & h i r % # i X.-Xs.d 1 o U 6.9.#.h Y E ^ ` ' U ( E Y h Y Y h R <.] ] #.>.{ >.,.' T x t > = % l H.' s R U E U ' ` Y Y R E h ( h ! ` ` i z U s ] Y Y ' z z a U x z z a R a s a a ' ' ! R ! ` W ! ` R z E E E E 0.%.] &.E s ! R E W Y U Y Y #.' E ! E ' E ` %.` 4.E Y ! z R ! ' E U ` ` E Y ` %.z ` E ! E ` ` ` ] ( E %.{ &.%.#.R ` E z g 1.( #.[ ( ( >.<.] / / t - % . % ( 1.E R E E } T i.NXhX>X8 & #.] ! _ b 9XvXwXN . h D.7.Y K.4 4 b b 3  .+.s.Y.W./.].].'.'.}.'./.'.:X:Xb.n # Y 4.E ` ' ] 4.%.' #.%.7.' % % 5 s D s.G.G.Y.h._ V -   o O . r 9.H.4.>.,.%.K.%.6.R ` %.! Y ] ( ( R ( ,.' >.] / x 3 3 ",
"> > X a %.&.r a i h h h a r E h i a q r h h Y q z a a a y a a r W n v.{.[.#XOX@X#Xp @ r g / a h a a s z U a z R z R a U r U R E } W W ` E W T h ] ! W Y E Y E U w.V | {.z._.w d % 1 # Y U s ! ` %.r a R R z a z h ' a Y ( U z h z a Y h E z h e g h ^ ' / ' ] / Y Y h a e y , % 8.w.h Y E Y a i h y i t ' 9 #X0X#XN o 5.R ! T E E T h Y U R a z z w E W B ....s.p.p.L +.s...| ` ) E h X.+.+.=.V b 4 > & i ! U U U z U z h x z s z z ! U z R &  .`.W.n . . o o @ 1 | Y.:Xa.X.w w q r ' E Y E ( ! E E E ` E z z U R E / g g ( <.[ #.<.<.] >.] U t t e , . t A.%.a h Y U Y U U Y ( U Y U T ' Y U ! z E Y R &.U U s E w % @ q r 3 w ] ( a s z ( ( ! E ! ' R R Y ] &.E s z z R h %.R ' E E R ! R Y U R E R ' R s x ' [ ] @.%.%.' R ' ! R R E R E ` U ` ` ] %.` Y ( R ` ( ` E ` ' E %.( ,.8.' E E ( Y t %.E ,.) >.#.#.<.>.` Y t - % . - >.6.T R ! E Q U p.NXrX<XN X 7.) ( ) n 9XMXwXB   a 4.{ U A.j W./.o.h C D ~ S N N p p 8 6 4 1 5 = i 2X;XA % R 7.' ` %.' %.%.! A.E > 1 s.-XW.g.h.:.+.o.X.o.i.g./.+X..# .   % a 8.P.,.^ %.7.%.[ ' ` #.[ %.>.( ( ( ' ( ' / ( Y t 3 ",
"> > X w ' ,.h z w z a s a q ` ( W h U T h U U a a a g h a i a h W F {.0Xm.OXOXOX,Xp 3 r U T z U z a a Y z U s s Y E a U V T ) %.] #.&.( U ( ! h s Y U ] k W E z 4.U H (.x.G.Y i u 4 % z a z s a ! %.W E T #.R a a Y R E z U Y h h a h ' U U g i t h ` ` ` <.>.] Y E h y t > ; # 7.6.U ] E { g h w r g g %.c :XcX<XF   E E ( ' E ( ( Y a s U U z 4.a ' U 3 = 1 r < $ $ 1 1 1 & ; @ % = * i p 1 1 3 = & a R R E h U Y U Y Y a U U U U Y ' r &.Y % $ +.[._.i./.(.m.}./.o...C 1 & r w E T ( ! U Y E E ` E R E ^ Y z h ' 6.Y x T ] ' #.] #.{ [ ( ^ g t > > X t 7.%.z U z z ( E U U h Y R T z Y ( R U U 5.! U a ' U & # q p a w a 3 w h a ! R ! R ! ' ! W %.R ' U x &.' ` ' T R ` ! E ( E E R R E R T E E ( ( ' T U E U R %.' ' ` ' R ' Y ` Y U ` ! ` Y ! ] ( %.! E ! ` E E ` ( Y E %.E z %.E ! R E U a %.E ,.#.>.<.,.#.#.` h q - , . X #.7.` E %.E T ,.p.MXtX#X8 X ] ( ! @.c dXMXwXN   g 9.` g D.6 <XA 1 # 1 & q w q q q t s s s i i Y V z.}.S @ z 4.! ` E [ ' ' 7.s 3 s.<X(.o.S Q 8 3 w 4 3 $ 3 j n F _.:X+.& + * % ` 9.%.E &.%.( 5.U E ( ( ^ ( ] >.' ( ( <.] ( h 3 ",
"> > O e ' R a s a a a a q r R ! z a R r z a z z a h a a h a a $.6.t.{.%X@XOX#XOX@X4 3 q z W U z z s a U i U z U U h k h <.a q 5 % 3 3 #.E U R Y R E U E E U Y a { k +.x.|.G.E h Z 3 % s z R a E z ` z Y h z U U s z Y ' R z U Y z z s E a z a a r a #.] ` >.#.` ( / T g = > , # 6.8.a U E z U Y w = a r %.V  .t.t.6 # U E ( E ` E z R z h U U U E a ^ ' w &.s 1 w w Y E ! %.#.R s %.0.E a a Y ] E Y Y h h z T z U s z U Y a z U g z U Y U q h 4.Y # = 5 d p d p w 3 $ = % i ` z w U Y R E Y T z T ! ` U z ! a R s ( ( a U ^ ' ` <.{ [ { ] ( / h t = , X t 8.] ` h a U R z U Y z E Y E &.s E Y R U ( Y ) i i u & % # d ( p ) E 1 s ( E T @.! Y E Y U U U U a E ` ` Y ' z ( z R Y R R ! T ( E E U R E ` E R Y T E U U E %.E z R %.E ( U R U R E ( R E ` E E E E E ( R ` ` Y Y Y ` ! ( ` E ` ` ` U r >.( ' #.>.[ #.,.` ' h t > , X O ] q.T } ! ` ( ,.f.MX0X1XN % ,.,.Z ` 7 hXNXeXb   a &.( h H.1 +X6 % % %.` [ &.0.1.&.0.&.&.&.%.! ] h g.).B # h 1.^ ' ( E ' 7.r B 4X/.o.9 3 % & 3 h h ] ) E r & 1 - 6 H f.-XD .   = z 9.,.,.7.Y E U ` e U ` R ! %.` #.%.' ' U r r ",
"> , O r ] ' a h z z z Y r r s z z W R Y s a U h r a s a g a g ,.#...hX,XOX#X#XV.$X6 & q r s s Y z s a a Y T W r U U s #.0.# & 3 &   o i ` Y ! Y R W Y U U s E k &.z | m.<X2.! W _ s @ & s E R E U z Y E U E a a z z z Y z a U s z W R Y ` R a a a a ( ( ' >.,.<.#.' Y h e > % % 5.D.z Y Y Y U Y a r r q U W b V 4 w a z z Y E E E ' U ( U a Y R Y z U %.R s R z w q % $ & 4 q r 1 & q s E U s r y a Y E R z R Y Y z a z z U U h g h h z T E a & E ] k r q = = = i W a i s a z h z U U z Y z z ( ] ' R ` h 4.' U Y E ` z ' %.' ' #.{ ] 1.<.{ ^ / t = = X t >.6.Y z U U ^ Y z z z E R R ! %.` R ! Y T ,.@.U s w w 3 5 3 Z T s 1 q s z Y W T E U U R U ' E E U a ` E U ^ ( ' ( Y U ! T Y R Y W ' R Y z ` ! E E R R U Y U ] E ! E R ! R ' R R ( %.' ' a ( R E ( ` ! ( ( ` ` E R ! ` ' R ` E ( E ! h w >.x ' >.>.<.<.>.' T g q e %   % ` 9.E ! ! ` ( #.a.CX0X<X9 @ #.` ( / 9 jXNXwXc   a 6.( a D.# '.B . % R Y z s e a T Y r i a R q T Z g./.N # g 5.( ( T Y 9.w H qXa. .< & - a T &.8.,.#.6.8.0.0.#.h > # i D -Xl.$   . Y 8.#.4.4.,.` ,.z E E ` E ' [ >.%.( <.U h r ",
", > O t %.%.a a a a T z s h U s s h U s Y U z a U h a g a h T ( ) S }.rX{.%X{.|.z.@ & 3 U U z a z a a r U z R E U U a J.g M @X@X>XJ . % * z E T Y U W ` Y h ! U *.x A b.<XD &.s i V   3 z U ` E E R s Y U E E Y a a z z U z z z R z U U T Y a a r a ^ T ( ' 1.,.>.' z y q > & , ' 7.z ( Y h h h r a h a r U s ) 6.U t z a z Y U R ' U z h z Y U h U a a a h Y h s R z a r z w E Y Y U s z s E R E ( ^ ( Y Y E U z g z z h z %.E ] ` E W h Y Y z w q a k E E a q y ^ E z E E z Y E z Y U Y U U R E R Y ` E Y U Y Y E ,.z ^ ( [ #.#.<.[ 5.1.>.` x t > , . e 7.#.{ z U Y ` R z Y U %.z ' ^ z E U ` [ ^ &.U a i u a i a h ^ w 3 q a E z U Y R R Y E ( #.6.] R Y E E Y z E ` E R ] R E U E ` R Y E Y ` ` Y E E ] z R E ' ` %.( E ] ` ` E R ( z U ] 9.E 6.` E R W E x ( %.] ` ` U ` ` ` E E ( %.E E R r ,.Y ' ^ ` ,.#.' ` Y h e = > + % ) D.' E ] R ! ) g.ZXhX>Xd . %.` R _ 9 vXMXwXN   r A.E a 9.$ }.J % % 0.%.{ ` ` ( 6.,.Y E ! ` z ` Z g.].S # g ,.#.( U 9.h F 9Xh.V - = g ( h U ( T r U ' ' s U ' _ 7.#.$ 3 N './.<   % 8.6.%.( 7.' 4.` 6.E ` ` 4.` #.E ^ T g e r ",
"> ; X r ' ) r 3 q r W h U a E a q a U z Y a W a a R U z h g V ^ ) C p.7X[.#X@Xz.6 q 3 w z z z s h a a a z U z E E h y A.- P #XC.{.t.X 3 u a E Y Y Y W ` ! U z U w.x J j.b.c X.a W s # 3 h a a s U a Y Y ! ! ' E a z z Y Y a z x R Y a U ` ' z z h a U ` <.' >.>.>.( ^ h q = , % ,.D.a ^ R a U a a a r w i q & & Y a a h h h z Y Y R ( a z a U ( w a z R z z U h a z z z a a 1 a s s U Y W Y E x Y U Y T T U T ( ! E E ( ( #.' Y V U U %.] Y h E Y U Y T z h a z z Y E E Y R U R R Y Y U R U W R R ` z U R z U U U Y U z U T ] ' ` #.] #.>.' ' h g > = X e >.7.E Y ' Y U U z a a E x Y ( R Y Y z ] 7.%.W s ' ' E r q w 3 q q r E ` U Y E E R z Y R E ( ` h R Y ( E w a Y E E E Y ! E R ( ` E R R Y E ` ! E ! E R U Y E %.! a E E ( ' ! E E E ! #.Y ` ' ] Y ' ! U E ` E ' [ ` ` ! E R ` E ` ` ' a 3 8.R <.R Y ` >.>.' R g > = = + % #.7.Y E E { } ) l.GXhX;Xj @ &.,.Y / 9 jXNXqX9 . a 0.' r A.# _.H . a A.' 4.` E ' ' ,.R R %.E s ] s l.c._ # h ,.( Y @.W L 3Xp._ 3 = a %.T U ^ #.7.! ! ` 6.w.#.@.` w T ] r # G 1Xl.*   z K.6.' D.7.` E ' ` ' ! ' %.4.>.[ ( U g t ",
"> : . e ` ` i q a s R z U U Y T E h a h U Y T a w z h h h a U Y Q C t.#XM.[.Q w 1 3 q w s s a a h z a a a h a Y ( U g 1.3 J %X%X%X}.* 8 s # h T Y T Y W T Y R s 5.{ ..j.1X=.@.d p s & * q k z R z s z a U E R z U z h R U R U Y U U z z R ] R r a U ^ ( ' %.( ( #.T T e 3 = - X E 9.a Y ( z Y a a a z a a a u a a a z a Y Y Y a T r ` s r U ( R R Y h Y Y h U z h s z a l a s z Y E ' ' ' #.6.&.#.#.' ] ! ] ,.U E E U Y 3 a r % % @ o # U ` z T s z U T R R R s a g i E h U U z z Y U z R z U T E ` ' R E a z E ( U E Y Y ( ( #.] ] { ] ,.#.` T t > , X q 4.,.a q Y U E R U R h T Y U U ( %.a ! ' A.#.T z ,.h r & $ = & r a r Y ` ! T R Y ! W T U R U ' E h ! ( ! #.R z Y E E ! ! Y a ` E E E ` R T R T ` R ! ! E x U E ' Y ! E ` &.E #.#.U Y %.' s #.%.! E U E ` ' ' ` ` ' E E W ' ! ` ! ( ` z y ,.V T ( ` T T ` / Y r > = > o % ] 8.U ! R E ` ] l.AXvX>Xp $ 4.` ` T 9 MXNXwX9   h A.E R R 1 =._ # a 7.` ` ' ` z E %.6.R ` ] U ` x l.c. .X g ,.E U 8.p +X/.p % > a ` #.' U ' 8.' [ &.#.%.&.%.! %.8.z 3 @.r 3 J 3XA   @ ' 7.^ ` 9.( ` ] E ' ` ` ( #.4.%.' T ^ g ",
"> : X = ' ( a y h s E Y h a U U E z U z U U U U h z h z a h h ( T =.y./.[.d.U & s & r a s a & r Y a g a z U T w w h g ,.h P #X&X*X6X$ j u @ t a h Y U Y Y U E z =.T +.j.lXU.T U Q s w $ & r Y z R U s h E R Y Y z ! a z U s U a z s R U z E a r h Y #.#.] #.] >.' / h g = = - X ` q.w h U Y h Y a a r a q r r r r h a h U w U a Y T U ` z z U z T Y s z Y z E a s U z Y E E E k U a l a r k q r q r s w % % w @ . o @ + . . * % * $ . . = ' z R Y U U Y U z ( T a h z z h R z U z U R a T R E E E E ` U ' R z z Y z ' U U ( ] %.( $.%.,.,.<.[ / t q = X % ( ` z a a a g z T h z U U z E z %.Y g %.%.h V r e e q 3 U a %.0.R E ` z U E E U Y R Y U ( U %.` R Y ! E ` ( E ! R Y E R E ` ( ^ ' Y ` R ( Y R ! x E E %.` Y ( R ] E Y Y &.! E z R ! ' E R ! ' R ` E ` ] ` E ` ` E ` ` Y E %.' ^ E ! U r ,.R ( / >.` ' ` ' Y g > > = . % >.8.! R R E R ) l.NXvX+Xd % 0.#.' Y c jXvX1Xd   i 8.[ g h ; h.S . e 7.%.' ` ` E E z [ ] R U i R Z c.W.S @ V >.z 6.V a.wX..- i r ' ' 4.%.` #.( ' ' E ] E 4.w.' %.4.6.Y y 0.3 p g.(.7 . q D.6.] [ ( ` ] ' ` E ' %.%.4.' U U z r ",
"y > o q ' E a a a h Y R a s h a h h r h a h z w r h a E a z a #.d /.z.t.|.c.p r & * r U Y k r r Y z r h a E U h w U g [ 6 M #X0X0X0XM e C & e s i h R U E U E a &.) O.).4XF.! T ) X.u w * k U Y Y a s z E Y s R z z z U z U Y U Y z ' R Y Y a w g ^ ^ >.,.<.' ' ` / Y g = % %   R 9.h z r z U a r h Y h U r r a r a a a z a U h U z h Y ` ! U U U U z h U R U Y Y Y E z > & q . * . .   . o * ; O o o @ . $ % * * $ 2 f w n b p n j.P . & #.Y E z R z h W E U R T Y Y z E U z z s U U U h z R Y ` E ( Y ( E ' ! E R R a U U ' >.( ( #.#.[ ' ` Y e e > . & ` ] g U R a Y E E s Y Y Y z ^ a R ` Y W ' %.w q % U a ) h T A.%.W ( 4.z R R R U z a E s Y U R ] Y E ( W E Y Y R R x R ' U U ` ' ` E ` ' U W E E ` ` ` ` E E R E ( E R R %.R E Y Y Y ` E ` a ! Y Y U ` %.E ` E R ` ' E ( ' ,.[ E ` E a q [ R / ` Y ^ ,.>.U / h q > : . O %.9.E E ( ( ' T l.bXcX:Xd X { ] <.g c jXhX3Xp   r D.` i V 3 /.S o > ,.%.[ E ! E Y R %.E ' ! U ^ T c./.S $ h #.T ( G wX_.V q w ( %.E { ` ` >.%.%.%.^ %.%.` 0.' z >.&.` U a 6.& S <XP @ # 8.q.` ` ] ' ` ` [ %.E ! E ! %.( T w a ",
"y , o t %.^ a z z a z U a U U z U z U Y a w h h a a z R Y s Y 6.w /._.y.@X@X@Xt.& * a r s a a a s h r U R E h ( a Y j #.i M OX*X7X8X>X5 i 3 % a s T z z R Y R U ' W J fX(.G.' T Z ! Y r . a h a s z g z Y Y x U U z z U z z Y U Y Y s z R ! a e a E ( ' ,.7.>.` >.' Y t 3 , % + } 5.Y r h Y E U U h a a z w T h r a h s h z g z a R T z R a z U U Y h z h R ( Y E [ a % @ q r f t k y r r k a u w d s V n ' *.=.*.| S.G.R.G.~ C C t.H % r %.h E z U U a a U Y Y U z g Y z U z E h z Y U T T Y R ! ! ! Y R U E Y R Y T s U T ] [ ' ' ,.,.] ' / / t y > . r 5.E R U E z U E ( U E Y R U R s z ! ! ) ! q ; = % e Y z h a &.#.U %.E ` Y ( ` ` ( r R U ( U U ! Y R ( U ( R E ] ' U U Y ! ( E ` E [ E ( ` a U ` ` %.! ' ! E ' ( E R ! U ] ' ' U R Y ' R 4.E ' E R E Y R E E ` ! ` [ ' R R R %.E ` ] h r ,.Y ` U ^ ( T ' T / g t > > . % ` 0.] R 6.E #.j l.NXcX$X6 o &.>.' Y N gXjX3X6 . r 7.` h h 5 '.F # % %.Y U ' &.E 4.Y 6.6.0.W ' ( V Y.c.D # E ' ' V a.hX3.$ % U { [ ` ,.` 8.Y ' R 4.U ( %.H.7.9.a ( 4.[ E e Y z q p.1X7 . h D.>.! E E E ' ` %.' ` ] 1.#.#.U h g ",
"e > o q %.] r a a h h h z z z U U ! U a U z h a s s s Y U U h D.s =.!.f.{.@X@Xz.. * { a s a r a r U h a U h h E z ' V 8.r m @X7X8X7X6XH e s @ z U T E z R T E x 6.s H  Xx.S.&.V ) Z V a . g h Y z z z z U z h Y R z z E Y h U T Y T g Y h ! i & h T ( ,.%.%.<.1.#.] U i , , % . x 5.` l Y Y Y r U z h q r r U R h y y a h ` r U z z s z R Y R z z U U s U ! 0.z 1 * n `.G.*.@.~ ) @.' ) L.E.J.1.<.@.1.1.q.E.R.L.@.2.A.S.A.S.=.) U u # % ! ( z U z U E z z U Y Y U x z U Y h z Y z g U z Y Y R ' E R @.! U R ' U ( U ( g x ^ ` ^ ( ] ,.,.' #./ g t e > . q %.` Y E Y h R Y ! R E Y z ' W 1 u %.,.z h 1 a E y ( ) ] %.! z ( Y ` 4.! h z E ( %.E r ` z U Y E 6.z ` a ` ' R Y ` ' E Y R E ` Y ! ( E E ` U Y U &.#.E ` } ` ( ` ' E ! E z g U #.` ` ( R ( W %.Y ' ` R ( R %.E ' ( ] ! ( E ! ' ` ` ! z i 6.E ` U ^ T ' ( ' ` g e > , X X ] q.{ ^ ^ ^ #.V z.CXcX;X4 $ ` ( #.^ c vXcX3X6   t q.{ x U 5 W.G X = [ [ Y x ( ' ' ' ` ] %.` R ` Q W./.S . T @.D.C <X>X| 1 q ` ' E ^ ( ( 6.` =.0.V r & % w %.0.#.#.( 6.%.( & 7.5 N -XP   q H.%.6.&.,.( ` ] ' ( ` #.#.,.] Y h a ",
"> = o w 6.] r a a a r h z a U z h r U a Y g a r a Y a r z s T @.r =.' z.$XOX%Xm..   ` Y a a Y a h a h a z Y U Y T U h 6.V M 7X7X7XtX*Xz.w s # z h Y R z Y R R k ] U S (.XXG.@.E Q ~ h r # r Y a z z U U U U z a U Y z Y U z Y U U T U U E ( r & h h T #.1.>.7.>.<.#.T g % % % X t q.` r Y z a R a x U a h a & R U h h a Y ( E z h r U a z E Y Y h R s Y ! ] @ $ I Z.#X X+. .=.*.Q 1.' _ ,.9.D.I.E.$.F.1.7.F.A.( E { 0.0.) ` @.~ V - ; a ` ! U R E h R h U z a Y a U a Y U U s U z U U h R s ( ! T z ( Y ` h ( E R T T g Y ^ ` <.#.%.>.<.,.) ^ ^ g e e . & ` [ U U E T E Y ! a & Y w ! @.! 6.%.q U h U D.W g ( z Y z ( z ] ( s ] [ Y z z ' ( #.U z Y x U U E U ' Y h E E ( z ` E r h U ] E h ( R E ` U U Y R ( ! ! U ( E R Y ] E &.` z z R Y E %.' Y E ` s Y ] E ! ` ` ! @.R ! R z [ E E R ` ` R r ,.h / ^ ^ >.,.[ / / ^ t > > X % >.8.` x E E ( h l.ZXcX:X5 o %.#.( V N MXvX1Xw . a ,.,.Y ,.< W.S X h 5.Y ( E V E ( U ` ' R E s ^ ( /./.S - t #.8.H MXW.V r a ' ( #.U ` ` ! @.0.w * $ @   + o #.6.%.%.7.,.6.a { @.4 l.a.X # >.>.] %.5.6.Y ( ( E 7.#.' ,.( V U g ",
"> > . w 6.! a z U z z U z a z Y a h Y a U y z a r k z r s a a a h 0.0. .{.@X@Xk.. * %.z z a z a a z a U z h z a ( z r 6.U a.cX&X7X8X7X7XF $ ; = z a x z U U ( k %.z A 3Xk.G.*.Q $.) h 4 q s a a z h a z h z Y U E U Y h s Y a h z Y t U T U a w g h Y ` ,.,.,.1.' ^ T r 3 = , o t 7.R U h R ' s U w h a U a h r V U U w U a T a a a U U r a U ' #.E E 9.k @ 0 x.C.C.u.j.j.-.a X.A W p g ) E T Z _ V ( 1.] ) X.1.=.E U._...+.-XO.2 # #.R ` ` E z R R U Y z Y U R U a g w U z h a Y z z z Y U U ' R ( T E ! Y z R T z ` h ( ( ( ` ' ( ' [ ,.] ( x g > , o o E #.w w i 3 W a r w # W ! E S.` ) W s z D.J.4.( E #.Y h q R E [ E Y z E ' ( h ( ` ' ) E ' E ! ' R E %.%.R R ' E E ] Y E Y E #.,.E ( ' R E Y R U E E %.! ! ' %.E E ! [ %.] 4.%.g R ! E E Y E E U ! E E E R ` ` ` R ` %.R a Y R E E ` z q ] U ' ( Y U ' ' / T h e > > . # >.1./ ` / ` ' h W.AXcX$X8 # 5.<.` / B MXcX4X4 . h 9.` h 6.- W.D . r J.' U ( g E ( ( ] %.#.` ` x Z W.W.G = g ,.) i.BXg.4 3 x %.U ^ ` { 9.#.&.` d S H n n $   * 5.%.] 9.6.6.U q D.% P /.6 o T 8.! ] ' ,.5.Y E ` #.` { / U R a a ",
"> > o r ] Y r a g z s a a q h Y w R a E #.U a a a a s a z U a U ) ' s K {.OX@Xx.. O %.a a a a r a h h U h a z R T R g 8.Q l.tX7X0X7XtX0X].1 n @ V a a s g z U s &.W n fXT.G.0.W _ U V w r R U h Y h h z U z z h U E R U z Y h U h E ( U Y ! a % h Y T ` ' <.7.,.( ] ` U r e : . > %.z a z E U U z Y h w z r E h Y g E U h r a U a h s E ] a z ! E ( 1.q $ M u.C.OX{.C.n.;X<Xf.b.l.2._.Q.s.1.#.$.$.Q Z ) ' #.0.@.%.0.+.x.|.ZX9X-.* o ` *.E 5.6.' U U U Y z Y U U U ! ,.h z a a h z z Y R z E U Y z Y R E x Y ] R ^ ^ Y t Y Y ( T ' ( ' #.] ' #.V a e , o & a Y r Y q a &.%.` Y T A.' W 4.%.&.4.! h E D.%.` z E ( &.U ( r ( Y %.Y ' ' 6.,.{ ' ( ( [ ' ' ' %.6.R ` 0.%.' &.,.%.9.#.` ' R ' ` ] &.6.] ' ] #.[ %.[ 8.] 9.&.4.4.' ] ] %.' 9.8.! R E E U U ` ` R Y %.' ' { E U Y E E E 7.' 6.h E Y E z t 8.T [ ` ` ( ' ' ] ( x 3 , = X X #.9.^ ' ^ ` ` g /.MXcX:X8 o 5.E ' / B MXvX3X8 X g ,.' U ,.e Y.S X e 8.] ] Y ^ z W ' R H.! 5.z ' / /./.S & g K.V T.vXh.1 3 R ' U ( #.( A.,.@.p =.U.S.E X.-.f   y #.z ] #.9.%.i <.r D 1XB   i 8.[ ' ! %.! a z ^ ` ( ( ] h E U a ",
"> , . h &.R i a a s z z z R a T s a z E ` E R a a a h a q k E r R U s M.{.@XOXk.. % &.a k r U a a a h h h T g g U T z 1.V l.*X%X0X7X7XtXd.2 s % U h a U U z z a ,.U A z. Xz.S.a %.W W w E z h z h Y r a U h z U z z z U Y a z z E z E z T ) g = g V ] ' 6.7.1.7.' ( ( U e = ; . a 9.E r ! h E U U U a z a h a h h g h a h z h E a z r z Y U s z ' *.2 2 e.Z.u.r.[.m.y.f.]./.h.D s i s Q E U i d V C E $.) R.F.I.S.X.fX4XFXFXT.b .   o : % 3 r E ' Y E W s a R U U R ` Y h U h U Y U R z Y Y R ( U R Y U U a Y Y Y ( ( a ^ R / ` #.<.^ ` { #.` Y t > , % R H.T ( a r 3 h E ' 6.9.6.%.6.6.A.' ] ' ( ( 9.,.U ^ E %.a h U ( g ` U ' Y & w q 3 w w 3 3 3 & & q 3 r % w w 3 & w i a a q & q w 3 q & w w q 1 q 3 3 r & q w 3 z e 1 a q w w & E &.Y R ` R z ] E ] E U ' R ] %.! z E R Y E ' ' Y ` E E Y e 9.( ' / ] >.` ,.<.` Y e ; ,   # >.9.( ( ,.R ( i l.vXvX}.5 # 8.( { V c jXcX1Xi   h 7.( ] 1.q W.S . t 7.' Y >.' ] R z ( ] %.4.} / Z W./.j - g E.d /.eXi.& $ &.%.( E %.` 9.,.,.i J.L.8.Q ` t.| . e A.R ] ) ] @.a ' h S wXJ * a 8.%.&.E &.6.h ] z E U ^ ` ( z g y ",
"> % X y 9.' z a z U z Y r a z z E Y 1 U i U Y z E h a ! W r s ! E w p [. X{.{.f.. ; %.a z s r a r h E h ( E ( U z Y z D.g P 6X0X7X*X0X/.< s s & a h r h z z R r 0.U A z.{.).X.q T N V i Y U h h z z U a E U z a r R z z z Y a z E z Y U U g w e g ( <.>.,.>.,.,.<.%.#.Y q q > o r 0.%.U r z E U T U z z E i a w z y h i z g h U Y Y z s U U z Y 6.< 2 e.Z.n.n.I F H +.p i i V r f r w r i y a a t 3 r r a i s i n C ~ ~ @.l u s $ f 1 . . + X 3 ! T E E T U z U E R ( ! U Y U z h h z a s Y a Y E Y E E z Y ( ' ` ` h a ` ( ^ ( / ' <.#.` ^ ' Y t e , + - q.h z r W 0.] 0.%.R ,.%.z Y s ! ( E ( U E 7.z E ` E %.U R z ` R U Y ] & . . # o o . . . @ @ @   # % @ @ @ # # .   . . .   . # . $ . . . @ .   .   . .   .             o o . % 6.` %.` ` s R U ` Y Y R T Y U ` [ ' R %.` ! U E ( &.` U r ,.V >.,.>.,.1.#.{ ^ h y > , . O >.7.T { ,.` >.d l.cXjX+X5 X [ ( ( h B jXgX3X7   g D.T ( ,.< W.D o k 4.' ` ( E ! Y R z ' Y %.a ^ Y c.l.B # g K.V c.eXp.% & &.` E ( ] ] J.! ) C S.S.E.H.E } p . q 0.] ] [ #.%.R ( h G wXP % r 5.%.6.%.E ` ( ( #.` E ^ ] ) ^ g g ",
"> , . y %.#.h z r R s a a r s a s z a U a s z h U U y a ' U a s @.w s $X X|.{.-.. X 4.a r z a a a Y h h Y h U h E U E K.b M 7X8X7X7X$XB 1 a 3 & h s e U r z Y t 0.V F x.|.6Xz.c w U h t T Y Y a Y z z h U Y U U h z z U z Y z U U U h z U g r = h ' ' ' ' <.1.0.<.,.T ` a > > o r 7.&.a Y e z z ' a q q a a a a g E a h z a h i a h a a z k U 6.u b I u.Z.n.e.f 4 3 1 r ! Y a q q w w q q r w r W ] ] g U E W ;.z ! a &.E.=.l.h.T.n.j.e.F < @ q ` Y E E Y h z U E E R Y U z z Y h z z Y a ' U U E Y E E z h ^ E ( ^ z a >.T ^ / ' ^ 1.` #.^ R x l e > o = 7.U i z ! &.R s R R ] H.z U } E ( ` E Y R U ' r Y ( ,.Y h U h Y z U %.p e.r.y.j.j.j.a.a.a.a.a.a.t.e.r.y.a.y.t.e.P t.y.t.t.t.e.t.p.p.y.j.y.t.P K L J M M J I M I M J M m v & q *.' ` E ` E ` z ` R E U ` ] U ' Y Y ` a ( %.Y Y U ] E a r ] T >.] ,.7.1.,.) ( h t = : . % 7.F.U ^ { ( #.6 l.vXcX+X8 # [ ` ^ T c MXcX<X8 . a D.` R ,.= l.D X t %.` ( R ] %.Y ( Y E E 8.U ] Z c.l._ # t H.U p.NXg.o * E [ Y ` ( ( D.( s 8.J.w.&.W r f q * w 4.' ` ] %.] E ,.g L gXJ % g 7.' 0.%.H.( h h ,.#.z U ` E g V h ",
"> = . i ,.` a w a ( Y z z h U r z s U Y a z a g z V h g Y U U a 6.w i b.N.@X{.|   . ` a a w r z r h r a z h U Y h a U L.8 M rX7X6X7X<Xp V - . e g s r r a a U w 8.z F K 0XiXtXi.3 V T i Y R E z h s U z h a R h h U U z E a ! z z z E E E U g = g ' ` ,.,.,.>.,.] ,.#.Y r q ; O > 4.&.h E ` a z E ` Y g r U a U a i a t a z a y r z U a U W ' W c | e.Z.n.e.f $ % w a R U z U z E z U z h Y h a a s h V E k y q u Y =.s.` Q.).<X<X{. X Xl.f % k >.E Y Y R z Y E s U R E h z Y R z s U E z U Y z z U Y Y Y g T ' E T h y ,.T ( / #.#.' #./ ' / x l e > o = 8.' t z R z a Y R ! ( } Y ! R [ Y 6.E U ] E ` ` Y U [ E ` a U E E ^ ,.A 9XhXhXhXhXgXeXhXeXgXeXgXgXgXjXhXhXgXhXgXkXgXhXhXgXgXgXgXgXgXgXgXkXgXeXeXwXwXwX0XqXqXqXwXfXwXwX9Xk.4 r ` ` ( ' %.` E R Y E ` ! E %.R T %.' &.#.h ] E R z E ` a r >.T #.( ' 7.,.,.' #.h e = > . X 1.7.Y T ' ] ' 8 a.MXcX;Xi & 5.` ) U b MXMX1X8   r 5.` x T - l.H . e 4.! ` R Y ( R E #.R z ] E ( V g.c.Z @ g ,.! L wXz.@ # R q.Y ^ ` ] 8.7.3 6.J.&.;.u u u w . q E ] ' &.&.5.z 5.4 i.9XB . a 0.%.%.w.6.7.{ z E Y ^ s Y U ^ U h ",
"> > X y 1.>.z T E Y U U R a Y Y s U r T R z s r z a a h h a a h ` s w z.(.$X{.|   . a r r a a w a h a h i a Y h s U z F.d J 7X7X7X*X6XF 5 # % a a l a a h h Y r 8.s A K 7XCX6Xe.u j W Y R W z U z U z z Y z U a z z Y R Y a U z z a z U Y ! a e a ^ ( #.,.8.0.7.,.7./ h r - % X q ] #.a U Y a a a Y ( z z w z T ] E a a r Y U z a z R U n 6.k f A y. X{.j.A 1 @ w & w U a Y z i Y Y z k U R E h ' $.V - % . @ b ..+.~ W.F s.a.T.'.4X-X~ % # r E ! Y Y Y E U z Y Y z z R U U Y Y E z U Y a s R E U E U U z h Y E ( ( a r 1.^ ] ` ` ` ' #.` / h R t t > o = D.@.t U &.[ ` a h R ( E R z h ( R E ` z U ` s ` E s E R &.%.' ` z U ,.F wXrXhX0XgXgXwXwXwX9X9XwX9X9X9X9X9X9X9X9X6X1X6X9X9X0X6X6X6X9X9X6X9X9X3X1X1X1X,X<X<X%X1XwXeXeXgXdX).f w R &.R E 5.R ] [ a ! ` ' ' %.' ( ` 6.` E Y R z ! R U %.z r 8.U Y ' ` 1.<.#.] / ` > > e X % 1.F.Y U ^ ] E p g.bXrX;Xi # 5.E E T c VXvX1X4 . l 7.` R U 1 l.3.. = >./ Y #.^ E ^ ^ ^ #.Y T U T Z l.l.p % X i 7.B qX[.4   3 9.! } ' ' ] J.r U 8.6.! h s u a & q ' #.` ` ` ] { ] 9 c.].4 X ^ ,.,.' R >.#.7.` [ z E / ( Y t U U ",
"> e X U ,.#.a h ( z z a ! U h s R s U a a a z a h h h a h z a a R Q Z }.z.$X[.c % X q a r r r a a a w h Y a z s Y R a 9.1 a.7XtX7X6X%XL 1 q U U z a a a U U h a 6.s c O.hX7XB.j.6 s n z U W U z z z U h a a z s a z w R h Y U a R Y ` z R z a y i ( ] #.,.7.1.D.,.,.#.Y i , , X r 5.#.h z a Y q Y a z a a r w y U s z h r r W r W U U E w.w 1 F t.=.t.-.A 6 @   q o k ] %.#.( R E } E Y E E E >.x % 3 9 d.c.}.}.g.O.C A D | C N N i 3 u = a Y Y Y U U Y E Y z Y E z R T Y z U U z ! z z E z a z Y h E E z g R U E ( h y %.U ( T ^ ( <.,.>.] Y R l y y O % #.T h r Y ] %.Y z T ( s R E Y r Y a ' ` z U Y x R ' ` h g ) ( Y r Y 9.J 9XcXcXhXjX4X4X4X4X4X<X2X:X<X4XfXfXdXdXfXdXjXlXlXzXfXkXlXkXkXfXkXfXdXfXdXkXkXdXgXdXwXfXlXkX0XeXwX$X6 1 R A.` R ] ! ' ( ` [ ^ E ` ` [ ! R ' ` z R ` E E Y Y ` z r >.U / <.#.{ ^ ` ^ V x t = > X % ,.6.E ^ U ` %.8 a.NXcX$X6 X 7.^ ` / c MXvX3X4   z 6.` U Y 4 Y. .  > >.( Y T ( ` ( U U E { Y %.9.X.l.l.4 % = @ { i #X1XJ . o ,.A.z ` ` %.A.! q Y @.1.%.R w & w z ! E E ! ' R 5.4 A 1Xa.= - ` ` [ 8.,.^ ,.` ' >.( z ( ( T x g g ",
"> > O U 1.( a y s g ! Y R a a z s z Y r 1 e z a a U s a r h Y z h V 2.].z.@X@XH & # 1 k h h i r w r % a z s a a a z a H.b ).@X%X%X7Xa.9 > z z R U a r s a R a t 6.s 7 d.rX%X#XC.7 u > z R ! Y R h x Y Y s a a s s a T a h Y U z s U z U T U a t 3 E ] #.,.,.9.H.<.@.] / r q > X ; #.%.Y h a z U ` ' ( a Y U z ( y w z z ! z z z r Y Y T 3 1 J t.t.J.L.*.n q 1 .   . @ & ; a U R ' ' ' ' ! ! e % # 9 l.1X+Xa.F d 4 % 1 w w a W T @.h U i i z U Y U Y z z U Y Y s z Y U ` h h R E a ! z h Y h R ( z a z U U E ! R E ` a q >.^ ( ( ` ( <.7.,.#.V R t e y O O ` E r a g ( h U R E T T ' Y #.E Y z U z Y Y E ] z [ ` ' #.g #.E R ( 9.~ 0XhXcXhX+.i b u 4 d p N B C N n p b B _ ..X.G D A C _ A B ..| ..D D B F L +.i.p.d.i.p.g.zXgXwXgX#Xp 3 } ' ` E ! ! E %.Y ` ' ' R E ( ` ! ] ` R E R R 6.a Y ` ! r ,.h ( Y / ] #./ { R g e - , + % 6.q.U g ^ ( #.9 p.NXvX#Xp # #.Y R ( v jXjX9X6   t 9.%.E z w l. .. > 1.( ( ( h ` ! R R T T #.#.) Z /.z.1 & q s ` a i.jXa.5 . 3 D.` R a ' A.A.] z ! ( U q # = a 4.` %.#.#.E ] Y u l.eXD % e 1.' #.#.7.,.U %.Y ' %.( %.' ( z i g ",
"e > X t ] Y a i q z r R r z r a U s a h T r r a a z a z Y a h R T g _ +X[.@X|.+.$ & % w y w i a w a w s s U a U s U Y J.9 $X%X7X%Xk.S j % z h z z R ` r a ( U r 0.u d T.rX7X%X{.c u Y R a W } E z s z z Y z Y a s Y ! ! a W a z z Y ! U E U e 3 y V ( @.) ' <.%.,.#.^ Y a = % X e %.#.z h z z z ` E ( ( U h z E ( i r a z a g a r R E & f b t.S.H.H.R.6.' s i 1     . . . % * @ o * X % . * 4 J z.<X(.G c 5 & 3 U a a E ( W h s #.7.] z x Y U Y E R z z ` U Y U g U Y z Y a h T z h R R E U W h U ( a R z h E ' E T g a ,.T ^ >.>.,.) #.#.#.` ( x t > X # >.^ i h Y ! ' a Y R Y Y #.U T R z E ' z a Y U ' U s ` ( g ( ` E U ! 8.D 0XrXgX+X% q i w a U r s w 3 w 3 a r a r 3 4 3 3 3 r = 1 w q 1 % & q & q 3 w 3 4 4 4 q 4 ..dXwXgX#Xb q ' 6.` ' ' ` E ( ( ` E z Y ( ` R ' %.` E T ' E ' %.U ' U i ` U R Y Y ` ' / x Y g y - %   # ) 9.{ z E ( ' 9 d.MXcX#X4 - >.T T ( c jXvX0X9   l 9.%.^ ` 1 Y.3.X = #.[ ^ #.' U &.E s ( ( ,.E ( 4 Y.a.& 3 % s W U N #X[.c   . a %.E ` } @.A.9.W Y s a Y ` ' z %.` E R ] E D.i o.tXh.< X Y >.( 7.#.,.D.%.,.] ' Y ! ' ,.` h h a ",
"e > . z ( ] h Y r q i U a z r U a a z h h w a z Y r a a r s a h U T 9 qXz.@X@X-.o $ 3 a a a a a r s q a U h i & a s n J.C |.%X7X%XM ..b 3 R T ` E R U z g h / g S.w f a.6X6X7X#X2 r ^ R Y W E R W z Y z U z U z Y T R U T s R s z g U Y z a g g r E ,.( ,.) ,.7.,.] ` U r & % X q 6.' ( U z U a r R ( ] E w a ( h U t a U z R r h E & 4 r p J.0.P.S.D.D.,.( r s u c 7 1 * @ . . # o   % % l.$X).a.Z 3 & = g / U ' ! R a W T Y z U R U Y E ^ z z Y U T Y s R U Y Y U E z Y z R R R #.a z Y R E ` E ! R R a E R T E ^ z g 1.( ( <./ @.,.%.( <.] U t e e % % 6.` g E R U &.( E ` E E R ' ] E ] z R z z ! 6.a ( U R Y h U ' ( g U 6.S wXhXhX:.= q 8.} s z r ( ' U U E R 6.' 4.] %.&.#.6.5.' #.A.` ' U h ` ` 5.&.0.] ] ( ( T i 9 /.0XwX+X7 a &.&.&.%.[ 6.%.' ` D.E E R R %.,.U %.%.' ! ` z ( E E ` a h 7.U E ' E ' #.,.` Y g e , , . % #.,.E T Y &.#.7 p.vXvX#X4 - ,.` / ( c hXvXwXp   Y J.' U 6.3 T. .X e #.%.E E ` U ` E ! ' ' ] V X.z p.d.% i i %.w 6.# L >Xa.8 . o l 9.` l U R 6.P.~.P.!.P.H.%.` ' ,.,.) ^ D.n n ).+XB $ 3 ] ` ( { ,.( ( ] { #.9.` >.h ' ^ U h h ",
"> , . Y 9.E ( E h a z Y z r r 3 w Y h r Y z w r a g a U h U z T h >.p l.b.$X@Xp.. @ a h s h r q & r r a s h w q q a t 7.S (.%X7X,XK -.A > Y E U U a U h j g ( h J.w * e.V.OX%Xm.& w Y z z R E z U Y E Y U Y w x s z ` R Y z z z z h z U U h t z r Y ) ] ] ,.,.1.1.,.` U r % X . > >.] U z z z ` E h R a ( a a ( U h a a h U U Y W r q ! @.Z S.8.A.6.6.6.6.T w W n b d b Q X.}.}.'._.`.'.l.o.B p 4 < 3 a E a a h z h R s ( Y E g Y Y U z E Y U U E z ! E z R Y Y U z h z Y T z Y Y ! E a T U ' Y R E T U h Y #.E T Y t i 1.^ >.>.( ) $.,.,.#.( h t e y % X ' U e z U h U ! R Y E z U U ' z #.Y ] U a E ] E E %.E ^ h U ' ] U U >.B eXhXhXA i W 6.w.&.s U i h z a q w $ R q 1 k a = q 3 q & a %.T Y r h 3 1 a w w g y U T q.8 z.0XeX(.4 4 5.` E ` U ` U E U 6.E ] @.! ' 4.E %.%.%.] ' E R ! h [ U g >.^ E #.^ ` >.<.^ ^ h e > = . & >.8.E ` R %.%.6 d.NXcX;X9 % >.' { ) B gXNXwXc   a 9.E ( 4.t Y...@ X >.%.E ` ' E E ` ' Y 9.%.) >./ ..l.% & h &.E 7.T d l.;XK $     e 5.%.[ R ! Y A.%.%.6.%.E ] %.4.&.#.A.a 9 f.eXL - e E ] ,.U ( >.>.E ( %.( %.] ' #.' ^ g z g ",
"> > . g 8.U E ( R a a ( R h E R E ' R W a s a z a g h a g a g l g ,.4 ..a.|.@XL . % i i a h r s a z a U u a a a z s a &.Q (.#X7X,Xb.v f > E ( E ' z E Y U W ( ( &.s 6  XOX{.OXu.  u ` a U R ( R Y R %.R R T w a z U ! R Y U s h h a z U ( g r g t E #.4.1.,.1.1.,.<.<.^ t q , X > ` ,.U U E h ` U %.Y E h U Y T E ( z h g E h g ] r W &.! u D.S.8.A.A.%.g 5 a T R W @.*.) W V ..P L L D C 8 & % r U h g h U U U U ( z U ` U U z z z E E z E U Y E U Y R Y U U R Y U E U Y a U U Y U Y z U a R Y Y E E R a z #.! ^ >.g g 6.R ' ] %.#.' @.' #./ x y y y , # #.z i ! U U U U R ! U E E ` ` T ` ] ( ` R R ' Y R ] %.( U ` ' U ( h ' A 0XhXeXd a R ' &.&.H.Y R &.%.! ' #.! %.%.` E Y ! E ` ` E &.E Y ' Y ! ' E E ] U h U Y t 8.d c.0XeX(.p = ` %.U E ! E R E R ] ! R E E R ] ,.E E ( ' ( %.R ] a ( R y >.U ( ' ( T ' ' [ T U t > , + % ] 8.R E ! ! %.5 p.NXcX;X9 # ` ' / ' c gXjXwXB   w 8.T x ] i l...& % 5.@.` %.' ` U ] %.Y %.W %.0.>...k.3 % >.#.%.H.8.& 9 }.|.K * . * ; E 8.9.] [ ' E ' ] ` ,.#.&.' 1.0.d 2 j.gXl.8 = h #.{ ( %.( z 6.` ( ,.' %.<.^ ( >.( U g g ",
"> e . z D.` h Y E ! r z R T z U U s U s r r z a a z a h z a U a h ,.E G t.|.{.J O & a h a a i a a a a s a h h U a z z S.Q W.$X%X,XN.J % q ] ] %.9.7.%.) T E ( 7.T f a.$XOX%X%X|.4 r Y U w T E T U ' E U Y U z g U g E z z a z h g z z a ` h r g r ( ) ) >.<.,.#.1.' ,.h h q % # q [ 0.h U Y z Y U a E ( Y a R a Y U U E T U U w &.r W Y p ) 2.&.A.A.! u 1 g ! g 3 W ` A.@.;.& 1 6 4 i 1 q w s V a t z z E Y T T Y E z z E E E E Y h U E E ^ U Y R R U ! R Y Y Y z U z ! R ! z a ` E U z U ] Y E r E E ( s E E R T ` g Y 6.T ( ' ) @.>.%.[ ^ / h g > , % o ] Y h x U z a E E ] E R z z Y U ' E { ] ! z ' Y a %.E ( z ] ( 9.( W / ~ 0XhX0X8 h ' ' &.&.A.R r R ' ` R U Y Y ( R Y ` E z ( ` ( ' ] R E h h U ` E Y E >.V E e 8.9 /.wXgX(.N 1 ' %.` ! E ] z E ` ,.` U ` ' R ,.E E Y ! Y #.Y ` %.` ' z i ( T Y T [ ( Y ` ] ` ^ t q , X % E A.U E W ! %.5 p.cXhX+XN = ,./ ` [ c wXjX3XB   a P.1.>.5.U g.+.3 . 0.7.E @.` ( ` E ' #.%.i _ 2.>.L a.% # #.' ' D.J.' q B @XB.K & . o # # ] [ 6.7.` 4.#.#.#.#.8.6.g # 9 z.cX#Xv % 3 ^ ' #.` %.8.] ( ' ' ' 4.] ] ^ ' #.( z i a ",
"> > O g ,.' z z ! ' U h ( R E i s h h Y s a r a a h h h h h ( i g 1.W c O.$X{.H o & ] h r w r h a i a a g a z z h r r 8.$.(.OX#X,XOXJ . X # % % . . + o # . @ O $ n P r.@X%X@X|.+.y Y Y R Y h h a ! E U U E a a s Y R T U g U z h U Y ( R r q h w ! ( ` ,.1.7.#.>.6.>.Y h r % X - } { t U U ` a ' r a U ' z ] s h %.' y U r E r 1.T u N @.2.] V ,.V p 3 3 ] ( ! Y ! ! K.( i 4 r #.0.9.U h U i U h z h z Y Y E Y z E T ! E ( U Y U ' r U E T E z T U E E E R U U z R U E T z ! a h z R U z Y z W U R E R h U U R R #.s h 4.Y ^ ( #.' ( ) ] ) ^ h t q , % X ^ h a E ` ] U ! ` %.%.' Y ( E E R E ` E E U ` ` R T ' E E R ' E %.( T D eXgX9X4 r z ' E 0.0.' ` ' %.' 6.a z E E U Y Y ' U E E ' E E E ] z h z E E ` E #.E z w L.8 /.eXeX).9 % ,.6.E ` ! ,.E z ! #.] ` Y T ` ! ' ! ` [ a 0.E E ' ` 7.E x >.g / >.#.^ ,./ ` ^ h t > > O . [ 8.z R U R } 5 i.MXhX#Xb - ,.U ` &.v dXjX6XN   e D.,.Y ,.W g.p.f o 8.6.%.&.%.w.! %.9.,.%.d ( ) ,.+.+.% $ %.U ( >.^ ,.E F (.;X@Xx.c @ + . * o w d w ! 0.T ' h w . @ O.<XCXCXM.n . k 6.( ] ,.( %.4.U U Y ] 5.%.z ( ,.{ ] ^ h a ",
"> > o g #.U a a R E U R ` ( ! U s E T h h a g a a a a h a a U z a 1.= p | (.@XP # 3 { a w r r a r a a w a h a a a g a ' Q +X%X%X#X@Xb.4 % 3 $ % % % % % o g w 8 p g.;X[.r.x. X[.C g Y U z E Y s a H.T ! R W E h U z Y h a a i a a Y a U [ z r a w ( ,.#.,.,.,.,.1.1.>.` h r , X # ` q.h s ' [ a ' ( q q z w ! Y a ( ( U h T i g #.| a..XG.! ! ! h q r r $.( #.w 3 a h $.2.W # . . s ,.! k z z R U U Y a U Y ! R k W a E U Y U U h R E h Y U ^ z U Y Y Y ( z R U z h ` Y Y U z R T h z E a h E z Y U U W T ` R E U ' T a 8.Y T ( ] ,.] #.] ] ( T t q > % X ^ ] r ( U R R E ' E ( Y ( R ! E W U ' Y ,.R Y ' R h E E ! a ! Y Y E ] ..gXhXwX7 E g E a [ ,.! [ ,.E 9.#.` E ' R Y z E E ( E T ] ' #.' ' %.s z E a %.` ] 7.U r J.8 ).eXeX[.6 % ( ) ` ` R ' Y U E ` ` ! R U R ! #.Y ! R R U ' ` a E %.h R <.Y / ^ >.^ ,.( ( / g t e > + o ] q.z a R Y ` p i.jXgX$Xp % 6.! ] ( 0 gXcX6XB   e 7.9.' ( T :.p.f + w Y a a = a w & a U i W 2.) <.X.-.% % ' E ` >.h 8.N P $X$X<X}.|.d.n 1   . @   @ O @ . . X 1 D ].<X_.4XNXOX0   O 8.] ' ^ ,.%.4.&.#.' ] 6.8.>.] >.%.( ( h t ",
"> , . T 6.! R a z ! s z E a z a Y h a s w r a r a h a a U U z z a L.3 r 9 ).@Xt.. 3 #.a a w a a a a z a w E h a s x s #.@.J wXcXeX,X%X}.u 6 = - & & L g.g.'.c.g.l./.].[.[.[.b.| 3 U h U z ( ^ z w E a Y ! U E h U s Y R U U a a h a a ` ` ! r h q T ' ^ ] ' 1.1.1.>.#.) h e , % # Y T g a U %.! U Y U q a a R z Y E Y Y T T h = T K x.fXT ' 1.( ` Y %.@.#.%.E r @ q 3 d i.4Xd.* . . & ! 5.' E z T U Y U W ! ' #.( ' ] ' ' ' ` #.] #.#.' ' ` ( U R Y ! Y E T Y E Y z z z &.U a h E z Y ` Y z Y U U E z a U ] ] U Y ` z z 8.^ <.( %.>.<.,.%.] ' Y y > , O % ' U z U Y R Y R #.' 0.E R R ` E E U R E s ` ! ` ` 0.] E Y x R Y T E ( _ 0XhX0X4 ] g ' Y E &.%.R 6.R E 7.R ' ^ E h h Y ` E ( E U ( ' ' ' ] h ` z z E ! Y %.! a K.6 '.tXeX[.3 - ] { ^ ,.( %.' R E R %.Y R T Y E ` %.( ` E Y ] ` ` R ] Y g ,./ Y ^ { ` [ / / ` h t y > O o ` 9.! U R ` ! i p.hXhX$Xu % 4.E ` Q 7 gXgX1Xc   t 4.( E W T b a.p   X . @       . # . . . % w g T W.J @ % z E ' Y R ) B ].BX}.D f b O.W.+X].-.7 2 2 < * f O.].<XW.+.9 9 F }.vXx.$ + U 8.&.Y ( Y Y Y U ' ] 6.K.7.,.1.>.( ' U h ",
"> > . z 4.U a a r U Y z z a & U a z q h h q r w a r w h q a x z k 9.w A i.m.m.F . % %.a a r a r w r a a w a h h r r a &.*.O.K L '.dX|.|.)./.O.'.+XY.fXcX6X|.[.|.[.$X0XeX>X|.F 8 = 1.U U g z A.Y U Y U z U Y Y Y U E Y z Y U E r U R h U z g w z r ! ^ ) ] ,.,.#.#.] ) ^ g q % % % ,.#.g h a r R U Y h a U a U s Y U a T R >.6.g c r.{.Y.%.! #.V h / ,.) ( ) V 3 . E ` 3 4 H }.XXL &   o 3 Y ] ' #.( T ( } ` [ #.] E R a z r t z a z Y ' ] %.>.[ &.( ( E Y Y E R z Y U E R E Y h E U a z U ( R E a E U h Y h ] ' Y ' a w 9.( ^ ] #.<.,.@.] ] ] U t > > % @ T E Y z Y U Y Y E ` R U U U ( ( ` ( U ` Y R Y ! z ' E Y ` ' ' ( T E #.F 0XrX9X4 U W R R Y %.w.! ' r Y %.' z ' r h ` r Y R R E ` >.` Y ] %.` ( %.( h U R a } w H.8 +XgXeX(.< = [ >.^ ` ] E z ( E { ( %.Y ' R ( U %.E ( E U Y E #.4.%.U g 7.Y ' ' ` <.` Y / #.g t > e O % &.9.R 6.E E Y r d.bXjX;X7 % %.' ( ) c dXgX#Xp   e ,.r E W ! L <Xf._ o.=.=.s.2.s.s.s.S.s.g.+.Q 4 $.'.B ; % a E ^ h 1.p f.MXVXh.u % & & 8 B p.'.9X$X|.{.#X,X/.+.B 9 < = q 3 S kX;XA   o 5.6.` ` 7.&.E z R Y a %.Y ] #.#.>.( E h ",
", , o a 9.R z h r w z a U r q &.a R Y a r y i i q & r q y w a g a 0.q d _ i.H %   % ,.w q a a a r a r a h h a a w r a ' ) i.z.g.....i.g.s.g.P `.}./.)./.Q.i.L o.....'.:Xg.H F & & ] h z w w 7.R Y U a z U z E U a U U U z ' R U h T a U Y r q i a E ( ' <.] $.,.%.,.#.V g q , % # E 9.k z ` z a ` a a z Y a U k ` R z s ' t . . t.M.[.W Z E E ( j ( <.( %.] w $ # 3 r ,.r $ 4 ..T.:X| o   . ; a r i w a k a w w r 1 - .     .   . o # # % q 3 3 z ] 9.9.` ^ R Y z ( U h E ' ( Y x z R h U R U E z Y U a Y E #.R E 4.a a 8.( #.( #.,.%.,.@.#.' g q = > O % s 6.U Y z R E ( ' s U Y E R Y z E E Y E U ! R ] h U R E ] ` E R Y { #.A 0XrX9X< h ( E ' ( ! ' ( T Y Y ( ,.( #.( g t h Y ( a r T ( ] ( %.] ] ( z U R E ( R R a L.8 $XeXrXm.4 - { %.( ` R ! T U E 6.' R Y E ` ! U %.E Y Y %.R U ' 5.&.U g 6.^ ( ` ,.1.] ^ T ( z e q > O % %.A.! ` R T x i p.NXcX>Xd @ 4.] ( ) 9 kXgX1Xn   s 4.z U V &.p H ....o._ N N N s p s g p Z s i w q 1 w i @ q Y T ,.) G ;XZX<XF & 3 } %.a $ & 4 S lXNXZX9XH 6 3 # # a ! ! s 6 g.MXx.%   w 4.Y ! &.9.` E %.5.%.z ] E ` #.,.E T U ",
"> = X a 0.R a Y Y h z z a w h ( h z ] Y a r g h z i w a a s h h w &.a u w q 3 3 ; r ( h h a a a w a r a a a E h r r q g ,.d p B Z p 8 4 & @ $ . o @ @ # $ 3 i 4 4 4 8 w 5 3 q % e ' a U z a E h R ' U z Y R U z R U a g Y z U E h U a h E w q a y ( ( #.,.#.,.8.6.#.( U a = , O O ` 8.z U z E r h a q a a a a z U E Y 6.,.N J z.B.zX| ! E E j U t ) ) ,.' %.p % q 4.= = ,.R 3 & p D }./.A % * @ @ &       . % @ % C _ +.2.h.s...5 1 X * * o     . * % z ' 4.[ ` U U R Y U U ( E U U h U z E E U Y z h g z E E U R %.Y a 9.! #.%.] 1.,.,.@.] ( h = > , % w h %.a E z U ! U Y E ] a z E Y E Y U W R R E ' ( R U U ' ( ! E ! z ! @.D wXhX9X1 z E ) U ( [ z R R E U %.%.Y E 6.( x T %.' ( z g ` Y { #.%.] R ' U R z ' R h w H.p +XeXeXc.8 = ^ #.z ` ` ( z U z ( E R Y R ] ] ` U E ` Y R ` E E ' ] z g <.^ Y ` ( <.,.] ] ^ h > > , X % %.4.R ^ T g ) i :.jXrX$X7 X ' T ! ) 9 jXdX#Xp   a 9.! T y D.3 = $ $ # = q q y q w w w q w i w r r s r i ` w Y h 9.8 z.rXvXd.u * a U V ] ' z 4 1 [.bXwX[.9 % w Y #.#.#.3 6.< b <X,XK   : { ` h 4.K.&.z ' z E A.E E ' ] ] Y z g ",
"> > . x %.U z U U a U h z a h a T R U T U z a a U a r r h s g g a s 6.U r w 3 a w h ! a g i q r a s r z h g a z w w r 3 Y ,.T W ! ( #.) V ( ^ ' ' ( #.#.{ W / w 3 w h h w h 1 & U U a z U Y R T a ` E U Y R U U U U %.z E U h R a z h z a q w h w ( ' ' <.>.>.0.1.%.E Q i > > % % Y 5.a z R a Y E a r r e r e z z U Y !.W O.n.V.{.fXN ' W h i a g g h ( 6.s.H # W #.z y % a 5.R * 1 8 i.Y.}.T./.z.T.W.'.'.W.s.....p.f.s.p.d.'.fX| n A }.Y.D ~ T r %     . y ` 8.] E U Y z R Y Y z Y U U z U T U U R U h ! ` R ( R E h a 0.' #.( >.' %.<.#.] ( h q : ; % r ! D.U z E ( R E U U ' a z E ( E E ( E Y R T U ' ` ` U E ` ` E Y R E (  .0XhX1X$ T z %.' E 0.Y ' z ' R ( ] ` 7.T ] Y #.U X % O # O % % [ U ( E ' E Y a T ' Y r A.2 #XrXeX/.p = Y #.{ U ` E U h s R ` ' E Y E %.` ` E ` #.E h s ( R ( z h >.T Y x / <.D.' ] ^ U q > > X % J.7.T { ( R ( g O.hXcX#Xp o %.} ' V 9 kXjX$X8   w %.U Y Y U ] ( ( U 1.L.E.E.E.P.I.I.F.6.6.&.! A.&.F.' T ` z a ,.h F #XZXW.A & q @.7.#.i U w E d /.cXeXl.1 3 E [ h >.] E R &.4 :.MXM.0   3 L.a ( 6.P.` 9.%.] 9.[ ] ( #.] R h z ",
"> : . g A.! a a E U U [ r r h a Y U R ` z E a ( h ( a i s a s s ! r i T a ! E E s a a U a s g h a y r w U z a Y a a r g q % q = % # 3 = # % o w % % % % e 3 Y E i x h U %.! U a s Y h U ` ( Y a Y s ( %.( ! ` U z z E z a s a ! z r E h U w r z w ( ^ #.,.,.,.,.' #.) ( z q , % . R 6.z z U s z E Y a a s r a z U U V P.( F j.n.(.t.Y h V 3 = $ = 3 = 3 ^ 4XM $ Y ` U z U r $ ( ,.h = $ f 0 F o.d.:.+.D n 7 6 6 5 w d p t N S :.2.&.p.f.A 1 $ % V =.W w o   . a 6.8.E R z ` ! z U h a h z z E E z R U s Y E %.E Y T a r ,.E @.( ( ] 7.@.#.( ' Y t ; % % $ ' 0.( U z ! ` E E U 5.z U ` E U ` ( R h Y ! z E Y R T Y ` R R E R E %.D 0XhX1X# W s Y ] T &.( ] ' ! U ( { ` ,.` ,.` ,.R - ..2.Q 5   # 4.,.' ` E ' ' h ] ' ` r A.4 +XgXrX/.9 = ( #.' ' ' ] ( #.U ' R U ` ` ` ` 5.E a E %.[ ' ` ! ! R a t %.` >.` [ ' 1.' ` ^ g q > > o % 4.D.^ E h ] &.i O.hXhX;X7 o [ ! ' T 9 VXJXdX6   w 1.E R ( z 5 r #.D.,.<.] ^ U Y a E E ( 0.A.` 0.4.U %.6.7.U Y #.w M.NXqXL 4 q U @.( 7.( ( U E i (.vXgXg.4 3 ( #.^ ( Y ( > 9.3 N <XeXP     ] 6.g #.%.,.] E ( 8.K.^ ( ( ` ! h g ",
"> > O a ,.E w g a z ! z Y U a z a a V E U T #.U Y U w r s z Y a T U a h q i w w g a h U r h h w w y w R z g a h w 3 q r g i a U r z Y U a a Y z s Y R U R T E R E s h a R r r a a T z a ` y ( Y E E U z E ! E Y R z s ( z ! U Y Y ' w g ( U U E r T R / ( 1.1.#.,.,.' V h > , % X E 0.h r Y Y h h h h a z a z h z U h J.) C t.P -._ r = # # = z a a [ w 8 3XG @ a 9.a a U E a e 1 R A.E y # & 1 w & q & 4 w y 3 w r w i a & & u ~ Y.XX-.$ h ! s w & w | G.& +   # R 7.! R ' ( 6.#.( h z Y U U Y R z U U E U U ' U E x i I.#.E %.#.<.#.,.>.#.^ U e - % o O ^ 9.h Y W Y U E ( E &.E z T ` R E ! E E R W R E z Y R E U ' ] ] ( ^ ( ..0XhX1X* U ! Y ' U %.( T T ` a ` ' E %.,.4.^ >.) c 0XwX0Xk.% # %.E ' ` ` ` %.U h ^ ( g 4.4 -XeXgXW.6 q Y ,.#.E { ( U ^ ^ ` ' Y E ` E U E E z ` Y R ' } ! ' R a i ,.h ` ( 6.#.#.` / R x > > > O O >.E.@.Y / ^ ,.w t.cXhX;X4 % ,.R 0.] 4 `.-XQ.;   k %.E ` E ` a s U ' ` ` %.U E 4.! E U 9.7.4.6.H.P.&.0.6.%.V 0.w t.6XBXY.6 & e ' ] ` 8.' { z %.4 /.bXeXk.& 1 A.%.%.%.[ %.! r E 5 | jX X7   % 8.( U #.%.h ! J.6.9.^ ' ( ( ( Y a ",
"> , O U 6.T s y a h U U w z r a ! a a ' Y Y E W U s r a s s u a h z a z a r h t g i g a y r r w w s 3 r z r h Y z a i r r w g h a z z s w r a U q U h h Y U Y ' U g i U a a q a w z h U s ` r Y U R R Y E ' ' Y %.U ( ! W R U R z Y R U T U z R g ` ` ` ' 1.,.0.,.,.>./ i q % % . h 4.h a a E U s y w r a z a Y U a Y %.P.3 4 w u u i 3 a Y w e q r r ' - k.l.. $ 0.' s r z Y z a & 3 W 8.%.! s a a i a ( ( ( ] ,.8.%.#.A.( a 1 p y.[.J a } U *.&.W a 1 n W.I @     k 6.%.] % & ^ 7.E z Y R E R E R s U Y ( Y z ^ ( h r 7.) %.( #.1.,.7.<.) ( T g = % X O ` >.U U E ` Y R z R ' R h Y E R Y E E E ( R E T ( ] E E z ` ] E T E ]  .wXhX<X# T ) ,.s ` R E Y ( z E R ' [ ! Y 0.T ^ #.B gXgX0X(.@ # [ ' E ' ! U ( ] U E ^ r 7.& -XhXhXc.i > U ` { ( E ,.( ( h h E U U ' z %.! E U ' %.Y ( ] E &.%.E a 7.U ` ^ ] #.>.' ^ / h e e , X % 6.H.U U ] ( V Q :.vXcX#X8 . %.] ! ' w 1 3 q r z h %.` E ` a E ! R U Y %.&.R ( %.%.z r ` R %.%.@.E E [ 0.E E ( N [.iX<XS = $ x ` r ^ [ ` ` ` [ p /.CXcXl.< - ,.0.%.%.6.6.} r H.r 6 /.eXy.. . h D.U U ' 5.Y ` %.%.&.#.#.( U U a ",
"= , X i 7.E z a a z z U R z i a ` W a U a E s z Y Y z a a k z x h s R ( ` ] E ( ' V i y a r r w z g w z z z U a a q a z g r a U r z R r z z r U z h U a s z a U g z T h U a a a r U a z a ` Y a a a T R Y R Y Y ! Y Y R E Y z z R T E Y z z z E t Y ` ` >.<.J.D.1.1.#.` t 3 - O X ' 9.E U a a U U z U a a i a ( a Y r s z ( #.{ ( ( E z g U T z a Y w 0.q 9 '.4   > 0.R r z z U z E U a h w r a a s a a q r a a i a g U 3 q ] z 3 S 4XB q E U a @.E ) h ; u U.t.<   * { a . .   % #.' Y U a z U ! E U Y E ] ( Y U Y g a 8.' ( ] ' #.' 1.,.#.' h e q , . % >.%.h R R ! U E ] h ( a Y ` ] ( Y R R T T ` R z Y ] ( E ( ` ] ` U ( 7. .wXhX1X# w E %.%.R ( ' ^ ! ' U E ] 7.E E ( z ' &.9 gXhXwX}.. # ' R R T ` z Y ^ U T h 4 9.u :XhXhXc.$ 3 ( #.#.E ( ^ Y T #.` ` a ] ' Y %.] ] E Y Y ( W ` R E ! z r >.T ' ] ( ` >.^ #.' t r e > O = >.F.] ` ` { h V O.jXcX>X6 # ' ] U A.' ` } [ E E a &.Y %.6.x R R R ! Y %.R Y U ] 4.#.' U U E Y E %.' ` 6.i A.r t.0XjX:.4 3 q ` h h E ,.E ] U %.9 /.ZXcXl.% = 9.` R ' [ 8.' s s D.3 L jX|.v   . 7.x E ( #.7.E { a 4.8.' E E U a ",
"= , o U T a h a a a a s z E z a Y W Y U Y } a e r a U a a s a Y h ! ( E h y w w q U Y i h i r r a r a h z a r a Y y a g i a a % z Y z E e h a a U a z Y U a a R a z z h E a U r E a a a a a ( ' U a U U ! [ Y s U U z U z ( E U z E E E ' U s ( g h ` ` #.>.,.1.1.' ' ( Y > , % # ` ' h h R z a h i a U Y e r E z a a R h U q ( a r e z U z E E a R z a <.r i.s.  . z 6.h s U z R z ( U Y ( r a q w h g ( z Y U Y z ( E T t a A.3 p ]...% H.9.R D.' ! d Y r r s.k.0 o # d f...& . g ,.E E ^ Y z z z x Y E E Y ! E ( i t #.] #.] #.1.1.] >.' ( h y = % X X ^ ,.h a z R R ' ! R ( E Y h Y ! T Y Y U z Y E E ' E ( E U Y ^ ` E U ,. .eXhX3X$ 3 a E R ` ,.R [ U ` ' %.` %.( ' E Y >.,.B gXeXtX}.. X &.%.E ( R #.Y U ^ h U g D.d '.gXeXl.2 t Y 6.#.] ` E #.( U ( ' U R Y ] ` %.U z E E E Y E ] %.` z a 4.E ' >.,.` <.<.V ` h q = > O % >.H.( ^ R ` V E O.gXhX>Xp @ #.E a &.! ! [ 6.U z ` ! R ` %.z %.z z z h Y ' ` z ' ` a ` ( ` [ R U ` ] #.] 8.&.D |.mX`.N q y Y ` ' U a z Y ,.E 0.j ].NXjXf.# & 7.8.R ' &.%.A.! w } a 4 /.hXj.2 . i ,.#.>.%.] ' 7.` ' 7.] ! W k a ",
"- , X ( ,.h z U z z a g r h z U r r z z U E ! z z s a a r a z h E ,.q $ o # . . o # r U y a z q V w U w U h h a a r q r a a R h U a R U s R r a U a q s R s a h h h R s E Y Y U U ! Y a r a U T z Y s x ` a E ! a a U U a s E U Y E ( Y E h r ^ g h / ( [ ' ,.1.>.] ( T g 3 , X o E A.E h Y z U z h h a a r a U E U z s R ^ z h U z w a a a z E Y ( g r ] i 9 }.F . X ` %.a g z h Y a E R E z z z z E z E U E U h h E Y R z #.E ] 3 d.-.. E 7.U { 4.A.' q r a w =.).m a.fXGXwXP   > 6.z ( E U ( R Y R s R ` E E ` #.U a ( ^ ,.,.>.,.0.@.%.( U h y > : X % %.#.z E E R T ( E ! ' h Y U h U z Y ! U R ' Y R T ' ! ` R R E E E Y #. .wXhX3XG t Y E E ` E ! ] ! Y ( U U R U ' ` Y [ $.9 wXgXwX/.X @ #.%.` ' ( ` ( T ( E E i i 9 ].eXgXl.@ r ) >.E q.R E ( ( Y ( ' ^ ` ( ` R #.E ' E E %.@.R 4.6.%.h - >.Y ` >.>.` >.` / Y Y q > > . & %.D.R R ` E U 6 O.jXeX#X8 # #.%.a U ] E 4.6.%.` ` z ! R %.R ' ` E ! %.U ( E z ,.] #.E ( ' ' ' Y ' ! Y ` ,.d m.cXwXL 6 g Y >.U ] ( ] Y E z E >.p (.ZXhXf.$ & 4.%.! %.! ' %.9.} r %.1 A 9XOXM . X #.H.#.>.6.z #.%.>.,.,.U Y g y ",
", % . Y 6.] a a a a s r a a a z Y E a a Y z a E z U r a U a z U 8.U $ 4 +.+.:.H 3 . t #.r i r r e q q r r z h r a ( w a a w a r w U U a a a z r r r z h a z a z g s a h z Y a h U Y R z h a E ` ` z U U z x U E z a h z z U h U h T U R U a w ' h ( ' ' ,.1.7.,.>.#.T T U = % X % W #.g a h Y Y g U z h h h ' Y a w z Y Y Y h h h U z z a h U E Y R %.h a ' & B '.w   # [ 6.a z ( ( U h k ` h z Y ! R R Y U E ^ Y Y ^ ( ' W ! 3 D.4 ..t.+ % 6.[ } 8.D.!.%.q U z d .XkXMXeXVXjXx.@ & #.U U E Y z h U z E ' ( U ! E ' z g ` ] ' <.<.,.,.,._ ( U Y e > % X X ` ,.a ` T R U ( U ` R ' ! E ! U ( Y E U E E R T E ( R ` E h Y ! ] R 0.Q wXjX0X+.g E Y R [ ` ! ] R ` ` ' ( #.^ h ( ^ ` $.n 9XtXeXm.@ $ %.` Y ( ( ` { Y U z ` j i 9 (.eXeXc.X t ( D.,.>.` ` ] ] ` Y ` ( #.R ] E ' U z E a x %.( R ! 6.T g ,.h Y V ` ' >.,.T Y g t > , + o %.A.R U ^ Y [ s O.vXhX#X8 X ,.8.' s h E W E a z w z ` ! %.E %.,.%.E a ` %.Y U #.z 4.U ' ,.E ' @.] %.R &.! L 6XNXz.a g h 4.' E Y z R E #.R z E 6 ).ZXcXp.# # %.` R ` R [ 8.&.H.W %.` u h.gXy.$ . a E.` ' D.6.z g ( ( ' T ( h w ",
", > # ^ J.Y s U a z h q z e h a U z U z z U a z z R E U U h z l K.N i.i...8 V i.c.X q %.% w 3 q a w w a a h w a i z a g a z q R T Y ` R ` r a r r w a r a a z g U h h h h U a T h U Y z z R z g z a E E ! h Y z a z z h z z Y h Y h R E U r q ,.z ' $.,.,.8.,.1.( <.T Y t - % X % ( ,.a a r z z U Y h z z r U U U E a z z ( Y g z a Y h h E a U R U z %.( ! ( & o.W.@ + % ` 9.' R U U U E ! Y } ' ] R U T U z U R E E ( #.U #.w %.a b /.< @ a 8.! ! 8.P.K.W r w & 8 MX#X@X@X7X(.$ % ] Y U Y U Y h R a z Y R z Y Y ( z r ` ( ( ' #.1.%.%.( ) Y U e > % . > ( ` a E U R Y R ! E Y R E W ] R U E R z ' U E R ( E E z ( ( R ( Y ' &._ wXhX6X_ g T Y U E R E ! ` U R ( E ( ' ` T E ) &.9 1XhX0Xc.# o %.' ` #.( ] ` #.Y h ^ U @.b m.wXtXz.X 3 V 6.^ #.Y ` Y E ` ( E ( U ' ` ` 9.[ ` z R Y z E E R &.R q ,.g ( Y #.' 1.,.] ( z y q > . % #.5.' ` R E ] s o.hXhX;Xd # %.' ` E R R U 4.w.U z z ' 6.%.x ! R ` %.%.Y E R r ( Y U a ( 6.{ #.` &.` ` %.n b.CXqXS 3 a E ] 5.4.E E z ^ ` >.^ x Z ).ZXcXp.@ & >.' ] R R ] ,.U %.6.h 0.3 N wX%XI   O [ 6.T 6.7.[ E ] ' ' ^ Y T g ",
"q > % e A.' r h z R a a z s a z U s s r U z U U 3 z a E h Y z V D.B z.+.% 1 = 0 W.O h 9.h E r 3 g h a w a a a a a U h a a a T a E a Y h ` E z a a a z r r r z z h a g a U h h Y h z E ( h U ' E x a z U E h ` a z a U Y h r E a r r W R U r t #.z ^ <.>.1.8.,.1.7.>.` h a = % O % U ] a h g z z R h h h a z h Y y Y U w g g E T r a z a g a z h W Y h U U R ` t < -.`.4   # z 8.,.^ l E ! U z U E ` %.( %.{ #.Y ! E ] %.} #.%.E ` g 5 ).J   % #.8.` R J.!.8.w 1 # < /.tXwXvXvX}.* # #.Y Y U E E U T h R ] U Y Y E ( Y a T ' %.&.1.#.%.,.] ( ( Y y ; > . # #.5.a E %.%.R E Y ] #.R R Y ` R ! Y ( Y ( U Y ( ( ( ! R h Y E ( ' ` %.X.eXgX6XD r T ] E E ] %.E E ] R ` ( [ ` ` x T T $.c 3XeXwXa.# # ` ' E ^ ] ' h T ( E E ) s C /.9XwXm.- e h Y ` ` ' ( E ` ' ^ ( U ` ( 4.` 6.6.0.R R T E Y ` E &.R r 1.^ ` ( ' >.<.( ( Y U t > > + % &.A.' U E T Y s i.cXrX#X8 X { %.E ' T E E ` &.%.R z ! ] ` E ! Y h ' A.R ! %.z a E U U U E ] #.' &.! 0.p t.eXhX+.5 w z ( U E ' 4.U g z ` g E ( Q }.ZXhXp.@ % 1.` ] %.s E 0.z ( 6.R z ! 5 f.BXz.2   t D.^ E 4.D.E ( ] %.#.( E h ",
"= > X U 8.` a t s s R z a h a R z a U z a z a h a z r a a E U R E.< l.F # ^ <.5 W.. r %.a ' q r a a h r w a z a r s a z a U h z a a a w a z U a h r a r w r a a g a U r z g h z Y h z Y E h U ] U R i a ` E z ` a Y h U h z z R R U r a h s a ' Y ' %.>.6.7.9.,.<.( >.T g = % X % T ` h z z z E z h h Y r a U h a i z h a a a z a r h T h g h h ^ U h g W ' Y ' g 4 O.yX<   X - a ,.8.0.&.u * * # ; 3 q r s Y ( ' [ ] #.a z k q q w W U.D 1   o ` 4.U U 7.P.6.E ) d P jXBXHXBX|.5 > ,.Y U h E R R Y z z E Y z z Y R ' h ! @.$.&.,.$.%.0.' #.U h e > , X % >.5.Y h z E ' Y z R ' ! E E E E ` E %.Y R U Y ! U E E ` ` R U U T ! %.$.0XjX6XD q R %.R ( ` E %.E Y ' #.` ] E E z k R ,.c <XtX0Xa.5 % [ E ' Y #.( ` ( z ' ( H.Y S (.wXeXc.# r E E U %.E E ] ! ` #.U E U z ! U ` ' ! ` Y R R E R E ] U r 6.^ #.( ' >.>.] ` h r e e > . : [ 9.! ^ x ' ( g p.cXeX;X8 @ [ ` ] E %.] E %.` %.] Y ` Y U %.' U R U %.U ` 7.` z ' ` ` ] ` 6.[ ! z #.s B $XbXc.h u a R ! ! z R ' ( z Y ] E W ` N }.CXjXi.% = #.( U ' a g E #.g %.D.Y L.3 B <X1XM . @ 6.6.Y ( %.' ( 5.,.#.( E Y ",
"= , # a ] h i h a r z R a s z E h z Y r z U r z z E U a z z R a K.$ d._ . x <.8 /.o q %.r a a r z a y r 3 a r q q q r U a U a z U a z z z a Y a a h a a a r a h a z z s a h U U z U a a z U z ] ` #.E a Y ` E ` z z E ` s E h U U E U Y E a a ' E ^ >.) <.%.0.7.[ ` >./ r 3 % X % ,.&.U h z z z R z a h z U h U a z a r h h h a h a a z U Y a a h x Y Y z ^ >.= ] y & V .X4 .   . % s &.w 6 f b 4       o # % # *   & = % # + X . f n n V p o   X { ,.( z R ' r 0.T L wXvXHXGX;X< > 4.E U q U ] ( Y z E ! R Y Y Y E ' a U ( #.( ] %.1.,.) ( U Y > % % . % #.6.h E z E ` R Y U z ( Y R E R E ` ! ! E ! U ` ! E R z ( Y R U U } E  .wXjX0XF q z ( %.( Y ( ` ] 4.! ( ` E ( ` ` z ` X.n >XtX6Xa.- - R ' ` E &.E ` E E U E ` #.b ).wXeXc.# y U Y E E ' E a U U ` ( ' R ( %.] ` E ! %.( ` ! E ` ( E h g #.( ( ,.,.9.,.' ' / j e > > o * [ 0.} U h Y ) i d.vXtX;X8 = %.E } %.' ^ E Y E ` ] ' 7.E z R %.! Y a ` E ` %.z E ` ( R E R #.#.Y V ,.b c.vXeXL 4 a U ] ' Y ] #.! %.E g E U ( 4.d }.CXcXt.# > 7.,.%.,.{ z g %.w r %.H.' ,.< i.vXb.< + w H.R ` ' ,.) <.] ,.' T h ",
"> = X y 8.( g h a a s r w 3 r r s z U a z U a z z h k z a z U U A.# :.L . R >.0 /.# w ,.s r r r a T a z q z E h z a U Y a a a r s a z a r z a a a U a a a a g s a r h R a s a r h z z a z U z R r ' { U h R U U z h ! R z U R U Y U h h E g q h ` E ' <.7.,.1.6.] ' ) ^ g e , X & ' 9.g a h a h Y Y a Y U h h Y r h T g z h a a a a a i U z Y a h Y Y V U U ,.^ y 1.h 5 ~ S 5 *   o o & A a.XXT.Y.W.`.d @     o . % o   % 1 s w d Q ! ) ! n 4 .     y [ 5.( ' h #.V F 1XAXHXAX].# 3 &.E ! a h U E Y a U ! E Y Y T Y T U ( ] ' ( @.%.&.%.] ) Y h t , % X # #.7.h h z ! R R Y %.h h E R Y R E E E E R R U Y E ( E E ! E z E a E z ) eXvX0X..w U E ( ' ( ! R U %.%.E ( ` Y ] l ^ 0.E A 1X7X9Xf.@ $ = z ' R U ( E %.` E T h ' b }.0XgXc.@ i E ] z R ' U z Y E E ` R Y Y ` R ` ` E ` ' ] ( ( E ' ` h r ,.^ ^ >.( <.>.#.' ` h t e > . X ] 0.! ' x U ( V d.jX0X+Xu % &.! E &.` ` ( Y E ' ` ` %.` ` T E %.%.' ` ` ` ' ! r Y ` R R ( E &.` 7.i L 1XZXg.5 & e ] ( %.s Y E U ` %.' E ' E 4.b }.vXhXP . > J.!.8.D.` U 8.A.J.7.E %.h 9.t 9 <X9XJ . . ( &.Y ` ] ] ,.( ] ( x r ",
", > O U D.Y h a a x E U z r z a z z ( q z U a z r a z Y a z s E 7.- i.L . g / N /.# & ' Y a U g r r z a a h h h z r z U h z U Y r r r r a z Y s a a s a a w R s z a a Y a z U z h z h a z s U Y a h U E a z T z a a ' z U g s Y U h R Y a z w U ] U ^ ( ^ ,.%.8.>.>.T T g e > X = ,.` a z z z U z Y z Y a Y h Y U h h q h z w r a g a w h h a z g Y W U ( ,.a e 3 = h 4 *.$.J t.c % = S H c d 1 & < 9  .Y.W._.l.+.Q b ! _ S.~.yX6.) =.9.=._ ~ 8 o     o t ^ T h 6.i +.ZXZXNXgXO.$ 3 0.E ' U z T s a h ` ( Y R U R Y E a ! 1.#.T ] #.#.#.#.] ( g t = % o q 6.,.E U z U ( E T ` T E E Y ! E %.R Y E U T U Y E Y R E E ` a ' Y E %. .0XhX0X..3 U ' E R ( ( ' E U ( ` z E ] ` t #.F.h v 1X7X6Xa.. - o i ^ ' U E ( ( ^ U U a ` p }.wXtXz.# r E %.E ( ` 7.' R E ` ` ' ! ( R Y R ' E ] ` ! E ! U R E ` a 1.Y ' ^ T ,.,.<.#.` Y t e e . X ] J.&.U Y U E W d.jX6X}.5 X %.' R &.} ] E ` T E ! ] ' ` ' ! ( E a E ' E ` ` &.( ' ` ! E ( E U ' R 8 ].CX-Xp 5 i ` ` r R R U E T ] ( T R ' ] 6.n }.CXhXP @ q >.7.>.D.( #.( ( %.#.%.' ( t #.5 P bXm.d . w L.R ,.Y %.Y ( ^ ( h r ",
", = # g E.>.g g a a z a a a z r a a ` a a U h h a z Y a l U a U q.- i.:.  g ` j /.- = ( a a r a a a a a a h h a a r r a a E z z a s a a q r a a Y i g r w q a a a z a z s g h z s U r a g z z U z ] s U l ! z a a z z z z s E Y R w a z Y a a a 6.U U ( / &.%.>.>.' ^ h j e , # w #.' z z z z h U s s z z z U U g U ( h U z r w i h i y t ^ t x t r q r = 3 X # = & q s 0.!.S.| b d F | | Q d o ; 3 $ $ % & 3 $ % s I.P.0.J.I.I.E.F.&.A.F.X.&.1.( =       @ # % X 5 0XAXAXbXp.d w s &.U E R z U z a a R E Y E U Y Y ' h T #.( ( ( ' ,.%.' ] ! a e = ,   e 6.4.h h R Y T R R E R z E R Y E ` U Y E U %.R E ` z ` ] ` R ^ Y g ] ) $.wXjX1XF r E ` ! R ! ` ] E R ` ^ Y Y ! 6.z ` @.V H >X%X#Xk.. q % r } w.' U ` ` ` 6.[ U ,.7 }.eX0Xc.# h R ] ( ` ` E z z U U E ] U ' E U E ! Y ] ] ' U E h U ' a r ,.T Y ( ] ` ( { ` / x 3 > = X X ` 7.( ] ( U ( T a.hX,X+X5 % #.] ` E ] %.R h E E U U %.%.[ ` R %.] ! Y U E ! ( ( U #.Y %.R { z &.u d.hXhX+.- t a 4.' ] ' U R T ` { E R R z %.7.b :XAXgXL X e 6.` E 0.4.K.6.a h 6.>.` 6.U #.h n }.wXK . @ %.6.,.>.<.>.T g i t e ",
"= , X g L.{ z h a z z z h a U a U z x E a z U a Y a R s r Y z a A.q o.P . U ] 9 '.- 3 #.a r Y w Y r z g a a W a h h a a z a z U U w a a w 1 s r h E a h g z a z a a U y U a z h h R r w z s a z a R U z a U E U z U U a R z h E h a z z a E w i D.E ' &.#.%.,.$.1.#.( z r = , X % ` #.a z a T U U U U Y z z h g W g U Y U a a y h h a a # g U % 2 4 % w N Z G G G F 7 g..X!.!.F.=.~ *. .1.,.' u . % U ] z h y 3 U ( xX~.I.J.F.0.S.J.0.0.!.&.' ] N W i.H d 3 d n f.0XSXNXrXl.N r a Y R Y U T Y Y R g z ( Y Y E R E E E r U / ( ,.( $.) %.&.! T h t > , . = ,.5.Y h E E U T U E E ( Y Y Y E E R ( z U T U ( ! Y R ( ` ' z ,.U a W $.wXhXeXB a U ] ' ` ` ` R R ' ( E ( R U ' @.E 1.V J ;X#X$Xx.$ i & 1 R ' ' E U E R >.%.h 4.8 +XeXwX/.# U R @.U E ` %.` E R ! E Y ,.' ` z U U E ,.E ' 4.E E ( ` U y 4.( ( h ( ' T ` #.' g t = , + o ` 6.Y U { h U @.f.MX,X}.& o %.` ! %.' %.%.%.( E ` E E ] ' ` Y E [ ! R E a #.! E %.%.` 8.] U >.h D #XZXW.6 3 e ` Y ' &.( ' E ' ' ' ] R ,.R z D.b #XCXhXJ . g ,.{ %.E ' H.P.P.q z 1.{ %.( a 1.3 L MX(.5 . = !.9.( ] ( ` E h e e ",
"% O . t D.( g g z z z s r a h s a U z z a a z Y a a z r Y a z z S.3 L L X Y ` 6 ].$ = ( r r w a U a h a h g r a i r a U h z Y a E z r R r r a r r a q a a g T U h a ^ h a r a z U E R U U R a g U U z a h r r h a Y h a a Y a a U s s Y s Y a a 8.! ( ] ) ] ,.,.] %.^ h e > > O q ,.E r h a U h Y h E R a h ( ( r U a U h g w 3 & a h a r = Z `.4X<Xg.`.+X+X#X<X9X9X4X4XX.` &.=.S._ W Q =.&.s.$XJ @ # a ( T U i ' W !.A.0.0.8.6.A.P.A.D.1.=.) a a 1 t./.}.3XdXdXkX<X:X].p.B 1 = R ! z E T R U s Y s U ( E U Y U U T ( h T ] ^ ] #.' #.^ ,.' T x 3 e -   e ,.,.U h a ! T z U h Y ' E ! Y ` ` a E E E ` E z E z h U ! U R E ' } #.@.eXcXwXn a U %.! E E ` ( U U %.Y E ` >.Y ' ! #.h K <X@X{.b.f u 4 . & Y [ E ] ` Y ! A.s H.9 '.tXtXc.# r R E ] E ` [ ` ] ` #.E q %.Y %.! R R R E E E U z R ! ] R h 9.] %.,.T #.#.#.` Y Z t - , . % ` q.#.Y ^ ( T ) k.GX0X|.< O 5.R ! #.&.Y ,.` ' E ' 4.[ ] ` U U ` %.T E %.Y U R R ` R ( &.` ! ` 4 l.NX1XA 1 3 ' %.E ( [ ' R ` ] 9.9.] E %.1.` H.n 1XCXjXG # a ,.( E a g 6.4.H.U y T E ( E Y T g 8 `.rXP % @ ` L.( ] ' ` ' ' x t ",
"% O . U 1.( r s g a z g z s R U s h R z ! a z U s a Y q a U x s 1.= :.P X U ' < `.@ & >.z z U w a a a a i h h g a y r h z z a g w a w a w a E Y r z z r a r ' r h E Y E R T z h z E R s z s z r r z E h r Y h r h U a a a g Y U z U U z h z T a 6.E @.#.1.6.,.%.@.%.^ h g > > O q 6.` h a z U h U U R g g w a R ( z z W T a g q % r g z q # V  .G c b p V 8 8 9 c A C B d w s u V S ~ W V u d F ..f = 1 s g g #.T a F.<.1.#.$.6.*.=.@.) T d h U s s C H D o.H F G B B c p 3 q R U h h E R R z Y a z Y E ( U U ! E E ( h U ,.T E ( <.' ' <.%.Y h t > , . q 6.,.h U R U R Y Y z h ` ( ! R ' ] E E R E ' ! ( %.R U R ( Y ` U a E ~._ wXjX6X8 w z %.E z E T E R E ' U Y E E ( R %.( Q t.@X{.{.{.7 d V p % * U R ` ` E E ( a 6.6 '.eXtXm.q 8 U ` z E E E a z U ( 6.] ` E ' ' E ( R ` ' z ` E h R ` ] r %.( ] ( ,.1.[ ` / g x e - = X # ^ 8.( ( Y Y ( #.g.MX,X}.1 X &.%.` [ ,.%.E %.>.%.%.[ ` ` 6.' R R E Y R R ` z E z ! ` R 4.r 8.q P wXvXi.1 % a 5.6.E %.! ` ' U U ] ` #.Y ' ,.' 8.c qXZXcXG @ h 6.U #.' ` E %.4.&.h ( ] #.{ ' y ,.3 D vX|.9 . 3 L.#.] ] Y Y { E z ",
"% % . z 1.( a r h z a a z a a a z a z R z a z U R U ! E z a z g A.3 +.P . U ' < ].X - ( U g a a g a h r a Y r r a a r r h h a z a h a z a a a Y R U z a a z a R r w ( h T ` z a i a a U h E E a U U Y a U ( ` z t U R z a h h U h s Y h U a a a %.E ' ( >.1.6.6.#.#.' h t = > . q q.' a a q a U U E U h R E a z Y U z U s z a % 3 q z E % # % & 3 = 3 1 & & % & $ $ = $ 1 r & $ % & r r q = $ # # & r r z W a &.w q r r R E ] U r w 3 q w 3 3 w % 1 # & % & 3 % = $ = = % q a T E z r ( U R U E z a U E ` E R R W E E i a ] ( >.` ` ` ' ` / ` x t = , X e 7.6.h Y ^ Y R ( ` a E Y U ( U ` U ( ' ^ ' ` z ! E ` Y E ' U ! ` Y E !._ eXcX3X4 = g ( R U Y ( U Y h E ( g E E %.^ %.E ) P  XV.|.{.t.r ;.b s # % 1 Y ( #.( ,.g D.7 +XeXeXm.4 e ^ R E E E %.E ( z R %.( ( ` ' ` ! ` U R ` %.( R ` U %.z g 6.h Y ' <.>.1.] E ^ z t > > . X / 8.( T #.U R ] a.jX6X(.5 # %.` ` R ` ` ' ! ` ' ! R %.` %.4.,.` ! ' ] R E ` E ^ ' U W g ,.T B +XGXW.C & & ( ( ' #.5.` ' ! R #.` ! ` ` E ' Y 6.c qXAXeXB . g D.Y ( T E ] E ] 8.&.' %.` ' ,.[ Y %.4 _.hXj.3 X ' 9.) h E ^ ` ' z ",
"> , . l 8.( a a a z g z g h h U z z r a s a a Y U Y z h U Y z z 1.3 o.H . h ' $ ].X - ( i g a U w w r a r h h U r h a a a a h U Y h h ' h a a r h a ! a a r Y E Y r W s w & Y r r a h a a a E Y ( h Y a a U h h a a E a Y h a z h g h h E h a a ] V ] ( ( ,.1.6.#./ Y U q = , X y #.^ h g z a U Y U ] U h T z s h r R U U x r a r s w %.E U V W h U Y ` ] %.' ( ! ( E ^ U R T z Y U z Y h W U h ( R k z k k z 0.a 1 % % q 1 * & q & w % r w k k a h E #.! s U V ( ( T T ' h w ` E Y s R z Y R Y z a E ( E Y U z R ( E a Y ( T h >.R ( ` ( / h h t > , # t 1.>.R Y T h x U E Y ` ( Y ( z E R z Y E ` ` 5.' [ z R U R z i ,.x ' J.S eXvX3X8 3 V @.z E E R ( Y ( Y ( Y R Y R %.` T ( P M.C.B.Z.b.d W p d i # @ % E %.` ] r 8.5 +XgXrX).d = ^ ^ Y #.E E E ' E R E ! ( ( ` R E ' E R R E #.%.R a U E Y D.U ( ] %.,.,.1.,.( r t ; , . # >.J.Y U / ` Y ) d.vXwXl.4 % ,.R ` %.E 4.%.U z ! #.&.R ! E ` ( ` ( h ' &.a ` g U ( ( ( U ,.6 l.vXwXF = w R #.] Y ( ` ! ( ] ` E %.` %.E [ ` z 8.c dXZXgXv . r >.h ^ ^ z E ' ,.E ] T 6.' ' 5.` w 6.y _ cX{.7   & P.` ^ h U T z z ",
"> > o g 7.( y a a a h a a a h a z h a r z z a a z a h a s a Y a 0.r +.O.. g ` # ].@ = ' q q r g Y a r z U a h U s a a s a a h z z a a R z a a h a a U R z i Y E R $ q % # # # % 3 a q i y T z h h Y E Y U E U a U z ` U Y a Y h a z h U R a i a ` T %.%.' 1.%.%.@.] U r t = % X 4 ( ^ i U U U h U U R z a U z z x a U U z s R a U z U r a q & q = r r a 3 q 3 3 q q 3 q 3 & 3 q 1 & w 3 q q q w r r U a w r a z } %.` ! z R &.E R z E w k q u r r q q a 3 3 r y q r w a U ^ i E ! E ` U U Y Y ! h h ! T R E T Y Y ` E a g ( Y T #.` >.<./ / ( g t = = X t ,.] h E ( h / E R U E U z E Y a ( ! z U ( #.#.E %.5.E E E R z R E ^ 8.D eXjX1X$ = h >.( E Y E Y E z ^ U ` E ' E R E %.W D (.V.B.Z.n.| % 3 d d 6 % # 3 ! ` ^ r H.5 '.rXhX].6 > Y ^ z h E ,.Y ^ U ! Y R ' ' ! z ! ` E Y ` U R ` ] z U U r 6.( ' ] <.<.5.7.#.( U e = , o X ( D.Y x V { T #.f.NXvXp.4 % D.&.E %.E Y E ' 4.z ` ' ` z R %.E ' ` r z R ` ` E ( ' #.E ,.i O.0XNXg.9 % w [ ` ` ' E E ` ' E 6.] 4.` ] ' %.%.z 6.n dXCXrXv o Y 6.g t ^ T R a ,.( ( ( 4.] Y ] %.! h Y 4 l.MXa.*   T ,.,.E E U z z ",
"% , . z D.E g a h i a h h h a g z z a a a a a z Y a z r R r U T 8.r o.H . h Y < `.@ q { g i a h g U h s s r W h R h a r z a a a U z w U U a U h z U R ( h R z U ' U h U i = . X % # h a r E ( U a h U U z U E ( h U %.>.U z T a a h U r U a r z ' E @.&.' ) #.' ] #.^ g g > = % U >.E g a E h h h z U R a h z z z z s z s a a z z z U z T h z a h U Y E U R U a g h a z r U a h r U a g U a a a t z z U a s z q r r f w 1 q q q & a w w u a a z h z U E W z z z z g U W E ` ^ ( Y U U z U E Y R a z E R R E R T U U E z U { ` h ` <.` >.>.T T h e = , X g q.' V U ^ ( E E T R U ' U E z a Y ` R E ^ ( ] &.! E z E R ! Y ` U ( 6...hXjX6X$ g r ( T U E E ( Y ^ Y U ( E E R E ] ,.W b  X<X|.V.C.x.M s i b w # . . a 5.] a H.< '.eXtXm.4 , g R #.^ ,.,.` ( U Y E U R ( ` U z %.' ` U Y ` %.' ` @.Y a 6.E %.#.{ / Y ] ^ U t > % % . % { I.%.h U R T $.k.BXNXa.3 # K.P.^ E ` ` ! z 6.5.E ' ] %.Y ] Y ' ,.U T R Y E ! ( ] h 9.] c (.CX).n % & E ! %.` ' ` U ' ! E ` ] 4.%.` E %.' a &.v 9XAXeXc . h J.` 4.,.( 6.E #.%.} 4.H.8.' ` E 1.z A.w 9 qX@XM   q Y ( ( %.R U r ",
"o O X g ,.^ r a s Y z a U h g a s Y w r a z a x E ! a a a a k z D.t P D X g { $ ].# q ` i h h R a w i z r r R w Y a q a a a h a h U w a z r s a a U U h w a ( #.1.) Z T g r @   .   & ( R 3 a a Y a U z a z z z E U E ' ( U z Y g a Y h h r e q ( T ' ' ,.@.&.1.,.] E h y e = X a 4.E a z U U z U z z z s z z U Y R z E h U a w Y Y a U z r R r r a z z U z E E g W U U z U h a a U U a h q r Y R a h a z r a z z a U R s r a h T R ( g z z U z T z U Y U z U Y U Y Y U h z g ' E ` z U h Y ! E a Y ` R Y R U h U U ! a z ` ] ( Y #.#.#.[ ] E h > q , . t ,.,.h ^ z Y E ' Y ` z ` U ( E U z U U ( ^ ` z ` %.R ' R Y z R E U E ,...hXhX1X$ h h ( Y a E ` E R a Y s ( E ^ z z x D.! A  X9XjXqX9X9X#X/.p s 2 . o 3 3 z ( U { $ +XgXeX/.8 % ] R ' E 7.( ,.' E 6.` E E ! ! E z R Y ] ( s E ^ ' h z ` r 1.Y ` ( ' ,.,.1.,./ t q - % + - ` 9.[ ! Y R V &.k.NXlX/.w - ] %.` ` 4.&.' E [ ! ( ( ` &.] ] [ %.` R R ( %.E %.E ^ U %.3 k.cXqXF = 1 U ' ` R ! E ! R ` E ` ` E 8.K.` ` #.7.i 1.A 9XbXjX0   s &.E 6.H.0.` E ' >.` ] 9.&.,.' %.#.9.h 6.4 g.vXz.< X ( ' ] Y E h a ",
", ,   y 6.( i i z a a z z w a h a a z r z s z z x U R z a a z r 1.e o.P . g / < /.. 3 ] h a Y h z a q a a q & a z z s Y g a h Y Y %.w w z z Y U h h a h W r ) &.Q E s & % 5 = o   .   o Y ,.%.a a z U a U h U h R R T #.R Y Y z T h r a s a q > Y T ( ] #.%.6.#.,.) U ) g = , X z L.' r z a Y a a s z U a z Y Y U s Y s x z x r a T h R ' x i z z U g z h T a a g h U h t z U g w T h a r 3 w U a g a a a a a E h } w s U U a r a z Y h w Y k a Y U z Y h h h U h U a U U U r U ! T R E U z R R h Y Y ! U U ` U x ` R a R ( ' #.( #.( ) #.( ( h e - , . l 7.D.z E ( E E Y ! E Y ( E ( U h z z a U Y ) ( U %.%.! ' ! U U ` Y E 6.:.hXjX3X@ g g @.E Y Y E ' &.s Y Y R Y #.E R E ( 6.A T.4XdXkXFXVXjX6X$XO.b f $   . # % 1 q A ;XhXeXz.6 % ` ' %.E #.6.` ' ^ E R ` ^ ` ( [ a a ` E ' U z z ` %.R z i 0.z U ' ' ( ( ' #.' Y t % % . X ' 9.' z U E U &.d.NXeX'.4 - >.` E E E ! ' U ` ' E Y %.U ` #.4.` 6.} E ` ` U [ ` Y 4.d o.6XvXg.< & a ] ' ` ` ] R ! ' ` &.` ` E ' ' ` ' ' 7.U ,.v 9XbXhX7 . } H.[ 4.] 4.,.! ' ` ' R &.%.%.%.[ ! %.U #.u C fX,XB   ( ^ 6.` E U g ",
", > O 4 ( E h r z r z a s a a r R r a a r z z Y z z a s a a z a 1.r :.:.+ t Q < ].. % ( w a h E z h a h r U a U h U E h a a z U Y %.R z a R z a U w E s E h @.$.E 4 W V %.@.) U 3 % w   . i 0.( a r Y z U h z z Y U ' Y ` E E E h h g h a i r q h T ` ` #.,.%.%.,.' ^ h U q = . E 9.( h R z z h a x a U s U U Y U U h h U U s a a U r a z R h a z z h z s U z Y r z U z z h h z t U z a a 3 w a E h a h z a a z R s h r a a z w a h h z a a a U R z a ( z Y z Y g ( h g U a E h U z E T R a Y U ! ' U Y E E ! E z Y U a R ' ( ,.) ] ,.( / T / h e % O X z 9.>.Y Y Y U E U R E E U %.E E U U Y U U E Y ] a Y E ] E E U R R Y Y ] s.jXvXwX5 a h ) Y h R E R ` E U z #.Y Y E Y ^ ( 6.C k.wX;XfXkXlXlXkXeX9X#Xb.j.K c < $ * B /.hXgXhXz.8 1 R U E U ( ` ' ` E ! E ` ` E ` %.U a ' R R %.#.' h ` ` z r 8.! E Y h / ` / ^ ( Y e = , . X ( 8.>.R s [ s @.p.cXgX).4 % ,.] ( R R z Y z R %.%.' ` [ %.` ! E ' #.Y ` ` E E U E 1.8 [.CX}.p $ = ) ( ` ' ' ` E ` ' E ! %.R ` R #.%.` ^ ' Y 1.S wXbXeX8 # E 9.%.[ #.%.` R ( ' ` ` ' 5.] [ %.` ,.` a ' < :.bXb.@ U T >.! E U g ",
"> , O y { ( i y a E a a r r a a U a z U r a a z U a a a h a a a %.w L L X t <.6 ].. & ,.a z U ( a q a a h 3 q E r z r U z a a U R T R h z 1 q a Y E ' h a s a W V @.@.@.S.) 1.i d E 0.@.q @ # T ( z h h Y E Y h U z ! E R ( Y E h h h y a r 3 % U E E ( ^ ,.&.#.,.@.U g r e > % z 4.U h Y z r U U z a a U g h z Y z R U z Y a U U U Y h s R z h U E U U R a z U h h U h g g z U h a z r r h a h a z a U z z z U E Y a U z ` a z a U z z z h a a U Y z E Y z U U h U Y ( z z q h E z U E U Y U a R ' ' R ( h ( T U Y U a Y ' ! #.%.%.%.%.' / ] h q - % X x 7.>.R U E x R E R W ] R Y ( ( E Y R E E Y ( 4.( E R ] ] E U ! ' R T ! :.9XeX6X5 a a ( Y U Y &.Y U ' R R ' ] Y ( ( h E =.v (.kX4X<XVXlXMXhXwX1XwXhXdXqX<X;X;X#X;XgXhXrXhXz.8 > ( U ^ z ] %.E ( 5.' ` ! ` ` %.6.,.@.R T ` E ! [ Y a E w q %.R [ / ] >.>.5.' Z h t , %   X / A.` Y E ` W %.d.jXgX'.= O #.%.%.` ! ' a z E z z ] %.E %.&.' R R %.E ( R U [ z 9.p p.wX6X..q > Y E ^ R E ( ' R ` %.` ` ' ' R %.E E ` ( ( h >.F wXcX0X0 - U 5.] } ` #.] ] R ` ` ] ! &.` ` %.` ` ' g #.z p '.eXK U E ( ` E ( z ",
"> ; % y ] ` r r r Y Y a a q ` a z R z z s U U a a a a h z z z g >.w P :.. g <.5 '.X = ) q r q E g a U h h z w U a a a t g U r a z ` a a E a U x a U z Y s U U ! 1.A.] W S.J.U ' @.<.1.8.] ( W & @ Y 6.k g U g g Y E ` ` ` E Y U h U h h w a e > Y h T T ( >.1.] #.( h a a > : % U 4.U a ( ^ z h U z Y a w a r a a r r z E Y &.z z z U U z Y E E s z E Y z U W z z a z z U U s z U a h a a t r i z h a z a a z U ' Y r s k a k d w z z h z ! z r a a z z E R U T h z Y z U ^ h U z Y ^ ' U g ( E Y ` E U z E R R U E E h T ' ( ] $.#.,.( ] / / Y t > , X x 7.{ h h Y ! R Y E z R ` z U E ` Y U Y E E ` ] ' R ` E [ ( ] Y ` E U ! ..dXMX<X& a U ` E E ( #.[ R E #.E %.` E ( T z R 1.B z.}.].W.`.fXdXdX9X3XgXjXjXlXlXkXdXgXgX0XwXwXwXz.6 > E z ' U a ( ` ! E ] ` E x ] %.%.%.` ' R U ( R ! ' Y Y E r #.( ( ] #.,.,.<.T z g e , , . X Y q.` h R ( h @.O.MXhX/.r = %.E E ] ] @.T Y Y E @.` 6.E [ ` R ' #.E ( ' ` } g ( / B #XNXp.d 3 w ! U R U U ` ' E %.` %.%.` %.` E ` R ( ! T g ] J wXnX0Xc O ` ] ] ` ' [ ( ] ` R %.E ! 4.` Y &.%.' ] ` e 0.u :.NX#Xz Y ^ #.` ^ g ",
"e ; X w #.( r a a a h E a r ` ! a r r U U R z a r r a z a a a a { w L o.  t / 0 /.. r ( a h a U U a a w h z q z a a w a a E R U w Y z r R U a s z Y h z E W a $.G.L.9.U $.1.@.` <.1.F.8.) ( h ) z X R [ a U U h s Y ! Y E R E Y U a U U g r a q h g T h R Y ,.] @.( W z a e % . R D.T y z z a U a U a z a z e & % . . . a q r &.Y z h U E : a } a s U z R Y R a z E h s E R R Y h g h h i ( ^ h i a R z U Y E r R U R z z z ` w a a U a U Y E U h g g h R E ] h h U E Y x U ` [ Y U ( z E R R E ' %.` [ E R R ! a T E a z ( ^ E ' ,.1.<.] ] Y x e - - . l 7.>.R R U U E E ! Y ] ` R U U U R E Y U U R %.] ] ` %.( U &.E R E Y W 8 O.:.F . a U E Y E ` ( ' E E ] ] ` E ( ] ( ( U A.d _ D L ..-.F F K P a.W.`.yX<X4X4X4X2X}.-X}.-X_.+.4 $ ) E ( ` E E ! R R U R &.R E ] 8.` E %.R R &.R ] E ] r z g 0.` ] <.#.%.,.) ' ^ a q = %   X ` 7.^ / ^ V Y &.t.gXgX/.5 = &.&.R ' R ( %.R z E ' ! %.%.] Y ` E ! ' E R ! } Y 7.p z.bX>XZ % & %.%.` 8.R R E ' E U ` ` %.%.[ %.R ` ' T ' ( h T D wXbX0XG - E 7.` ! %.#.` %.] ` ] ' ` &.` ' ` E ` ' #.%.U z b 2XNXR Y ( ^ <.E z ",
"> = X a ' ` i a R E a z a Y a h U a a a r r z s a z a h r w z a ' q L :.. t <.5 /.. = ' a a h a z Y U r a h R ( r ! a a a z Y T U a ! s z z z U a a h g ` E Z 0.L.S.8.F.F.%.W @.7.7.2.8.2.) Q Z u % . q E r i U R E ` ` E ! E U ! U a g V g q > h h Y R ' T ] <.] ( ! l r e > % ( 8.a w h U z z s z U a R ` ` h a q $ 3 r % & W #.Y z ] z 1 ; 1.U a z %.E 4 1 . O q q s #.& e #.a g Y h z & x R i a ( Y ! 4 ,.( W U E a z w z E s z E z E & a ] Y ^ h ( 1.% ` A.E x r E D.a 1 %.{ h T E Y Y R T 4.%.! Y ` E R ` Y %.g a E E ` Y ` #.7.1.#.` / t e , %   h 1.,.h T Y ' z R Y E ] U ( R U Y z Y E R ( T R @.&.[ ' ' ( %.,.E E E Y % w y 3 w Y E ' ^ E ,.` ] ` %.R ' &.( ! R Y R z H.3 8 i i N S | H J D H M b u 2 i B B F B B V b b d w r ( E ( ( R ! ' ' h z R %.%.&.} 8.9.' %.] U Y E ` ( E #.E w ` ` ` ,.) #.) ` ' ` j e = O   X ^ q.` R E ^ g $.o.vXvX/.4 > #.E ! ( z R ] ] U R R ( ( ` &.R ! ] E E U Y E Y 9.T L 0XhXo.4 q R ,.` r %.U R z ( ( E E ] E ` 4.` E %.' ` ' ` R ( L hXbX,XF % Y 6.( } E ` %.` E ' ! ` ` ! %.E ` ` ' [ ] D.z 5.-  .VX^ T ( ( ` T z ",
"= , O r ' ' y h a Y R s a a a h a a a Y h h z U s z a z r a z t ] t P i.. e 3.9 W.X $ U r a r q h a h Y a a z E z r w Y z s s R a U U a a w a r U a s a E & s 2.I.1.S.1.,.Q r ! 9.7.2.2.S.1.Q V f o     % a U h z h E T ` R U Y h h g i a r 3 = Y h g T Y ( ' >.' #.' a t > > % ] H.E a U a h h z h Y a U 8.4.' E W a *.r ; + # w w s ! 2 < + ` 0.t ` ' o   q #   . % ! a . O ; i t U ,.a % > U = $ 3 ( R % q 0.E R U ' &.* ; 0.E T w %.4.3 # J.D.E V 9.w . O 4.( g E 8.w * . k 8.( g Y Y W Y ( ' %.] ` ! R ! ! ` Y ( U z E U ^ h E { ^ ] Y x t = , - X h H.6.x R ! R E Y a E ' U U T ! R Y R ! ! ` Y Y ` #.` ' ] &.%.,.,.( E 0.W a r w z E ` E ( ' 4.#.Y ` #.] ] [ ' ' ( %.Y z ^ >.` z a s w 1 d i 4 w 1 1 % q - = $ % & & w q w 3 1 e 6.E #.( { #.' ] ,.` U ' %.6.' ' %.` E %.' %.E ' a z a ! a 8.Y ] ( %.( %.>.' / Y t = % X X [ 5.^ Y Y R g &. .HXZXW.i X ,.! U Y E ! R @.] T E ` Y 4.] ' E E Y E U #.a ! ' 8 ).CXc.B % 3 ` %.9.' ` #.( U Y E ` ' E E ` %.] ` ! R U E Y z T L eXnX@XS # T ,.@.] ` ' ` ( U ` E ` ` %.%.[ ` E %.E ` ] E Y } 4 /.^ ( ^ ( E z z ",
"- % O e ' ! y w a s U r a U a a U h r q a U z z g a h h a a y t ( r D i.X g 3.5 c.X = E h a a U a r a Y a U U E a Y a a a r h E s a E q U U k U z ! U Y 1 h &.I.S.8.,.&.@.z % w >.A.F.1.) 1.Q Q E 3 o % @ . w z a U Y ( ` E Y ` U U g r w r g = h V Y ( ` ' ' ( %.( ( h > > e % #.8.^ h U z a a a a k T R H.P.D.8.5.&.s 6 t.2   % r s u F j.@ o 9.Y #.q m 2 . & . @ T z 2 *   . . @ i a . . . 3 # $ 3 i 5 . # ) %.z x 0.;.& @ ` 6.Y U #.w $   ] D.a ' V u @ . t P.` ' i A t.* . ] 7.z Y R Y R ] %.4.R ] %.E E ' Y E ( z U ^ U U ^ Y ( ' #.( ^ g e , - X g H.,.Y ( R E ' E W E U z E r Y s z Y Y U ' ^ 4.( ` ] R 8.] %.&.] [ [ R T #.` z ` E ^ ` ` ` ' 6.E ] %.w.7.6.8.' z ` ` ' U z U z ] H.H.] 3 r a e w w s z R ! a z U %.6.A.0.%.9.E %.&.E R E ` &.( R ] ' ! ` 0.%.0.4.[ E R ` ( %.{ ' E E R x 6./ ) >.' #.%.) T / h g q , . . ` q.#.^ #.( x %.F KXJX-X4 # 6.` %.h U ( ] ` E ` E E R ` ' ,.z ` ' ( ` 6.W ' r | qXqXS 1 & R ` ' ` 4.%.A.E E h E Y ` %.E ] ( %.' %.[ R E T h / L gXvX@Xc O ( 9.%.%.` ` [ %.E ] E E E [ ` ' ` E ` ` @.%.6.t ' i Z ^ ` ` E ^ U h ",
"= , % g ` @.a h a a s r r q a r a h V s U a U z U z a e h a i h ` q L o.  l ] 9 T.# w %.a R Y E z a a z T a r E E R h r r a z ! z &.! Y s a s z T Y U q u $.F.J.S.<.' T r w R P.' ' A.9.2.) / ,.R w w & %   # % r a ! ] E U R E U E g y r r g = Y g ( ( ( >.' ' { ,.( a q = % = #.,.h z a a z h U a U U z K.!.~.!.~.9.p b | 7 @ # w z d t.n.M o a %.T n b.y.  1 l ( ^ 4 j.n.<   . o a * L f   & i 8 V t 4 f   y H.s E %.d c + w A.U ] h 7 v   o 7.g &.1 a.K     R #.Y 4 s.F <   = P.R z E T s ' 4.] ( E ( a U #.E E E z h Y E ` >.' T ' ' T / t t > , X Y D.<.Y ! E E Y ( R Y %.E %.U E a z Y U T ( Y ` ' ` ` { %.%.%.6.%.,.#.[ g r 3 r g U T ( E ` ] %.%.` 6.J.4.6.9.9.{ ` ' ,.` ^ E R E ' J.8.D.H.P.P.9.D.0.[ ` %.%.E z a z ] z R z ! U ( #.#.` ,.5.] ] R %.P.9.%.[ [ 6.` &.' 8.9.` E U ` U %.i >.^ ' <.( ( ,.#.%.` h t > , . # #.J.[ Y ^ ( h #.4 G.Q.2.& % [ ' ` ` z z x Y R ` R E R %.Y %.` ( ` h [ E Y 0.r a `.@.5 ; t 8.( %.[ 4.%.P.] E z R E ] ` E [ E E ! %.` ! ^ E x / o.0XcX[.d # z 6.,.E 6.E %.6.] ] E R ' E [ ` %.` E E [ %.,.{ t ( 5 ( ` #.( T z U ",
"> > # r #.1.r a w r Y U s r & 3 3 a a s h r a k a s a r h r r g <.e L g.  t ] 9 /.@ a &.r W Y h Y E z a i U Y a s R z h E r E R k Y n ' z r z w R T w w &.S.$.&./ ( 7.3 3 ' T %.F.,.( e ~.h t ( h V w s a # 1 @     a ] ] R Y z E z i w r i Y = V g Y ^ / ' ` / Y ( z i q % X = 5.8.r Y U y z a U a U a r U E E ` 8.a % *.S.W p 5 w u C =.+.| . % @.1 _ R.s.* . a ,.% ) U.y.J   @ E a u G.@.f . = 4 U f H K     R %.@.;.J x.@ o ` ( ' d X.B o o g %.h 4 U.| *   & ` & ~ =.X.s .   ` D.a U U z ^ %.] E #.U E z ] Y E E g Y ( T ] #.] ,.,./ h h t e , > . R H.<.h z U ( U ` R z ` E U ] ' h U U z z h R Y ( ! ' %.,.' 5.6.' ` %.4.^ Y z z ` z R ` ( ` E E ` E [ A.J.H.9.H.>.,.] ( ] ` ` ` %.` #.[ ` &.%.' ` %.%.&.w.4.4.,.` %.[ J.%.%.%.E R E ] ( ' 7.,.%.%.E Y 5.8.8.` P.J.4.' 8.#.A.` z E ! %.%.g #.^ ' ,.%.) ) ( ] / h e > ,   % <.K.,.` ] ,.( 6.r 3 3 4 g q U U ` %.} E Y Y ` %.` ( #.R ` ( E E R z U E E D.A.%.U q & w ' %.( ` ` ] ` } ! E E E 6.! %.5.&.R ' E ! ] ! ^ x x ( -.gXbX[.4 # R #.R Y E h ' ` ] R ` ( ' ' Y ` E ! ` E } ` ' #.( 5.w ( ] ( Y Y g g ",
"> = X e R ( q U r q r E s i a U a a w w a a r s a r a Y U r r g ` e F p.- e ] 0 T.@ r ' r a h h U Y Y g g y h a U E h a U r r a z ` r E a r 1 a T r 1 ) 2.<.,.E V ( r 3 z %.T U ' / ( ,.` R - ,./ Z h E h * u u 5 @ % a T R ` Y Y Y U y a r z = z g U z R ( ] / ( z U a w = % q 9.4.q r W r U a r r a a a W z z U @.1 d I.K.2.n 6 a Z X.S.A.*.f   & 4 =.&.L.;.+ X & 2 $.R.S.n . o ;.f T L.U.W 1 3 u r ! | -.2   > %.) u +.m f @ q %.h b X.n f . > T & _ *.~ z   o > 3 $.@.) b <   o 6.R h z a ] #.E ` ] R R U E R Y E z h ` ^ T ' ` >.1.q.#./ t = > > % h ,.7.h R ! Y Y ( R U E ( Y U ' E z U z R z ' U E #.' ' 0.] 4.6.7.7.4.9.h Y g U g a h E E R ` 8.%.E ] &.D.' 9.A.H.7.' R ! ( ` R ! E %.` ! ` %.] ! ' &.} 5.6.0.5.%.7.0.6.7.] %.' E i R ' ` %.' %.! 0.! Y 6.7.6.9.H.P.! R &.s %.` ' a } R w { [ ] 1.,.D.,.#.>./ h t e , . X ` 1.U Y T ] ,.! A.&.&.,.9.w.' Y a ! E E Y Y ! ` ! ( %.z z Y ( ! %.E ] ` U ! &.#.,.&.#.y ` ] Y ` { ` ! %.] ' ' R ! ! ' R &.%.] %.` R E E Y z ( o.1X8XM.7 % E 7.%.#.' U U [ ] U ' R ' ] %.` ' ( E E ] %.] ,.,./ ` ( >.( ' Y h a ",
"3 = X 3 E Y q U a & & h h h w r z a a s r a r a i r w T U i V z <.g L d.5 e <.9 /.. r ` z a a Y w s z h a Y Y a a h a U T R a r & w i = r r w R a % Q D.8.<.] Y U r 4 y Y ( r a Y W h q 4.l 1 a %.U Y V ( 5 % d 8 8 r % n Y z s h z z r w r Y q U g ( U ( ) ' ' ( Y h g r = = - 7.' r q r w a h a a a a z a s h U a = ! A.F.6.X.) W _ $.2.,.,.Q $ u X.8.&.1.F.%   # ) @.N <.F.& . % a J.! @.0.b & W ) S.S.X.u .   a 3 S t.n a . X y * ! Q n f . o 1 4 X.@.b i *   @ i  .1._ p w     r 6.s a h ! ' ] Y Y R R T E E ( E W R ( ' ( #.' #.$.<.,.( Y t > > % g 6.,.E a U E E R ] ` U Y z Y ! R h a Y V 1 r z E E ' ' %.,.J.J.,.4.` 4.E E U E ! a a W #.Y E &.H.%.` %.&.' &.&.W 6.w.! ( E E z a a E q a z ' 8.E @.] &.' &.[ w.&.&.9.A.%.' ` &.E R T E &.` R %.] ' %.` &.4.9.!.4.8.&.E ' ! R U &.Y ( ( g ) ' #.<.9.<.6.%.! ( h g - % . % %.I.E a Y ( %.a Y ' ( #.` @.%.%.` Y ` R E ] T Y #.R ,.] R U a z %.E ' ! U x ` 0.6.z E U %.( %.#.%.] ! ! ! E ] E E ' 7.h ( [ R ` U ( ] ( U z ` L 9XgXc.p % U H.U &.R U Y E ' a Y R R E E E E ' E %.E ' [ 6.,.! #.E ] ( ^ Y h i ",
"= > O q Y E q r z q r r r a z r s z a h a h a a a q y w ^ a U y >.g H l.j e / 0 z.X w U r a r Y R r r a r Y R R w s a h U R h z Y h h r a R z e 1 Q 0.1.%.) ) W 3 & 3 a z ( a r z R E z e ' z 3 ,.( U Y T j q = 3 4 i % 3 ` E z h U s a e 3 U = z a ( E ( { >.] ` ' h h r = % , ,.,.E ' a z q a w a r z z U a a ` 3 w 2.J.&.^.S.8.1.8.2.@.1.$.~.#.C 2.$.#.1.!.S.u ) 2.) ( h F.8.& 4 $.L.,.#.A.9.$.! S.,.` ~ Q 1   . d =.1.C p *   . $ s U U s $ & & b @.1.1.) n V ) T @.J.S.X.i 1   @ %.` r R E ] Y U R ! ! T ( Y #.] h U ( ( %.( ] #.%.,.( ` U e > % . g ,.` h ` U E ' ( E ! ( z s Y Y R T W 9.s % * R g z E E ,.E x J.8.F.4.' ! &.% w ' s k Y E W &.% z H.%.' ' #.` w @ Y A.` U R Y J.w . r .   @ r ( &.E Y %.%.' *.#.#.6.E ! w.#.E ' T &.h 3 ' E Y T &.` 0.4.R %.9.] %.4.' E a ( a ! R Y Y 4.a %.#.#.>.7.9.,.8.@.#.x g - , . . E A.( g E %.%.Y ( Y E ( ] ' ' ,.%.! E 4.E R R ` %.! U T ! R R a U U E Y U z Y E ' U %.a ` R z U Y Y E R T z z E U ( %.6.#.#.#.#.U ' E ( U U ~ C F A N 8 r Y 8.R ` ' E h ' E ] E ! %.` E ` ` ( ` %.` %.` 0.5.R &.` ^ ' ^ E h y ",
"e , O 3 z T g U E a r i i a a a a Y h r a r g a a a i h r q r z T g G g.j = ' 0 Y.# q ' w g U T z Y R a U g T z h a g a U T E z ' g T a i U U 5 E X.1.) T a r & = q a h z R h z h z s z a q ] z y ( ! T V T 4 i V i i q : a k s s z x a r y R = z Y Y U U ] ( ` ` / ( Y r > % X ` ( a h a E g a r g q a i a a ' i 4 ( J.8.S.S.P.S.D.D.] > Y 8.A.P.@.T W U &.8.H.8.1.A.h r W ( !.~.0.2.0.2.9.6.J.I.L.1.,.#.@.&.*.u n =.8.L.&.Q 4 $ - u b n Q Q u 1 4 ] 1.6.F.E.R.E.~.%.8.1.0.L.0.u & . r 4.h R E 4.R E ] R Y R Y R R %.a s ' ) ( ] ,.0.%.' ) U h y % , % q 0.] z Y ( E E ] E E R ( Y a Y V E E t f : X w h z l ' 0.q # l E.D.8.E 6.U . % E T r W z 4.3 .   h J.) &.) 1 &   % 4.' ^ ] 1.3 .   o %     % U A.a 1 i H.! ` R %.#.% o R &.` U R ,.q & a J.Y k } ! %.q O q K.%.>.} %.A.( ` r ` ` ` U %.U #.#.,.6.1.D.8.9.7.] ^ g > , O + z 7.E h ^ ^ R U ' a E R ` U ( ( 4.R U Y z E ' h Y E U z U ! ' R Y ' U h U U a E E U R %.U #.T ( z h r r r % # q 3 q % t h U z U t h h ^ h a 1.4 w w 3 r V ' 9.' &.' E z E E E ' ` ( E E R ! ' ` R ` R ! ` ' ' R E R #.( ( U i ",
"- = % = Y T y i U z i q a a a i k z s Y a a a a t q r a T z w t ' j G g.5 3 { 0 z.. r ` h a h z Y Y z h z U h Y h Y z a Y E h U h U g t r h $ i 1.$.@.@.V ( g % = i T a a a U a E g z s z r q 5.z w w #.h T T w 8 w w t . a z z U a r r i a E e z z ^ ^ ( ( ' ( ] >.( h a = - = #.E a h Y w Y r a w T a a U R U w ! A.F.` W @.=.) W T q 3 a T A.,.0.V i w s &.L.S.0.$.U W w ] %.8.D.0.( a U 7.8.A.0.1.8.&.8.&.X.&.A.F.A.A.8.~ W T Q &.2.Q ` Q V n N ` ) Y ,.! A.A.S.1.( ] 0.D.L.1.p   . } ' r ! ] ( R ' ] R ! U U Y ' T U ( &.] ] ' 1.7.>.<./ g t = % . U %.] Y U R E U E ( E T R R a z ( U h 8 x.m + f l z a 9.s < . + &.J.( T &.0 b . w &.Y k ! u v J . o h 4 i u J x.v   q 0.( ! & m t.< . * # o   ` W 1 . . U #.W S.S.4 f @ q 9.! U &.u 1 .   } 9.z U { * 2 * X ` q.] ` %.%.z R Y w U z Y ] t [ ) #.#.1.7.9.1.1.] Q h > > %   R J.U i g ' E E ` E z R ( E E T [ K.E %.! R ' Y z %.R R ` ' Y a z R &.R h T U R Y R Y z E #.] R U q q 3 i g r U E h w l e R ^ y 3 3 . # % % U ] W V ` ! &.Y E E &.8.E E ` ! %.` E ` ' ` Y ' E ` ! ' R Y ] %.0.! E E ! ( T g y ",
"% = % % E E y a g U h a r a s a a a a e U a h a h g a r ^ T g - ( j S l.4 3 ' 0 T.@ 3 ( a U g T h ( z U a a h h a r Y r a R R U z Y U U w 3 T S.8.1./ j ( >.a & q h z Y h i U a h Y a z h s z = ' 3 V U #.Z h T i j r = % a Y z a h h a h i ,.e U h / Y / Y R T E ^ Y z 3 = , # J.' z U z a h a r w U z a U ' U 3 K.S.h r & w ! 1.A.N & % a & #.8.&.V # a h U D.8.9.a $ w 3 i U.6.8.0.w 3 i Y 1.H.0.) a y i 1.1.6.#.&.! ' S.=.[ I.8.2.=.W h ( Q F.n z y q r ! L.1.1.( w w g ( ( !.&.%   & ,.h ] &.! E R T E ' Y Y E ' h E ( ] <.>.' 1.>.] #.T g t = ,   x 7.] E Y E Y ! z R Y E U z z z h ( s p.C.u.* o ; z Y #.7 t.v . 1 A.y g % j.n.* + Y @.W g H M.{.J   $ W d t.n.{.x.0   . @ 2 j.n.OXx.-.* % % X h 7 a.m   @ q z k < t.x.< . E &.T %.f v.v   @ ' ] Y r M x.t.@ @ 0.5.@.%.R ' a ! h a w ,.4.g ,.` ' <.,.7.9.8.,.%./ h q > %   q 5.E q z Y U U ` ` a r a ] ( Y Y E h ` E ` 6.[ E 4.R h R ' Y Y R a Y h U E U Y @.E R W ! 3 % # # * w w w 3 q ' 6.*.0.H.7.0.%.] ` %.6.4.%.{ l q o # w r %.&.%.E E 6.U ' R E E E E R ' ( R ` ` T ` ' [ r ` ` ] ` ) ` Y Y x g r ",
"- , # q E ] h a a a s g a q a a a r r w h a a a ( t U 3 g h U e ^ g B l.8 % ) 9 Y.X 3 ( 3 y h a h T z a z w a h Y a U z w s a h W T U w u p $.$.]  .V h T w i h r r a Y h z z g a U a h h U E Y 3 ' y r F.` g h V U i $ % z a t g a r r a g ' > h g T ^ ` ' T ( ] ` E V 3 > % , 6.E y Y E r a h w z w T a U Y 1 U S.@.h i r w ; T =.w 1 ; %.h r $.i.V & i E 3 W A.s.% & y Y & C Q ) h # t q r ( #.) d 3 3 = T 1.8.' E t q i ~ ' 2.#.S C S A p +.Y.w 1 % & q E E 0.E 3 & U r y a 7.^.( . o U E U ( E Y Y E E R ( E Y >.a U ( ( >.<.' #.,.>.' Y g e > , . g 5.' g E ,.z U E R z Y z x W ;.w ' v M.C.B.v + % X a s I n.x.0     # % K Z.n.m . . E ] 8 x.#X>XM.2 % E H n.B.$X{.n.I K v.n.B.{.,XV.j.d 2 1 & < a.|.j.1 . ; ! r F B. Xm   & ` 6.d J ;Xz.2 + % ! 6.b b.3X Xm   R 7.' ' ` ( E ( U r z a ] h ,.( ' >.6.7.D.8.1.#.( g = % O   x K.J.a E ! Y Y R ' Y E h a %.E z a z Y ] U E ! E ] ' E Y ] #.q ' &.! U E Y E q r R R q # % l > Q s q % 4 3 %.9.&.&.` 8.E.P.A.J.P.K.K.9.L.P.~.!.6.( r e w w g ^ E 7.` ' ( ( R Y ' E R ! R R ! ] R ! E Y Y ` ( { ( T ( Y V g r ",
"% , o q E %.t g a a i y h i g a a a a a z a a r U g g r h r U R T h B l.6 % T 0 c.X r { r r a i a z z a z a z h ( a a z a a 3 w 3 U % @ s ) A.0.%.h E E w & U U U 3 a a h U y a z a r a a a z U h = ( w Y ,.V V w W d 3 q ` ( U a a r r a w %.> R Y Y R ` T ` ^ T ( x g 3 , % - #.( a h ] E a s r U w a a ! a i 1.) h 3 w U Y W 3 D f & l 3 1.r N D & r h ( ! a Z C $ 1 i ' z u +.Z 3 @ y 9.$ i Q Y.Z % w V & ( U.@.u ; u w f d W d i 4 1 h r a p 4 % % r ] Y a U w = g E.V = 3 ] ] E.(     & $ Y ` R ( ( ' a Y T U D.h ^ ( ( ' ,.] <.,.] <.Y t q , - X g ,.( x Y R ! R R h ( Y z z z ! W E -.B.{.C.x.f . + @ A x.C.Z.u.m f f v x.Z.Z.u.6   & w A B.#X%X$XA : d j.B.{.|.$X|.Z.Z.B.B.C.{.|.$XM.K 4 d y J |.eXB.P   . n S m.#XdXn.v   s ! d M.7X#Xr.$ . E T P {.1X;Xj.. o &.9.E U E [ E ` U 4.R E U 1.U [ ] ] ,.6.1.7.>.( g > % %   = 4.4.R ! R ] h ( ' U ` ( R ` &.` } ! E ' ] E %.E @.` %.Y T %.z R ' R r ( W W w & % ; 3 3 #.> > Y w % % 1 U ' E ' ` E ` E ` E #.^ ` ` ` ( ` ` 0.K.P.H.9.E a @ % 3 E ' ' ! ( E Y Y ] E ! ' ' R Y ! %.R E a U Y ( >.` ` U Y i t ",
"- , X q Y ' r i a h a r w a a h a r r a a r z r g V h h y i t z ^ h G l.8 # T N W.@ = E h h a y E z a z U y U a E g a a w U a 3 # 3 g ) 1.$.<.1.) / T w r h 3 3 h h a U g h a w w h a a a Y r R T a t E r ^ 1.g W % a % > z h z a a w r a a >.q V Y h h R ' ( ( ` ( U a q = % = 4.%.a U R E Y h y a U a z ' 1 ` @.T % = 3 a i &.= 5 y T %.t T ( % $ = h ( q %.a w & 3 s R 3 4.4 b C % - r U #.4 ..O.5 q h >.q 1 Q s.r w w } > s a 3 & % U i > w b C # q &.w &.& h 3 3 ] E.H.( = V Q %.I.U . % @ w ] Y U U ! Y z Y ^ 6.Y ^ T E ( ` ,.>.,.' ( Y Y e , =   ` L.7.h E E E ( ! U E Y } t z s ) d M. XC.C.Z.u.f c e.x.C. XZ.B. X X Xn.n.Z.Z.n.u.$ . v x.C.V.@X#Xt.f +.B.{.|.{.|.#X@X{. X X{.{.{.{.C.u.8 * w M.>X<X1Xn.5 . 4 z.{.>X6X|.t.. X $ t.;X;X0X XI   > 7 b.9X#X<X|.I . a 8.] ` R ` E E z h ] 4.r ,.( ` ` ] <.<.<.%.T x e , : O   y !.J.E ( ' [ ! E 4.[ E E ` %.' ] Y ! U Y ] ` %.,.' %.%.Y ` %.' s R s T ) ' %.@.Q @.n U %.E q R & % % & w T ! E ` E ` a & ! R z R U ( E R U R z ` E H.8.A.L.6.Y # o a h z &.R E U U Y R U T ( E E ' %.#.%.R E / ' Y ] U Y i t ",
"= > X h #.] h Y a h i ' r a h r a r a w a r w a r w r h R E U g W g b d.4 % ( 0 W.@ g ( g U z h Y s e z z a h E r r R Y Y @.p a $ n &.=.S.&.) T a i q q g U h h a g w i w h g a a h r q r z a s ( E a &.a V ' W w 5 # & . T Y h h a a a a a ,.> U U Y Y E ( ' ( ( ` h g 3 , % % #.` g g Y s U z s U z z Y a i ,.) w % h w # g A.i w i ! E U q 6.q q 3 T U h w %.q h r ^ E i U h q 3 y a E = %.w u b & a ' q %.& S D q q h a [ 3 p p # e 7.) ( & n 1 % s %.z z z 3 h i 6.I.P.9.! & Q ( @.s % $ w & R ' E ! z Y R E ! H.Y ( U Y ^ ' <.,.%.@.T ( V t = = O g 8.{ h Y E Y ! ' ] E R r s g U 6.A M.B.{.V.V.B.n.n.C.B.C.{.<XgXMXlXhXwX;X{. XM.Z.r.u.n.{.OX@X@X#X@Xe.x.M.{.{.@X|.;X1Xb.t.|. XC.B.B.B.n.j.y.z.#X6X$X>X XK * e.{.9X,X#X0Xn.f   J <X1X>X>X1Xn.c & y.$X6X3X,X6XM.$ o A.w.z ' ` E z z x ( @.] 9.( #.#.<.] ,.,.) X.^ g % % %   ; 7.7.E ^ E U ] E E %.E z R #.! ! ` #.E ( ' ( ] ' ' R &.` & R R 6.] #.,.) ` &.i p s d q q & = a = # # ; z { T E E ] 4.z w E ` y T E ' ' E ^ R E R E E ` %.!.P.D.9.U &.R q r E ` z U E E R Y ' ` E ! ' ' ,.E ` / ( ' ( / Y h r ",
"- , X t ( ( 3 z a a a i h w q r a a a w U a z a U z g U i ( h g ( i d g.8 # T 9 Y.X i ] g i q Y U w a r a s a T w U q s T i V a s <.6.A.F.&.T U g % w U ( z q a Y h h y z a w g s R a w w w U s E Y ] I.h h V s W W w % . q h h a a r a a r ( e U h Y Y ^ E ( ] ' ' V g e - % % >.U r x R U a Y 3 h ( U %.% 4 ` ( % w 0.q a g a 8.( g ( h U r h J.Y h Y U z a E D.E h z h Y q 6.Y a w z E r i ' 1 & r Y 4.s ! s f u % r R & ] w i w % h ! q ' s & q a ( Y U z &.( w U ^ ( #.k 4.k @ x U & r q r g ' E 6.R ' a T ] E H.z ' ] ( ` / #.( ) #.E ( h t = = X g 8.' V Y h R E W R ' ' z E w 0.p t.B.@X9X3X1X>X<XfX$X$X1X>X`.xXfXfXgXwXdX#X6X#X|.Z.B.|.9X1XhXjX9X%X$XB.{.{.%XgX<X>XwXG.g.>X#X@X;X#X|.@XM.C.#X6X%X6X%X,Xx.t.|.1XdXeXgXwX<XO.B @XMXgXwXjX9X|.x.x. X1X0XMXlX0X1XP . 3 A.E %.[ z ` %.E } 4.3 ,.( ` #.#.#.#.,.#.<.' h q , %   % >.1.R ' %.` E E ` Y z Y ^ ] E ' %.E E ( U W s Y s a a A.6.8.] 0.( ! 6.8.! 0.,.s r q ; & & r t U a ` ` a E ] U ] 8.,.` a ` 8.U Y ! R ` U ` ` E R U E ' ' E %.J.!.8.9.J.#.q q z s E ` ! R E R R R %.R ' ,.E ` ' ( / ( T x g t ",
"% % . g ` ( w h a z g a i h a a x a a z a z h h h z r s U U ( g E a 4 l.6 # T 0 l.$ w 6.z Y a z a E a g r r a a a U g E r i a ! W 1.S.D.S.] ( a = r U ` T U E r a E 4 h a U i w q s Y r E a r a W E E D.a 3 ! %.1.] s r   3 h z s a a a y i ' t h U Y U ` ^ V ( ` / x t e = , = 6.( r t Y a h a s Y U Y 6.#.&.6.R R T A.5.( { U g U h h h Y U g g h U h a z z r a a U U h U z a %.R r U a Y r %.[ w a R ! Y i 4.; q q E T r a ! 3 r a ( Y a q 6.W a U ` E z ' a ( z h Y #.6.&.` %.T ,.#.] 8.&.%.,.[ ' ,.` ] s Y z U 6.Y { ( ` ( >.] 7.%.] / Y h y = , X t 8.` g ! U Y R s U R ! R U *.} A b.fXFXFX2XhXhXMXVX3XBXFXFXlX5X=.0.2.dXBXhX9XwX1X$X#X6XeXjX#X4XlXlXVXlXzXlXVXFXFXjXgX_.3X1X9XhX$XqXlXjXeXwX9X1XgXjXhX,X#X@X,XgXjXvXVXMX0X1X<XgXwX<Xd.`.jX0X,X@X6X0X9Xp.Y.fX0X}.f   } A.g ` z z E ' ] A.g #.V ( ( ( <.[ ,.,.,.' z t > %   O { 4.% r ] ! ' ( ' #.' h T U E U #.' ^ h w h z T 3 w ] H.9.K.4.4.0.E R R T ` H.8.' a % # g z Y #.,.,.0.( a ] ` ! %.P.` ` ! 4.R ` Y ( ` E E U U E Y R E E ! ] E &.%.] %.8.9.6.E & w ` E E ! 4.' U ` R E E ` &.[ ( ] ( ` T h g ",
"= , X % U h e r h z a a y a w a a r U a r r h z h a y a E g T h U ! 2 l.< # / 9 Y.@ g ( g z i Y U z z a a z r U z U E q & s i Q 1.S.1.$.) #.3 % e g w z ! z ( a y h a q U h a g e w r a a z Y r i E E q $ ] ` ' T 3 & $ # % T y a a a r r r ` g E h U ( E ' E #.` ' R h e - % % #.E a i Y U h a a r w z @.E ' U s z a r E ^ Y ` E U Y U g z a U g z E W h Y U h Y U U U z U U a a z s U h a a r @.E h R R R a E ] U s #.U z w ,.%.i i g ` ! a s ! a g U Y r Y U Y Y Y g %.0.E E ` #.Y T z V U ( Y ` ] ' %.( R Y U &.9.h ` ( ( ] ' ] #.#.] ' / g q = = X t q.>.h ' R #.E R E U U Y ' P.u t.:XFXKXfXlXvXeXMXZX;XlXFXKXFXlX<XY.'.gXqX|.[.eXhX1X0XhXkXb. .O.z.lXMXlXlXzXl.g.-XkXVXBXlXhX9Xl.n A 2XhXhXgXhXwX}.C .XdX1X0XwXeXhX-Xp.'.jX0XgXwXwXg.8 4 W.jX0XeX9XgXp.5 5 :.jXgXa.* @ { ^ R ^ a z ` ` H.3 ( ^ Y ( ( ` ,.A.1.) ' U > > > X X [ K.U   & U ' >.R #.' z ( ^ x a = @   . y i h z @.6.! ! W Y E E %.] ! E U z ' 6.w.P.` [ 5.#.] ` [ #.,.0.' ] R %.Y ` R ! ` ` ' Y ] z ` ( %.z E E E E R ! E ! ' ' ` ` %.#.%.K.H.' % % r #.z ] ' R U ` E ] ' ] [ ` ] ' / T h i ",
"> > . , x g i q a h z a h Y a a w s a w t a r a h U y r a g W z U ( 5 Y.6 % ) 0 l.. t [ h i i r R E E Y ,.%.' R R w 1 E E W 6.S.L.F.<.>.<.T q q x h g g E h ' z g W a w h s a h & # h a Y U ` U E a 1 3 q ' E V V ! ( 3 % # @.z w > w r a r %.e k h U ( ! ` ' ( ) ( R g - - X , #.U 3 h r r U i w u w h h z Y ` i E E a r ] ( R a h U U h W a h h U h g Y U U Y U W h U z R Y z h h R g a z h h i a U U U ' ! t U E Y ! E U R z a w w q k s ` Y g T h T z U U a ' U ( Y z ' T ! T Y ` U ' ` U R E ` [ Y %.` R z U E 7.a %.` ( ' @.%.%.#.) #./ U q = = % z 7.#.r Y E E E E ` z Y Y ^.) B fXdXVXKXKXKXJXvXvXBX4XT.`.}.}.`./.T.<X>X:Xj.j.+XlXvXhXNX3Xc w i J <XVXMXlXl.6 i p +.4XFXVXfXi.2 4 p O.wX1X9XeX}.H r 4 (.eX0XeXhX1Xd 5 +.VX0XwXgX+Xc & w B qX0X0XeX-X< - r 5 W.wX<XF . % 7.} E z z ! ` A.U ] h ( T ' ' ,.,.,.@.( z e > > + . ` !.q.z & a ( 7.E ' Y U r e ; % ; O . # w ( ] @.@.E E ' @.` ! ` ' ` ] ' ' E z ( z R Y ' ) ` ] ' [ %.,.[ %.R E E E E ' Y ` Y #.U ` R ( ' %.` 6.! ' ' ! Y E } ( ( ( ' ` ` [ ` &.A.9.R . & & h h E R ' ( ( ( ( g ( ^ ` ^ E z g ",
", y . t ` g r y U a g h a a a r r z r s a a h a a T U a h h g g Y ' - W.5 # ) 9 Y.@ r ' r g t g Y E E r r w s s & $ Q 2.=.s.F.A.I.8.0.<.#.q % g Y U U r R U ( Y E h g U g y i a z z k U E a q $ a 3 3 s 0.1.$.@.&.$.<.( 4   ' ` w a w 3 q q ( r U U U E E ( ( T ` Y V r - % X = ,.E y U h w a a a a a a r U E R Y U E g ( h ` ` a U R E Y Y g r h U Y z U a Y z z z z z z R z z a h T U U T h z U s s U Y U } Y r Y ] &.h a %.R ' ` ( r U r r z E { E Y z a s R U U z i ' ] a Y Y z Y h z ' Y U ` ] ' ` ] ` ` R h R 8.U ` ` E %.] ] ,.%.( ( T h e > >   l 0.%.Y R z R Y ! s R E h 0.C k.FXVXdXJXFXGXFXMXNXcX;Xt.X.t.f.g.XX$X9X;Xz.L A v :.4XgXMXk.1 w a f a.lXMXgXF # h a u s.fXVX/.8 q i y c :X9X6X<XO.< h w n fXwXeXwX+.3 E 7 4XgX,XwXp.5 q #.q f.hX,XwX..< & 8.1 Q 3XwX/.1   l [ R U w R ` 9.z 6.g U U ( ( ,.] <.,.( a q > > X   R D.P.I.( ] ^ ' #.a t @ X 3 r t = % o a Y U ] R %.R Y ! %.[ R ` ! %.' R %.R E g ] ' a ^ ( E %.%.' #.%.%.6.0.&.[ ` Y Y [ &.` ( R ^ ` ' E ! U ( ` ! ] ' E %.` %.&.#.( 0.' ' &.` E 8.!.A.' z a r i = 1 r T U 3 $ ^ Y Y ^ x h h ",
"e y o g ` R a w a a a i a a a a a a w z w w a U a z a r U h h h ,.' < /.5 X ` 9 l.X r ( 3 a V g [ U & . @   * . * 9 ! =.) 3.$.S.2.7.2.h e X = E R ( ' g E E E z z U q a ' r y a a a ! T r # # . = h T ' ! ) ,.] 1.0.%.@.,.# > ,.r r w q q q %.e U h R E ( U ( / / Y t t e - # e 9.( r ' r r a a q q a h a a U U z U a U z Y Y ! Y a h Y Y E Y r Y g U Y z U z z z z Y U z U U z s z E U Y U U U k U a z Y z w R z 3 a #.E a ` ` R ' E Y Y z W z z h E E U z r U z U g a R ` Y Y h R Y U U Y U T a E ' ] R %.` U r U %.z %.` ` ` #.<.%.%.#.( ` g y q , . g 6.0.R U ! T Y ` ] Y T W ] c #XZXGXBXlXfX4XqX<XjX1Xj.p 3 r b =.f.<X<Xa.J d > w d p.kX-Xc # 1 &.1 c '.MXl.3 q ( 9.a n :XkXD = = h ,.5 J gX0Xa.4 g i E 4 W.gX0Xg.3 1 ( w X.dX0XW.9 - r ! ,.6 W.jXg.4 % W %.l 5 f.gXqXL . % 9.` 4.z E %.A.i ] Y E Y ^ T ! #.<.( ] g = > > O . ^ #.` ] R ( Y q 3 & & q t h ( 3 % X . z Y R ' ! ] %.' R &.5.Y ' ` ` ] T ,.` E E %.R Y { T %.] 4.#.^ %.%.' ` H.4.7.( R T 5.` ! E %.` &.E ^ E ` %.%.&.%.6.%.&.#.&.,.&.&.,.6.A.J.@.5.P.L.8.6.%.H.A.&.h 4 % - # . ` T T U T a t ",
"= > + g #.z a a r R U h a a r a x a a U a z R z U E h a h a w i 1.( 3 /.< @ Q 9 g.. w ( h r g ( %.3 4 d u p G.(.'.'.%.=.$.0.) ' 1.( Y g w % 3 ( a g h V ( a Y h h h a a U i g g a z S.1 1 o o & g U #.@.V U V ! ! 1.D.S.J.& w ] a w = 3 a w #.t ^ Y E ( R ] T ( ` ` T r 3 , % X ,.[ Y Y g U g h w q & 3 q a 3 Y s a z z z R Y U T Y Y U z T U U z U z t z U U z z h z z U U U U z a h z h h ( E a r ! z Y ' Y r Y ' i } %.>.` ! R R Y k Y U a z R E ` U ' E z z e h Y h U U h h E U U z a a R R z U E E T ( ` ` ] U 6.a %.E ` ` ( ` <.<.' >.^ h > > > . x 4.} z ' Y R ! ! R ! h E a a.eXNXGXFX]./.'.p...'.x.D ;.! r f w b Y.l.b 1 w h q 4 7 W.+.1 X #.#.( 4 H :X7 & w ,.s { 5 O.W.8 - g T #.Y u l.l.n 1 h w ( s A qX`.5 q a Q ) s l.4XD 3 r ` a ,.z B h.4 1 z 6.z 6.1 u `.<XW.$ . R 7.E z ' z 4.a #.g U ^ ` <.] ' %.' x g e e > o   e U r w q # y w # % Y ) g 3 3 % # % > Y 4.E E ` &.6.E E #.%.R ` ( %.] ] 4.` ' U #.Y ] ( ( E ' #.4.' ( %.5.' ' ` Y ] T ( ! &.` U ` 6.] D.` Y E ` ( R %.%.! U a 3 3 1 % 3 1 r Y a Y ,.%.8.%.' E R r a w e h = > ' ( ( ( ! g y ",
"> > . w #.z r i g r w g w h h r a z w r a a r U a a U V r a h x / h N _.$ 3 ( 9 l.. y 6.g a r ,.) p Q F b B Z p i U z q a z z U w 3 a t & q h h r w z z ' z E h a z a z z h q r r %.Q i p 1 e % a U k a a a g r r U ( h q 3 r ( i a h w q 3 ` 3 h z ^ ` >.>.^ ' ` ` E r = = % e 0.( ( ] a h a a h w r 3 % q q a a e w s h Y R Y R z Y ( z z U z a a Y U a h z z U z z R z R U U ( h z R U E ` E ^ h U z ^ [ ^ ' Y >.h Y r E w U ` [ ,.[ r Y r z U R ! ' E ` E Y U E ( a U z U z e a r U r s U R U x ` ( E E U a %.] ,.a %.Y ( ' ,.T ,.<.` T x g 3 > , X e ,.` z h Y ! R U ^ E h >.p @XhXhXNX_.h V D V r n H 3 r T i Y h 5 N C 5 W V a % U 4 8 4 $ r D.' ` a 5 ~ $ $ ( %.g 7.r 9 A 1 q ` &.r %.r B A - r & k E ,.5 | d 5 a ` ( D.a b _ s w Y ] E z 4.2 d & w ,.,.! ` &.` [ ` E % 3 % %.E U ` ` 6.a ] U ( ` <.' ' ( ) ^ U t y e , X   - q R w w q & % # w a q % 3 & % & r Y E ` Y E R %.( %.%.%.` ( 6.A.%.%.E %.6.%.' #.( E T [ T ! &.} %.} &.W 4.' ) ( ^ ^ ` E %.` %.' w.4.( s a $ # % & * . @ . .         . @ . X % o % # q q W A.A.6.%.E ; & ; r %.' #.( U h g ",
"> > X z ,.z r a r h i y y a a r a h a a r r a r z a a g a U ! ) = 8 l...- w ( 0 g.  3 >.h U r Y &.w & > & * % q q s E ! ! %.U w & w & & w a h a a a z E a h R T w Y s h r h r r q ( %.% 3 q q q & ; q w a U i Y i i t h r q Y E a g w g g r ' 3 U x ( T T #.[ ^ / T ( a = , % = [ %.h Y T z a g U r y h s a a a s z g a r h z U a a z U a a a z h h a z z z s z z h U Y U U U U R z z U r z ( z U Y U z E E 1.,.T h o @ # . % 1 % & 3 ^ ] ` ( a s a %.%.] U s ! z U E z h U g E q h z T ( z E Y z U Y U h ] r h Y U %.g %.E ^ T >.>.) D.1.,./ Y t , =   t 9.z z R ` ` E Y a x T ( O.eXrXtX'.C T r w i i = 3 r 3 & . ^ !.H.r 1 O ] ,.z & ` T q q & &.9.] T 4.1 4 - t 6.7.Y y J.3 4 q a h R a Y U 5 3 w h E ^ r w.R q & t U ,.8.P.J.q u q a ] ` h g #.a q 3 a #.' %.z %.0.#.9.H.J.7.U r %.' R ` 6.a &.Y ( ' ' #.` ) ] ( E i y > % X = ^ R R %.0.9.,.8.H.' i & 3 a E s ! ] ! E ` Y ( ` %.] R ` %.( ` 6.0.A.&.' %.' %.( %.( ( ( ` ,.' %.%.4.@.{ &.{ ,.%.g ( %.%.%.7.] ` @.U # @ o % 3 s V N ~ g./././.(.(.'.}./.l.-.D C p 1 %   . # % & ' 6.Y [ a r % 6.,.' ' ( h t ",
"> > . l ,.Y h r i 3 q g a r a q a & a a a a a z a U Y x T 1.w #  .g.G $ = h / 6 l.X = ` U z h 3 E ' a Y a R ( &.J.!.^.H.K.@.` Y a E ` U h a ` U E z a z E Y Y h R a z h q z a z r 3 T / h E Y T r Y h r q a h U r i i g U Y E ' z a g 3 r 3 ( e E E R Y ( ' R ' ` ( T a e - % % ,.] h a z z r z h h h a z U a z z a U a s U U z h Y a Y U r h z r z a a z U U z U g h R U U z z h z U Y z a U R U U T U V q.U & < T  .2.:.$.h Z 3 . . . % t { U w Y U } ` a U Y ` a z z a a r ! s r a a R h z E E z R E h ' Y Y z z %.a ] ] >.] ,.#.( ] { ] / h r = , % R L.#.U U U U E Y ! t %.w U.1XeX<Xb w h t = g ( g 5 i 3 . q ' ` ` ! r a %.8.E i w ' 0.E a Y R ' ' R [ w q E %.' &.h E E 3 e h E z U e ] r q a A.5.` R r 5.U a a ] Y ] ' s ` q w a [ ' E ] z %.` U R T E x ( E %.5.' >.7.,.%.w r E %.' 6.a #.E ` <.] ' ] #.E ] ^ g t t % O > 5.7.! #.U ` T ' 4.] 6.W %.[ &.@.6.` ` 6.' U R ] %.%.D.0.` ' E %.[ 5.9.P.4.%.1.^ [ ` %.%.%.#.` ` %.&.] E ' %.' %.( ^ ' 0.1.) q o X @ 6 X.'.}.].W.g.i.p.s.+.X.F D  .:.o.i.p.f.l.k.W.}.}.Y.w . @   . % w 1 x t % %.1.6.' T U g ",
"> , . > ' a q q r w i a r i a r U h Y w z r r z w z Y ) ! & V d.s.3 > = t = ^ 2 l.@ % ' a W U z a 1 # % 3 @ > = U L.~.P.Y z z U r e a r z a ( h z a r a Y z T y z z h z R h q s y a & % # = & % & % w a s a Y ( h U z r g a ` E R i U w t h ( y h h g Y R / <.` ^ ^ U r q % % = %.( Y g a a h i ( U r w a a U h z z U U a z z a a h U h a a z h a z z z z z R a E W U R z U U U U s U U z Y E Y U h U ( ,.z j 2.h...8 5 % $ p  .X.2.F 3 . % z 6.a a W s } ' z R E z w z E ( Y w R z a a ' Y z z ! r h ! Y a h z U h ` z 6.] ] ,.[ ,.1.%.,./ / h r = , X t 7.( U ' ! R E U U U ( s u _ s.9 1 w %.V g ] ) ] E ( E E g ^ x a ` ` z ( z W y & @ q > r z a U Y a R 0.] #.] ^ ] E U 6.%.a a r h U r w ,.%.U ! E ' ` Y r 9.` ] ( U R ' U ' 9.%.z R U a #.' h ,.z U ( E U z ` ,.' [ 6.' ,.( r h Y ` ` 4.a ( Y ' ( / ' ] @.( T ^ a t q = %   x ' R ] R ] ' E ] #.i w ] &.&.&.r % & r E 5.! ` s a a E 4.` ' %.4.z y U 7.6.,.#.= 3 q E D.%.` ] } ' E E R W ( Y ( ` x % . $ a  .f.}.`.l.O.n 4 u N 4 6 w f & # & $ # # 3 4 w w b V  .+.+.X.:XT.S Q & X 1 % R z %.] %.[ ( Y i ",
", ,   t 8.U w 3 r r a a a w h a a z U a a k s s z ` ! w * i.g.d % % g 3 g g ( $ l.% % >.V U h g U z r a z q r a a &.~.Y E Y ! Y z z z ! ` U U ( g a s r r a E Y h h U z h a s h a q a s a a a r i r z h g g i U U z U U U U Y Y ( a g a 3 r z e T W Y E / ^ ' <.U h g q = % % # ! E z U a a h ( V a r Y a q a s a r ` R z Y Y T y h Y R z a z U a s h z U h U a h U a R Y Y Y U T U Y E z h a ( U h h D.! A `.B & = 1 a ;.w > # % 4 B Y.D . % 1.#.r [ q a s U a %.E Y e r U #.r a Y Y E Y Y E z ( ` r z R U a s R h ' h ] ` ' ,.9.1.,.>.%.) / h e > > X x 4.( g a R h R ! z ' ` ! R @.( ( E r ] ] R W #.U U U g U g r y z E R z U h a z r U w q w r z z z R s E ^ E ' ` ` ` E h U h q q h a & & s q h E z z E E E ` z E ' s %.E U x a Y z a U U a 7.Y ' ' T ( E ` U Y ` ^ 0.' ( 7.` a U E a ! %.g 1.R ` [ ) ' ) ] ) ' ' V e > > X . t 5.E 9.` ^ ! 6.1 &     @ ` ' % U Y 1 . $ ' z % . . X . t H.Y 1 . . .   t } & # % @   % Y 0.' 4.&.( ` Y U &.' $ * . @ D `.`.W.i.p y r 3 & q i 3 & w Y k E s ;.` E H.6.8.] 9.E r w u a a k S X.+.k.`.Q.p     . ,.] ` ' ` ^ g ",
"e = . q R U q r a r r r h s a z a U a h s r U Y ' Z . b Y. .# & w i Y w g h ) @ Y.< # ,.U U h U r a w r a k z r r w ` Y z Y R U z z r a R s U ` R a w a E z U U E h a U Y h y a h a q a a q q a r r w a t Y w U a h U R ` R z E ' U a U a h U = E Y ` #.` #.' ' ` R h r = - % q 5.! t y a W ] W z a a a h s a h a a R U U z Y R U a Y U z U U z h z U z z E z z z U U U Y ( T R Y E R R E z Y ! U h @.) C x.v $ q U D.' U ` [ ` R w % < W.s   t D.Y z } a U r z g h a r q a h Y s q h Y E U z ! E ( ` a ' R U R R U ` h ^ ] ( ] <.,.1.<.#.%.Y g t = , . g 8.>.h z ! U U E x Y ` Y U U a i Y a & y t h U g i r g h U ( ( U z z z z U w a a r & 1 w q w s a R U U ( E ` #.' Y R U U a a w 3 q q r h a % U E ' h U ` Y ' Y R z E E E a s h z z a W a w ( R ( E ] E %.! R ! E ' #.%.6.5.E h ( ' ] 5.t 7.h ` ] ,.#.,.) ( >.( Y t t > O % ^ ,.a ^ %.` %.w T ~ V C . @ d G.C p Q W + @ b =.=._ j % : > i 2.+.|  .$   w 2.+.+.Q i . % 6.%.! H.P.K.=.C :   1 n l.'.T...H S i r g i 1 s @.U q ! ' u s &.E ` @.6.' 7.H.!.!.I.' &.4.' h a & 3 w S S :.`.W._ # ,.6.<.` ' ( h ",
"e ,   y ( z y g w a a a a h h a r U r l z s ! Y > # g.s.u # % w i g h U T a &.& h.4 X 5.6.z ( Y E U a z E h s q k a z s a z a Y ` E U U z a a z U h r r a ' r a a z z E U h h i z Y w w r a r U r a a a a a y h y E a Y T %.` z E R z a h g E e U h ` ( #.>.,.9.` Y Y r = % % % ' E w a U #.h a r a a 3 a z a z a a U E z U z U U E z h z a y h a z a E a Y Y Y s z R T U ( ` E U Y Y z Y W U Y h h 9.d l.c.n # o % 3 ,.,.! Y g q U @.& S h.. o R Y ` U z ` z 3 a a U E a a w a h r E R z Y R Y U ` Y a U U E z Y h R U ( ` ' ] ^ ' ` ] / ( ^ h e q , X R 9.,.Y ` z U ` ' ( ] a T a a a h r U a r g w g g i y i g g z a R ! a a h a a a r a w q a w 3 r a a U z Y E ` ' R R ( Y Y a U r h ' w & 3 U q Y a a ` ] Y z R U z ! R ] R R R U r z h a E h U g r Y ( ` E 5.[ ' ' ' ] ' #.' ( U a z ! ` q ,.T ( ] #.<.' ,.7.#.) x g e > % . ` 6.e Y 8.U 1.s.8 & & b X.f s.4 o & $ n b X...1 q 1 C 2.@ _ s.5 & & s n 2 s.6 % & < Q 6 . a A.! 0.D.w.w @ < -.d.d.| s = w 1 = 3 g h s a ` !.] a !.H.&.` &.] &.8.I.J.K.K.I.E.9.H.A.' z U E ,.` z & $ & & b $.1.6.,.` ] [ T h ",
"- > X g %.U w a z r q r a r a a U U k z U } r # Q T.F 1 % 3 r q a a U r h r 6.3 L 8 . ,.9.i h i E U E r E a E h a z a R z z ! r E E a z z z z a z a U a a h z z g w a a a h Y h a a z a w a a q U a a r V h g T 3 U z U E E R z U ( E h w g U t E a h Y / ` ,.6.,.` / t = % # q 9.,.3 a Y r w r r z a U q w r Y a a a z ! z a Y h T a W h z h h z z h Y z z Y g z z Y E E ! E E E T ( Y Y R U Y g %.' n :XB T V r & .   t 9.] Y >.q T ( & _.< X E E R E a U R E h q s E z Y E a & s E a a a ! U a z &.U E Y U T h Y E s Y ^ ' ) >.,.[ ' T z U h e > , . g 7.` U E Y ' z ` E ' ` ( U h a h g a h h g w h w a i y a i h h h R E Y r h a s a r q # a a & % a r a U a E U ` a ` ! z E 3 r a q r ! r q q 3 a a a U E z w a z z a = ! a z U ! Y r R R U h g ] U ^ U E ! z %.%.` %.[ ' U R ' ( a U U ] g <./ ( ' @.,.>.( %.( U g t > = X X ' %.h ' 6.[ ) X.o w ! 1 ..T.D * a &.' 1 d.t.1 % r k $ _ +.|.f & r } 1 S [.J @ 3 ! x 5  .  o %.E 8.! n n k.<XfXU.' n i & 1 r w T ( V U @.S.6.W U 0.^.!.A.6.w.A.A.H.8.4.0.0.D.D.I.0.I.&.' ( E { D.4.6.T 4 w S 8.<.,.7.] ( ^ h ",
"% , + y z y 3 q w q w = r w a g h R U U ` 1 5 _.+.4 # = t i & i Y r R z Y t 6.q D D   q 8.g g y a r s h z z Y Y a a a U R s R U a Y s z U g U Y z U T R Y r a r E a r r a U a z h h r h a a a U h h r a r a U R a a z Y T R ' E h E ( R U a r q U h Y ! ! #.( 1.,.#.Y t = % X - 1.A.] U z Y a a z a a a r a r q a % # q U Y a z U z Y U z a z a a z z U U a Y z a x U ! ` E Y E U z ! U R Y E W h 9.V '.| r ) h i h ( # o % : % y T w 7.$ g.F X h ( g / E a ( E z E U z s h a z z h a z z ( U R ( ` ' z E E U U z E z a U R ( ] ` #.>.{ g x j g = , , X h 7.^ z ' ` U E E ' ! ( ` z a Y z R a a T E y h z a a r i ^ a Y z R U R h r s a z r 3 q w q & w 3 r q a z R E ` ' R R ` U Y Y U & U R h # 3 h s a ` h E g h E h U a q y g z a a q a r E U [ a U U Y ,.U 6.[ R &.E E ` ' ,.' &.&.E E z U 3 #.^ @.` ` #.&.#.1.] E h l = > @   E %.k x { w.@...  d ` Y  .X.n o : a ` d l.l.2 o r E ! s.Y.'.d . u 5.T  .d.Y.@ X a %.b Y.1 @ ^ ` ,.8.3 4 v P h.$.p u @ o % & = r ! &.w.A.8.&.] ( %.%.] @.! @.' &.4.! &.' ! } ] #.J.J.J.K.!.I.E.J.' t w & 3 U V #.#.,.#.` T g ",
"# ,   e [ z g i U g z Y h a a e 1 w q z Y d l.F % 3 q T r g a w i h a U U z ` a p g.@ . 4.E h 3 a U U w R s z Y a a a z z Y a s Y g r r a h h g r ( s U h a z U z g Y r q a z a U a z a a g a r a U a r a a a a a a a a Y a E E h Y E U w U h q R z z R ( ' ,.7.<.' ( h t - % q ' ' ` h U E E h a a z a r z ( #.` ^ U r 3 U Y U h T z h U z R r a z h U z h Y z a z z ( E ( E z ] z U z R R ( U E @.C W.s ` U V ( i & C 1 * s p $ Y g 9.8 h.:.. g #.i g ` ` z ] R a ` U h a w Y E a R r r w a a U E ' %.z R R R ` U E z Y ( Y ! ` ' <.<.) ` / t q > = . x ,.>.z ] ` %.Y ! E z ] ' U z z U x U U h h U a R s U s z U ^ ' ' E Y E R R U Y a R r r a U q q a a r r U z z E ! ] R Y ` R a E r a a 3 a % & z r ( z ' ! U Y z z T ( ` a a s 4.h a E ! U %.h R a h E ] U ` Y ! E ` ' %.%.^ %.( ' ( ' ` y %.h ( U ! ] ] ! ( ( T x t t > . o R 6.z E E Y #.Q.q X % 5 Q $ k y   X . =.w V Q     % p s.# a =.. O r f @.* =.F   @ * +.D 1 o R 5.U 6.( a & - d ~ | C R.h.b w .       o a T #.] ' ,.0.0.,.6.6.*.{ S.0.8.6.%.&.&.A.,.*.9.#.%.' a # # q Z =.`.+.X.%.] ,.' ( U g ",
"- %   e #.Y g V E 3 & & w u r # > w # 1 t ) E U 3 & 1 0.9.U ' 1.' T ] ' z a z R - _.& . z U U w r a h U h a U z s a a r w a z z E h a h a r z z U z z z a i z ` z r 3 z q a a a h h a h a U s a U a a q z w s a a a z a U z z E z h R a g y z i ( a h Y ( ( ( [ ( ` V r = : % = ` E a T g a E r h a z h a a z z Y ! ` 6.U z ( h T g U h s a Y z a U a z z a U z z Y h ( Y R E E z Y Y z z ` U U 8.d `.n ;.&.T & i W 3 1 5 = p G.$ g ( 1.g l.H @ h ^ z a z Y w z E z E Y ` a a z a ' h a ( U U z z U ' E E W h Y Y ( ` h R ' ] ( / #.1.1.` Y h t > = , . R J.9.E E ] ( U g R Y R } E ! r U Y U U h h E E z E E R U E ( E ! ` T R E R ` ( z h R a h z a w w a z z U U U E ` ` ' E %.( ` z R ' ` q a ` a a q h h R ` Y ' z T U z E E U U ` a T U E U R U T R z R ` ` Y ` E ! ` R ` %.%.[ 6.R h s ` z 9.U #.[ E ` ` ,.E T Y g y g e . X Y w.s &.' a 6.w X.3 . J s.@ 6 t.=.Q Q.f.1 w -.Q % o Y.l.$ f t.=.  i /.-.; 6 O.| w W.l.E $   e >.` g a Y ,.h w 1 s u B O.p.W.h.a V .   +     % % , = w s Y R R } ' ' &.Q ! ] ' s a q > # # . d 2.`.+XW.i.D p 4 #.%.%.<.` ( h ",
", % . a %.U U ' X . . @ % o o % @ . = R %.7.] T g X . % a # % % # o q ^ } ` U 0.# l.3 # ^ E g W a r z R R U a R z U z R a h a a Y a h s a r r s a z ] R Y z U R Y Y ( Y z z a r a z z a a a a a U z U a a a Y s w r U U Y a h h ' z U W h h a a ^ h h h h ( #.' ( ( h Y r , % . Y ! a U r h h a a a U r a s r h a a z E U a z Y Y Y U z g z U U z a z a h z a h a a U Y T Y U E Y Y U U z ,.h ,.W =.s.u W d | V s h q i & s h 1.3 ( ( 9.p '.6 & R ( Y U a a R z z a Y a U U z Y a w U ' %.z Y Y z E U E E R Y U ( E E a E ] R ] / ^ ` <.#.x t g y = , X g 8.' h ` ` E ] ( ! U E ( E ] T z z U E Y Y E Y E U E E ( ] ` &.( ] ' ] ! E %.` #.E z E z ( a z h Y a U R E %.E ] ! &.' ] %.%.E Y R &.h h ! a ' E ' %.a R U E ^ Y E ` ] E Y Y U R ( ( R h ' R ] U E a U R E %.' ] ] E R E ` ` 4.%.! R E z 8.U ^ [ #.` #.#.>.( E R t t y . X ` &.k [ 6.E W R $ X.p.:X| U %.p B T 9 p u  .p.S | +.O.X.s ..L .. .+...9 z Q B A D b 6 %.2.@ & 9.U ] ! h 3 ' &.Y k w & 1 d p w b ].'.'.:.V n p u     . . .   @ * @ * % @ % . o 3 a d F s._.'.}.W.L N 3 3 % q & >.>.#.>.] ` U ",
"3 , % z 6.W ( s 4 ..n 7 2 7 X.W q Y K.8.,.,.<.T V 5           .       O . & k z r Y.< X R >.h z z Y r a h ! a g ` U a r a r U Y U R z U a U r r z a E R h z h a h Y E E z a a h g r a z a r a a U g U a a r a r z Y E Y z ` Y z E Y h a s a a 3 ( h E ( U ^ ( ` @.E U s q % : % Y #.s k z E E z a w z z a Y z z h a Y h Y a z z z Y z z a g a a z a h a a h z U U z U R E z Y z U Y T z g ( U 6.a .X< u 5.q f $ = w r ] &.! ' U r T ] Q N ).& - U U a ( R ! Y U ` ! %.a a q U a ' E z & U %.z z ( ' h U E R ! R { #.( U U / ( / <.[ ` ` #.( R t q , = # ^ q.[ ( E { E h ! ] R Y T U R W z s Y z Y ] { ( Y h U ( E ( #.( E ] %.` ] ' 0.%.&.%.R ' ' U ` ( ` U U ( ( E %.` [ [ ] @.] ' ' 4.! E ` h E ! U a ( ] 7.z z U U a a Y ] ,.' ` ( ' U ! ' %.` E E ] T E E E ' @.' ' ` ` #.! z R E ` ! E R ` q ` ! ( T E ( #.' ] ^ U z y t > . X ^ 4.s 4.%.' a l ` % f V 3 w T x l a a i  .=.d.p.-...~ -.F D  .L F F | H ~ d w ..+.X.s f h.& % 7.T ' E %.E ' H.,.P.H.7.^ q = w w S ..+.o.:.s.l._.W.'._.h.=.~ ! W Q  .X.s.Y.'.W._.W.p.s.g.s.S N w 3 % = g w V U #.,.<.[ #.^ U ",
"= & o U %.a %.3 B c.1X1X#X<X .E H.K.@.%.) $.<. .s ) ~ | h.+. .+.:.+.i q 3 .   % :.L # 3 U h h R a z s h w E a a z U a z x U a a r a R a R Y r z a h a R h R a h s U z E Y a U a s a a z z a g a U h h a y U i y a h h h Y h r z ( Y U U a U r q Y U ` ] ( ' ,.#.( E z y 3 % % q U %.z Y h U ^ a Y q a a a z Y a z a a E E h a r r z z h z a h g a a h a a a h U z a r Y z z z Y z U Y Y U R a 1.a }.* % w.4.@.@.7.1.W U W w ;.> g Y ,.h L s.# a ] t a q a E E E z ` z Y h z z &.R z R a r h U Y ` ` U a R T Y h Y ( ( h g ` <.` ^ ^ ` #.` Z g g e , , O t 8.#.^ z E E ` a E R ! ' R z ` E z x W E a >.' ( ( ( R E ( ( %.` ` %.%.} *.U ' 0.6.R ` ` ' ' z %.' ( E ! ! ] ] @.] ' %.' ( ( &.&.,.,.R T ( Y s ^ Y ^ %.' Y U q % = & R 7.U #.,.' ( ( 6.8.E >.( ! E ^ E ' %.' ` ' %.%.E &.E 5.a ! z ! ( g ] h U T T U E T U U z g e > e   X { %.h H.' #.U r a ' k > Y # r r y q p p +.t.p.f.a.g.l.z.l.l.T./.T.T.z.Y.k.Q b f.f.X.r f L $ % 6.z R T ] ! ] [ ] 8.' ,.,.Y i i r 3 % % 5 8 4 p Z 9 S +.i.d.Y.W./.W.W.d.=.o.B j _ D B j i $ & % 3 e n T ( ] ( #.#.>.` ^ ( ^ h ",
"% , . E &.r ' w % 4 B o.p.d.Q E #.#._ a a U z y a w f 1 & < 1 1 q 3 u b Q Z X.g.L 1 # h ^ r a r a h R z U r z w a a a r a h s U a s s Y h z r z a z a a Y a h s a z Y U ( a U a U g a r a a a r i g r a g a r a r h a q s a r q %.h E a r a g i ( g U ^ E ( ` ] ` ( Y h q % X = R 6.3 Y Y R ( #.Y a i z y s U R h a U R U z U a z U U U i a U z r a U z h h a h z a h z U h z U U E ( ` ( ] ! 0.1 Q.6 . z ' a r h h h ! s f 1 1 U #.<.4 Y.N = ( ` %.U w.Y a ] ` E E E ' s Y z ( a E U 1 a r g R z ( R ( h Y Y U Y Y / t U ^ ' ] / ` / ] ' ` Y g e > , % Y 7.' g z z E E ' s T a E E z z R R V 6.^ % - ,.E ! #.Y J.E w ( 4.' ] E %.@.1 & 8.H.! ) ( J.U % a A.! ! ' ! F.Y w 4.%.Q T h 3 8.a 3 7.0.#.T T #.8.w # 3 6.#.s q % u w # q & w ^ ( ,.] % %.4.R ,.[ R ` 9.q ' 7.U %.#.R E ` R %.! T R W %.i 9.W ] ( ( ` E E E Y U g e > >     R ] q ( ( } E R l a a R N W _ W V  .X.=.i.d.l.z.Y.W././.]././._./.]./.T.Y. .X.g.d.i.n n W.< % #.R E ` ] ,.8.' %.7.%.] ,.U y t ( E #.' t r 3 1 3 & & = & w s V V b 4 1 1 & % & 1 = 3 w 3 g w Y V E } ' ( ] #.' #.' ] ( ( E U ",
"% , o k 7.U d @.a 3 % = 4 4 u 3 3 w w a s w i r r r w & & 3 w s x a 3 $ # 5 4 & % w i Y a h t Y a a z U Y a U a a a a a a z z z Y Y ` E U Y a U a z a s h r z a a U a z a a Y z U E Y U a U a a h a h w U h i a g U ' ` w w h # h R U a a a a r ` a Y U ( ( ( Y ( ^ R z e = % & E 9.z z U U E Y ' ( a s r r a Y z a Y z z E U a a U Y U z a a U z a U g a z h z E Y U h U z z U z E Y g # & & #.a 0 d.o * Y E Y h h U ( q n $ . g [ < g.W.$ w %.` ` U E R ] s ' ( z z %.h z Y 5.r z ` T Y Y a h E ` ! E Y U E h Y ^ T g R T ( ` #.` ^ [ #.[ ^ g q , = X g 9.( U z Y E ' ' ` E Y z R z h U a U ] #   o ^ 1.Y E ] ) . . % U E ' E 9.a 2 # s K.&.E @.W < . o 5.7.k U &.#.# * Y &.E ] w g a o O 3 9.,.] ' %.1 <     z T V 1 4 a 1 w a i w # r ,.$ # = 6.,.( ` E 8.q % & 9.7.%.[ [ ' ] ` ! ` z T Y %.r %.U ( ) ^ ` ( U ^ z h g e = ,   % %.4.a ` ! ' E U E E r %.d  .@ % 1 & 1 # = - % # $ $ * $ * $ % $ # * * & < & & 1 & $ q & i.u r &.&.&.%.5.7.0.4.%.7.,.( ( ,.6.#.Y T i t ( ] ( %.&.,.) ' @.' Y z a & q i i w h a V ) s W T V T U ! ( ( ,.,.' [ #.#.,.,.( ^ ( U ",
"= = . g &.! 3 3 q R &.k q & % 3 a R s ' ! ! ) p z e X = h 3 w 3 3 s ! A.h a q q q r r i h T h E a h a a z r a z s r r a z a a s U z h z h U a z h z E a h g Y h a U g h h U U U g s g T Y r h r w a h w w a w g r r r Y U z z q h z R a h h r r ( a z ( ( ( ` ` ( ^ h g e & % > ( 4.w U U ^ Y ( ] U ( r a z r r U a h z Y z z z a Y Y h U h i z h h a h h z Y a h U y h g g V U E i % #     * $ s 6 d.d % w ( ' E E ' @.1 C 2 2   . t.g.w = U E z x R ' z ` ' E U %.E E U a a #.` a ' h Y U Y s h h ` R E U E Y h U ` a h ( ' ' 1.] ,.] #.Y Y g e > , % t q.%.U a U E z ( E E E h z h Y z a #.h t.v   # r t W #.0 P * . * 3 r 1.a y.y.$ * r ` ) U p r.I . @ w.z T ` u 7 . * r Q a * q 4 F @   r 4.! ! s A j.v   w N V p n n -.< Z s s u 1 1 A @ + r 0.! W 8.s 6 $   a 4.' ,.( R ' 4.U ' z z R #.r %.Y T ( { E Y E Y j g g y > , . % #.D.a E R E Y E R Y Y h ) G.. - &.8.&.%.%.&.( ' E ! ' T %.6.! [ %.#.! Y Y E ! R ' R ' w ..3 % D.#.6.z ; % a &.0.%.' [ E ' ` %.' ` ` ( ` E R ] 4.K.J.K.&.` R E Y 0.] %.%.A.! ] H.9.' ` ( ,.( ] #.` ] ' %.` [ %.&.%.` ' ` ! z ",
"> > o t &.Y a w 3 % $ r U Y 0.} E ( Y E W d T ( t . @ g E U h Y a q = % r U z E Y q a z g i w g r a a r a a a a z s a a z h r a a z a a z a U w a a y h a w Y z z h Y h a q z h h h a h a g ' h a y w a e w a w a a Y a h r Y a g a a U Y Y r q R h E T E ' ' ` #.( E g > > % , 8.A.h h T E Y g Y E z h g z z i a a h h z h a a a i Y U h h z z a h g a h U z z a z h h U g U E w & w Z U =.H 3 X.q p.~ 3 i @.] ' 0.I.&.f t.B.n.-.A t.f % s ' E } ! E Y E U R z a E a ' U Y h ( U z R U h a U a a z h h T R E ` ( ( z a U ( >.#.' ' ( 1.#./ V t e > % . l 6.` U z ` a a ! E z U ` Y s R Y ! &.F |.x.* . % r ) y u.Z.K . * 3 r W A {.OXM o 1 X U b a.;X[.2   a r a s y.M.M @ & a ;.p w K  Xm + @ O f z b y.@Xn.v d b Z Q @.l.).f W T V i V u j.P @   % % r a c |.y.. ; 6.X.[ 4.,.E 7.` E Y x r ' h 4.V ' ' ` E ` U T h g t q > ,   y ( ,.U ` ` E E R R U ( e #. .E   U H.%.T R 4.! a h a a & a ] } W ! ' z a r e z w w w s s X.f = 9.z $ 1 . .   o &.8.` ] ` E ! ` R ! %.' ' ' %.! ' K.P.&.! 7.0.A.! ` ( ' E E ' ' ] ( E ' ( ] %.%.( ] %.' %.` #.' %.' ! ] ( R z ",
"y > . h 0.R a w r r a q q 1 r U x U ! R E E ] A.K.E U h r r l z U i Y a a a = 3 r a h w h g h g U ,.q 3 a s s a a k r a z z z a z a h a U h g h a h a r a a r U z U U a a w z z a h a i a y U g h E E a z r w r r U U z h ( a Y U a z a a h i e ` U z ( ` #.,.( ] T U g q > % % U 4.E a T Y U a a E Y E z R R r r a a h h U h U a a z R z g y a R a Y z h U U z z h U s h U ( & V ) 6.0.0.S.p # W a H +.o % 3 % q w 0.8.U M /.l.=.~ d @ % a E ! Y U %.s ` U U U U a [ E E ` ] h [ U U a U U z a z U Y ( z R z Y R U ( a g >.( <.<.>.] / / g ^ t e > , X z 7.' Y z { h z U E z E U z k R Y 7.d ).hX{.e.@   % #.A C.C.n.2 + r ` 7 b.6X0XM.v   i U t.(.MXhXy.. 4 2.Z J [.9Xn.7 3 C ` X.S M.|.n.0 + % w n P  XhX{.a.b h C @.=.4XkX=.p Q Q V s ..n.n.c   o % & 0 (.VX@Xv   U 9.E ] R z E R ( s 5.! ' s ,.V U U %.,.' E U g g g q = = . & ,.,.U Y ' E #.E ] E ` E t r U.& % 8.!.6.,.9.9.` K.9.7.Y ] 0.0.0.D.K.K.A.0.U ! ( ( E @.a 2.q % # & G.g.s.h.@   ; 0.%.E E ' ` ] ( E ` %.` [ ! E %.R E T Y %.` ' E ! 4.W ( ] %.%.&.%.( %.` #.Y %.E Y ( %.w.' ' %.%.( R ' ( ( U ",
"> > . a 4.Y r r r r r a l a a s z z a z r a a a h T r g w t t a t U a E h U z r a a h h r a a a W h % & & % & 1 e z h w r a r a z h E h z h U a a U h i a q a a a z a g z a a z h R h h g a h h g r ( U r a z U w a a E r ' r z z z g z h R a w %.z h ! ) ( %.,.#.U g w q > : e >.6.t r a ( R z a z U a a a R W w z a U z a U a z U a w Y z E z a z a a a a a h Y U a h h E i Q 2.8.,.&.#.U 3 q #.R 2 V # @ % 1 @ * i 2.;.2 Q 1.0.=.w @   @ # h a U ] ( z z a E E a %.z a z Y a %.%.` R E z U U U Y z U T ! a U Y ` Y a Y #.^ @.{ >.<.` ` / R t e > % X e 4.^ z z ] Y E E ( Y R R E E a U ( J 9X0X1XZ.J % X < j.C.C.Z.e.@ X w t.{.#X6X@Xn.2 q D b.9XhXhX;Xc @ Y V x.<XwX@XF r 7 a n j.C.C.C.x.* X s A b.#X@X|.t.~ W ) &.t.{.{.=.Q s W @.+.z.<X@Xn.0 & q n k.9XhX0Xa.@ @ 8.%.&.E z ! U ' z U R 4.r 8.U ( E ( #.#.] Y g y t e e , . % >.( Y R ` U Y U z R z %.a ` C a . T J.,.6.( ` ! ! &.[ ] 0.&.&.] ' ] %.` A.0.` E R z %.i t.4 % H /.S w 4 D :.. @ ' 0.` ! [ ` ` E ! ( x ' U ' ` E E U Y z R ' ( ,.%.! ( R a s a U Y %.E ` %.( Y ' ] R ] ' %.` %.] %.` ` E U z ",
"> > . r %.x w r w t a i s a r a r r w w a r h w h h a a w i a a z h h h U g z Y z z h U a a t ,.V % @     .     . % U z z z s a a a z a a U h h h a h g a V a r h a r U h s a a U z a a U Y y U z a Y a r y r h r a h a r h a a a U r h a a r w ' s R ! ] ) ! ( ( T h r 3 = : % ] 8.z a z a Y a U ` h U a w a U r z a h U a a a a z z z U R a U Y z h U s ] q r z Y g h E q W $.@.%.,.,.T 1 = w a %.& 3 3 q r b  .F @ 9.T ; d 8.U.$.T 3 & .   % E %.R s ] ] %.r R U R ' ! a T ! Y R E z ( U z U h U h U z ` E h Y Y ,.a E ' ] ( ' 1.<.8.( / h t q e , . l 9.Y Y ` h U z E Y U Y U U R x ' 9 ].eX6X>XC.j.p p x.B.B.C.Z.n.m @ J M.V.V.#X6X{.e.n b.{.hXeXgXjXx.@ r A |.,X{.{.k.@.~ #.t.B.C.C.{.{.L i C k.{.OX{.{.(.n =.) ] d.n.n.D @.^ W | k.$X@X;X|.j.4 u D @X1X6XgX$XM   a P.9.w.( %.Y %.g E ] %.a >.z ( ( ' %.] #.E U y e = = ,   % { %.x q z E ' ` T ( ` ` R { a ) . 3 7.' E ! t g a ` E ' R E ] ` %.! ! E ' R ' &.` Y ( i -.b V /.8 % w r 6 '.2 & E [ ` ' E ` R ( ! R #.w.@.' ` ` R E E E ` a R E ' &.%.&.[ } } } U U 6.] >.] ` x %.#.%.#.%.%.&.[ ` E ` ` E z ",
", > . t ` U w w w g y i a y r a a a z a h a h w a a w a a r r g h z r r a h a h a a a U s a a ' 4 6 0 2 5 2 $ $ o o s h e a U a z w a q w h U a a a g y q a a a w a a a r r z h r s h h y z W i U a z h a h h h a h a U ' a a w 3 r h U E a a y %.a Y ! R E #.' / ( U g > % % = #.,.z z U h a z z h ( R z z Y Y z a Y a h Y h a a z h a h z s h s R s h U 8.8.i r i s T s V 1.8.<.@.$.Q i & 3 ^ z =.[ g g k i , B f.. q ,.i 1 s F.8.$.d 1 w % @ X [ A.z ` E R %.a Y h R E z a R ( ( E U ( E z g R R s a R U E ( E h ` a h ( >.#.#.( ( ` >.' ( g e e , . a 7.( g U Y U h z Y z h z U k U ,.P <XhXwX@XdX9X+.l.qX9XgX<X%X|. Xn.B.,X0X0XMX0X9X[.-.{.wXwXhXhXvX1Xe.Q x.|.{.{.@X/.*.=.$.[.#X>X$X@X@Xm.b X. X|.|.%X#X{.L &.=.@.m.#X;Xf.X.) X.i. XB. XC.B.B.H C z.,X>XkXgXeX(.$ O 9.7.{ ] %.E Y U ! ` 9.r #.a E ^ { ,.#.' ` %.U t = , > . = [ 6.E E r E Y E E ( ^ ` 4.z [ h.2   z %.E R z Y a g z R z Y E E Y R ! Y r r U ( E z 1.V L F ].C # e #.E N W.3 % ! %.` ' [ E ` R ` a &.U i s k ' ] E W E ] ! E z Y R %.} Y h r R ;.r g ` U E ` Y U R E ] %.` ` ] ` ` E ' ` U ",
"= % X r ' E r r r i w y w w a a a a a a z r a h a a a r w w a r h Y z h a h a h z h a g i h h U b M j.n.n.x.x.e.9 # z z a z U z z U a a z h a a z a r 3 a r a a s q a a a h z z h U r z ( z U z h U z h h g w h a U z w ` Y a E a & h h h a w w ,.a ! ] ' W ! E Y R h r 3 % % = 8.9.U h z s U z h a U z a a Y a y a h g z E Y a w a a Y s a Y a Y Y a ! U E E E g U ` 3 i 1.$.V U i w 3 = 3 w ,.! z Y a r e & 1 i.z.. 3 Y &.& a $.L.!.$.s u & 1   % E > w 4.%.! R U Y U h Y U ( U ' h Y U U z z E z E a h z z U ` ( ` a z ( ( ( ( ' ( Y Y / h t > t > X l 7.( Y U E z E h U R Y a z a A.C (.vXZXPXMXJXKXzXVXNXJXJXJXBX7XwXjXhXcXrXcXkXVX6XeX4XwX0XcXVXlXMXhX/.i.;X1XkXlXlX-XT X.R.lXFXlXVXMXvX].~ T.$X;X4X5XjXwX2X) #.W.<Xd.d.5X@.$.$.'.@X;X$X$X{.{.H 9 #X6X9X/.-XhX9XL   q K.R U W R Y & z z %.w ] R R E ` ' ' ( ( / h t q , =   = %.4.` U g E U U ] U %.] ,.a [ V Q.  w K.` z ' U Y U Y ( ] E R { %.R %.U u % e ,.5.` ,.a +.4Xo.5 e 1.) w f. .@ q %.` E ] %.` E z E a ! U % % * . # % : O % # * . q r [ Y . % Z 4 * o   w ( ' ' [ R ` %.%.' E ` ' ! E ` E ^ Y ",
"% O . a ' U r r i t r a i y a a a a a a r w w r h h a h a a a a a a U h a h a & a a h a g r T W N M {.V.%X{.Z.n.J * R s w a U z U z h a a Y a a a a g h a h s a z a a a r a h g a U U q a a a z a r h a h ) r a a U U R ' ` z U h r a r a g a r ,.l E ( ' ! R ( ' T / t = , % > ,.J.E z a z U z U a h a z h a Y U i a z h a R E a r z a U Y a a a a h a h h h z h z w h %.D.&.- % = & % 3 3 U %.#.% @ d D +.i.:.W.| # w h %.] w g #.E.I.6._ V 4 & o . @ @ w E %.] U E U ! ( z R U R E z Y Y U U a ( U h U U a z a R ` a T ' ( ` >.1.>.<.' T h g e e : O l 4.] U E a E h Y z z U z r R ' J 0XvXjXG.}.FXJXJXJXBXMXfX`.kXrXeXvXvXcXvXW.B '.vX9XhXgXeX1XL s.}.MXVXFXKXMX;X_.'.lXY.-XFXFXFXfX`.lXFXzXh.4XhXfXt.i l.lXlXY.i.].t.f d -.`. .Q.zXwX4XJ..XlX0X1XqXwX9Xa.4 B :XhX|.$   %.5.' T h E R R #.%.a ` E T T ^ #.%.( ( / U t e , ,   > q.K.U ^ Y z ` a ( % ( E z k z r G.& % ' U r E ' E ( q z %.%.#.%.%.&.8.! U w $ k E f [ w i./.5 # R ( 1 +.Y.# q Y ] E ] 0.` [ &.` ` ! r 4.a b `.].P 7 5 1 i a ; @ o l a *.1 A qX#Xb.c .   % a ! ' ' E %.%.&.' ` 4.] R R E U z ",
"% % . r #.U r i g r y a g r 3 h z a z w q a a a a a a h a a a z h h a h r a a w w a a z U a U i Q F %X%XOXOXOXB.t.o %.a q r w a h z U a a r Y U z a w a z z z h a a a z r a h a a a E a # q s r a U z a a a w h U z z U E ` Y U U q U a w r a 3 ] E ( <.,.7.$./ T Y U h = , % = ( 7.E U g U a z E z a U Y a w U ! U U z z Y w Y U Y w a U a z a ( R r Y h r h h R = n $.1.#.i % q ( } E } ! a a w X.k.<XwXl.c d 4 % # U #.& 4.Y 3 i Y 7.D.8.Z C w & @ @ r @ % k %.U ,.R %.a ' U ( h R Y T E a U h z ! ` r U U a x T ] i h ( ' ' / [ ,.1.<.` g g q e - X t ,.Y ( 9.E z U z r a U E a ' b (.eXMXl.s | }.JXKXFXKXlXL.I.R.<X#XvXbXMX<XN w p |.kXgXhXqX..w 5 O.qXqXgXMX9X-.q ~ fXBXjXjXMXjXs.7..XGXBXMXjXhXt.V Y p T.dXjXkXW...i r 9 :X9X<X-Xa.n Q i s.qXvXMXjX/.c r w F dXjXi.  & 8.%.R [ z Y E ( 9.a ` U ' #.' #.>.] ( / Y g e = ,   e 7.4.] ] E ( %.' ' } { ' Y %.e ` i n   & r & o 3 3 w # @ # r y w g j h 3 % 3 $ o # . # 0 /.D % s E a :.f.4 > U ] ' #.E 0.( R ' ' 6.( E ^ #.8 z.hX@Xj.f N w 1 1 4 . a z w.! f [.vX X| u . o s ` E ' ( z U 7.' ' &.@.' ` ^ E R ",
"> > o q ] R w a t i r i w w a h z r z z z h a a a Y a a r q U g Y r a a h h a a a w w z s a r 4 =.s.hXrX9X,X,X@Xp.& ' a U U a s z z a h h a r z z a z a w Y h Y a y r a z r q a r a a z w a z s q a U h z U s r z z ' z a ` Y R z U h T U ` z 1 ] V ] ( U ` ) ' [ ' g r = % X % 6.4.a h z g h U a a R h h R E z z U z E a ' r Y r z z U U U z z a U s a U E U E i C $.&.( r # g h U a a s q # 5 X.+.X.S.H * & r r w i U E z e 7.T s 3 U ( A.D.@.u 2 * * 1 w $ @ Y #.U ( E ' z U ] z U Y Y ! ! x R U U E z E E U h U T g Y / >.,.#.>.,.' ] Y x i , , ,   x q.Y U ` ^ h E U E E a E Y 4.L >XcXgXd.z Z t.fXKXJXVXR.S.S.A.S gXbXbX<XL 3 g w m kXhXjXp.< a a 6 l.eX,XeX].9 W f t.kXNXcXhXQ.n ( ) `.VXMXgX+XV 1 U r D lXjX9Xd.2 r W 8 k.<X#XgXl.i w w b z.VXBX<XJ < u a 6 g.gX4X0   a K.R E R E U >.9.a %.^ #.,.' >.1.,.>./ t q - , ,   : 5.4.z ' ( ( E ` #.a h U q ! t 6.s | @ * % * # @ & # @ . # @ @ # . . # # % 4 b 0 7 6 Z x.{.7 $ q 4 l._.8 w a { ` E #.' %.9.E 9.] ` R ( a %.q L dXbX X..T W 4 s 1 3 k { q 9.w t.eX3XS V 3 . 3 %.R E ` ] ( ' E %.&.5.%.` } R Y ",
"= > o q ` ' % w r a a r h h h a z a & a Y a r a a h a a a r z g U y r g U h r r a z z z r a W d :./.AXbXCXhX7X6Xy.& E k z a z U U h Y r r U a r U r Y h a E h U i h i r h h h h a z Y U Y a r E a a a z a U h r h U ' z U a h z U Y h z Y ` r % E U ( ( T ] %.,.<.' U i % % % = 7.q.U i h E w E a a w U ! U U U g s z R a z E a h z R U h U Y ` R z Y r h U Y x p =.@.) U # % t ^ a W 1 @ < p )  .( E 5 & q g U Y s r h z ( s a Y h { x r r @.J.&.s 4 1 # r ;.* & ,.E E E Y ( Y ] a ! Y E Y E a U T z ( E E Y z U ^ r r Y ' ] ,.#.) #.#.( Y Y t > , -   y #.x E a Y 5.U U R U a q %.a b.gXvX$XS 3 V s s.VXJXg.1.6.! W w Q.GXdXi.6 e w w 4 l.vX+XS & i ( f m $X0X4XO.$ T y d y.lXBX+Xb h h i d T.VXdXL 3 r ` [ 9 ].hX/.| 1 r ! s A <X,X/.D s U s i C '.MXi.7 a s A.& J 9XgXl.. % ` >.U E U z 6.9.z 4.E ` ,.#.( ] >.( >.Y e = , =   > 5.%.a E >.E %.H.#.R E Y Y W z a #.A e.K d.z.x.z.z.b.z.z.x.z.m.(.[.'.5X`.U.G.G.}.1X<X<XjX$X4 o 2 z.i.4 r a ! E U E ' ' E 4.( ( ] ` ! ( ` z a B M.GX1Xt.W V V b s s $ t U l E d (.jX .s d . . a U Y Y ( Y #.] ' #.&.@.[ E ! Y ",
"q > . 1 Y R r q a a a h a h h U z E U h E a a a a a a z w a U z h a a i g a U g a a a z z k ! b i.1XLXAXLXnXZXgXO.1 U a a a z U s Y R h z h h a r a a r z z r Y a a t r r a h h a a z z U ' R z a U a U g w E q a h z z h R a Y Y R U Y ` E a a ] g ] ( @.%.%.' ' ( ( t 3 = % % ,.J.x r a h g h R U a a h E r a z r r a z r z a s z h h z h z Y E g E z h h ( < T  .@.V 1 # # E h 1 $ 5 n X.X.X.$.%.> & r h s r Y E z U U R ` ! #.h r E 0.t p E.P.X.U d f & & & . > R h T R E E ` R R T a a ] R z R U T R E E z z Y ^ g x ' ' @.#.,.,.<.,.) Y t e > , X z 8.( ( ! U ` z E ^ ` U z ' S <XcXwXY.q ] #.d c l.].N ] ! } *.Q u Y.d.0 - % . h T 7 +XO.6 1 Y T u 0 f.wXt.n 3 9.6.w A l.:XA s h i y 4 7 /.d.8 w s l A.b L <XL w y a a #.8 l.fXL 4 u E ` h = D ].F w r k ] a w T.gX_.$ q e U Y h h z Y H.r %.Y ( ' <.` ' ` h T h 3 = , >   % 7.8.h z #.' E 8.%.' ' R Y ` ( a &.9 <X-X:X<X3X4XqX3X1X#X:X-X}.).W.W.+.d q r a s d.p.i.p.:XT.t.|.z.1 w ] ( R E Y g U ' T ( { E [ ` z z [ h [ d y.>XMXt.Q _ ~ p ;.w 1 # ! h 1.r ..>XW.d i 3   = U ] ` ` U ` T R ' ' #.` E Y h ",
"3 , O q R ! w r w r q w h a h h z z U Y a r a a a h a a a z a a a r g 3 i a s h a a r s z a ` b f.eXbXCXLXAXgX[.p q r a U r q z z a Y a U r z g r r a a a i z E a r z r h a U a r r z a a h 8.U a a a U U a a r q U z E Y h T w a U z q ' ' h z 4.z ! ( 8.,.&.' ' ` ^ h = > = g L.7.R g z q T z R Y s r h U Y R U U a a a a z U h U r r a z r z a z a U ;.' 1 b ~ $.~ b f . . X @ u Q 2.S.F.S.1.@.! @ - ` E z s ' Y s U Y h ` ( 4.E U R E a b F.E.9.W W p p 5 t $   a h U z E E ! R R E R s z ' h Y U a U z U U h E E g h ^ ^ ] ^ ] #.) ( ] Y t = , %   x q.^ ' E ' ! z U z E E ( h x.gXvX+XN = 8.! *.u n s ( ( Y ' ) @.E b F & r . . a #.3 F 9 1 g *.R V w S f.6 i W &.H.` 5 F +.w i %.] W &.1 S n f q ` l U z 8 ..C = r ^ z %.T D s.4 q e ,.E R r w D d & } ,.a 6.& 8 +.s z R k y U z h U Y 8.t ,.T ' ` ` ^ Y ` U U Y t e > >   & %.7.] U ^ ( ` ` ` E T r U T ` x ` b d.D X...X.S S S B N N C Q B C p r a h a i e 3 5 4 6 L <XB '.g.* 5 4.R z Y E R ( Y E Y ,.] %.%.R ( ` ` a T B z.vX1X..S V p s i a q s W w 9.i z.jX/.C u @ % ^ ! #.x E ( #.[ ( ] Y ( T z t ",
"t > X q E Y w e w a a h z g a a r a a T E a h h h a a h q a a i a r h h r y h a s a r a z z %.p i.7XLX%X1X(.k.L i e s a w a r U z U h R Y g a z a h a z h y r a z h a r h a z h z h z a q r E E a ( a z Y Y U R a a z E Y U z E w Y z h ' z r r ,.U ! ( ' &.] ,.>.>.^ U q > % = 6.!.E z a a z a x z z z U z r a z z z h a h a z a R z a z U h a g a a i } s ;.S.Q *. .C p % @ f B @.,.F.A.F.I.$.` s . w 5.E ^ U z a w z U s E R E T ` s %.s C S.0.J.6.8.n 8 u 7 i X q Y R Y z Y E Y T Y U E R %.z z U z z z U U g h ( a h ^ E #.T T ( #.#.h g g e = % . / 9.( Y U ` ! Y a z U U [ B #XrXdX:.5 U K.&.6.a w a Y h s r w U ! r 3 w Y Y U h #.r w & w ` 4.E 8.' 5 s % a z ` & ,.h d w q h 0.( a 6.r q 3 3 h %.{ q 6.& a q s U ] R w A.4 n 1 a E ! U a 9.* w & q %.@.E 7.z q w z 6.%.z a T g U U U #.t [ ` ' / ' h ( #.) T h e > e , . - [ 7.U Y Y ` z E E z R Y a ( Y ^ E h i.# - = = & 3 = & % q 1 3 3 q & w 3 & q q 3 r r w i n .X3 b T.& o w 0.' x Y ! ( ( ` E ` E ( 4.( E ` ` ( W a D $XMXp.s s W Z N V w   Y w #.h F 1XlXt.b $ @ r ' ^ ' z y a ' @.] ( ` ] l t ",
"> > X = E R q g a Y a a z i i g w a r a R z a a h a a g h a a r a r 3 z U g a a h a a a a k 9.W s.,XcXAXMXt.b 3 w i w W a a r a ( ( h ( U h z E r a a z z g a U U U a h a h a r a a z w % a R r U h h z r a h U U a r q Y a a z h h a q Y z w w &.R ! ( ' 6.] 7.] ' ^ U r e & a 6.K.U ' r 3 z ` U z s z a T r a a a g z h h r U r z a z r a a a h h U h ! 4 =.1.W =.&.E ) n s Q @.*.( <.1.L.A.&.@.B # U Y 3 h U E h z Y R z E a z Y E U ' f n 9.0.A.X.0.%.b s 9 i > # a U U Y U ` ' E R U s U E h h h Y h z z z s R E h U ( ( ( ` / x / ( / h t > , - . x 8.^ x U E #.U U a a ( ( p.gXrX+X9 r Y ] ' 6.' V % u ! s & * % ' r % 3 ' 6.,.] a 1.r 3 a ] ' [ 6.' 1 f & h a ! z % %.a 4 q Y E ! R z @.& a 3 ( @.U Y Y ] w 3 q ( T R 3 ! a w s w %.W ` s E ] r a R %.E w.a 8.[ %.H.6.%.,.r r a h U Y ] g ,.Y Y h [ ,.` ] #.] z e > = >   t 5.#.V ^ Y &.5.! z E ( ^ h W ( R T C Q.@ g ( 9.#.#.U z ` H.6.J.A.A.@.( a T @.t V E W y ( p k.* w S s.  @ Y &.Y Y Y ' Y ` ` ( ] Y Y R ` R ! %.' ,.a y.dX3XA g b Q C p w $ a ! e %.f k.gXT.A n @ % E E 9.] ] T ] ' Y ` ( Y U t ",
"q : . e ! ] q r r z h a = q w g a z h a a h r a w w r h a a h h a a U a U r a w a a h a a U 0.d t.#X,XNXVXb q a a # % % U q q a g ' a z E U a z h U t a h a a s z g a h h h a a r z h i 3 h ] Y a a z h z U a h E U z w z U h z a z ' ` a z h U ,.( ] ,.6.6.1.%.6.( U a w > > & 9.6.h U E U h h z a a z z r z z z h a U a Y a h a a w z a a a ( U a U ! q ) =.S.W S.S.) &.,.T [ #.@.8.1.$.,.F.F.F.+.@ ' 6.Y Y R #.g a a Y Y U ` R w U R 5.2 0.H.6.!.8.L.A.( 3 S w q q E a U R U Y E a a z U ` a E h g Y a E ( E h E R i h #.] ( ' ` ] ` / R Y t e = ,   g 5./ ` R R a z Y Y ` #.6 i.1XqX_ 3 q #.4.s a w &.&.U K.I.E.w.U h D.] U ^ ( E ] Y E H.&.Y %.U ! ] E ' w h @.Y a x a r 6.E a #.T T @.a %.&.Y s ' T ^ Y r ( &.s V E ! W U r *.W r k E s Y R r %.&.s ( E @.} @.E 9.&.8.4.%.6.h t U a h U #.i ,.' ( / Y >.^ T #.' ( g = , >   - ` >.W R R R T R ( T Y #.Y h ` Y ( h f.  t ] ^ %.{ x E ( ! 6.4.) 6.&.] ! T #.' T ' ] g %.6 l.* i $ G.J   % ] 4.E Y R E ` ` ( z ( ( ! ( ( #.! 9.H.Q i [.ZXT.Z Q W ~ C i q . R U ' ' 7 }.VX].C u o & U ` #.( U ' #.] [ ` ( ` U ",
"& % X > Y ! a w z a r a a U r s r h r y a a r q a a a a a a a a w a a a a s r Y z a a a a Y 1.6 /.eXAXbXVX4 % t a 3 3 a a h r a r z z r s a r z U i z R E } U a h z h h h U y i h a h r r U z z a s h Y a r w h h Y U z h a a z z a a ( Y U w r %.E ) %.6.#.6.&.1.( ( h w 3 , % D.D.T a T U s g g h Y U U h h z E z z a h a R h Y a a r h R r h U r R h 4 _ ! 1._ ( ( ] Q ' 6.&.&.] 7.) h h ( 8.!.W.. ( 7.h U ! r W z r z z a Y U ` q ( Y o.Q.i h 7.9.I.=.@.r 4 t w w h ( Y E ( h ` R h U h Y Y h ' a U a z z ' h z E r z ' E Y / ' { ` ` / h g e > > O t 9.' U ,.{ a ( h a U 0.@.W ) s w a q U Y a U a U h z z R E E R a a a z E E T ' x ( Y [ E E ] E %.E !.] ,.E h h a z w U Y Y E Y E ' Y U ` [ ! ' ` ! Y R a E Y ! U U R R E a %.R R T U h W U a Y U E ` ` U ` 4.%.] 6.0.` #.R w a s z R ] t ,.( E Y U ( ,.#.,.( / t = , -   e >.[ E U ' E E ] Y U ( h z ( U { #.i Y.  z 9.` x E E R >.^ ( ) 9.#.,.6.Y ( ' #.z ` E s ,.4 m.< & 3 v (.2   q 6.` R Y U %.! ' U E ( R R ' ] E 0.9.&.U +.jXdXa.A ' u C d s % 3 ` q q.s L 3XwX .U 3 . t ` ( %.U ] %.#.] ' ! E E ",
"% : O q ' R a k a a a z a U a a a y a i a a a z w a r a r a r a a a a U a z r e r s w z t ] @.C $XbXLXLXVXh X = % 3 r z ( ] E R ` E ` E R ] ` %.%.4.E Y Y q z a a a a a z z z h z a h a g h h U h g a z Y r a a a U a %.z U a U g Y h z U U w r 6.U ( ,.6.,.&.#.] ' ( g t = % X ' K.E r r y U h r a a h Y h w h U Y a a r R h U r a h a a W g E h h R w ! ) ! ( 8.( s a r Y ,.' #.h q & # % W %..X9X. h %.' i R a E Y U Y ` a z z Y V ,.< '.S = q R 1.1.s.G.| % q - h ( h h ( ! U z ] a z a U U x U z r U R R Y E Y Y a z ] R ( R #.#.#.#.( / g e > , . t H.] x ] ] ( R h t a A.w.Q ! %.E Y W a z U w z R a g w a a h U z ( a Y U ` #.( E ( #.( ,.( z T z R R a ( z r a r z z R a U R ' U ' Y R E U ] ] ( ' T E E U a Y R z ' E ` U z U z U U z a R R z E ` ^ U ` E &.0.' ] w.%.] ` U s z E T ` w <.T T Y ( #.>.[ #.Y g g > O ,   e 9.>.R E h #.` ` #.Y U %.z x ( ^ ) j G.  z 9.,.( z z E ' Y U h a %.z ` ] E ! %.E E ^ s %.2 b.v # V _.g.d + & { &.! W ` ! E ` ' U U ` U E ! U &.&.9.6.Q 4XvX;Xt.T Z s V p 4 o h h Y ( 4 p.MXW.p b 1   E %.x U ,.! E { ` R U z ",
"q , O & Y &.q U U w h r a a a a g q r i a z U r w U h h a a h w h a a a r r a a a a a a i 4.h t.}.CXSXvXdX+XS @ . X # % & & e r a Y E U h z s a w w 3 $ o % & a a r z h E U r h a U a a a h U U a z h a ( z h a h h w Y ( Y a U a a R z U ` a r 6.` ] >.&.] 1.8.1.,.Y g e = - X R D.4.a h E r a a a U a h Y a U a E U U a U U z Y a i a y z s Y h h ! d &.T &.@.4.9.&.=.z i 3 3 4 % % 3 t t ` i yX9Xd i P.r a ] a E Y h z z Y R Y y z ^ N ].8 r t a $.1.`.BX:Xd d $ s 9.U x Y ( ' z U ] z ` a z Y Y ! U r T a R h E Y r z #.( #.] 1.1.>.` ` ( g y > >   t 7.7.E ( #.` ( U E z 6.0.U a z s h z h U Y r q E h a i a a a R z Y U ' z ' ] ] ( / z U Y ] #.( E Y ! a E ` s z w r w a Y T Y E Y E ] E [ ( ] ` ' E R E U ` a z R E E U Y E Y Y U z z a a h z z U E ( ( ' ` ' 5.,.' 5.0.! %.z U x U Y ` q ] %.' / h ] ' ` ' ` h g > - O   e J.5.Y ] ^ ` ] R ( E Y ] U T U ' ( d f.. w #.z a E z z E { E i h Y ( U E R ] ( #.( E z 6.8 (.}.T.i._ $ % w h E } } R ' E E E ! [ E E E R E U R %.K.H.W L lXFXs.n ) r 4 d q # t ' 9.6.w p [.3XF s p & o E %.] U R ` E E E z z ",
"= > % = U E a w z R r a a h a a U a h z r z a h h a z g z h a w a r r a r a r a a w a E a %.C W.,XNXeXjX@Xm. X/...4 3 = .     X X % % r & o $ @ o & w 8 1 o w ] Y s r a z z r a h i h a i i g a a h U a Y z w z z E h z ( a E a z h h Y h E s r %.^ #.%.#.$.,.,.%.,.] T t = = X E D.( a h ( h h h U h U z U a E a z E a z z E h z E a a a a a g a a &.i S.&.1.$.&.E z w 3 % # & e 3 t U z & ' 4 }.tX:.# A.` z a g U h g ` ( E h >.z ( W ..d.& # %.3 s F fXPXZX#XK 1 % 8.' x ' R %.8.E R R ! ' U z a z U ` ' E z z z T a h E ( %.#.[ ` 1.#.] ,.R l > :   z 4.E g E E ` R E U ( z s k 1 w a h a w a z h r a U y w a a r r a s a U z a Y E Y ( E ` U R ] Y R Y R E z U Y h a R a a a s h U z Y E ` E E ' Y ` z Y a ` R ! Y Y U ' U r U U a Y z U h a g U Y a Y z E ` ] ` %.%.] %.6.' ' E h R R E [ g 6.' ( { T R T ^ V / U g > , -   g ,.{ h E ] E ( %.U R U ] ( R ) E ! a Y.$ w T T r a U t Y E ` E Y ' z ` ' z ! ( ^ Y E z %.p <XW.8 $ # r W ' ] ' a ! E ] ' ` [ U U %.Y T Y Y U ` ` 6.*.] i d.FXwXW W ` d h q @ i ( L.,.( u J kX:Xb b p . . U ] Y Y ! ! Y z a a ",
"= = O = U #.a a e s a a a a a a s g z U Y a a h a z a i q y i a U a z g a h r z h a t l ( ' 9 ).9X@XV.{.OX#XeXwXdX).u u 3 & q 3 & & 1 4 Q X.S V w j ~ /.A & z ( q a a a h h a r a y r h a r a y a r z h z U h a h Y w a y r z g z U U Y ' U a a 6.Y ( ,.8.6.,.] ] @./ Y g > , . z 9.' h r U h U a U z h a a U a U r z a R Y R U s a ` a a a r a i r %.a u a r % q % : @ a q r E h w e a h g %.a +.dXz.  ! %.( a ' E z U E ( x z V g ] 7 s.L % 3 ! U 3 A '.JXAXAXz.F   U 7.U E E R Y z ` z %.U T E U Y Y R r ( E i z z a g %.^ ^ ` ] R 1.,.,.' ^ t > ,   l 9.E E U T ^ U U E T h a h E E a r R a a y h a a a z a i a r w s a h U z R s ( U Y T Y ! U ( ] U R #.U U z U z r r a w a a a a U z Y R ! E E E ( ' ` x ' z R R z a U ' z ' R h U z Y h r h a h h Y Y h ' ] ' %.] %.' E E R R Y Y U R ' t #.( Y g h R ( ] T / h y > & ,   e 7.>.} { #.` ] ` ( E ( E E %.@.[ ( s f.$ q W U z h U a E ( T z x E ! E ` ` R E ` ! R z ( f ;XS # g %.( E T Y ] Y U ] E U E x E R E ( U Y ` E ! R 4.4.s ` c }.BXl.u Q g p g @ = z 9.U 1.#.u |.BXO.d b 1 o % U E ( ( E R Y z a ",
"= > % % t ' a a z a z a h U h r a a g h s a r a a a r a h a h h r a a E h z z a a a W U R W A ).9X;X$X(.(.n.$XOXOX:X,.&.T T ] q & & $ & & 5 4 & $ = 3 _.5 = Y ' z r r a h r a r h h g g h s a a h a z h r r h y a h U a i a Y z R ` Y a E ' U z 8.Y T ] 6.] #.) #.) ( Y g e = % w 6.,.a a r h Y a a z g g h Y R z h a z a a s a Y z a a a U z U a w ( U q q q 3 3 a a U a x e 1 y a a g ` ( h z j (.3X2 , 0.h U r R h g ( ` E R R z 9.8 T.B # j a 7.a b i.hXAXCXrXt.. @ 5.^ g E R ` ` Y R E T R a Y R a W U U ] E ] Y t h ' ^ ' ` <.] [ ^ / / x q > % X t 4.%.a E ' U ( R ' h ! R z a s U h a U a h s g a r a a r a r a r a R U g R q h E Y h ` h h z z Y E E R ` z U z z w z q q a U E a z R T ` ` E R U ` ' h ` Y z R Y &.z z a a E R ( E R h a U a a a U T ` R ( R %.E %.E ' ` ' R U z z Y @.g ,.R / ( T h h Y g ^ h t > % %   > 8.{ Y ` ` ( ,.` ( z E ` E %.( @.E a 3.# w r a a U ' h T U ( Y U z T E z E ! ' ( ( ^ a ] 6 ).6 + t ] h W 6.>.! ` s ! ` E U E ` U Y Y ! ( U E ! z ! 0.` %.U b wXjXt.p 8 g W % t a <.( ) 1.d a.BXkXn n d @ - ` ' ^ ` ` ` Y z k ",
"q = % = x E w h z a r r r U z h a a h a a a a a h h r h a g y V a w g a h s z h r a z s ( V j 8 V b 6 6 b L p.a.b.z.T Q @.#.] Q V r 3 q w r a r E X.d i.# w ] z U a a a z a Y r a h a a a a h a q h h z h Y a U h a h R a a a a z E z U z E w r 5.U ^ ^ <.( ,.,.,.%.^ / t = - O a H.D.i z U a h Y a z h a h s Y R E r U z h r ( U a a a a r a a z q w ' ! W W a s 1 w u r z w U U x a i U h h 6.4 O.;XJ . %.&.( g z a R z E E U h R ,.9 -X4 - ( ! w >.w B T.3XrXNX$Xf + a &.h E ! ` U ! E U z ( z Y h z R a R a h z ! i U ( T ^ ` ] ^ ' ( ^ ( g y e > X l 8.&.Y a U ( U E ( E E Y R R a a a a a a h a h U a a U a r r z q a h a s z z a Y ` U z %.R h E a Y Y Y E R U r z a a a r a h U U h E Y ! ' R R Y E z Y E Y Y E U %.R &.` E ] %.,.#.,.#.E E U a a a z h E E R ' ` E ] T ( E %.` z Y U ' r ,.g R Y { ) Y / h h a = % X O   t 7.` z ' ( ( ( { ' ] h z E ( &.' 0.w Y & i = y U h ( i i Y U q 3 & h Y E R W T T E U a 4.5 $Xc   i 6.^ ( T T ` U E R ` ] ` Y ` %.R z U ' E ( ! ] Y ] 0.a &.a a.NX9XJ & = p y a ^ ( A.R &.Q D ;XBXW.w d # & { ( [ ! ( ( Y Y a ",
"> , O = E ( a a a a h r g s a h h a a a h h r z r a a h a h Y g Y a w h h r h a a a U k %.V q q w r w w w 1 1 8 i 9 Q ) h d W Y a 3 s E Y U > q 5.! X.H & T 5.s z h a Y z z T a a a a i a q r r a h z g U a s h z a a a a h h r Y Y E Y r h z a %.^ ` <.[ >.#.,.,.) ( Y r = , X y 6.,.g g h a a w z h h U E a z Y w a U Y U Y Y z R r a a w z h U z a q = q w q a U R E ` } U a T h ^ U a U U ` E b /.T.  U 7.E a g a z E z U T t ,.( i.W.$ % #.! w V E 8 F 4XZXKXMXJ + q &.( h R ! Y a E Y R Y z h Y U ! z w U U h { h g ( U ^ <./ ' ] ` ( U g e , > . a 4.4.( g U ^ h z ' z R Y ` ! U z U a h a i a r Y s r a z r r a r a z r a q a U z E h W E z E R U ] Y T U E E Y r z a r w U a a q h a a E ` ] ' z T U R h U U E U #.` %.U w r 1 r a g E ( E 6.' g g z Y Y R ( ! ' ` ] ! E E E Y z ! ` 4.3 ,.Y ` ` / / ` ( ^ g a e > % O   g 5.[ h ^ E ` ,.( z Y ( U Y ( ! 6.2.w U 3 ( s t & s T U h h %.( %.( a a ( ( ! a h g a U %.5 |.S . r ,.` ( ' { ' U Y ] R E R %.` a ` ( R U Y ! E R %.' %.U s E b ;XcX X< # 3 5 T ' U ,.W @.@.h t.qXwXS 4 % 3 g ] ` #.Y E R U r ",
"e = % = z x a a Y a a h r z a g h r z a z h a a h r q h w a h r a R U r a h g a z s s U a &.Y s %.U E ! ] ! T U w & 3 y h s # ! s & w y w a t ) 1.1 _.4 t V E z h a h h z z h a h a s a q a a q q a r i h a a h z h a a w w z r a g s z s a = r 7.E ( ,.<.#.] ' ] ' / g 3 - % O = 9.4.a a h Y ` w h z z h h a U U a a U Y a a T R z z a g a r h h z w E a h U U U T U i 3 h @.` ( a Y a E h E a ,.1 t.4X. 1 A.E z R s a ( T z ( i ,.g ]...- i ] Y E q %.w c /.hXNXZXx.* & 6.Y r Y ! z E a h h ` s a Y E z U R r s s R r U ^ h U ^ [ >.>./ ^ x g > > = X t D.' U z U E Y R U R U a h z Y z R Y U a U r a q E U a z a r h a w z z h z a z Y ' a z Y z z a U U U U z E U h U a a h a w R Y 1 R h U s Y ` E ' ` z U ! E a W #.,.z r @ @ @ @ . # # . q # 3 ` >.U h U U Y ` ` ` ! ' ` ` E x U U ` R R q #.( ^ #.#.^ Y R Y R h t > = O . x w.' T U T R ' ( %.! R ' U R E 9.K.h i # r V T a p d W s i T u V E ) ! u s p w i i p T ( 0 ).K . = 1.' &.R ( ` R E R ' ' U T [ %.R R E ` #.E ( ' ! ( ! ' r %.y F wXgXl.$ X $ ^ w.` ` 8.R ( T p k.jXyXS # % q &.] ' E Y E W a ",
"= , % , } E r r E a a r a h r a s a r a a a z r Y ( a z a z g U z U a z a h h h a s a a i w & # q % & % # 3 w e h ' } r 3 h N & p U g i g a Y 0.g +.s.% Y ] U z U h r a a h h a a h a E a w E r z h z r Y a a a h s a %.a h w r % w a ` h ( U i ,.( #.#.[ ,.<.] >.( U g t - % # = %.%.a a a U E U a U h Y U U z R a z a z Y a z E U Y a Y E a z U h s z s s ' @.W $ 3 % o q % a 6.! a R z Y ] t } 3 D <XJ . #.&.a E E ! g h E ^ U 7.p +Xj # g #.s R Y & 8.8 a.rXrXrXl.& = ,.%.{ E z U a a E a h E a U R U a z R z a h a U ' ' ,.>.<.1.<.{ / / g = = , X e 7.] g U R ` Y z E ' Y z Y U U Y Y r U a z r a a a h h a a a a U z a h q Y E g z z ] E ^ &.' z z U ! Y U U R Y z a U r Y a a ! z ` a Y z ` ` R ` Y Y z U U R 0.] 1 n _ Z Z T Z C T p 5 .   . . R >.U U U Y E ` ] ` ` E ! E Y z ` ` %.` q <.^ ( / <.R R Y V Y g > = > O   Y D.] Y Y ` R ' ` ` ' E Y ( U E #.H.Y s V 1 s r 3 3 3 w 3 4 r 3 r & & # & 4 % . & @ = % i  .'.| % & ^ ` #.E E R U Y R R ] ] R R ! #.! R h R z ` R Y E ! R a a &.4 +.W.].S o a e [ ( ' 7.8.a ' r T D F | % 3 & %.E [ ! E } Y g ",
"= , % , x %.z a z z z r r a a t r w g z q U h s a U a Y z a a h z h ( a r h w r U s z r z U q a z s s r a a U s w % q ,.l $ s.4 % %.z y g z ` E N Y.$ q R s s h z h a h a r z a a z r R R s g a a z z z z R q U h a U U Y ( Y z a z z R a ' i h 0.T ' ] >.1.#.' ( T ( g g - = O % ( ` h r r h a a r h a a U ! U z w a U h U h z h Y U R a q r h h a a h s } 1.w 4 7 8 6 < *     q %.&.! a U R a a r b /.).@ k [ q Y k R U U U g E ] j /.8 # g [ s z z q { 4 a.cXcXhXa.# q %.U E R U E E w R z U E ! a U R r a r h Y T r U ,.( >.>.<.[ ^ ` R x g > , %   t D.#.h Y Y E U h U #.( U z Y h Y R Y U w a a r a a s h a Y U h R U E z h a z ! Y z ! [ Y E E E R z Y R Y Y E U Y U s z a T h R w z Y z U U ` U %.E U ! z a 4.Y b T.+.Q w 4 4 u d C | +.G.... + % ` #.U z T E E E ' ` E E ' E U z z ` U r ,.^ >.#.` ' Y h T / g e = % % . U 0.' R U ( E ( ^ ( %.( E E E Y ( ( 5.& i U T W s V W V W V Q N T Q T @.Z 2.2.~ _ @.3.=.s.F u w q q ( #.4.%.` ! ' z ] E ` E ! E h s U %.U Y E ! ` E ( #.#.&.z U { = 3 % - q a a ] ` %.] A.,.D.E q 3 & $ @ s r %.! E ] ! R U z ",
"= = O X x ( a s a h a U w a r h h z a z h h = s a U = a a a r a Y a z w a a w w z a z h R T U a a w s U a i y a a a w & 7.< o.i . ' Y a a U 6.u ..H # z ! a z a h a h a a r z h a r a r a U a z a a a R a ' U a a w Y z r Y z E U U s a Y i s a 8.h ( ] ' %.#.1.%.<.( U g = = % % ` E a r z h h U a z g a U E Y z ! r U z U a Y U r 3 T a a a a U h z h ! 6.4 F =.A.E.$.s.Y.n .   @ ] %.E r ! Y r W 1 p.<X1 ; %.z z a s U U h U E ^ D /.9 3 Y #.w z U z >.i j.cXCXAXp.$ u %.! ' ` ! z %.( z R ( U ] U r r U s a R a ( h z #.) ) ' [ ' ' ` <.' / e - O X t 6.#.t z z E ( U E Y a Y h z E h h U E ^ ` a h U h z U Y z U Y T ! ` R U ` g U Y h a Y ] U a s ' Y Y R R Y U E ! Y R z r a Y ' z E z h s U ` E ` R x E U ] E H `.p 3 1 3 q r r q > & 3 2 f.Y.<   3 7.` h z U ( E R ( ' ` ^ E ! Y ! ' ` t ,.V ( ( ` / ( / h h t > = = O o ` H.' E ! R E Y ` ( ` ( Y E ( T ( T %.! w 3 w 1 3 w 3 3 w q 1 q 3 1 1 3 w & 3 q $ % 1 $ # % q w q y %.` ^ 6.[ ,.%.%.E %.R z ` ` E E E Y Y T z E E ' U ] R %.E U ' K.9.#.,.4.%.E E >.,.%.,.%.] 0.,.6.A.6.4.6.} 4.` R Y Y U z g ",
"e , % % x E r z z h r a i a w r a z g a a h z a Y z h U Y s h a h a a a h g T y a a a z z z z a s r a a a k R w h z U T %.5 g.j # ` U a a 9.U 5 `.3 & ] a r U s s a a h h a r z a h U a a a r Y r r z Y a z z a z r i h h z U Y a h a z g T h a %.Y h #.( 1.6.,.%.$.( T r - > , % R %.a h a a a z z h h a h Y Y h Y E z R z w Y E Y r U r a Y w a a Y h ' b +.U.2.I.I.,.s.].'.G.# X & z 7.( x ' w ] @ B ].Q X ] ] U U z z g U U E !  .l.3 3 ( T h T x i <.p l.vXHXHXp.@ a ,.R Y ( ` h ] ` a ! h g Y ` ! a a r q R h ! a U T ^ [ ' >.' >.[ 1.` g q , # % e 9.%.s z E z Y Y Y E z Y ` z ' U a a Y E R z a U z z z Y U U U z Y R ( h R ] E Y Y R Y ( R z h E R U Y s Y U z E T ( z R U ' ' E a R ` z E R R R ! ` Y ] ' c m.p % w 3 &.] R a g ' %.! % # H l.. + R ] R E U E E ( E ' ` ( ` R R R %.E 3 [ ^ ( ( <.( ` R R z t = = = O   E 9.` ! } } ! z U ( ' ' ( ] R ` ( #.g } &.9.&.r a a U E Y ` z ! R ( ! &.&.9.( ` ! &.%.` %.E 4.A.( Y E %.` ` %.! ` %.%.] %.! Y @.( R ` Y ` h R Y z ` ' R U ' ! ` g ` ` U ` ( ` ! U ^ %.{ ` ` ] ` ] ' ] ! %.%.%.' ] ( ! ^ E W g ",
"w , % > l ` a a z a r 3 a r a a a a a a R a Y r E U ! r r h a g h h a z h g h h z r a a Y r a y r r a a z a h h a a a E ) 8 _.1 3 ' g h ( %.h g.S % h E r q a s Y r a y q Y r r a q w U a h s a a a s E a r a Y E a a w g a U ' r z h R U z h Y D.h ( ] ' <.] >.,.,.' h t , , % # g g y a r a z a z a h h U z R a z E ( E R U R ! U U a h a s h a U R r 6.d s.6.$.4.%.a h G M g.'.g   X t 8.%.( z z E 6 l.z.@ h 8.z a z U a U y E V P s.% 3 %.^ R Y h g >.i k.nXHXCXp.# a %.Y [ U ` E R ` a z E R a U h U R z U a W ( a Y ,.>.1.<.8.7.1.1.<.` x t = , # e %.5.E z g Y W U z U E R z R s ' ` z r h r U z z U z h z Y R z Y ' T ` ( Y Y R ( E a ` #.E Y a h ` a R U z R z R R ' Y ` h ( ] R U U U a ! E ' U T E Y &.w T.T.| * @ % % i %.( E w h ` %.r # Y.F   w 7.( E U E R E E R E Y ` E ` ! ' ! r 7.U >.` ` ( ] ` h t e = = , + X ` 9.w.Y E W ! R ] ` ] E ` E Y ' E #.U r U 6.' U h a a r w a q a a a W y E E Y & w z q q q U r U T ( ` ( E %.` ` ` [ ` ! %.` Y %.5.E 6.E ' ` Y U U E E ` Y %.R ` E E ` [ U E ` E E ` E [ ,.Y ! E E ' ! ( R ` %.` E ( ] R U Y a ",
"q > % t ' %.t U Y z h a r a a a r a a a R h U z z R U a h h a z g h z Y h a r a a w z q U r a h a a a r a e a q h r s <.T O.h.# a ( z U 6.e ~ s.@ a E a r 3 R a h z h z % z T h r a w a a a h a h U a U z Y r r Y z a y a a Y E r r w q h ] g h H.( W ' ) ( 7.6.1.>.,.Y i = % , % E ! 4 a r r z z r a a a z a Y Y U E z U ( z U U R z z U a Y z r i R a A.u 2.6.2.1.h.w q = 3 N L `.h.. . = ' ,.' q %.1 H :X2 % J.R Y U Y a Y a ,.h p.o.$ 3 ' ( h Y Y h >.i j.nXCXNXO.# a %.` E R ` ` T ` a E R h r U z a a s Y h a U a Y ,.) ,.<.[ >.,.<.#./ Y y e > O r 6.%.h E R z Y U Y R a s a R x U ! a R ( r E z a a z R h a U U a U Y ( T R E R z #.&.U #.] E T W ! U R r U s U T U ] R ( R R R E z U ' s E E ! E 6.Y T &.f.Y.p s p Q s . @ 3 #.>.& a E q 9.3 7 W.. # 7.' R R ! ! ` R ' ( ` Y ` R R T z i ,.h T ^ ` >.#.( Y g > % % , + X &.A.#.] R Y E U U %.` Y ' %.R [ ] ' ! ` U ] E ] R Y Y ( E E Y s h R ( T ' ,.h E U %.Y E ! ` ! E R ` ` ' U E &.! %.' ' %.4.&.' 4.U E %.h ' ` E U z E U U R E T ` E ` ` ^ 6.R Y ' E ( ( ` E ] U R U ' ' R ] ' ! ( E E ' E U Y z ",
"% , % l E %.y a a a y a h a a w r a r h a z a s Y z R Y r z w r a a U ( r i a a i y a a a h r r a a a a r a s R r z ! ,.w '.< q h z z ,.Y 4 l.4 y R U r r a 3 h a r z s U h h z h h r q a a a a w U h g q h Y w w r U a h h h E a w w w $ ( g g D.T ] T ,.@.1.9.>.6.<.h e = % > . r 6.r h w a z R s a z z h r z U z R ! Y ' R i R h r h h R z a U a a 3 ,.r Q %.1.V s.- e E z # q d Y.s.= X X g 6.} r y 6 ;XP   ^ [ U U R z a a ,.4 f.o.# t ,.x h U Y r >.p k.cXNXvXM o z ( E T E U R Y E U E z ` ( E w a U a g z a Y w a ^ ^ #.,.%.#.>.[ ] / / r > > X t 7.4.a E T Y Y h ( R ' E z s E ` ! ` %.a a z U a a a ! ' h R Y E U U U T Y U E z U E ! R E R R z Y ` E a z a h Y U R Y ! E #.E ` ] z U ! Y U Y ! } ' #.V W. .w k i r )  .u # . $ @ . U R E ] 5 T.4 X ' ' ( Y E E T U E E E ' ( U W ' w e %.T ( ` ' [ #./ Y x t = % > . o ` 0.U U 0.Y %.R z E ! ! E E R ! %.%.%.' ] z T ( E ( R z E E @.&.R h Y ] ' ` E ! E E z U z R R E ^ ` E ' E E R E R E [ Y %.' ' ' ] Y %.a a ` %.Y U R ` ( U Y a r E E ' E U E U z ' U E Y ' Y ' R ( E ' E %.8.,.E ` ( ' ( E z z ",
", , O q ( E w r U U y r q s R h r r a w w a r z ( U W g h r h i a i U h z q h r i r a a a a r a z a a a z a h z U h ' W D s.3 a ^ z ` %.5 G.A % U Y h a a a h a a r z & q a a a a a E U a h a r z z U E r q h q w U U a h a h r U Y U U a a h a %.E ' ] &.,.@.,.! ( %.Y a % % , X a ` e z z a r a a r h a U U a s U a z a z a r T a z a r a U a ` a a a Y r h H.S.Q 4 @   a R ! w 1 4 H Q.V . . q ' ) T 1 /.}.@ r 8.Y Y W R z l 6.8 W.D * r ] z z z V h [ j a.cXcXhX7 % Q ' U U E } R ( Y z a ! U Y h U h R h h U z U y t ( T >.] ,.7.' [ ' Y h e > , X > 6.,.t E E Y z U Y Y E Y #.T a ` ( r ! E h s ] U a a Y w w h U R E R R x ' r z z a E Y U ` Y R z z R ' z a y h ` r ( a a U &.T Y E ! a Y ! z s E z ! ! ..z.Z s r a ! &.g Z Q p 2.U.@ o #.s K.6 l.d # ,.6.` R ! ` ' ` E ` z z ` Y U E Y r ,.( ` ` >.>.,.` Y T j q , % . % ' 8.' R R E &.E ( U ! ' ` E &.' E ' %.Y ' ` U ` R E ' x R R R %.` ' U &.' ] E %.z ` ' E E E E %.U ] ! ! ^ E } ( #.( ( ' U ( ` %.' z %.U U ( ] U E E z ` E ` ' z a E E z E R ] R U ' %.U %.U T z s #.` H.;.` T ! R E T ( Y U h ",
"= % O % h U y q a a a a z i a z w q w a g h w a E z h h h r a g Y a U z a r w U a a y h r a r a a a z r U U a a h ( A.i Y.p w W E ` 6.d X.+.% e E a r z h w a r a r h h 3 #.a z Y R z a q a a a e h U Y z Y Y a w r w q z r z i z z w h z r s z %.Y ! #.@.( @.%.( ) ! h h > % : . t 6.r h Y z h U R z a U h z z z R z U U a U U ` a z U r Y r a a r z w ' w T H.F.$.i % . r &.z *.s 1 1 Z W.2.@ . o ! 5.= p.4Xd % &.Y a ` z ] a S.4 /.N # g %.z h z g w #.g k.iXiX:X. % ` E E E z ` R E %.z ! Y R ( Y z s z r h h h T i g Y / ] ' 1.7.,.' ' ' h e > = . e ,.7.g Y U E U Y E Y ` z R ] ! R ` R ' ' R h ( ' U R z ' ( a R s E h ( ' E ! ' z z z Y U U z ! U E E E a U U r E E %.U U x %.R R R U ! z z ` E z E ,.s .X4 r U i 3 4 s r r 4 u 4 X.w 3 ` V 9.5 _.8 , #.#.` x E R R E ' ` a U R z R R r r ,.h >.] / ` ' [ Y g Y e > > . % 4.D.R T U Y ( R E U R ` z U Y ] E ' U ` ` ` U ` } E ! U ` U ! ` 4.U %.a ' ( &.R ( U E R E ( ! ( ( E %.` E E Y ' R ( ] ( #.Y ` [ #.U Y ,.U E z ( r R 4.] ' %.4.R ` E U ' U E ` ! E E E ' ` E ( ! ' 6.@.; @ .   . ! ( ' { U h g ",
"r , o g ( a w r w a w r r a w r r a z U E Y a z R a U h h U a q z h a a y a a r a a a g U a U r a h R s a z w i U 7.V +.i.& w ) R S.l S Y.& 1 z z r a r h h a a a g U U a z h w a U r ` a Y s x a a a z Y ! U q q z x a U U Y R a z h h z r i a ' E %.( ( ' ,.,.] ,.( U a q = % O E 4.a w z a a a Y g w U a U a z z h U z z a z Y h ( ] s z a a w g r l ] g ) F.F.2.U $ . w 6.Y a ' ! q , < 3.Q.3   o [ 3 D (.t.  ] &.E R U s z 9.5 ).j % z 6.U a U U r ] p k.7XnXY.% X E a ! z Y R U %.U z R ' R E t T U Y z U U h ^ i g V T >.' 1.1.1.#.] ( g e = > + > 1.#.r U z ` E E ( z ( U E ] U E z ( ] ` E R Y Y Y Y h U U Y U U a U U U ' Y ( a ' R U R E z h #.Y E h a a U z ` U ] E Y ! %.h ( ] U ` E k W Y h 1.V '.N > i 3 a s k i 3 #.1 w ( %.1 3 R } #.0 ].$ t #.! #.T h h U R E ( w U z h r &.s q ] g / >.<.' #.V ` x g e % ,   # #.9.` ( ] U ` E ( E z ` #.] U 4.' ( z z ' U ` Y T ` E ! ' E ` ' ' %.` x Y 0.%.( ] ' ] ' E %.! %.' R ` ' ( ` E E E ` ' E ^ ` E R Y Y E ] { 4.%.! a E R U 7.E ] a E ' U E ' U ` E ' ^ E ` ( ( #.U F.a * W W.'.Y.9 ( ! ' ] ` h U ",
"3 X . = ( ( r w r r s E Y ( U 3 a a r z z a a Y U a z y a U a h a q h h g i U a q r h i a h r h a a a a i a a a ) ' p _.< & s E &.E N Y.< 1 k Y a h g a a z a a h r a a U s x a z E a E U a h h U w r 3 z Y ` ( R q U a U h Y W U r r a Y ` r q ` ` ( #.1.Q ,.,.%.7.] Y h q = = X z %.U z h h a U a E a w Y g U h r z h z a z ` a a z U E ' ` ' w R z z ^ Y j S.A.@.w &   @ &.z R i h ! Y - 5 B `._ . O a u k.|.* a I.U R z a a 4.0 '.p # E %.E t Y g y ' i p.6XrX+.. o : a Y Y a E U ' Y U Y z T h E z h h h Y U Y E e g Y T ] ' >.>.9.#.) ) a e - > X e 7.,.g U U a Y Y ' R Y x ( ` ` ` E U ` ( E ' E a Y h ` U ( z a Y Y r U ! ! Y E U E Y R Y U a E ' ` %.( ( h z Y a U ( z a R ` R ' z z ` U ' a U & 0.n d.& 4 E E w f w a r Y J.L.T R & s R 6.h d.d.$ Y [ U %.' y w 3 s %.U a a U %.z Y Y i ,.T [ ,.#.' #.^ Y Y t = , , . O ,.J.Y U E ( ( E ( T ' ( ` ] ` E ` %.Y R ` Y z h Y ' R Y ` ` ` ! ] Y z R U R ! ` %.,.R ` U E ` E %.` Y ` ` ` ` ( ( E ' Y ] E 8.%.a a ( ,.` Y ' 4.a ` } R z %.%.] ' ' ' E ` ` z E E ` ` ] ` E U ` Q n '.l.p p B Y.] ' U R ^ z a ",
"3 , X t ,.E q Y y 3 e h R R T U z U z s w U h z z h E a r z r z h h h q h h z U h h r r a r a r a z w h h a r W #.3 g.A % r Y 5.E 4 _.4 q g U a a a z h U U Y a a U a h z s z h a E a s z h a h U Y R U s R T U ] r U a z R E R h U U h U W a h [ [ ' ' ) ' %.,.%.6.%.E g q = % O a ( a E g ` w r a U s r z a s z h z U h a Y ' U w U W ` U R ` s s s a U E u J.L.9.i 3 % @ ' a a U z T 0.#.w 1 n +.Q.8 @ 4 t.b.7 . 0.E E ] ` R 9.2 ;XV % ( ] z h g r q ) j p.7XtXo.  . . q ] >.x R R ( R U ` ` s z Y a h a a h h Y U a t ^ Y #.1.,.1.<.#.( ^ h e ; > . = ,.6.h U Y a h U E R ` s Y R ( z Y E a Y h #.#.Y z R Y ! ! R U ( T U r g R Y z z ` s ` ! z h U R ' E E ] E U ( E U ' ' R E E ( %.E h U ! &.#.[ u s C f.. % % U E R ! #.U h ,.8 +.w u ( Y %.4 _.6 q T ' ` Y 6.^ a q q ] r a Y Y z ` ( T g 6.` ` >.,.<.>.^ a g t e , % . X ^ D.( V h U a R R ! ' E E E Y ` ` %.! a a Y %.a Y ! R U U U ! Y R #.s E R ' R R ! ` 4.! R Y ' E ' ( U E ` E E ' ` ( ' ' &.R 5.6.' ' h ] ` ` %.%.! E U a Y R %.%.` 4.%.` &.! [ ` U ] E ! ` E s #.V l./.r 3 & & p E %.E ( ' ` z ",
"e > X q ' E h h U W g h g z U R U a r a z h a z a s E U E r a U h q h w z s q a U a h g w a z r a R r a h g h a s Q s.% 3 E &.U 8 l.j % x E h a g h s h a a a a a a e w z U r a z h z a s U a Y s g z s U R ( Y W a U a x r E z a U a a h E z i ( <.` <.` ` ) ] <.$.` x a 3 % % o a ( y i T Y g a a a E a a z U z a a z h U z ' U z Y R R U E R Y R r 1 a ] 3 ] 6.S.,.3 % . ] T r z Y E &.K.@.t w C H _.u Q =.Q f   { D.Y #.h R U 7 [.c o a 6.E ( g T h R g a.0X7X_ # $   = R E E U E U Y ! E ( Y R R E h a z h x h U a g ^ / ' ` #.#.] ,.,.U g > > > O > ,.<.h l E ( a R Y E Y Y z W R ! U U z R a a ] %.R E U E U R Y ! R E z z U Y Y E Y z ( ` ' ` z ! R ! ` ] ( ( a r h W R E E ( U E %.` E E &.F.4.E s ~ '.9   * * z a a Y a 8.U P C = ( @.6.4 :.f.$ 3 =.E [ U %.A.,.! z &.( h z U z Y z 3 3 @.( >.#.>.>.>.( g e e > , = + # ' 9.>.^ T E ` E E z E R R E ! ( ` %.R E a a R 6.Y ' z Y R ! E U ] ` ' ` E E E ,.h Y ' %.4.Y U ] E R E ` E ' E ! ! R E ( ' Y E #.` ( E ] %.R Y ] %.U ' ` %.,.8.4.E ] %.E ' #.` %.` E ` ' } T r 5.B ).l.w $ h a 3 E ` ] ` ' ( z ",
"e > . g 6.Y h h a g W h h a W R z h U a U Y g a U h a a U z a T Y a h q y h 3 q r a h a a h i z y i z a U U } E a ;.% r w 9.R 4 W.B % r t U h a a h a h a h r a r s h r r a U z U z h a z a z a a a a z U R r z ] h z h U z z ! U z E h U 3 r r ( U ' ` @.%.6.8.H.1.$.E h 3 , , . h 6.U a a U T a z a a h h z z h h a a U g s E U h #.Y R r Y U z s z a q 0.s T @.S.1.w # @ Y R a h U z ! ' U E ] q i b n ) Q W u . % R % w 3 o 5 i.$Xn   3 7.U ^ h h r U s p.tX9Xd s q X e h E Y E s U z U ! ` Y ( ] T E h g a Y U E t i ( T ( #.' 1.] ,.1.T g y > , O = >.>.g ! s T R ! z ` E E R z Y Y Y E z Y Y h a h E E U h T E q ' E R Y s U R E z ( U R %.` z R E ( h U ] ' U R E Y ( U Y E E ] g U %.H.a s r & a ) S.t.x.+.& * a ] Y ` a q.4 (.< @ 6.U 3 H }.8 q x %.^ ' %.E 6.%.%.a #.` ( 0.h z 4.R & 3 T ( #.` ,.,.( Y Y t e - % , X X ' ,.h E g %.E ( ! ! x %.' ( R Y ` ] ] %.s s %.Y ( %.] U E E ' ! ` R ' ] ' U z 0.5.E U E ] ' ' ' ] E ( ] ` R ! R R R ' ` ' R ! 4.6.R W R %.z &.' ' [ ' U E E %.` E E E %.! R ! R E ' ` [ %.` Y z 3.$XW.d % a V 3 %.Y R ` ( ` z ",
"> > . a ] E r z ' g a i z s z ` R Y a a w t a s a ` a a R a a a g z W U r z Y h r w a a r h a U a y a h a ! r q U $ ; ; 0.x d T.c % = } V a h h r h U a h z h h z a a z U r z a r a h r q r a U R h U r z z s a z z a Y ! U r a Y a g y z U w h @.E ( ` ( &.%.>.,.#.] E g y % = # g 6.h Y a a U a a Y h a z h z a a z h a U h h ` U R a T W R R z Y U s 3 %.i W 1.#.T & % # h W a s Y U W Y W 3 *.Y e & w t.s. .i.$   & i s b N `.i.dXo.. @ ( E >.] U g ] h a.iX1Xw p Q g g x U s Y ` g z R z ( U T R Y U a Y a h T h a h ^ ( ( ( <.>.] %.<.T g e e > O , ' 8.Y a Y z Y Y Y a E ` E h z U U ( Y Y E ( U a ` ] z z ` %.] h ! ( R a h z U z Y U Y E 6.U h h ` h E U ,.E ] E z R Y ( U R %.( %.R & @ $ 4 Q W =.0.W '.t.1 ; a 6.` ' E 2.% s.7   . % +./.7 % h R E R [ 7.4.8.6.9.E R %.U R ` R U ,.E h 1.T ( #.>.<.>.( U x t e O %   X 9.K.' ` r ( z %.R z a E E %.! z ` ` ( ' ( s R E E Y ] r z R ,.` ! z ` ' Y ` T R E ] ' R R ` U Y Y ! R Y R E ] E ! %.T R E ` ] %.,.&.( #.5.] ! ' ' z E ' s R E ` ' ` ( R ` ' ( ' R ` ` ] ] E Y V L <Xl.5 q ,.U d %.%.( ` ' Y z ",
"= > X e %.Y w q a R z z E U h R U h Y q w a z U a g a a z a r U U a U z g a a g U a a s a a z Y h h U U E i & Y # % a &.U 7 Y.n $ y x Y a r a r z a a z h a Y h a a g a a r h z a a w a R z U a Y h a a a z a U ! E R h U T E U U q E E T U h s ( ^ ' %.( #.( ( ( >.@.T i = , = . t [ w a a z a r a h z h z a z z a a Y a s z Y ` ( E R ( R R U z z a ` 3 } a E ) ,.Q 4 # & h ` r t W E ` ! } ' T i i i 7 }.Y.| z.b s.s.+.S N 4 < 3 c.l.4 % s ( Y V a r ! p a.hX+Xq V Q h s ( E a z ( Y z s Y R Y Y z U U Y U a a E U a a U ( ( T / ' ` ) %.^ h e > > . O #.>.E a ` U U R Y z U z %.Y z Y Y R U T U U h T R z U q E R ,.E Y E T U s R ( a h Y E E %.' ! ` ' ` Y Y ' U ( ( g U Y E E z %.#.% # A j.}.).B & U [ ) F.d 4 q e Y ` ' %.#.W 8 O.c s.Y.:.6 & 3 ( #.U E E ' Y ' %.0.` Y s T a ` U U ` z a q.T / ^ #.6.>.#.( Y j e = , . % %.J.( R Y #.a T U z q ( U R ` R Y E ` ` U U U R ( E E Y ( Y E A.9.E T 6.,.4.R ` E ' ` E ( ` ' ! Y E ' E R E R ] Y U ` ` g U ] ' E D.E &.6.6.E z R ` ` &.` U U ` ! ` ` ! ` E E ( ' ` [ ` ` 4.D.( L <X:.# e ' / i @.` / ` / R h ",
"q > # y ' T U Y z U a ! a s e r z z ! R h r a z h r a a a U g U s h a h U a z a z z 3 a u a a a s s s ` W w ' q a 3 E 4 Q W.< % & z z s z a a a a s g z g a z h a a a U g h a ( Y a h U a Y U z z s z s z U h z ` Y R R U a Y h E a h z a U w & h Y ] ) ) #.) E ( @.( T g = % % % z E a a h U a a z a a z a a r U U a g U q a Y U ^ ( U ` ! T w r U z ` a E U r h 2._ 3 # . i Y z Y ! ' ! E E & o   % 4 s.}.f.-.D C d 4 * % ; 3 V q L /.5 & h &.^ U ` i 6.i j.0Xk.a V U h 3 E E E U E R E Y U U ! R U a Y z z Y a z Y a R E ` ] >.>.' <.) ] E h y ; % . > #.9.] g U U E ` U Y ( U U ! R Y U z ' Y h Y U z R T U U a U a R ( a Y E Y R W ` a a R ' E ^ z E ( ` a a z E E %.E T g U E #.1.% J [.eXZXNXz.& e > r d Q.n % @ % * * @ % a 9.f t.4Xt.d # - U h Y E ^ Y %.6.E ' ` %.' ' ` E q ' R #.( s = ' ` ' >.T ' #.#./ Y g t > , X X ] 8.( ( R ` ` E R h z U z h T ` &.! 6.%.E h ` W U R ] ' E R Y { w.#.R h ] 6.%.Y ' E ! ' ' U E ` ` [ ' ( R E ` #.' E ] ] Y ( U ` %.' 6.' ' %.6.` ` U E ` U ' ` ` ` E ` ' 5.' ` ' ] ` ' ' ( %.F._ P 3XD . g >.T w #.,.` ` T R h ",
"= , % Y %.V w z z Y a a z U R U a r a h Y h a r R ( U h z U h U h h z U z a z a z ! r R a R a k a s &.w 1 W b E U % q +.G.5 % w z R g h a g h h h q s z Y h g i a a z z E ( s z z ! w R a a U U U R z E U a Y Y U h U a Y Y U T z a Y Y U E w r h U ( ( ] 7.#.) ' %.! U r 3 % % % E %.r r a ! U a z a a a a a r h z z z R a a a a z U a z Y ! E z a z Y z k #.y U 9.,.t # X E ' h Y E V q % 3 & ~ l.].l.i.M F A u 4 q 3 z s %.r R Y B ].B @ s #.i h W T 6.v M.{.j.4 3 U V w T T ! V g Y h E E U z Y R s U h U z Y Y Y a a h Y ( >./ >.( #.' E a q = % . % 7.D.` U E ` U U R E T U U U U ` h U E ` U ( ] a s Y Y z h ' U ` R Y z r U E R ' ( a h E ` ` ` U ` E %.Y E a z E z ( T Y ' ,.4 L >XcXrX7XgXl.* 3 6.E 1 4 V u w w @ @ . O q &.s ~ :Xf & i ) ,.' 6.{ ( U T 5.] 4.] %.U E R %.z E ` x 6.w.& T ` ( ] ] #.#.] / t h g > > + % #.8.( ! Y ] ! %.a ' E h E Y R R &.} E ` R Y ! Y E h ' Y ` ` ( ! ' E ( ( ` ` %.` a W E R ' U z E ` ` ` [ ] ` ' R ! ! ( ! %.U E R U E %.Y E E U ' ] U E E E ] ! ( ` E E ` ` ' ! ( E ` ( ' ( R &.T p.3Xj . j <.>.4 ' <.` ( ( R h ",
"= = O Y 6.y a r r r U r a r U z a h U h h h a a s a z z h z r a Y h z z E a a a U E z a a s i U ! &.r 5 T V $.@.n W T @.@ % w W z a a a z w a h h h a z g h z e s x U a z h a r E r a a U z U a z z a a U E a z a Y U e Y R U R z U ( z h U ! h U V %.#.( ( ' #.#.( E h Y w = , X E %.w w h z U a a a z z z U z g z s h Y U a a r a U a g a a E R a a z W w 4.w U 1.H.g = . y z a 3   # 1 w +.h.g.D 8 1 q 3 w 3 q a U s z q 1 q h T G ).B $ = ,.] q & %.W L  XV.f.e $ s d y h E z z ! ` Y Y z Y a h h U h a a U a U ! a h z Y Y ` ' ] ,.Y ^ E ` a q > o % ] ,.g s h R U E R ' ' R h R U E E U s E R q R a z U R z E R Y Y T Y ` a E E T ! %.a a Y R z ,.a U z U ' R g U ^ E ( T ] ,.% L ,XNXlXkXwXW.F 1 q &.{ { w > 3 w w 1 l.A   % E ' $ /.7 + = g r = w ' ( 6.` Y ' ( %.%.4.Y s %.' R Y E a w.w ` ' #.] >.<.( ] Y e j e = > X = 4.7.W ' ' z %.` ] ! E R R E ! Y &.] ! R z U R R ' R Y U ! h ` U R R T a ] ` U ] ` z E %.E E R R E E ' ' ` ` ' ! R R ` R %.&.] R %.%.[ ` R %.` ] ] ,.[ Y z Y E E ` R E %.E ` ' ' ( ( E ` [ z 8.C m.+X8 # ` <.!.i ] ` ` R Y x h ",
"- % X a D.E r a z a s h a z r a U a r 3 a g z h h ` w R R Y Y a a E h z z h s r z Y a a h T Y Y R 1 n n ) ] $.=.) _ 3 # > a h U s h k z U U h g h a z a z h h h a a h z z h h z a h W z a h Y R r a z a w a h ` z U E ! Y ( Y z Y a Y T R Y W a V h ] ( ] %.%.) %.] T Y h w = % = R R a r a ( R g a h h U z h h z h h a a Y R a z z z a z T Y U Y ( z U & % #.q T 1.7.T 4     % # # X.2.i.A S p * % % w ` ! ] ) w w q w t Y g g ] U S ].F 3 i E &.a a $.p J n.,X-.g = p 4 a } E U R Y z ! ` Y R ! Y a h Y a a U ' E r r h h E E / ( ' ( ' ] #.^ a w > o % #.9.z r z U z R ( U ( Y R T U Y Y U Y E %.' U ! R R U z ! E ' ] a Y E U U Y Y z E %.R z R U E Y U ` z R E ' ! T r h ,.] 3 P wX}.p.i...L C 1 r i %.' T @.Y z s r w P L . o r H.$ F /.* .   . +   @ % T L.%.( ] R %.' %.' ] U Y R Y ' ` g 8.T x h T 1.1.,.' Y g > > > . % 1.6.' E ' s a ' h R ( E E E ' Y z ] R ' U s ' s ] [ R U ' a a Y E ` ( E ( ! ' E ' z R ` ( ' z Y Y ( E ' R ( ! ( E ' ' E U E ' ` ( #.' ( U ` R E z Y %.%.` %.U ^ ` ] E ` E ! ` ' E ` Y ^ ( h @.c $X/.5 # ,.( !.p ' >.1.>.( Y U ",
"- : . a ,.E Y h h z a g a s a r a R Y z w a a a a Y U h z a h h r a z U a g a T a z a z U T E e @ b F Q V _ Q ) E 3 = , r i i h h U z r h a a U U a a s t z a h a U r g z Y s h R a k Y Y t a R h a r z E z z U a U a t U Y Y E E h q a z r E a ( U E / T ] E #.#.E U h a = , % = ] ,.( r w z U U a a a z z g z h a s z a a z s a h R E r a r z a q U ( U T #.w #.2.$.@.@.w & @ +.].W...p r # 3 u a Y s a r R a z r r i T V h e U V F ).p % R #.%.U ` ] b b.{.eXQ w t 3 p r s U U U h Y a Y ` E Y U Y h U h a E h Y z e a ( %.,.>.[ <.,.` ] ( T z e > O > 5.#.E a h z Y h z h ( U a z ! Y U R U ! E %.z z T Y ` a s z z ` U U Y ( Y R E U R ( ` ! U Y R ` z z x ! h z ] @.U ( { @ O.3Xl.G p 3 q 1 # 3 3 W h ! q . + $ & % +.|.=.< o d ) ' w g.].Y.Y.U.t.C @   X h 8.( 6.z U %.` R R h U ' r Y ! q ( x ` / ` ` ` ` ` Y Y q % > . % >.6.[ a ! Y ` R ] #.a U ] a ( ` ` E ] [ } z R a ` %.! E U ( #.U R ` ( Y E ' U 5.A.&.E U E ( ] ' ` ` %.' E R ` ! ' E ` ` ' ` [ ! ' [ ] %.' ' ' R 6.Y E ` ` } ` Y ] ` ' ! [ ` R ] #.( ,.^ T h V _ 6Xa.# & R 7.L.g ,.,.#.' ' ^ T ",
", , . a L.E z y z r r a g a a h a a z h a w a a a Y R E g r a U a Y h R R h a Y a R U R R q & : u C S T s T V V = w w a t r r y r a Y r r a a a a a h Y y i h U l a h z Y z z z Y a z U U s s } ` R h a U U U g 1 ` U U ( R a ^ w a h U 3 r %.i a ( #.( ( E ( E ' ' T U i > % o 3 R 4.E R U a a z h a l z U s U a R z a h z g U z a T U U z h r z a a a U ( ! > ( 6.8.P.F.' u w i F 6 5 1 w s Y w r a s w z R R ^ z V r a g ^ h >.h :.c.5 q ` ] ` R #.) -.;X[.0Xi.3 r 1 w z Y z U Y Y s z z a Y E E s E U s g ` ( Y E a r E ] #.#.<.,.>.( Y z a e > > O = ,.,.E a h h h R #.R T U R h R Y z Y Y E %.%.%.' h g z R R U U Y ( z h z R E U a R ] ! z @.z a E z ( R Y ` z E ( %.6.4 e.wX$XB 1 % - g a %.' h i w * * L (.l.X.S  .V p w 3 ! r 5.3 d D :.:.i.l.`.f.b . @ a 9.8.E a ` ! ` ( w Y ] R U 6.a ` Y / R / Y ^ ( ' V U e > , . % ,.7.%.Y #.a h ( W E E U ' Y z Y E } E ! ` a E U E ! s i r $ i q t q 3 U ` l ' Y ' 8.{ &.E ` ] ( } ` %.%.%.` ! ( Y ` ( { ` Y &.R ] &.,.' 4.` ! ' ! ` E ' } ' %.` #.,.( { ` [ E #.' ` E ^ ` Y g :.eXd.$ % h D.^.h ] %.#.] ( ( T ",
"- % X h %.r E h h Y h h r r a q a r z U h z h s U z a Y ^ h a U s Y U U U h r Y Y E a q q . q n V Q Q p h g # e 1 a a w z h h U a R ` Y Y R Y E R Y R R T h ( ( ' h & & & & % & 1 & % & & % * & 3 r z z z U h ( ' T ] Y U E U ] U R 3 h Y s Y i ] ( ' #.>.) ! &.&.! E E r q % o q 5.` a U h Y z a z z a a z U U z a a h z z w R q q ,.a z h z z R U a W ` ] $ b <.X.) 6.S.%.R z > & q 3 a w a r W T h h s W U Y U Y h g t g h r ' < d.p.# & R E %.a T Z h.).W.p.B q & U a ;.z Y z E z U x h E Y ( ` R E R R U z U Y ' a h E #.#.>.' ' ` ( Y a r e > > O > 6.] U ( Y U Y ! z E Y W Y a Y ' s E h R Y R ` R ( R s ! U U Y Y Y ` E T z E Y E Y x ` ` T R E E E U ' z E z U %.,.@ p.6X0X+.6 o 4 >.@.Y W s q q 4 J [.;X:.p 5 1 & & r 3 U %.Y t ^ 3 # = p 1 d %.!.+.d   o E 0.%.z ` ' #.` U ! 6.s a E # ' h ` ` / ` ` ( ^ / g e q , X X <.1.%.] ( R z Y ` R z ! R ! %.E ' ' E E &.%.Y > q U a s 3 1 = = % $ @ y 4.E R R E ( ' ` E ( #.` ' ! %.` ' ` ` E ( ! ( ' ` %.` &.( ` ' z ` %.` ' %.' ' ` ` ` U ( 4.` ' { ` ' ! { E ] E z t Y 4 Y.hXL & e 7.8.~.j %.) %.] E ( U ",
", =   x 8.U h h h a a q h q w a a w 3 a i a z a R Y z r s R s U a r R Y U h h r 3 = X . @ 4 V W h h h = & & q 3 a y r a h E h i w a a x a t g h U U z z z z z #.I.,.W U i p p 6 d 4 u i u r & $ q & Y ` } ' E T ( ' #.,.&.U z ' Y R r a s Y ' s ' U #.] T @.( ' E U h U a = % X = ( E U a h h h z a U h h z z z x z U a Y U z a a a z a s ' ' ! a Y z #.{ f H s.h.( T Q ) @.s w * r w ; r a z s h a h Y U U U z U U Y U r a U h 6.0 (.A o . o % R ` z s L ..T w 4 = 3 U U z U h U z U U Y U z R E ` z r z U h U E R ( U r R %.%.` ] / ,.#.U z e e , , X % ( ,.` U ( Y r ( ! R ' U ( U h R U E z z z ] R T ' Y Y ( z R U h R z ' z z ! Y R ! ! ( ` E U ` a R z W h U T ( A.$ t.0XNXl.p 1 # s 0.8.s # o . c x.>X9XJ w % 3 r T ] Y R R E ! a i #.' ' 6.k 4 W 8.K.) 1   % 4.E ( U z z ' #.a ] %.6.,.g E U Y ^ ` ] ` ' ` ' g t q = . X %.7.E %.%.Y U z U ( z z R Y @.Y ` R ! ( %.U i a 4 s n ;.n ;.V n i @ @ o q w a r s z E z ` ( ] #.' ` ` ' ] ] #.U E R ` %.` ! ( ( ! z ,.( ' ( E E R s U s Y k E R E E ] %.] %.' T T ! ` ` z ( Q m.gXA # e H.9.,.s #.@.#.#./ T Y ",
"> > X a 6.z U U E a ( a h a Y a i a a h U a r a T E z a a q r w 3 w s h 3 # % $ 3 3 r i 3 V Z U s g 4 = # 3 w w w r a T ( ( &   .   . .   .   . o   .   o % o o X # $ 4 i i r i V s 3 3 i u 1 % o % & = % . $   # % # @ w } U U z z q q r a ] U E s ( %.>.' [ ) #.] h V q = = . e #.` z a U a a h h a h h a h U a a r a U a a E z z U ( U R R 6.E U W 0.d a.f.1.6.' $.X.] T 1 r q . q r R ` [ } E ( R h h U Y a z R s R R z h %.s H k.f * & @   % ' ! T C p 4 a a 3 z U z U Y U U h U h E Y h Y Y U ` Y r R r a a U 4.a Y U E &.' ' ' ,.Z ( Y t e q > X X ,.7.a ` [ ' ! h z ( W ` h a Y E Y R ] ! U ( Y U z h a E U R ( h R U T U z R Y R Y U ! ,.` U %.` r ! Y ` U U 6.w P 0XCX>XF % q U 0.6.; # f O.n.@XtXcX/.9 $ = U U r U q g E ] Y ` h a z a ] w i V U #.S.s o   s 0.` 4.Y R t ,.a z %.] 6.z 7.Y ( ` #.{ ,.E U h a t > = o X ' %.E ' 6.' ' E ' z z E E ! ' ,.E ! E E # 3 3 q e * w w 7 H d b n H $ . . 3 w &.&.W } 3 q E ' %.E ` ' R ' #.' ` E ! U 6.` ! ] ` ] ] R U R ( ( R Y U s s U Y a z E U q z %.%.' h a E %.#.] ! A >X1XB o t K.6.( d &.' ( T ` T U ",
"> , . a 6.U R ( a h h U a r i h g h g h a a U h z E z U z r a a r g y % 3 i 4 5 s 8.J.[ 3 E ! h h 3 # & w T s & i U W ,.q # q 5 1 < 5 3 5 1 * f #   # w h ) h.h.3.2.h T ,.U E ' E z ! E ' r % 3 w i i 3 V $ @ 8 6 @ $ o o } t z E ' E W U U ] U #.T ] #.,.,.] ,.' ' h g y > = X q %.` g a z h a r h U h z g Y U T r h a s a a a E E U ( U R r Y %.z E z D f.=.) A.$.@.' ( h & a w r 3 3 % ; 3 3 3 U ] &.%.E ! Y R ` ( Y R x z l 6 +.X.U | -...@   T ! &.3 % q D.#.U g h g Y Y z Y h z a z E a h U U U Y a Y Y h a a z r z U ] 4.,.>.' >.` V ^ h e > > X % #.%.^ a ` ` E R Y h r U ] z R Y U h E E ! R R ` z E a z U Y h Y T ( E E z U E z Y Y ] ' z ( ( E U z a h U 1.h F 6XmX0XH 6 1 U 9.s * 0 a.{.0XvXcXtXqXy.2 # z h R R h T a z E E z ' #.' ( Y z w U Q ^ <.1.i @ . R &.%.Y %.E &.U a a q %.a { Y ] #.,.<.] ( ] ( h q > > . % #.7.z ) E E U g ( U Y s z E E %.' @.&.i B v O.l.d.s.Q..XfXfXY.G.:X|.x.e.2 + . q &.%.a W r r E ! z s U ` U ! ( #.U T ` ` R R } E E E ' U ` ,.,.@.` h T U ` a q o X % w w w E U a w T &.6.H.Q I MX$Xm   z H.9.2.q ,.,.#.( ^ Y z ",
", > X t ] a h R ( r z h U h y r g i g h a g e w r a s w } V ( T h # 1 W C T %.1.1.S.9.6.x q = % o & r a h U z E T ( / . 5 L l.W.W.f.l./.].].}./.].W.l.:.G H D | _ V ! Y U V W a h a 1 a z r w # 3 Y ( T S._.dXeXgXjX|.m o ` a E E a a r u a R u Y ( #.#.<.` @.' ^ #./ U 3 & , . t 1.( z q z a E r z h h z a h Y E z a R U z s z z z a a s s z Y U a *.t -.=.S.&.A.D.,.<.U p 3 % 3 & o . * @ * % # @ @ & a E E Y E ' U z h z & * V s.( / 1.A.b 1   % ' &.1 w q ! g U ' ( ( Y U U h h z a U z T z U U U h U U h Y z Y Y r a U %.%.] ( ( h h g h e > > , X - #.#.z R a h R z E E { a z U Y Y ! E R U E E R U U ` U h h Y h U Y a U Y Y a h E z x ^ ( ' g Y E Y Y ( a ( ) c |.bXbXl.6 & o q . 2 t.$XcXZXcX7X%X7X<XP % # a h h Y a U ` h E Y U Y %.' 4.&.] * ) / i e ! $.f . % 0.' h R %.&.E ' R Y E r #.h E ( ( ] ' ` ( ( z t > > . = ,.7.U 6.7.` ,.U ( ( h Y E U E >.' E E 8 d.zXVXlXqX<X`.l.a.L +.Y.T.fX{.Z.r.J *   1 s T 3 w w h s 3 w q r Y % z Y y q ` ,.{ ` ] &.4.,.( #.%.D.7.! w r E 9.P.I.] h Q U ) w $ & % w q h 0.0.A.b z.HX{.F   % U a w p &.%.] #.` E U ",
"% > . R 9.z h ] E E a h r h z a r a t W z a a r z U T E &.w 3 q $ p 2.L.F.U.A.1.1._ &.9.Y t % @ & r a w h h z ` 6.3 $ +.:.N C B 6 8 8 8 p 8 7 8 4 % $ % 1 & % : # e i w h E ( ` ! w a a a r 1 ; % % r & # - 3 v qXBX9X-.: >.R Y ' ` Y ` g U %.r j / ] ` ( >.( ,.' ] ( g q , % . # ] R z h z h U a h z z U a h a z z a E R x s a z z a a a s R Y ` Y %.f Q $.@.&.0.8.F.,.@.V N s p a d w r p w 1 % @ @ .   @ . # & = % %   . & ~ 2.2.V <.=.] X.6     r K.%.r E 0.Y h U E ^ [ h z R U h z U z Y U E R R U Y U s Y ' a %.a a E U ` ,.#.%.#.^ h h g e > > . X ' 6.U U ` R E E U z E ( Y g z U U E E R E T T ( E R ] r U R W h Y a U Y U E U ] Y ` R #.,.^ R Y ^ Y R T %.< z.cXbX1X8 % o   4 t.<XcXZXcXwX,XtXgX0X|.J 3 @ $ a Y #.z U ` a g ( U Y ' ' %.R ' & ( 1.$.V a =.@.%   r A.E r R a ] 6.z %.%.h ] r Y ` ] ( ^ E ^ ^ r e > ,   % 4.,.Y #.7.( ( E ` E } R ' ' &.%.@.T %.4 N i.p.+.L H F C Z S C V c a.n.B. XZ.v.J * . w g 5 3 i w 1 w 3 @ q @ # % % . 3 Y z r w z %.R h h r 3 3 & # @ a ' ! W r w w i h w u 1 @ @ .   % q % J wXLX%Xy..     . 2 a.#.,.<.` >.( T ",
"= > O ` H.E a ^ ,.U r Y a a h h i a g E E E ! R r & 3 V q @ 6 ) 1.8.0.6.F.1.0.1.#.1.%.k w % = y r U 1 w h W ] Q & n ].A u % # = 3 3 3 = 1 & 3 3 q 3 3 3 3 r r a a a h V ' ' #.W a s T @.W z s w 3 a i r 3 i r - p kXdXs.# 5.w a E x a U h E 6.a ( ] ' ] ,.8.#.] ,.] ( g q = - O t #.E r a a Y z z z g a z a r U a U a a U z z a a z a r w a z s U a #.1 _ %.%.6.,.A.A.1.@.#._ b b n ! X.Q  .~ W S j w * # @ % * # % # % i ~ =.+.1.( ,.T %.! &.Q &   @ w ! r % q a z T h h ( ` a E z z z z z U ^ z Y z U z a k U R s Y a r r Y ! ' #.6.D.6.` h g e > > . , T #.U U E R Y T U a U Y z Y U R U U U ( z Y R U z z ( U z z Y h E Y R z z U z Y ` ! E U 7.E a h Y T h @.a I 0XcXNXO.s 3 7 y.;XNXBXvXhXgXjXvX4Xh.!.].~ E & % a h h Y r U g r E R U z ' ` R U 1 T h ,.h s s X.p   . % ( } Y Y a U ' E R w %.h z E ( ( T Y U U h = e > . - ,.>.E ( %.[ ` ' E E } &.U q ] 6.1.6.%.a 1 3 s j 5 3 w q w 3 y i w v u.|.eXhX@X{.b.0 . # # & & % # 1 $ . & 1 1 3 & . @ @   .     .   .   . @ # . @ . . o @ @ @ @ @ o 5 F 7 A J 4 f f 7 c e.<XHXAXLX1Xk.f.z.B.{.,X#.[ ,.' ] ( R ",
"= > . ^ 7.Y Y s E #.W E ] U a h r w 3 g q = = >   & & h T 3 w ( D.1.1.2.0.,.1.1.) ! r q 3 h a q w Y h s ' ) y f H y.e.4 % a > h a h g s h s s Y i U Y W z U ` ! P.9.^ ' W W a i r R b E ( a 4 s V h 6.,./ ) ' 1.< g.lX+.* 7.Y Y a z Y a U z 8.T ( / ] >.#.#.) ^ %.] ( h 3 = % = ( ,.U r r a a U U a E a a z a U z a l w s s a z a U R r r s U ! w $ < A 2.#.@.2.) <.K.1.S.6.&.=.*.! 6.%.X.,.0.1.J.G.$.Q S Q n ~ Z Q *.s.S.L.L.@.1.$.) @.%.] T @.U *     . . . @ i h h h h U ( ( U h U z U z z ' U E z U E E U R ( E E z E U z ` ^ >.' ,.<.' h U t q > X = ,.,.{ a Y E Y U Y Y ! Y Y E a E Y E U Y U h U Y U ( h U z Y z z U U g z z z z a ! E ] ( ( 4.` U #.E U 0.9 [.bXcXhXN d s.<XNXZXeX6XjXgX}.T.d.b #.2.}.S E h 3 # q E Y T h %.a R ` ` z E ` z ! & 7.1.@.$.T V &.$.1 .   O x a r w 6.y s 0.r E h U ( ( ( Y Y U E Y e ; > . % >.%.U ] ( ` ^ ( ` U @.%     . % = a a 4.5.R a 3 r ! ( T &.%.D.E u m b.kXKXJXNXwX1X{.j.e.7 5 0 < w N n A S ~ F F F M A M J M J J e.t.r.y.j.j.z.b.b.M.(.[.@X#X;X#X>X>X<X<X9X1X6X9XqXqXgXgXMXHXAXNXSXLXLXGXJXLXHXAX' ] ' { ` ' Y ",
"= , X U ,.Y z R Y R W & % & % # . X . . X . * % & o r T V ! #.$.$.0.F.D.D.<.D.,.%.s & % w a Y i i Y W #.R @ c  X#X3Xc % 1 e ( z U U h ! h z z U z U z W a z r x ` ] ) ] Q ' E W E W T s W h R ! V h W E T h g D.h H BXG.% %.l g U z z w h U &.U E V ] ] <.#.] ' #.#.E g e = % = ( L.U ( r a z Y h Y h U a r a r z z U z a a a z a h w a a q # $ i W k.}.2.1.$.8.1.<.8.A.S.F.6.2.&.*.Q 0.] @.S.A.&.1.0.0.0.I.=.J.0.=.8.S.S.D.S.1.,.&.@.! =.#.1.) ) T u $ # 1 r . y E a E z U Y ` R Y U U Y a U g z s U U a Y z E Y U ! h z Y U R ` ` ` [ ^ ( Y Y r q , . % ,.4.E Y U E Y U ` z h E U E E h U U U z z ` s Y h E U ! R z h h z Y z U U U R U a R ! ( ^ R Y U R a ,.;.e.jXbXcXNX`.).cXbXvXeXwXwXm.H ~ Q 8 s ` ~ 4Xn g / @   % a E z ] z s U U ( Y ' E z &.u H.I.9.L.A.5.' _ ) 1     o = h ( E ] z %.3 ] ^ ' ,.' >.( <.] ( a > : > . = 8.,.V E ] ` U E x [ u F J 7 & .     . o 3 q 1 3 & a a w w q @ $ v k.jXPXUXKXZXcXhXeXwX6X/./.b.l.O.c.z.[. .-.(.z.(.>X6X0XeXeXhXcXMXvXMXNXNXZXZXCXAXNXCXZXZXGXZXZXZXZXZXZXZXGXHXGXZXZXNXNXbXhXcXnXcXcXMXMXcXcXNXeX' ] [ [ ( ( ( ",
"> , # z 0.U s h ( T = . w -   . ; % % o % & q w % q w i h i W 8.6.0.J.8.6.8.' E & 1 3 i Y h s z z } ` 3 1 +.;XgX3X$XP o o % $ % @   . O o . . % . @ # & % # # # o o = = 3 & 3 % & % 3 # 3 q w 3 e 3 $ 3 3 r % y ..:.LXW.# 4.z a h z i r w h 1.U Y Y ( / ( 1.( ) #.) U g 3 = % X ! 9.R z Y a a R a q q U h a a r a a h z a r r w h R q w p R.Y.W._.'./.g.Z T E ! T h ! ( T ( ( / U T U ! T *.%.6.$.%.' ) #.&.' ! ' ] ,.&.#.6.1.6.( ) ( V ` U / U ' 6.U.4.S.}.fXw . y a h h U Y h Y W h z z E E Y z a r s z E U r ` z E a h ] T ( ` ] #.] >.U h h t q =   , ( #.E E E U U z ' E z U ` Y %.( R Y z Y U E ` U a E a U Y E ( Y h U W z ! a U U a U ( T E E Y Y U a 9.4 ).vXtXhXNXNXNXGXMX<X/.a.J 9 u 6 w U ) E n /.p r & u .   o g W ] E Y a r R z ( x ^ [ s.2.Y Y S.1.S.%.$.X.B w .       q a Y E P.Y 7.` T ( [ ] ( [ ] ^ a 3 = > . % <.{ Y ( / ' T Y a 1.A fXFXdX|.x.t.I 2 $ * * $ # @ @ @ # @ $ M m.1XjXPXPXPXKXHXCXhXhXvXMXvXvXNXBXvXNXNXCXkXjXbXNXNXcXjXvXcXhXvXMXMXNXNXNXZXBXGXGXGXHXGXGXJXGXBXGXNXZXGXZXZXGXNXBXZXZXZXBXVXMXBXBXBXBXGXZXZXAXNXNX' #.#.! ( Y U ",
"q > X a ( q r a 8.q C ! 3 = e = q q 3 % w y q & 3 & 3 w 3 h h a T &.] %.! i h E s g a s a i U ! ' a * A l.}.[.1XjXKX`.& 3 e 1 ; 3 = 3 = = & 3 & % o % @ o * . . X . . X # % @ # @ # . . .   .   % & - # # # # - K [.rX).% 6.U z h i h y a a ] i T ( >.] ` ,.7.#.#.#.U t 3 % % % R %.U z ! U s R ' a w h Y h h h z a r Y r r r a T r % % 1 i 4 p C V S d p y w w w q w w r i j g w q w a 3 ; 1 a 1 % # % # 3 3 w w 3 & & & $ = 3 r = # & % - % = 1 & % 1 > 4 d & .   w s h U z U h Y U z E U U h E U U a h ( Y a z z E r z R z E ] ' %.` T U a a r 3 > . e 8.,.Y U z U U Y E E E ` a R U Y ` T ( E U E #.] a a R z z Y h ` h g R h Y z U E a a R ( Y R ( E Y r ,.0 '.4X4X.XY.G.s...A B B 8 1 1 % a ' #.#.#.t X.n % @ 1 u #   % h w E z a z U h T U 7.t `.V ( X.) 1.,.0.$.@.@.b #   %   o q ! ! ` g 7.h ,.( <.7.] ( <./ h t > , o % J.q.h ' ^ E ' R a A.d +./.;XkXFXVXgX0X<X#X|.[. X(.B.(. X|.>XwXBXJXVXBXFXlXqX$X(.x./.dXMXVXMXMXjXVXFXFXBXVXjXMXlXMXlXMXlXMXlXlXdXqX4X:X}.'.'.'.W.z.T.l.l.l.T.W./._.'.].].z.T.l.T.l.l.].:X<X:XXX/./.XX}.2X}.`./.T.%.] ' ' ( ! Y ",
", q . T %.r a i D.r V i T ( T T s u w y g e a q q & & & 3 3 U h a a i 3 & & & a i y a a w g U ] i 6 W././.).}.'.).W.d...p.U.g.f.d.g.h.d.g.G.h.g.g.g.d.d.g.g.g.Y.g.Y.h.g.W.Y.Y.T.Y.Y.Y.l.g.Y.g.W.+X+X+X-X+X-X-X:X>X9XgXi.< 7.` s U y r r w U ,.g U ( ,.( / T ( 1.#.E Y a q % % = ' 6.z s ` Y U z Y z z y a a a i z h a ( z a r a ` s % 1 $ % 3 = 3 3 1 & # % 4 % - - 3 a & r w & % 1 % & % % & $ # % # # # % > % % % % # & 1 w 1 . # # = & # # # * % @ : % & & # $ t % h a h Y h U z E U x U E E z ! s a & r z t U Y w q r U E ( ` E ] ] y i q a g 3 = . - 7.q.^ E E U U E z a T U U Y z Y T U R ` { ( ] 4.E z ,.z U a U h Y h Y z E z E ^ E a U z U R E ` z a 9.w 6 w W ] %.9.9.0.V & < $ w Y h E 9.6.J.A.W s G.% % & u d % . 3 w R ` a U T Y R z 9.S l.w V <.j @.H.s.,.1.$.$.4 # . . & U R Y &.Y 9.h ,.` <.,.@.^ ( ^ E t q % . % 9.#.E ` ( U ` E i %.w d _ +.O.t.d.g.l.W.W._././.'.'.+X-X<X<X<X-XT.i.O.+.-...D A A F D D X.O.d.p.p.g.f.l.k.a.d.p.t.t.i.d.i.o.H | n n p p p V N 8 d p b S n 9 d b b b Z Q N N 8 j d w 6 6 d N b N C B p 6 u d V n %.] #.] ' R T ",
"> = o a #.a h z ' W i ! ^ V h z > % % r & 5 r q a i h s R K.E R W U R s U Y U e Y q i a a z %.Q Q S b 9 9 b 7 p p b d 7 p 7 8 9 9 8 N b 0 7 7 6 8 9 N n 9 9 N N 9 b B 7 9 N C 9 c 9 N n n v N B 9 c B S B G G c B 9 6 & % 6.Y Y h w w r w h ,.U ( ` ] ] ^ #.x ' #.` ! a q = % % ] %.a r z a E a U h ` W r s R Y w a a a z a k U ` %.] ( ,.@.&.] #.w.0.' ` &.%.' ) %.6.8.@.%.z z w s a z ' 1.8.6.6.] &.&.6.D.A.%.) %.*.&.9.4.] #.] ] #.>.,.6.] ,.[ 7.@.` Y U R ] ] 6.` E ` h R z h Y Y E R ^ g z T ' Y ; q & % ; g ` E Y ` Y ^ ( ( ( ] ` Y a %.Y t e e X e F.D.{ R R Y h R h a ' a z U E z Y R z U E E ( ` ` E E E ` E z ] z z E w z R z z z Y E ' U z T ( E a 8.q _ &.J.9.,.' ] 6.W % i ( ! ( ' E ] A.#.&.$.1 `.C q i i E 3 - r z z ' a a a h Y h ' F :.% j #./ ) 2.H.D.1.T $.Z a & . X ` %.U K.t 1.^ ] #.,.7.6.' ( Y g t > : . % ,.,.a [ ' ' ' ( E a ^ 3 - 3 % & & i p 9 7 b b d j G S B c X.C b V p s W T i 4 3 f u q 3 4 < 4 s p b n V p b p p p i 6 p 6 6 6 & 3 3 3 w 1 3 q ; q 3 & % 3 w w r a a s ! U r q 3 q 3 q q r a s g p w f r s 3 y & ' #.6.&.' ! Y ",
"= = X U E r i ! r U ,.r e w r 3 & w z ! W r a r a z w a z Y U s ! %.E W a w z & q 3 a R w 3 9.s 1 % & 1 & & & w q = = % % % & % 1 & 3 % * & % % % & $ % & & % & % % 1 & % $ % & % & $ * % % 1 % - % & f $ 1 1 $ 1 3 & 3 q [ Y a U a 3 r w h <.h R ` / ` ' >.#.' %.] Y i = % % # E 6.a a r U r s g h U W h a a T U a U z %.w a r W k ;.1 q 3 q & % 3 w w & & w 3 ; f 3 3 w w A.A.! E a w q & q 1 q w & 3 & w z r r 3 w q w w w w 3 r 3 g q w a q w z a a q a a z = 3 g h U z z Y h k Y U R z R w ' =.&.#.R T &.4.,.!.9.R 6.` ^ ( ! ` ' #.%.E Y h t i t . = q.,.^ E ( T E U a Y U U R Y ( U Y z R Y Y U E R ! Y ! Y Y Y E ` Y a E E z U R Y Y h h ` ` E Y U z s R @.) <.7.0.,.<.D.S.! # i z E R E *.E %.1.1.2.T 7 `.q 3 q z 5.  . q q E g E T Y h E h O.L X w ,.h h 8.9.,.8.9.<.( d 1 . o s R W 7.q #.h T ( ( ,.&.%.' z h y > = . , 7.8.h ` ` ' ^ E ` ' y R ! ! ] E r & 1 1 & $ # * % $ % $ 3 $ e r w p s T @.` E &.` } ] T E U 1 f r e a s R T s a r w q f s p a } %.6.6.6.#.@.] %.4.' ! } } ' ] ` %.#.%.%.] ' ` >.0.#.^ #.>.] ,.6.6.,.%.w.6.6.U 3 &.` #.@.] ' U ",
"= > X E ,.h a Y U w & h i h h 3 & e r & $ % ; w a U r z ( z z R Y R Y z E a & a s s R w r 3 U %.U s s a i i h h h a i a z w i a a z k g r a a s a h k s V s W h i T W g E h z s U h a T i V s r r w w i s i w i i w a h T ] Y U z g a r w w 6.h Y ' <.' ^ / >.7.] @.T z 3 ; % X R Y k 3 w w h r z w a h r h r s U r U a ! r r 3 & k U w = t r 1 3 o $ r q 1 w w r a t a w a a z z z t E ! a z a a z a h a z U ` T E U Y U Y R E Y U U T ` ! ! &.z Y Y } s z Y R U a E T z s U R z U Y s ( #.] V ! W E @.6.@.A.' z ] s a U V ^ ` ( E &.5.` ( z h a g g . e %.@.U ! R U T ( E w w a U z E U E W E R U W Y Y U ' ' ` ( ( ` E ( r z E a z E a Y W Y U E ` Y R a R a U W 1.,.1.1.@.%.6.n $ @ z ` &.' #.R &.9.` #.Q & g.4 h s R ` a . q g ( i Y a U i 5.s W.S $ j 1.g T 1.2.1.,.<.F.1.Q 6   : a h q 6.h ^ Y Y U E E &.] ^ E a t , > . % ,.,.V ! E ] 9.' U ] g w.S.&.=.9.F.0.] U Y Y &.&.] &.] T U ( ( ( ] ! &.] %.1.4.0.&.9.&.! H.6.s E z %.@.T ' ' 0.w.` a u z Y U a r a n r w q r r a s a r s a U z s a r a a a r r i 8.7.U a Y z z ( ( ` E U ` J.h Y ] ` ' E ` ! R ",
"= >   h 8.z r U Y ! W w i a r w s r k s a w w z z Y r U E Y z E a z Y R a ! a a R ( h z q g a 1 3 & % # & w q q = 3 3 3 w w w q 3 w w 1 q q w q r a 1 1 q & w r w i w 3 3 3 = & w & ; e w 1 r & & 3 3 3 w & q q w q i s U ` ! h a r w 3 t g ,.g g Y T Y ( ^ ' ` #.%.! E r > : q 9.6.w # @ * U k s i r a & & w & i a W q h n U z ` r } Y E &.a a ;.y #.Y %.;.! ! r 3 $ . @ % a q r ` i ( ! W & w @ % a z y & % t w U U i 3 h U U W h T Y U Y Y ( s s z R Y U s Y U z U a Y h R z r q ! &.=.%.6.&.( ! Y Y ' U s a s T U a h g ^ ^ ` ` [ ` ] ( T h y a a . r ,.( h U Y U z R ] E U a r z z U E h E R Y R ! ' ` @.' @.' ' 4.,.7.%.' R s U E z z U U U E ` E z U E R @.T X.X.' <.%.X.$.u % 1 a R 6.] ] %.E ' 9.%.! u ..X.w h U a `   e 3 T g h r E w A.d /.u = h 6.V 4 9.L.8.<.<.8.9.6.F # 3 s ( Y %.g ( g T ( E E E E ( U h e > , . % 6.4.s z E %.E %.' ' Y ! &.&.H.A.0.P.H.` ( a E h r a W Y E ] A.5.U a U a Y ` %.6.8.! ! ] %.J.9.w.` R T R ` 6.A.0.' ` } R ` ` E ] E @.] Y E Y [ E R ! ! ' R ` %.` ` R ] ` ! E E U E 7.7.D.9.,.6.%.8.P.P.P.J.,.%.#.6.6.] ' ( R E ",
"> >   h &.a r q z U h h a h a q q ! s y r r r w a Y q r a w z U U E z %.] U Y h U ( z w z a r r U a i w w a r h a h a a a r r a s a s a z a i r a a U a h h s h s a h h r y h i a z ! z E z R U U g h s R z r h g h U ( ^ T z h i a q & q - 6.V h g h g R / <.' ! ] R z e > ; R !.~.E.I.A.' r 3 r Y R 0.%.@.&.R h ' 0.1.' ` ;.s U *.F.&.*.@.&.=.=.0.H.A.0.@.0.&.*.Y Y @.! Y =.%.K.R.A.8.1.A.P.I.8.w.=.&.{ !.7.[ R t q 3 @   @ % % r g s y e a R R z a R z a z z U h a Y 3 % s u s %.8.7.D.=.%.( a E U E &.W U z ! R E w g h U ` E Y %.` ( E z a r a a # r 1.( h Y z R z E R E E h U h U Y R Y Y R ` E ' @.' E r q 3 % % % 3 h ( ` %.E z h U U R r E R ` h Y Y ] U V X.,.8.( ) 1.Q w $   s H.[ R E ` 4.' ! A.V a 8 ].# r U U E # e g V g U i r U &.H W.1 = T [ ( 4 2.F.S.K.>.8.1.1.=.& @ q U Y ' r ' x ^ ` E E ( ] ( Y a q > , . % ,.6.` ' ' ' ! U R E ) } z a 1 & a T &.4.E E R ) ' ! Y #.( E #.0.6.! E Y W E %.w.6.@.' ' ' ] Y ] ] ] ! ( ` E %.` ` %.E E E ! ' } ! ' %.} %.a Y R Y E R Y ! ` ' ` ! E E ` ^ } ` ^ ( Y ' %.Y Y E E ( ' 0.8.&.( ] %.&.6.6.#.R E Y ",
"e e . l %.h a r a a Y a a g y a a w i U t a a w r U h e U r z a s U R ( %.q h E i R ,.a q z Y w h a a q w a i r h g r a r a i q w w e a a a r a s a U a s z a a a s y z T r g a 3 r a w a a U V r s z Y ' ' ` ' %.0.%.E ( Y Y E a 3 t r & # ,.z E U / U ' ` ' <.%.` U T w = , 3 ] 9.' ' @.~.!.^.4.s @.} z ~ &.K.! W ' u a i r U W Y ] U U a a s U s U ! W ' F.&.W ! ` 0.E *.&.E ' @.U ! ] ( %.&.%.@.` *.%.&.H.L.K.I.H.7.R % q @ .   & & 2 w &   . % 3 a r q a & h ( ' A.8.%.4.8.! ! T Y Y W Y T h a U %.R R R W U Y ( g z R ` E ^ T <.( ( ' / Y r a t . r 6.' R E R U z E h x R U U z z R R ( E W 4.%.a q &     $ 1 .     . o . . e { 7.E U z Y Y ( z ( ^ Y h <.Z h #.) 1.$.$.2.W Q c @   g H.%.( ' ` ` %.E #.V 5 W.X.q U R E 3 r h U z h r r %.( g.d.& q #.,.8.6 2.#.) @.( 2.>.8.Q & # q r Y %.g ] h T h Y Y Y T Y h x e , >   & 7.,.T E T ( E E s @.E % .   .     . w ! 6.} ` E E ( z ( R ( ( ! ,.{ 4.( ( ' ( ' ( ^ Y ` #.] ` } E ! E E Y R ' ! ' ` %.R E Y E E R ` %.] ' U R R ` ! R z Y E E R E Y ( ' E } E E E ` Y ' Y Y Y R h z ` ( E ` E ] ,.>.#.] ] E h ",
"= > . Y %.a h r a h Y z a z i s T h r r i t w g w a U h U r a a z g a ` ( a w a h ] r a a w h U 3 q r a r y a r a g w w r r g a r r a a a a a a a h r a r z z a z h g i a q h r a r g q a h r r w q T W U q # . o r ] ' ` Y E ^ a a g r r q %.h ' U #.U ^ ' ( >.E ` E k w , % % #.( & & q r H.K.6.! E ' @.D.!.P.E R A.E @.T U h a a R U U Y U V z Y a r r a a a R 7.! @.E a s s z a q z U z w a s z ] z Y s z ! ! %.D.!.P.P.6.` w % U U T i 4     . @ r w W ! E ] 8.A.&.6.0.%.s U U s z a U z T a a R h E Y Y h h U U U h U ( ` ] ] ] ( ^ / Y h w r t . w ,.( z E ! ( E E a Y z h z z g T E R ` ,.r o 5 Q S 2.3.3...X.D W  .Z #       t ` ] U U U z E E Y h ^ ] T V F.S.2.%.$.1.*.Q F f . X q >.D.( R Y ` &.%.@.a F ].X > R a r z ( U E Y E a 0.V ].L $ g ] ( 9.# _ 1.1.) ,.7._ ` T 3 # h h z ' r %.r E Y U a U ( ( ` V e > , X % 6.7.h ^ ' E ( z ,.E # 6 o.p.d.H 1     r @.8.E ' E ` [ E R ! ' U Y ( E ( U R h R ` T R Y E ) ^ ! Y E R E ! ! ' ( R ' E ' ` ` E } Y ! E ` ! ` E #.T E Y E W E ! E R E Y E ! R ! } ' E U Y E Y Y ( z U Y E ( ^ { #.%.( ( #.{ U Y ",
", > X E &.w a r h r a a U a r y t i y r a s a r a a Y a a r w r U U ! z %.` U z E U ( a r i 3 h a q q w r q a 3 a h r h r a i a a a w r q a a r h a z w w a a r a w h E a a y i r r h y w a h h j Y ] e #     .   + % &.>.U ' U U h a i i a #.i Y E ' ( / ( ` ' ] ] R U > = = O Y a % & & z z U a r k z r a a ,.E Y ' a s z h z U a a s z Y h h z E s a h k a a a s a a z a w z h a q a s Y z U r a Y z z k Y E s E R 4.9.H.6.U 0.9.8.2.%.6.` R w.k f 6.J.J.A.] E E U U s U R Y U R U Y R h W a U z U R U Y U Y Y r a r a R ! E ` #.,.,.( ] h t > l > . t 9.( a ! E ( z Y ` z h U U h z l z ' ] 3 S W...V w < 5 1 2 1 % % 4 p S s.j . + O z 6.! z z E E z ] ' 8.V / 0.$.7.<.1.%.! _ Z l....   % Y A.6.E ] ' 5.9.a f T.4 o q r E r a %.U R U a ,.j }.Z # g #.x 8.3 i 1.A.1.@.#.1.#.U % 3 r r U ' 3 #.r U Y ( Y g h x g h e > %   % 1.&.z U R ] E Q R < a.>X/.c./.;X/.m . . = 4.[ ! Y R U E T R R E E ` Y Y U E E Y z V U z r U h z a a a 3 q e a a R ' ! R T R R E E U Y R Y ` ` %.` ! z U ' R W W ( Y E ( R } W ! R ' ' ` ! a y k U R R ] Q ^ ) ,.#.` ] %.{ ( U ",
"% = . g 6.r q a h z w z U z a r r r r 3 a h a r a r E E a w a r a E a E z E Y ( Y ' q w y g w q 3 3 r a i r r r i h r r h y i t w a a r r z a r a h a x q e a r a a w R a a a h w r a g r r a t g 0.X 1 F +.C Z  .p   % 8.( U h a r z t w q ] h Y E ] #.( ^ #.[ ' ] ] h y q = - ' ! & & q a z z q a Y E r U w E z a ! k a w a a s s a a a s h U U k h a U W z a s U U k a Y s r s U Y Y R Y U U U U a s U Y Y E Y ! E &.! &.] 8.V #.8.&.U i w r t ~ 4.' s s z U a Y Y z U U R U Y a E z Y U R h a s U U U z U E ' %.E a Y ` ] ) ' <.@.1.,.( Y h e a > o x H.( U h E ( U r a U Y h z a z h ` 6.f s.l.4 # & 1 w a s a U h z a & % w +.s.d   o a 6.` g g z z ' ( 8.h / S.8.D.2.2.0.@.) ) W.1XY.6 . o a 7.9.E 0.h [ ` & i.D   a K.' z } U z R R a 4.8 +XN $ z ^ ^ #.V w ,.1.E.8.,.8.#.i @ a h a y ! q ( h U U ! Y h h R V r e q >   % &.6.W Y E ` Y %.s x.gXz.S S | W.wX(.v   o z ` Y } W E E Y h U U ! R ( ( U ] E ^ U ^ U z q h T E ! ! ] R ' E W a ; R T ( ] &.&.%.' ' ' 9.&.%.%.%.%.6.%.&.6.&.@.q q & X e w r a U Y k r k a r y e % q l ! E ( U E @.#.%.' ' E Y ",
"& ;   z %.h Y a a U g h z U a h a q U a a i h h a a U Y U g z E U E U h z R a Y ( g s h h a r w a 3 r a r r w r y w g a a 3 i y w r r r r w z a z a a z Y a a r a a a a r E r a i a a a a h r a U T n +Xk.C 3 3 C W.1.. x [ Y h h y r i y 4 #.h h ` ' R ` / >.` ! ! E Y q > = > ' %.a a U a r Y q q z z a a a a s a s z Y a h a a a z a h a a R } E W k R ( R R ' } E w.E ( #.` R ( } &.} ' ] E [ [ ! [ ' %.%.w.#.&.] 8.P.A.%.&.&.&.! ! T ! %.R ! ! ! =.E U x ` U ! a r h U z Y U z z E Y Y U z U z ` z U E R E U ] ( z Y ( E ) ( ] ) ] ,.,.T T t k > . t 9.U z U h U U R h h a z z h a z 6.f _.:.5 % % s ( U h r w w q a R #.' q % N G.=.  @ r #.E g U ^ ^ h 1.' r 8.2.2.9.A.S.! F.V p F i.-X_ .   = ^ 7.' ^ g J.3 G T.  . [ ' z R ` s z U s %.4 (.c - z ' V ' >.3 ( V $.L.F.1.,.3 # i Y Y h Y e ^ g T U E ( U Y U h g 3 > >   X ,.7.T R U ( x 0.D wX,Xi.< # O 9 /.gXj.5 . i >.U s ( E Y U ` E Y ( [ R ( ( ( E Y E ( U U i & h ' ' ! ` ! %.8.&.=.' U r s q i W z Y Y a U W z R Y s z U E ' A.0.@.! u u d n u 1 i ! p W *.$.~ f 1 z U k U a ( ( ( ] [ #.#.( ( U ",
"> = o x &.r U h w q r w r a a a h r a q a t r y q a s a h a a h z g ! a r a U 1 U h g h a h r a w r r r r y w w 4 = w i a r i a z r q r s r r a s a w a Y s a a h r h a a a g a r a z a a z z a ( U P ;XB X % q & 8 +Xw = 7.x U h g r r a r @.U j Y <.#.` #.[ <.] ( Y a y = % % %.%.a w q q a Y 1 z q r R s q r w z z r a a h U a a r q s a T R E Y Y 1 $ @ X . : @ @ $ % @ # % $ & 3 r u 1 = $ % & & & $ % q $ q q r . q q & w % # w r f % @ * q $ . s #.U s a R T ` Y U U z Y z h R Y E h z Y z a U a U z Y Y U ' ] r h E ' #.#.( ' ) ,.( >.U x a > . t J.^ ` h E U s a g U a a g Y a ` U +.g.5 & y V h a h z Y E E Y h w = r { U - < Y.X.. % q >.z g h t E K.1.4 1.D.D.F.%.8.] 0.f % & u N '.Y.3   . R >.%.q ,.a 3 '.7   w 6.h %.R T E Y t ' N W.4 , Y ] U ( ,.h @.E h A.7.D.#.% . h U ( U Y q ` i Y ^ ( ( ` ( U T g q > , O # ] ,.Y ( h V r 4.i.hX(.9 . y E - -.>X|.p . = ,.` Y U R R a U h z U Y E ( h E R U W ] #.( g & - &.U $ o O % % 3 q w d w # @ X # & $ @ 2 % % % & % * . @ # & 1 w 4 1 2 f 1 @ % w f r & 1 3 1 q r 3 3 f w w w r < 4 #.[ #.>.' ( U ",
"= , . E 8.z a E U i U h a r h w h h E U z a w r = a h a a s a r g h a z ` U z a y U r a E r 3 q a 3 3 y g y g r w 3 r q y 3 h h w h e z U z w r q w h q w a z r h a a a w a z a a h a U w Y R h ' j g.(.N % r 8.w 9 c.A , >.h Y V r y r q a ,.r Y #.` <.>.#.,.,.] T Y h t = , # %.8.s a q T U Y r R q @ r z z a a a a a a a h h z Y a a z z R E Y ' A.q @   o . o . . o .   . . . . .     .   .                   . +     .   . . .   . . o   # 9 $   & 5.R U a E Y Y R U r a a E a z E U a U Y z h a U U z ( Y R ] E r z ! ' ] ] ] ] ] ,.( ` U i g , . y D.Y ( z R U h h a z h a h h h 4.0 /.b & g 4.%.] ! ' U Y Y g z Y Y R z 3 s [ = 5 Y.D . X R ,.a ` E h F.,.Y <.8.9.$.8.#.] z & o Y & 4 9 :.'.S   X = ^ #.U @.& +.T.  = D.z a R Y h U g R G l.< - ( R h U ,.( 7.Y a 1.1.] ( % # T a r z E r ^ g h U / #.' h T E g e > , o X T ,.U ( / Y = 7.p.cX/.<   g _ x A |.#XB # q %.U ( U Y U U ' Y E ' U E ` a E %.h E ( g i $ 4 % % * @ @ @ @ .         . . @   .     @ @ @ . . @ # @ @ @ @ @ @ @ o + . @   . @ @ * @ @ * * $ & % @ @ . . @ * * # $ ,.] <.] %.' U ",
"= % . Y 8.U i a g a z a h z a a a a h h Y a h i w z r h g U U a w Y U q ^ z U z Y h U h U a r q a g i i h a i a y r w 3 = r g U a h r h w a a a a r z R U h r a r a q a h a w a h r a a z r z a <.8 c.c.d @ z Y w 9 /.o.% >.g Y z a w w r a %.W ' >.] ] ( [ ' #.&.] ^ g w = % % r z & z @ % w z a s E a R z a a z a a z Y h h q R z a w a w z a s R J...m.M.m.b.m.z.b.f.t.T.k.l.l.l.l.z.b.k.y.t.t.O.O.t.O.i.i.p.i.i.p.p.d.k.z.z.z.z.z.z.(.b./.:X@X X1 # #.( U T U ` Y Y ( ` Y U z z z z ! z E z z z h z z U U z z h U g U ` %.%.$.9.8.,.#.^ ' U e g , . g 8.U ( Y E U U z a a h z a z ( u t.j.1 . q z U E %.#.#.E ( %.R U z E ^ T = w ] e b '.8 X # &.{ ^ R Y ' 6.i 2.@.1.,.1.I.%.h & # U ] w $ u B `.Y.3   % T ( P.& 6 /.& O %.] a h R U s z z L l.- - ! h t g ( 9.J.T w ,.,.#.g # q ( ( R a a r ' R U U Y ' ] ( E E z e > > + = >.8.z ( #.' g &.i.hXm.= + h Y [ 9 @X<XA $ = ] z E Y ( s a E R U U ( E E E U h ' ^ U W N r @ 3 D c.(.B.m.M.b.M.b.b.N.b.b.b.b.b.M.b.b.b.M.M.M.M.M.M.b.M.b.M.(.b.z.x.b.M.M.M. XM.z.M.b.M.M.M.M.N.M.b.M.M.M.(.B. X{.,.,.,.#.{ ` Y ",
"= % O U D.Y h E g h h q t h a a 3 3 a r U a h w r r U a a a h E z z U Y a U r a ! z E r E h ( r q r q r a g a r a w w r w r h i a a h w a q a w w a a w h z a a a a a r a s a r a a a a z a r t >.5 ).l.4 # ( ` U p /.P = 7.t h h Y z a w a ,.z Y E ( / [ ,.7.] 4.' E E r q % % z 6.q g i % Y 6.Y Y = a r w a z Y s y a Y z a a a a R h a Y w R k z ) G.jXhXrXtXrXtXhXtXeXhXwXtXeXeXrXcXhXhXtXeXeXrXhXrXrXhXiXrXcXcXhXvXcXvXvXbXeXeXcXhXrXhXNXHXCXtX4 * ( z z E z R R U U Y R Y U z s a R U h z U U U h h U a R a E Y r i T ( %.) ] 7.%.,.@.U ^ e g e   t D.E E E R R Y z z z a a a s 3 b X.=.E * +     O & w h w.6.Y Y ! z U z R E a q %.w :.d.# . a ,.g y Y ' %.3 W $.A.&.D.!.&.8 # X i w ] R # 1 9 +.`.3.+ . 3 #.W 1 p.c . z 9.z Y Y R r T g P k.$ & ^ U h h T ,.] ( 3 ,.) >.a # ! %.h z h T w ` h Y Y ^ [ ( h Y x h 3 , %   X ( D.U U ^ ^ g #.o.hX/.-   ^ Y %.b $X1XF $ = #./ T ( ^ E r ` ( R E E E ] z W U @.V C D E = A l.wX1X4X3X9XdXfXgXkXkXjXjXgXlXjXvXkXjXkXjXhXgXjXgXgXjXgXgXkXdXkXkXkXkXgXjXkXjXjXkXjXkXgXjXkXgXgXkXjXjXjXkXjXkXgXkXlX%.#.,.` ( ( Y ",
"= % X ( ,.h h g h a h q a z h h z g w y g h a r & h h a a r q r U z Y a a z r q Y h R r h y U a a a t i w a h a a r a a r a y r h r r r r q w q = w r q r w a a a a h r a a z a w g a a a h a x 1.N @Xh.5 = E ( W N (.P > 7.^ h a q z r r u ,.U E V ` #.5.( ,.,.&.6.R a r > = = 6.' a h ( w 3 U 3 a q ( w w r z E E a h h h h r a a z z a ` R a Y E ' s.eXrXtXtXjXcXhXeXgXhXrXhXhXcXrXrXvXbXvXtXrXrXeXeXrXgXgXeXeXeXeXeXgXjXhXhXhXgXvXhXhXgX0XiXhX1X$ % ^ s h g s a z Y R U U Y h U U h z Y U a z a E h z h z h E U U a a Y %.@.' #.#.,.] ( T h t g t X y 7.a E T Y ] Y E U U a Y h T p X.2.' =.#.E q % 1 . . . & @.6.` 4.[ ] ` U E ! U a x d '.0 o 3 ,.U h h >.,.w N T G.6.9.P.0.W # % U Y 1 U %.r & w j _.R.q   . %.% L i.o O 6.E U z ( g ' a :.g.# w ` E h x h U w Y 3 ' %.#.% # ] ] h a Y U w ^ a Y h Y ] T T R T g e = % . % ` 1.( h U E h ,.L hX(.-   Y T { C ;X9XF # = ( h U E ` a a h E z ! ` E ` ( Y ( a w a i p -.[.9Xc.i.Z b b c c B A F F F H F D D D F D D D D H F S D D ~ A B D H F S S D F F A D A S D F A B S D A A F F F D D D L #.%.%.' ` ^ U ",
"> % O a >.W a U g a U a h a i w a a g h g i h s r a a h a w i y U a z U U z h U a a r w r a U a i y a i a z z a w q a a a a g a a a r a r a h w q a h a h q h a g h a a z a a a a s h a z a r E ) G tXp.$ = [ [ Q 9 ).P , ,.R h z a h a r r &.s ^ ( #.` #.' ) 1.%.%.R z r > % % ,.9.w w g g a # & & a %.% z a a z E Y q w a U a w a z ` z Y a z h ! [ Y.eXtXhXbXZXMX3X+X/./.-XqXdXjXGXJXLXBXGXKXJXLXFXlXqX'.'.fXFXPXPXGXPXPXPXUXKXUXJXVXqXFXGXrXcX%X* # } W z z h z Y E z z Y a z a z z z z U U h g U E U U s E z Y U a h z %.1.#.,.7.1.1.,.^ h t g t   g 6.z Y E R h z z ( g a U 6.4 H Y.=.*.T a & % 1 i S =.# . % #.4.U a g %.%.h Y ( w 6.3 T.L % - ,.( U Y U H.z Q d S.] 0.L.#.V w # a ( ( q w &.&.& = 4  .`.2.o % 1 u ].< # E ] E Y ( Y 6.a e.g.# = ' U Y h U T g T w J.,.' % X ] #.s Y g a q ' h ( Y T / / V h g r e > , X X ` 8.^ Y h h r ,.F hX(.# . ( T %.n #X1XF @ = >.R x ' ( h U a %.T R ! E E ( u 3 s b 8 J x.wX+XO.c 4 # @ % @ $ & $ $ % 1 1 1 1 1 1 & w 1 3 1 3 w 1 < & $ % % % & 1 3 & $ 1 1 % & 1 1 & & 1 5 % 1 & 1 & & 1 3 w 1 q ] %.[ ] ' E g ",
"q > X ( %.i y a i a g h r i r y a i i w a s y g h a a h a z q 3 h E R U Y h r z h ! R E r a E a g a a a U h a h r a a a a a a a r r r U a z Y h h U h a Y a z a a h h r U z z r y r a a z E U ` ( H 0X:.# 3 ] ( j j ].:.- 5.g Y a e a a w h #.h Y ( ( <.>.,.#.7.4.@.E s r q > . h ( ` Y i w h % q r s D.E a U U i a z T r 3 a g r r a a ` ! s z h ! ] s.9X0XcXhXL A c B p u 4 1 6 B J O.L L O.d.h.i.G B 9 8 8 6 c :.h.P i.Y._.W.+...+.F 9 p qXbXtX|.< X ] U x U U U Y U T h ' R U h z h g z z U a z h h R E E z z T a a a U ` #.] ) %.$.,.,.( U t e e X g ,.h U E ' R Y E E z h ] ] 8 }.-X[ @.V w 3 3 & % $ d U.1 . & & . X $ $ y 8.E U z T 6.o.l.$ . h 7.h U T E ' s ~ h.#.%.9.s.A & & = ] E ] a * E %.r & 3 5 G.s.i e u z.A . h 6.` ` ^ t ( 6 r.y.# = >.E T Y U ^ g U w 9.<.(   e 4.E ` ' ] U w ' h ^ [ ,.( >.' R V h t q , + . T ,.Y U %.z q 8...eX(.$ . h h ,.i #X9XF @ = ` E T Y ` R ( h ^ ! z E %.) U W ) ..K b.@XhXm.F = - 3 [ 6.,.,.&.&.#.#.#.%.&.#.] %.#.[ &.%.%.#.%.6.%.] %.%.] %.@.#.@.%.X.#.] ] ] *.#.@.,.%.#.#.%.&.' ' %.@.%.%.5.` ! #.%.] #.( E U ",
"> > X t #.g s z Y a a a r z a a r q a a a a r 3 g a g z h h T z w a z h Y E h w y U Y a a w a E h a h a h s h z a r a a a s g h h h 3 a r a z a h z a a w h Y U a a a r h z h a a a a h r U a #.z S kXo.$ g %.' W p (.P > ,.R U z z a e r i #.r / ^ T ] 8.#.1.7.0.` E z e > & @ w # i r w 3 a r U h w T R w z z q w g E E a 1 U a s h a R u a a z } %.g.eX0XtXi.& $ > < & = a 1 3 u 8 5 & 3 1 & 1 1 1 1 u q 3 r i s 4 w 4 < $ 1 q 1 1 1 w u i.eXhX$X$   ' h z U Y U R E Y Y U E R s U U z z z s z a Y z z Y z Y U U U a w R #.%./ ' ` ( ( ' ( h e > >   R 7.z E T ' s s T ^ a Y %.i h._.@.S.=.W r : @ & w W : n Y.@ . S d.d     . a 8.( R w q.7 -X8 . t ' z z { a ' Y S g.U U ,.+.t.e % z ' ( ! ' ! 1 r %.] 4 & 5 D g.W ) s.y.@ 3 ] i = # . r T.).c.@ # ( ( U U h U t T r 9.1.e % U ,.( h U ^ U a %.z ^ x [ >.( ` { h t e - , X X { ,.U ( ,.E z ` L rX).3   E g #.4 @X9XF . & ' x %.E Y z ( E Y E ( ' E U u X.+.x.{.tXgXf.7 = & z T V g h h h s a s s a U h a s h h h i s z a z a a r a s a a r z a a a a h w a h s h h h a a W a a s i a a W f 5.( ' ' ( ` U h ",
"= > X ^ 7.h r h a a a a r r a r g a r a i a a y h a h i z z h h E z a U a U h h E h Y h a a w r h h g h h g h h a a U z a h z a h h a a z a a z a a h a a s a U a a a z r a h z a h i h s a i ] a p.wXS # h ( ` V c ).o.% 4.U U Y E y r r w #.R ^ ' ' ` 8.A.1.#.8.` E z a > ; a ] q z w a h y h h z ` a i a z %.r r a h R ( w r s w a a ! s z z h E %.T.6X6X;Xw o U %.a Y r z U h E ( a U a r 4.P.` a r 6.! ( %.#.R a z E ` ' ( U ` @.k 0.u P 6XrX X# X [ U z h z U h Y U h U U Y U a U z a Y U a a Y z z U U z ' ! z q a ( ' #.] ] <.' ) Y h t e > % . l A.z E ' E R ] E U E ^ #.B ].q V ] 1.s.p a r u w w ' q ..l.XX/.+.Y./.b   . ` ' ! q 5.6 '.9 # e &.h a U Y a ' b s.0.@.6.X.D ; a ! Y %.%.] &.0.( q s 8.l & & 3 @.0.Y.[.8 . # # i 8 Q =.G L <X& X t >.( U T i g x 3 ) ` q . ( ` ^ ( h T g a #.i ` ' ( ] <.{ <./ g = = , . - ` ,.U T >.^ u T S rX(.<   >.U 6.8 +X6XJ . = %.a T h Y g z Y ^ l U z # $ d n i.7XCXCXt.1 & 1 a ] ( ( ( #.#.( &.@.&.#.1.,.8.6.&.&.8.8.#.w.w.@.0.,.%.#.&.%.1.[ %.9.[ %.%.#.,.,.,.%.,.,.J.%.! 4.%.( ,.%.%.] @.w.R 6.' ` ( E E U h ",
"= e + g ] a z a a g a r a a a w q r q r a r r w a U g r a r a z q w g R Y Y R h ' i E Y h ` E z h a h z a z U q r w a a z V z z a h z a a w q a h r a z h h g a z w q r h Y i r h r a g z a Y ,.6 }.<XN X Y ^ ' C 9 /.O.> 5.z h z E 4 = t w >.z Y ` T ` ( ,.7.9.,.#.E a q ; > % J.T % o > t % % 3 = q a ! r q ! U w q a h h ` a a 1 r a U s a ! U U R G.#X%X(.$ . U T a U w 3 q 1 & q a a ! h s ( U T 3 U z w h ! h s w g a a g z r w 1 0.d t.wXtX{.1 o ' x z a a U a U R a z U h z z h Y a Y h h z U z R z z a ( ! z a z E Y ^ ' ` <.' >.( / g e , % . x 9.h ( ' E R ( z E h 8.i -Xj 3 t d p 8 1 q > f 3 & %.z w F H p % 1 i.d.% $ U { ` r ^ 6 ].4 @ r ,.Y U a a w ` d L 0.$.9.$.A # Y &.s E Y { 9.` 6.#.E ] ( 0.w w T @.s.T.t.o.) p p i w 3 & 4 _.L   - [ R h ( E h R e <.' X   g ` E ^ E ` U = E r ) ( ,.` ,.,.{ / g e > , . % >.>.U W ^ ,.U [ F eX(.3   %./ 1.5 |.9XF . 3 7.a ( U z h U ( E s ! q z H T...kXbXeX>Xc X & . & & % @ # # q $ % % o % % 3 3 & 3 r q w 1 q q & w w w & w w 1 r & 3 w & w u w i q u 3 w a 1 # % # * 1 3 % & o w = e #.` ^ ^ E U g ",
"= , . h ,.g Y g U U i q r r y i r i r a w t a a a U T U ^ Y U Y U Y a h a r U h ( U g ( U E E ] Y Y a a a a r h R w w r Y y h h z h U z a T U q r w a h a r r r a T a h a a y a Y U a z z a R T 7 wX+X7 # ( U ' T 7 m.i.& 6.h h R E a r g a #.h Y ^ <.( 9.1.,.7.] ] ! z w > ; & A.1.o & e t z r z w z = z E a w g r W q z w U q w r z s a r w h s ' R l.%XOX(.*   i ) &.! U W Y w a Y a a s a a Y U #.( a ` z W E R ' s U W Y i U Y ! q 8.i l.eXtX|.5 . ( z z h ` Y Y a T U z a U z U h z Y a z z U z h T h U r R R a i R T E E <.] ] #.] { h t y , : . k 7.z ! E ' z T E l U E _ l.3 $ 3 3 % 3 > 3 s s } W a &.1 1 1 & i k O.l.5 & E ` z t #.i ].p # r ' z a U k n z h N 1.,.' ~ A @ E 6.E ] T ( %.0.6.R @.W %   % r =.| n n f 1 % = 3 3 y h ] < P l.@ X >.` U Y U h g = ( Y X   t Y U E ` ] r r ` a ( ] ` ,.,.` ^ ) h = = = . % ` ,.T ( h ^ E F.B wX[.3 . #.h 8.4 $XwXo.@ e #.E Y R Y U z R T ! x 4 t.{.eXBXrXeX,Xn.2   . . @ @ @ @   @ . o # @ .     o . @ # * . .         . o . .               . . . .   @ % % # # # # % & . #       . @ % 4 ! E ( E T E l ",
"= % X ( %.a g g V h y i w y r w w y z z E T U h U z h i a 3 & t a x ^ %.' U a w Y z r a ^ h a Y E ' z z r h r r Y U z i E Y Y h w w a r h U h Y U Y a r = a a E a h h z z r a r r a h s a s E a A rX[.5 & ' a ] T 8 m.t.% 1.a g U e z a i r %.s E %.@.,.6.9.1.' ( T ^ z = = % % J.%.T % % i E Y E E #.z U Y ' r U U h h h r E z q r 3 h h r r U w ! ( Y.,X%X|.@ . n Y ! @.( Y Y r a r a a k r s z h ( a s z U U a a E U a Y Y x q a ' a #.d z.9XtX@X< # ' z h h U R z z U z Y z a z U a z U Y z z h z h E E U z i Y a t T ^ >.<.' ,.' / / ( Y g e = % . ^ 9.R R E R E U U z ` 8 W.D # U L.E z z R r a U U U q a 6.' i U ` 5 `...3 y ( ' R Y #.7 /.p 3 w ( U i z a a a ! w D.6.$.C u X h &.! W 6.4.E t r % # p Q s.S b 4 3 3 = q q a W ] T U q %.3 L }.$ - >.` ` %.z E w s #.! @ o ( ' Y ` ( ^ Y g <.t ^ / / >.1.' ( U g > % , . - ' >.z z { E Y ,.F wX[.8 . #.i 4.d $XwXp.@ e %.E W ! T ! Y U } E s B '.eXeX6X1X,X1X@Xz.j.a.j.j.j.u.r.j.u.e.y.e.r.e.P e.P P K P e.K e.e.K e.K e.K K K K K K e.P e.K K e.e.P e.e.e.P e.e.e.r.t.e.t.-.6 L L J -.t.b.' ` Y ( E E z ",
"= , X ( 9.V a y g g g a r a r a q a Y h r g r $ % = # # .   . .   # . % g ' ( i z ( z U h h h h a h E U Y g h z a z U a y 3 U U Y z a r a a g a a z a z U h h ! h h a z h U U a s a a a a a ` 4 p.vX).- ; %.a ] V 9 c.i.& H.z a E U a z a r #.Y ! %.,.6.>.%.D.,.( ' ^ h = , , O 7.T ) U & i @.` h t ( ,.a z r a w a a q a r r Y h U = r r r r a z E ' Q.tX7X$X4 @ T *.Y #.Y a u i r s r w a r a r h ` U a E w a Y g a z z [ U z r z s h ( 4 (.tX8X#X3 . ( Y Y U h z z z z z U a U z U g h h z E z h a h z Y U U Y E a a ( ^ ( ,.,.] ,.] ( ^ h g e , , . t 8.g ( ` ! Y U E q 9.N -X8 # E 6.` 5.! a r a R s W U a q r T ,.q O./.< % s ' x s t A.n ].4 % t ' h h ( a ( w V 1 &._ *.d 1 @ T 0.6.R z % . o a p 2.3.i $ % % & q w U ! U ! r z i U i 4.$ | $X1 % ^ g g U z E % #.( ) %   E ' ( Y ` Y a q ] g / / R ` { / ] U a > % : . % ,.7.( a E { g ] n eX|.8 . >.U #.b $XwXa.# % ] g U ` z ` } U W s Q.4XfXMXVXFXlXfXfX4X4X<X4X4XfXwXqXqXqXdXwXdXwXdXfXdXdXfXdXwXqXkXdX4X4X4X4X4XqXdXwX4X4XfXfXwXdXwXdXdXgXfXgXdXdXkXkXfX4XfX4X4XfX4X4XfXfXgXdXfXdXfX#.,.' E ` R g ",
"> , . Y ,.z U h s a a r w q r a z s %.1 . . % y i ! ) h.<X4XQ.X.<.) t % . # g #.' ! g U E ^ h T U Y z U R Y T U r r h h i a i h R z z z a z h a a a a h U r r z U a r h z a a h a h g t r g 6.f M.iXc.# & ' z >.E N z.p.% 9.x U z U h a a s %.s W ' 6.6.<.1.#.,.' U T U q = , . 6.I.A.] q w R ` r a g ] Y w a a U q z w r w s r h a r 3 a 3 a r a ' #.`.NXcX<X4 o 8.#.] %.( i E a a a w w r r a h h W Y Y E E ! r a Y z r ` ` Y R U z U #.7 ).tXtX@X$ - ` x g Y h h a E a U U z g Y z a a h a a Y Y U z h R z z U ( q i ( ' >.,.,.1.1.,.,.] ^ g e = , X x 8.U E h ! U z T w D.b /.C   = A.&.' ' z z R s z U s z a T %.w F _.n $ a E E %.w z 6.D W.5 = h ' h a h U ! W U 2 %.S.X.w *   % ; % # @ S s.Q p 8 $ # % r a } z U z U U ' R s R ( U Y 6.5 +.$X& % >.e a z ' z 3 $.) ' 3   y E ( U ] #.g q Y g / ` ^ ` <.` T Y g e > = . % ( A.V ( Y z t ' B eX|.9   1.U &.d $XeXO.. r #.g g R W R T ` r 4 +...D T B p V C D F D C B b d p 4 w d i 4 4 4 4 4 4 u 4 u 6 4 i i u d w w q 4 w 4 q q w 4 i 6 u d d p p p p p b p p g h s s i r w w d S S D G _ #.#.%.] ` R U ",
"> > # U >.z a Y h U w t 3 3 q 3 r W #.5 ..S...2.s.;XBXcX0X,XeXNXlXg.G.h.3 X . % %.! U h T Y h ^ a ( U a ! h U z T y U ( t q g h z U z w h a g a h a s r y z a r z h a a E Y Y U z ! R R E ( T 7 @X7Xz.. a D.' %.s b l.a.; 9.E l z r a r U a &.s s E &.6.%.A.D.#.>.( T T q = % . h D.&.J.` & i %.U U = w a r r g r U w h a y % $ a g a w r w q q 3 ` 4.Y.HXcXwX4 @ A.] ! Y h #.a q w r a s a r s s a T h Y Y } [ ( h a z h a ( Y a U U U &.9 (.tXrX@X$ X ( Y h h U Y Y z U z z z z a s h z Y U a Y s Y R Y h U U U Y r r ' Y ( ,.,.] ) ] / T / Y e = , . g 8.g x ' R R z E r ` q A f.  + w ! ' %.! E a Y a z U ! s A.i -.}.b # q U g Y #.E } ' T.:.- 3 U ( h a a i ` &.i & Q  .W C 5   X @ c d.]...u * % r W E ! ( Y Y z w U U } ] %.Y E { U i <.f l._.$ q #.E z U ] 3 U 4.@.<.i   a ,.R T Y ` h = h g R ] #.] #.R ( U z e % , . - h %.Y R #.R a E B gX$X8   >.T 6.p }.0XJ @ e 7.Y > s E E ] Y q ; q & w a i d f & w 4 w = q q a V E U g U a i a w q q r q w q r a s ` 6.&.1.E s r 3 q q q u 3 q w r w i t a Y ` E ] 0.F.6.$.@.U a h 3 % % q q 3 3 ] 5.4.4.( ( ! ",
"q , % z ,.Y z w U h a a U r w q q ' ! b g.<XkX<XqXgXwX#Xl.S Q 3.s.kXhXMXlX2XU.X % y ' E E U h Y a h T z W Y U ( U ( E E ( U ( ' ` ` 9.Y ` R E Y R Y Y R W T ! ' U E Y U R T W z a r w w 3 x w O.vXtX$X  o q o q w n z.k.3 D.r z a h a & a w %.E E ] #.%.7.S.8.' ] [ ^ U e = = X z ' A.&.&.! @ q U &.R E r Y s ' z a h a U z r q q q y a i 3 a r 3 U 1.1.UXAXdX4 % #.&.1.! ] ' a q r r w a a a s a q 6.U w 3 & * w R t a w s U E a U Y T 9.9 b.tXtX{.3 $ ` z z g z a R h z Y a U z a h h U z E z r s q a U z U z ( ^ r q E ( Y T 7.1.7.@.( ( T h r % % X x D.g U ! ' ' z R a q ) & z.n .   . o r E ! R Y ' U Y z U &.u /.m.q % r %.h a T a &.h }.c = q ^ ! a ^ U &.8.V s 3 Q X.W B d f 4 I b.J & @ 1 i a a R k Q z U ` %.' z Y R Y ! z ! r a h ,.< -X..# h &.@.( a 0.4 ( >.#.2.u . r ` ( E E E a = T h ] { #.{ { / #.g r t = % . % >.] h r U l l T F eX#Xp . ` U %.4 [.eXD X i 6./ Y t h h T %.*.D.} r E W ! &.%.E z U w E ` u z Y >.] %.H.F.D.9.E r ] %.] 1.%.8.%.E ! E ] R 1.#.Y r a ! &.E q & a r a ) ] ) ' ( ] #.' %.E a E s i y a h ( ,.&.&.' ' ( ] %.E R U ",
"> > # h 8.Y Y Y E z T Y E R ) W a U @.& i 3 @ o @ & B N 1 & % > # Z BX7XNXZXZX) X @ ; z ( ( >.] ' 6.U Y ] ( T ! ( U g s g h g i a w q q e w & % w q 1 ; #   . % 3 = % 1 1 o * @ @     . .   c B.%XOXM.- . % # @ 7 j.,Xz.* H.a a q a a h r z &.h E ( ) 8.,.H.L.>.` ^ U g q > = = g 6.` 1.] 0.W & w ( ' Y R a U R a r a z g h ( U r 3 w r a z a & & w ' ) bXbX6X4 . #.( %.E ! &.a s T a s a r w U z %.Y * @ $ @ . & E T z Y z z E a Y Y V 1.j f.0XtX{.< = ( R U U a a U U z z U z Y Y z a s a z z R Y Y z U g z a Y ( h r 9.Y E ( #.%.' 8.,.( / g = , , . g H.h ^ R ,.[ %.z z e a W p.;Xs.b 1 X % Y Y U U Y z z k h 4.1 L 2X2 o @ T #.U E z 6.V W.6 3 a [ ^ z ( ( ] W u V ! _ ' X.) b 6 s d < & % ; Y ] Y R %.! R ( a a ( U ` r z s R E ! #.Y E E v +X# @ a #.' ( t 1.3 Y.%.&.w % # T ` Y R E %.a - ( g ` ] #.] <.` T V t e , ,   % { #./ E U E ! D.G wX;X6 # ,.( E 4 '.wXM # r 6.x x E g s Y 3 w z s W r k a 3 w a E E s Y &.I.P.!.D.9.J.{ a z h ' R 0.8.&.&.6.E 0.6.K.~.!.I.#.R s s ' %.w.7.0.0.%.6.A.D.D.8.6.] Y E p ] ( s V ' ,.( T h a h a z g ( ' ( ' ` R z ",
"> , X U ] z a E h ^ #.% o # w r Y Y 6.e O % # - % % % # a W h E ( < qXbXbXmXNXVX.X1 . . = w # 3 w w % & # % % # X # . X   .   X . .       . .     @ # . # Z | i 8 5 8 S C Q | | s.G.i.X. .K  X7X%X7X#X).:X9XfX4XwXrXNXb.% P.e ! h g h h z a 6.z E Q #.8.1.A.1.U ` Y E i r > , % ' ,.Y a Y P.A.q & a r U h q h w T a T h h 3 ' a a r a z q a ( a q U ` ! <XeX1Xd @ ] ] E W s E s a Y s a a a a a Y E.w m u.u.M @ q [ z a r U U h a R Y Q <.N p.7XrX X5 % ^ R z z z a U h r a z h a T R U E z h U U h h a U a U Y U U r a ` Y ( ( ) #.) <.] U h g e = ,   x D.t h U ( E R h a r i ] J qXS 3 & w s ( E ( E E ! Y Y q [ z 4 h.W..   = U D.E ! W O.l.3 i z ' ` U E &.E s @.n =.@.#.$.~ Q ;.n d w o + . g ` z ! E E E U ` U z z R E 4.} ] a R z g 9.d t.p.# . # . q ( g ,.$ s.i & # w q ( a h q a E h t ' Y / ' #.' ` #.` h g e = , . = J.1.h s ( T ( 7.D gX$X5 % #.Q z 4 '.wXM # = >.( g U ' ( R Y ' k ! 6.] a U %.{ R R n Y ! T P.J.L.I.!.P.) 4.] &.&.&.I.&.4.&.9.0.K.I.I.0.%.W z a a a K.E.!.P.D.H.L.E.!.!.!.D.' y a h ( ` E ' ' ' ( E ( ( ' ] ] ( #.' ' ( >.' Y h ",
"= > X z 0.Y a g E 6.# < o   . @ o . % ! E u r % q i U x t Y U ^ t _ $XZXAXAXCXNXJXqX@.N $ X . . . . . @ . @ % 3 q V N N N T Q _ Q D ....+.Y.-XgXkXT.A M v.@X#X1XqX9X@X{.|.{.$X;X1X9XeX0X0X6X>XtX6XtXcXrXbXZXHXJXHXNXhXm.* ^.E z U h a r w r 1.U U %.,.,.<.D.] ( E Y E g = = = X z %.U a 1 w 0.4.w   # z h z E #.3 = g E h a U U s r r z z q T a i ,.>.] |.7X#X8 % 0.4.&.` s %.a s r E a a a R Y a 6.1 e.V.C.j.@ % U g z r a Y h U k E @.F.p P 0XtXM.$ o ' ` z z h a T U U h Y E s R z h U r Y E Y h h a a U U g U E r h E E ` %.%.' ] #.) ( h t e , = X U J.h z r E ' a a r ( h %.7 +X4 % i R } ` ' R ' } ' &.E R & =.w 5 W.l.# o & a E 6.V W.o.@ 3 ` ^ E ( T ' a u b $.=.$.#.X.Q ) ) U W d $   % E ` 4.%.&.%.%.U ` 7.z Y E z ( &.] Y U ` ` W 8 t.C r $ 3 . o E / 9.& S $ w r a Y ! E &.R W T Y t R j ' ^ E / / ` #.j g > = , + - ^ J.,.a g E ( %.H 9X@X2 % 4.! h 4 ).0XF # t 8.{ ` ( ( R ` a ( z ' z %.;.E } #.R #.E q R R &.' 4.,.K.P.D.%.%.E ' z R ` Y a Y Y 6.0.A.' ' 8.A.9.A.K.D.A.8.D.D.H.A.J.D.J.J.8.%.) %.] ,.) Y E ( E ' E ( ` ' ' %.' ( ( ] ] >.` E l ",
"> > % U ] i 3 r T h P }.t.T w &       o o * %   +   + X . o   p g.0XAXAXmXAXCXAXmXAXZXBXdXwX3X3XqXfXfXfXfXqXkXlXjXNXNXNXFXZXGXGXGXBXBXZXAXHXGXAX`.A f.j.Z.C.{.{.{.|.|.|.|.{.{.{.{.{.{.{.{.|.{.|.#XOX%XOX@X>X%X%X,X,X6Xz.# H.z E a a h r i w ' U %.@.,.0.8.8.( ( Y U Y h r = : X Y >.a s Y w r =.@.w 1 % i h z E z w a U ( s w h = h U s a U a U a ' ,.1.].7X;X4 % &.*.*.@.E ) a i 3 h U g i ( R s ,.1 j.{.{.C.5   e a a x U h h a a a 6.L.d P tX8X(.< # ( Y W a z s U a z z Y ( z Y h a U U ( E z R a T U a U R Y R w Y E E T #.@.,.%.#.( #.T t q , , . } H.a ` r E ] { q h h q Y q f.f . W A.D.U r * o . X k &.Y w w 5.= 5 l.s.@ + * 1 & O.'.7 3 w ' ( U E U 6.d p ) 1.,.8.$.S.$.0.X.Z V d i % . % = - w q a 8.] 6.A.0.&.6.` %.` &.` 6.%.r f S U.@.) $.O.n   f [ J.& 3 4 ` R z ` ' E ` ` ] R z r / z ( >.] ! @.Y ( R h e > = X = ` >.' U x Y ] ) H wX@X$ o %.! U 4 ).wXS @ 3 #.] ! ] ! R ( z h U Y ! ] ` U ,.a z R R U U R ! E z U ] ] ' z ` ] E Y z E R h E ! ! E z x U ! ( z R R ] ` U ' E ` R ' %.' ' ( ` ` ! ` ! E R U U U U T ! R Y E ! ] ' ] ` #.,.' T U ",
"q > o E #.g a U ] r '.T.~ =.0.=.R.7.' W a r 3 3 f w h & V  .+XhXCXCXNXbXcXtXeX6X0X0X0XtX6XeXeXeXeXgXgXwXeXeXeXeX0X6X9X6X1X6X%X%X%X%X,X,X>X#X$X#Xk.~ g./.}.;X|.@X XB.C.B.B.C.{.C. XB.Z.B.Z.n.n.n.B.{.B.M.B.B. X@XOX@X{.a.@ K.h R h z a r z ( %.h ( ) %.D.1.D.,.@.T U U x e = % X Y 6.! z E Y k ] @.&.V 3 % & Y ] a h q y U h ( U U r q q r r g g r ] ` $.(.7X;X5 & =.@.` #.! ! } Y a w r r = g U a >.% x.{.{.{.M . w w h a E U k s s z 3 D.i a.tXtX[.$ # ' T z W z a h a h z U R E ,.h r z h U R ( E Y w a z Y Y a h q ! z h E T 6.1.6.<.%.( / g = = % % ^ E.g U ` E E ` U h h a r k K M   % k $ @ i u u $ . . ' 0.! q r 7.- 5 W.l.f * < M -XF 1 r E U h a Y a 7.0 S $.Q ) 2.A.1.<.( ` W W ( C i . @ $ $ . o * % o o 3 w W R ` [ a [ Y 3 . 1 S =.8.&.$.E.R.| $ . E 8.T w q T h Y ` E a ` h ] #.3 t ( a ( ( %.( ( ] Z h g e , , + = 5.,.h h / [ <.g L eX@X<   @.T ` 4 ).eXG # = %.( W T ' E E E U Y Y R z ' E ( %.R ] ! r Y ( Y ' ! ] E R ' U E ] W R R T E ' h ' E [ x ! z E Y E R E s ] E Y z E W ' ! ` ` R Y E R E ' ` E E E R Y E E U R R Y ` ! ' ' %.] ] ` z ",
"> , X U 6.g U g 0.w V Q } @.@.) ( @.@.) &.*.#.@.&.=.<X/.`./.9X,X6X%X#X,X#X1XwX$X3X1X9X;XqX,X6XeXtXwX0X1X6X0X6X6X6XeX9X1X1X,X>X%X<X,X,X,X1X,XwXwXMXW.D c 9 p B S d.|.M.B.B.B.B.B.C.C.|.z.....B b F +.L P l.f.(.'.+Xl.:.S . 6.a z R T h a q Y 9.( T ^ #.1.,.8.7.%.( T h h t > %   h &.a R U a U a %.W J.u = E a ^ h a r i g h ( Y U s z r h a w g a g ( ,./.6X}.= & %.) ] T s Y a T Y h g U g q g g %.$ k.V.{.{.p.  q z a Y a U U U h ` r 9.i t.rXtX[.$ # T U a Y g a z a U g a E Y z E q a a R U h R ( h h U Y R E ( = T ` Y ' E T ( 9.,.%.) Y h > > ; . g 9.t ( E U h Y z h a U s z -.z.<   $ 2.h.+...o.W.1   o 4.!.6.z g ,.- 5 t.;Xa.j.<Xl.f & 4 #.! T ( #.U { s =.2.,.6.2.8.F.8.1.6.,.( ,.$.) U 4 p p 7 2 $   o   # o X   . .   o . * C X.s.@.) ) T 1.U.=.s . % Y #.H.` >.#.' ] %.E %.E h #.h 3 h g ^ ^ %.) ( ,.' Y g e = , . , ,.,.U E h Y ] s ..wX$X< . ' X.>.4 ).0XF # 3 %.h R E ' ! g E E z U ! ( ' z E ' z Y ' z 3 Y ! E ! [ R ` R %.! E R R ( E U ' a ' ` 9.E z E ` U E h ' ( ^ ' ' Y U ! R R ' ! E ! E ` Y E ` ( ( ` U ' ! ( R R ( R ' E &.' %.' ^ ( z ",
"> , X l 6.a T h E R & q w s u s R E ] ] W T ! U  .Y.d.+X|.$X<X/.d.p.o.L A n 8 2 4 6 B 6 6 v D  .=.i.H M D S S H F v A  .o.Y.Y.Y...J W.W.P ..A n W./.D B F m N c c t.T.(.M. X X(.(.XX=.3 q 3 U h q 1 3 f 4 4 w 4 4 i j 3 = 5.Y s U a U h a s &.U ( ( ,.,.6.1.<.,.#.%.T g 3 = % % z #.' R z E a z R ! 0.R = #.h ( Y E Y z y r r ( R %.3 h U ' r z Y U U ,.c.7Xm.@ $ 6.&.( %.Y U a w a U r U Y U g g E $ k.%XV.V.p.. 1 a a Y s x U Y a R y q.p k.tXiX(.3 $ ! T a h z z z z Y a r s R i E ' z E a h r Y U h r s U Y U ' h ] Y U ! E ( T [ 1.,.) U x > > % X R H.y U ^ T a q h z z s z s +.l.K k.l.p 1 $ % < ../.< + : 0.&.! ^ j 8.q 3 X.~.i.+XG $ & %.8.6.h ' ] W h 4 ) H.#.0.F.1.$.S.A.0.#.U _ ) @.2.*.) 2.U.$.$.Q s 1 1 $ 3 & @ : & u X.t.=.$.8.,.) 8.0._ $.L.V @   O # # ' a U %.8.` A.z 4.h h e 3 h a ' ( ] 1.%.' ] ( U e = =   % ( 6.t ( g U ( U H wX#X< . ! T ^ < /.wXM @ r ,.T U T R ` h h U R s z E R ! R x ' ' E U Y w ' g E U ' ! R 6.` %.&.#.U ` E ` %.E E ' 4.! r ' ,.R #.T E E ( E U E ` R E ! R Y ! Y ` ` E ( E E ` Y E E Y ! ( ' %.E ` E ` ( E ` R z ",
"> , . R 9.z q U U z ' ( z a z ; 1 & y r & 1 ; 1 3 w 3 w j c s 5 & < f V U V k a 1 & & w i 1 3 & 1 w 4 3 = % = & 3 & 1 & 4 & 3 & % w < 4 1 1 4 u 1 & % f s b F J -.L P t.O.....+.~ s y ;.W s W W a a q Y 0.s E ) U T W U U ,.Y r Y r a q 3 g ] ! ' ^ ( T %.1.D.<.' ,.%.U y > % X Y @.s t U E w E u ! %.' # #.E a h U = ) q h h Y ' ` ] w y 6.r V z g U #.m.1Xz.. # >.h ,.Y W z U w r i a g h W Y i ( & l.#X{.Z.H   w w i R h a z Y h a q A.u x.rXiXm.& - ' U r a a R a Y a E U a E E U a r E h Y z z E U ! U z R E R w E T E ` ' >.T ) 1.,.#.W h e , % X z 8.g z a E h r h i U a R s f.$.s.i.q * w @.6.& 4 z./.* . : - 3 % # = w q a 0.G.A 1 q a L.A.` ` h w $ p X.1.L.4.U.F.H.I.2.1.U r W E 6.@.J.A.8.A.J.L.S.L.1.X.) Q V S S  .~ 2.=.S.S.] 1.$.) ) 1.0.&.J.~.B f       . @   @ E A.g E 4.' 6.U e U g ( ] ( ( ( ] 1.( h r q , . ; ,.6.h E ) r U T H 0X$X< @ ^ ) [ 4 (.wXJ # 3 ,.] Y ( ] ' ! E ! [ ^ E U ' E E h R ! z ( ` q E E r R ( ! ' E U E ] ( ! ( ' U %.%.` %.%.E E E #.R ' ! ! ` ` Y ` Y Y E R E R T R E ! #.` ` R R E z E ` U U R ` ] ! ` %.] ' ` E E z ",
"> = . a %.U U z ` E & q s z U E z E a a a a q 1 1 q r 1 1 & & 3 3 q 3 3 r R a u a z a r a i h s r i a s g Y U V r T ! z z E Y R ( W #.T Y Y z z ( ` ) s h a w p n X.F d 1 3 y q f 1 ;.W Y ! ! a a R r % r & w q 3 r w E T E E a U z h U g r 8.U ' T ' ` ,.] ] ,.9.,.( E t > % X a &.Y R ' ] a a a q 6.7.% ` T y Y ,.y W U i U T U ( E z a ] w E h U h ( /.,X/.  % E ( E a a s U s w a a y a a ` w E $ p.7XV.B.F @ 3 3 r U r z i Y E r w D.s l.rXrX(.$ - ` E U U r z E a h z E z R a R W r a U q R U E z z U h a U ' % ] U U ^ ` ] ,.] >.7.#.^ V e > % . a 5.h Y U Y E w g h a U %.;.+.Q X.4 ; a a q a %.% 9 '.p.i u i w d i r r 3 n Y.+.1 1 & r q 1 % @ & N D /.`.A.F.s.8.,.S  .( V r 3 a a A.1.D.A.0.&.&.$.0.L.A.6.1.1.S.!.L.I.A.A.] ( @.D.1.%.@.) #.1.0.0.G.Q.;Xx.t.y.O.n 1   o %.] z E %.K.U w h e U ' ( #.W ^ ' U h e > : o % %.D.` T ( U e 1.F wX|.- # 9.,.z 3 (.0XL @ = ,.E U E ( ] E y ' U ! ] U ! E ` s T ,.Y &.R E r ] U E ` ` T 6.R h ` Y r ' %.R U Y z ! 6.E ` Y Y Y R %.` ` ` E U ` E E E ( E ( ` R x ` ' ! ! ! ! ' Y ,.%.E ' U ( ( R ` %.] ] ( ! x ",
"> = o T ' q w q z ` z a r q % * o 3 ; 3 r w 1 & h a w a U h w r # % ; % 1 ! %.q # w & = & & % 3 a q % & q = q w # & = w 3 q & w 3 1 w w q a q e r w a r a U @.4.! u 3 3 q ( ] ! ] k U k u V #.h a z w U a z z q w U E Y h ! Y ] U R a r y 3 ] ^ / Y ' ` [ ,.>.] ,.6.) U 3 > = % i U 6.z h E a r E E E J.y U ( a R R r z ( z y r h ! Y z Y ( h h Y Y h @.W.7X].  & &.W ' Y ! a W R u w r e z z z T ( = P cX%X{.F . V 3 # a ` z U Y h U r D.j c.rXrXm.# $ #.Y U h r r E Y R z z a #.U Y ' r w Y a a Y a z a E E a U E 3 #.z E U T E %.#.%.%.) E g e = % X x %.a z Y z E z h E U y Y a u d u & w T z h = ,.E 2 L p.f.l.g.Y.g.l.Y.l.h.+.:.8 5 ] & 3 $ @.h.Y.W.'.W.W.:.h g V j Z N N 4 i ( r s a z s s a u s C N s V W h s d b T  ._ Q V C Q T Q Q V V U p ) N p $.d.z./.XX).z./.Y.p o ; ` %.z ^ ) t 3 h h ^ ` T 7.#.( ] ^ h e ; > . % 8.0.E x ^ R e ,.B wX+X< # 8.6.R 5 ).eXL @ - ] ` a z E E ` E Y U R R ] E E a U U E Y #.' %.U R a ( R R R %.Y R R ( s U R ' E ] U E %.Y ( %.0.R ` ' ` E ( ( U E R ! Y R Y ( #.! R E #.R E ( R E ' E Y Y E R R Y E ` 6.%.' R U z ",
"= > . Y 6.z h a a U a s E z r q q t ; r q & q & q = 1 w & a U q   . ; e a r w U h w a r a s r a Y a a i g U i E h U h z r a a a h a a a a s a a h a a a u r h a R E %.} U ! %.] ! W s w a a z U a U a a r a Y Y z h h ' E R ' E U Y a a h r E h Y Y ( [ <.6.1.%.%.&.,.U g e = o k %.E ! R ' R a U r R 8.8.w a i a Y w a U h r a a a R r Y ^ r a E E T T /.eX|.@ & %.s ] R #.a r E a r r w r g z V #.5 J NX*X{.H . a a w % z Y U a R T a 8.j z.rXrXm.= # ' ( Y T Y z E h T h a R U U R ] ( U z U h Y z U h z ,.E Y #.r { g E E ) 1.,.) #.%.E U a e % %   ` ,.h ' ( z h h i Y U a 3 ) 3 3 q w z W U k U % 6.w $ q i 5 6 6 4 5 4 4 p 4 = > T ! i W j j i 6 w p N u p 4 3 & = 3 w i q = & # 1 % # # $ 3 ; 1 3 3 & 3 # % e % & q 4 a w w w r q q q 3 3 w & q w 4 w 4 i C F Z B B 8 r * 3 U E ( E g t 3 ^ t V R ^ h <.' T E a t > ; o O %.9.E ' h ^ i #.n eX$X5 X 6.9.' < ).eXM # 3 ,.E ` ^ a z z z ` Y ( U z ` ' ] [ R ,.z Y ( Y ] R ' E #.( z ( ( ( U E R R z @.R ` U U U %.a ' z x ' ` ' ` ` R U h E ' a E Y U ` Y E E ] %.' ( ' U R ! U x E E ! ` E %.&.%.' ` R U ",
"= = X a 7.a a a a z a e a w q r & a a r a a U z h y g q i a ,.q       % y r a r i g r r 3 h r y r a h a a a a a r a a E 3 a w a Y z w a a t 3 i z r q a T r a a y r q h z r 3 q = i a a w % h i h U w a z a w U r ( U a a z U Y ( a r r 1 e Y a E U T ' ] 6.6.] @.] ( W h e e # x D.>.` h z a ' a w x E H.` & h h w r w z Y a U U z a s z z q & i Y W g @XtX|.. & %.) ( W E w a Y W z a a a z R g ( 5 J tX7X#XF . a g a r a Y T h a z w 6.4 k.tXtXl.# - ( h U y s R a U Y E a r R z Y E Y E r E h T U U h a E z z E q %.h Y E ' 1.>.6.' ,.( U g e > >   ^ J.r T ] ( h h h a h t y & E #.' s E ' ( U ( r q 6.E a q r r r t a q w q w r w ( ` w 1 3 q s r s U a s W E ( ' ` ' ' %.%.' ' ( ] ) 1.' %.&.E %.' ( ' ' &.' E [ %.E T U k a r a w q a U r r q 3 1 = # % & * & & & $ u & a a U z U R a t - R g Y Y / ^ { ( / / x > = , . % [ 7.( E U U y 0.9 eX|.5 + 7.F.` & ).eXJ # 3 ^ U T ] T ` Y U U ' Y R ! z ! z ( Y ` E %.` ` ` E U U ' ] R ( ( z ( R E %.U R %.! ` E U ! a E ] R R h Y Y ` ! g a z U ' w w E ! T ` Y ` E { E ^ ( ! [ U ` R E ] ] ' ` ( ! ' R R Y ",
"3 > O q %.a w a a w a q r a w s a h Y z r r w z a w i w R U $.Y . o . $ a q g w 3 Y U r = w i w a i a h a r r a a g i a a a r q a a a 3 y W a q w z a q z a r a e i 3 3 z h y z = 3 w r r T a r 3 R Y U r U U h z r R E a E z E U z r a s r ! U ` E R ! ' %.,.&.&.] ! a V y > = g ,.^ x ( 9.s z a Y a E ] E.i w ] a U U q U i r z U a a z E w r e U h B eXcX;X# % #.a #.E T w r a U z r w a a ^ g #.5 K eXcX1XB . q i a r U U T a i s r D.4 a.tXrXj.- # ( Y Y ( r U Y T h ` ! z z h z a z ( a z g a a Y r r z a Y %.q ] Y h E ' %.,.@.#.) T h g > = % X t 9.h h g Y h h E a i a z r 4 3 a h E h Y a ( z Y = Y ,.^ ! %.%.' ' ( ! ` #.,.V w ] %.] ` ! ] ( E Y U z E Y a s ! ;.q w r a h r a R a s & w & a u & w & Y r 1 a E E i i ` ! Y E R E ! ` @.5.] %.0.&.&.] 6.I.#.%.&.a q Y ] #.Y r a 9.` e q z g Y / #.' ' <.^ V g t - O . - [ #.h T x g r %.c wX|.2   H.>.w.< ).gXF @ t <.' T [ ^ E E t ( Y z a E U U R ` ! U R Y ` ` ` ` Y U E E ` R ` E ` E E z h Y Y z z ] R E R U Y U E #.Y T &.] ` h ` U R ] a Y R Y U E ` T T U ( ' ' #.! R ` ' ] 6.4.R ! } ! ^ T U ",
"> , . y 8.s r r U U z z s a r a h i a a a r a h W g y 3 Y 0.%.%.R E g % & i a h q r w h w r 3 y r y a r r a a 3 3 r q r r w a = q a z w 3 a a g r a w q a a a U a Y y r z q h 3 i y i h h a a Y 3 e E ` r a z a a a z ' r z a h Y a q r U i a a R R ! E ( ,.6.%.1.%.U T a e > O h ,.h g E ! 6.a q 3 3 3 h 9.J.X R Y Y r w a R w U E z a U U q r r T h B jXcX|.# % ,.( #.U U U r s U r E a a z ( U <.< P MXiX1XB . a h r U h h s h & w 3 J.u k.tXrXz.$ $ 6.U U E z r z z z h h U U R ' U E U Y a U y a a w a T a a ` r &.^ h ` Y ) ' #.' ] ( V t = % % # x 8.t h ^ ( g U R z r r a r ! a U z R h ^ U z z h U r y z r a a a a r a r a z q e z d a w a z s z r W a a z z z R E E U z E T U %.&.r E T s ( & ] U a e } E R a ( q U a a s ! ` r E i r w i . r w U t % 3 w #.D.7.! U U a w U a w ! z t 3 U h ( ( ' ' ' / h g g 3 O X + - 4.7.h E E Y 3 ( 9 eX@X1   %.<.4.< ].gXL @ e ,.R ( / R E ) t E E E U E U g E U ` U Y ' ! E ] ] Y U ` Y R U E R E z ` [ U ! z ` E E R U E z ( R Y R ` ] E #.%.` E E U ] z U Y Y Y E #.E ( ( z z %.R ( Y ( F.( y q Y ! R U z s z ",
"> = % t 6.U R z ` r z z w z r r r r Y Y U a a z h U a ( ] K.J.] ( W U i q i a i r a r s i a w w a i w g r z h U z z U E R T Y U Y h a w r a g h Y U a r a w q a w a r 3 q q z i t a q r a h r U q s r q E r Y z r q ! ( R z ` a E h z 3 r U h w T z R ( ( #.( ] ] %.@.h h e e O w 6.U a h V %.%.w q 3 q t ( ^.` % & ( R s a U z U h g h r q a a w ( 8._ cXrX$X% % #.#.( r u w a h E U U U z a E a <.5 O.LXnX0XB   t a t g Y a E ^ a h r 8.1 z.rXrXl.X @ ' R h T ! a a a R U a r U h E z z R s U h Y Y U ` Y U h U h a #.U z Y T ` <.] #.' ( h e , , % . t 9.Y r Y ( i g z g a r a r h W U z z h U Y h z Y h Y E s U T R U z h z k E ! ' z R a [ ! } U z R a U s R U Y E ' ,.` ( a ` Y &.&.6.] U 5.U A.' h R U w ' ! Y ! %.Y ( R Y 3 a E r Y E z E 6.z q z ,.%.R E U z E ' R %.' %.E h a a E a r w U g Y ( T ] >.#.E h g e % % X - >.8.h E U ) t ' 8 0X|.6   E Y J.2 '.eXH # e ,.` x ^ Y Y ( U g R ! ] a U E Y z ' z ( ( ` ` ` ` 6.E Y E %.! E ` ` ' E E Y #.E ' %.` ` ! W U Y U ' U E { %.( #.^ ] a ' z %.E ' R E E ' #.{ E ` E z R ` ^ 6.% 5 # o ` ' ] [ E Y s ",
"> , o a H.R a ! a e s a a a a r a y h U h h T r r g r i ,.P.!.Y ( E ! h Y r r h a i s q = a a g q r a z E Y a t q % = q q w 3 q a h ( ] ( E w r r a z z r a h a a q z i h 4 y a r h h w U i r a = U z r a R h ! s a z a ^ z E a R a T r r a ' 3 h Y ( ' ` ,.#.,.` ' ( W g e > = r ] ! ( U E s ` %.( r z q Y Y D.' & a a a z q U ` h Y a h a w z r ` D._ jXrX#X# % #.E E ! U w r s ' Y z U U w ;.g 1.4 l.IXCXeXp . & w z E s R h g h U r D.3 c.hXiXa.$ % ' E h z z a a U h U U h z w h U Y z a U h W E ' E a z h ! ( r ( R ` U ' >.6.7.7.] ] / g = : % X t 8.] z Y z E Y h U a h a z z R z U T Y g Y Y U ! z z z z U U U U U a z a R x ' a E ` U ] R a U w R s r R Y z U ` ` ^ ` #.s Y E 6.&.z ' %.z ` z ` z E a a ! z l ] a a Y ] E R a #.' z z Y Y ` z z ( ^ ( E U ( ( g z a Y E 6.R ] &.] a e r T g E ( ( T [ ' ` ) h e , %   = ] 1.T U ( U g <.7 wX@Xp   V $.w.6 '.tXH # e ,.^ ( ( E #.6.7.T a R #.Y W R R #.' E U R ! ! E ( ! E E E ! ' ( %.R 4.' ,.%.U U z [ ,.4.` ( U ` Y ^ ' Y ` ( [ 9.] ' ` E Y R W T ( E Y #.] ( E ( R T U U &.3 U.+.Q N ' #.` %.E U U ",
"> ; X t 6.U a k E R z z g h e a r i h ( Y h Y U U h r r R 9.E.` ] E U U a q y a w a a s g w w w s U U U & % % % # # X = # % X q & o % $ a ' 4.E z r r h ` z Y z t a q z r = w q i 3 r t r U y w a q a w r r h h z z U h a Y h E h Y Y a = a Y a U ^ <.Y ,.,.7.#.%.@.' W t e > % U 6.Y r w ' a ' E ` a z ( a z ,.D.q 3 U U q Y w ( ] U U z U U h a ( L...bXrX$X# % 1.E 6.' ! s a r E R s z z z a h ,.p +XPXPXhXV % > q s R Y a ( Y U U = 9.6 m.iXtXj.# % Y a Y ( w h r U E E h Y ` ` z U ` Y z h ' a z R ( E g U U Y w ' ' ` ( ( ( ) #.1.) ( / Y e , ,   l ,.U a h z z Y Y h R T a a a R R z Y U ` Y U U ( R Y ! R z U R Y E z ( a T U ' ` E U U z ] ' Y E a E r a z U Y R %.' E ` E &.! 0.W U ! ( z ' U w w U r & z T } z Y ' z ! ] Y a Y Y ! z ` E E R U U U ` ( Y s g q z Y E h Y z ] 4.E a r i R a U { ' U ( #.` / h g = , + - #.6.h ( / ^ t %.B eX$Xd @ T A.&.4 ).gXL @ e #.z E a z E { ( ' ( %.a Y Y E z R ` R T Y R ` z ` ! R R E R U ( E ( s ! E ' ` ` R U #.] ! ( ( Y R U z E z T ` 6.7.' ` U ` R E R E R Y R ` T ' g } s Y Y ' D g.1 $ % ` ' ` E E R a ",
"& , o a 6.R k s z Y z U a a a r a q r Y U Y g a a i a r r ( ( E &.E R U a w r w r q r r r y h V ( V w 1 @ % . . o o . . . #   O . . . % % # q r ! ` a & z a s a = a a a 3 a 3 g w w 3 w r z z r 3 q w a a z z a h z a U a Y E r R Y U s a q a q a ( >.( ] ' 1.,.%.' Y s a > % # x 8.s a a a Y R ] E Y Y ' U h ( 8.#.% a ] R ! r q Y a h U a h z r ] E.+.cXtX$X$ $ ,.W E R U z r q U Y a z h a r r ) 8 qXPXPXjXC % g s g h Y s r h U U a 9.d z.rXtXl.@ q %.r r Y Y a w z z R U ( a h U a U U z Y ( a a U R Y a h U h w E E T @.,.,.<.] ,.%.` T h e = % X l %.h h a z z r h a a h s z z Y s Y R U z z z z z E E z U h h z Y Y R E z w r ' U ` ! E Y W ] U R U U r ! z Y a R ` E ' R T Y E %.h R ! ] w %.5.Y R a r & w q U z r z U ` E ` E Y s Y k h ( E ` z h Y E Y ( a ' y 3 s ( ( #.a z U #.E z = g a z E ( <.' ^ / T Y t = =   # #.9.Y [ ' ( g ) B eX$X7 # ) S.] 8 (.9XF @ t ] x ( E Y ^ ' ( h z ' ! Y R ( Y E R 4.E R z U U E R E R ! ' E E z ' %.%.' %.z ` z ] z %.` E ` ] U E U E Y E ^ W ( %.Y R U E E R Y R ( R E ] ( U ` z U l Y ..:.% e ' ` ' ' %.] E E ",
"> % O w ' z z s U Y z U s z r r r a h a a h y 3 a r y i w t h z h E a h U w a i a R u q s Y ! ) a = #   @ . % % # > % & , e t e % % .     . & % # a &.` w a e Y s r a U h r r q s g y r g h h E ' Y & h a a a U a a U Y a a U z ! %.Y z q a ( i E U ( ' ,.,.@.6.' &.&.` r > , X g 7.( Y a w a Y E ] Y & i y z r ` ~.( 3 z U U R a U U g E T a g q { P.X.hXtX@X$ - ,.E 4.Y h U a a a h a U Y w r U ,.8 dXIXIXwXj = * r Y U R Y z h h h r D.4 x.cXtXp.# $ %.Y a Y a R r E U z a a ` R r Y z U a a R T R U ( E E #.( a w ! ] R %.6.[ >.@.>.( <.U g y > , . t 9.Y a h r z h U h h a a r z Y z z R U U U Y Y Y Y Y U U U U h U w %.( h ( r Y a R R E z U E R U ] E s s z Y R U z U E R w Y U ' Y U ! ' ] E ' U U ] U z r z z a U U E z U U E E E ! ' z U h Y ( ' U ^ ,.` ( 6.#.z a ( r q y U U z h w w ^ a ! E ] ,.>.{ ^ / h e , , X # ] ] g T ` / g ,.B 0X$X< # [ T &.4 W.9XF $ = #.g ( R ` ' R E #.' Y ( R #.z E ` U U ' T U ! U ` U R R ( E E ' ! R ! R 4.' U a E a U Y U E ` ' ( ' a E #.E T ' ' ] R R E ' ] ( Y ' ! %.T { E R E z } R a :.C O w E %.%.#.] E E E ",
"= , % 3 #.z h i z a r a a h U a r U a a r h U a i y r r 3 w w y a a s z g w h a s a q U Q T y @ % 3 r r . X X X . e w a * # o X X . O X o . o . = # = E %.z r a r r r r z 3 a a h h a = y h r r h r q q Y U w w R Y a z z z a w Y Y E U a Y U U ` ( #.] ] 6.%.1.%.' ! T s e = % g 6.a 3 e a a h s z ` h ` s w h h E ,.#.h a r a R a a w z z Y ( a ` E.@.hX0X$X< & ,.h ' ' r a h U Y a g s Y a R E ] p fXIXLX3Xp a w @ w k E ' ;.s s ! a 8.6 z.tXtXk.# # ( a g ^ ' E h h s U h U Y U a R h s a z Y Y E a U T z ( ( E w a @.( ] ,.] ,.<.,.,.' h r e > % O l >.` a U a y W U z z h a a z z z R a ` U E a z Y z E U z a U h z g h ^ h U & z h ( z ( s a T z Y Y R U #.z z ! a z U ` %.z U s @.( q U U Y ! a z } %.! ] ` #.! a E ` %.%.R ' 7.' h U E h V z R ( >.` g %.R q Y ] U E %.R U & h ] U &.R r h g Y ] #.>.' ' / ^ g = - , . . ^ ,.g ^ ) R h ,.9 0X@X< # Y W *.& V +.j @ a 6.g ^ a ` U z %.E z E E ! %.! R h R E z U E Y R E h a h ' E Y ! E ` ' %.` %.%.! E E Y ` z T ` U ( ] R ] s R z R R ! ] R ( ' ! R s ` ,.] ` R E ` ] ^ z Y p l.Z . U ` } ( ' Y ` R z ",
"= = % a 9.U w h z a a r q r a h r 3 a i g Y z a 3 q 3 3 q q a z a h q z h a r i a z Y &.Y X w :.G._ X X - 3 a g r U R ] E ' ` E E z r e $ o = @ . . # @ s w.' w a r 1 a z z a 3 y r r h 3 a i g ] a w w q i z a w a a h z a U w z E ` U s 3 w 3 T ( ' ' >.<.8.>.&.( W U r e > O g ,.4.z h a a Y ` U a a R Y e w Y h Y s ( E h z h h a r w w z U a %.9.X.tX0X#X4 # ,.( D.T q w U r E a a R R z r U ] p qXIXLXgX4 = r r U W k E z R E h w &.6 z.eXrXk.# % %.a z E Y U R U z z U Y a z a z E ' z a h a h a h U Y ' E ^ i w ( Y #.>.' >.1.,.#.( / g q = ,   l #.#.z ( U E a h U h h a h q z z U s R U ( E z E h E z g h U a h h a U ( h U Y Y 8.z a R R z R a z a U z U R e U z U ' R ' a Y U ( a r R ! &.R R Y %.%.U ( ( ( ] 3 3 g U z } ' ` q   % Y ( ( Y h { ` ' E 6.( E R e R ! ' ' U a h h E z = Y r Y / ^ <.,.' Y h g e = %   X ' 5.h h Y E t 9.n wX|.&   a U %.> q 3 q q a ` E z U T E E h ` R ] ' R ` %.U E Y r ` s ' T R ! ] E h U R %.! ` U a ` E %.%.E ` Y Y E z U R Y R R U Y ] a Y E ( U ! E E R Y ` Y R E ` ! %.( ( E ' g / 4 '.N % E ' ! E E R ( E z ",
"e = % y ` ` h a w y a a q a r w g g h i a Y w h h h a w a i a a w a a r i h a r s h 1.E % R.yXX.= # y r x h # $ & % % & % % 3 r h #.%.U h r . # q $   . % q ,.h a r r a h h U w w 3 q 3 w h a i a r q U U r z Y r & a a T q s a g a h ( a z h i E ( ) ' ,.[ 6.%.%.' ! E k e : % a %.U z a a h z E E %.h U ` Y a R h Y h ` z ` E w U a h a a z E a ( L...7X%XOXp % &.a T h T q a h U R h z ` z r U 1.6 <XLXSX1X1 U a % w r k } z ( ( ) E D.i z.tXtXj.# # ] h a h s r a ( x z R s s E g z g a ( Y a h w a a T r E Y E r r >.Y ' ' %.#.,.%.1.#.Y g > & % . y D.U E a r E a r h U h h E z z s U U g z T h z U ' ( ^ ( ( ( ! W ] 1.' R U Y ' ] ' E ` R w z E U h U Y a E ! ` a U z ' z E U E ! U ' s E ` ' &.] ) ' E w r r % % % # % o $ $ @ 1 w r q 3 r 6.6.' / h ` ` ` Y E E Y ` ' h w h w h h E h w T g R E x / ` ' / g g t > % + X Y / ( U U ] r 8.A wXOX$   e ` 6.8.] &.#.6.! ' g h U #.( ' z z E ` } E [ ' &.z E Y E U a ! ( Y Y ( ' ( E ` 0.} ' R E ' ' &.U z %.! a a U Y E z E E E Y ` z ^ E R E h E &.] ` ` U E ' ( ] ` ] R g g ' 5 '.j - ^ E ` ^ ] ` E W h ",
"= , % q %.E r q ! w r r w w q w w y U r a r a a r r q r a g 3 a 3 r r E r q a a z 8.z p Q.G.- # t r q 3 & 3 r r s a i k w a q w w % % z &.&.h 3 . = U.&   X e ,.z r a h g z z Y E U z ' = 3 R i U a r w h w a E a r a r ( e q E Y z a E E ( h a E E ' >.] >.8.#.0.6.E Y a q > % g %.` s Y a E a l ( ` z z z ` E a Y h T ( E r Y Y r r r z w r w a ' A.Q @X{.{.B $ *.U %.a h h a a a U z a l a z h ,.6 +XLXAX1X5 % 9.H.` ! 1 r z R ( ` ( w.4 b.tXtXk.# & 6.E Y h z U q ! E R E ( g U E a a a h ` r h h Y y w ( h z h r e ] ( ' [ ,.<.7.,.<.( h U > > >   z 4.a h E r T t a z a a a h h h a x z ' t E U z E ( E E T E E ^ U E ,.] z ] E E ! ` ` Y ] ] s r Y z z w z a z z ' s R z z Y Y ! ! 4.` &.Y r z r 1 @ . . & d b j h p p p s s s u 3 # $ & # & % ` ( >.,.T ( 6.h ' %.z U E 4.r z ( Y a ` h t ( t h ^ ^ ^ ) / / / g e , = + X ,.%.U g Y #.a 6.D 0X|.% . % ' #.E %.#.E U ' ( ( a h ( ` E a E ( ! Y E Y ( ' w R a ` %.E R R R Y E ! ( Y U %.E Y #.` Y E ` #.R ( ` %.E z Y ( Y R ] ! Y ` U ( ` s ` ] %.&.R ' Y T ' E ' ' ! ' @.` q ,.9 W.5 - ( U ' [ E R U z g ",
"= > , q E ` z a s U a a r h a r q y 3 r h g a a a q q w 3 a i a a y h a g V w a ,./ 4 fX3.- - e t q > 3 a a r s a a a t a a w a w 3 ( q % h 6.8.3 X V / #   # z %.e r t h i a a h U a ( T r w g z Y 3 q h h y h U a h U a z U a h a ! a V Y U r ' ( ' ,.,.,.,.<.&.&.' W e e ; q & Y &.E z Y h U z g ' R R z ` ( r ( a y s R E E z z ` r a Y z h r %.J.N {.{.{.9 @ @.T #.Y w z U a Y h Y h h z r V %.4 |.cXtX@X4 . a a a ;.q 1 % % $ # % w 2  X0XtXb.@ @ #.E E Y ( Y Y a s a h E h E ! z z z a U a r r h U q Y T a Y 3 % h ^ Y ` 6.,.>.>.,.h h h t > , . t 9.( r h r ' h q a a Y a a h z a z U E a U U E 9.r @ @ @ . .   . . % # . = - X # # = 3 q &.` E z r Y a E z z s E r Y z z ` Y E E @.z q % o     w h._.Y.W.T.+.o.H X.o.$...:.d.W._.Q.X.X.1 1 # # # = g #.4.K.6.' Y Y ' ` ] R E h ' w z h q U g ( Y ' ] #.<.^ ^ g = , = X # Y ,.h ' a ` r 8.D eX|.$   & ' &.w.' 0.%.Y ] h %.] a %.Y z Y g E ` E E Y ! 6.' Y U s R ! ` ` Y a ( R Y Y E ` ! R ! ' ] R ] ' ] ` a R ( ' Y R E ( ' ` ^ E ( ` ] z E ( R %.U Y Y R E #.] ( E E ' ` h ,.N ].# e #.U z E ( R l t l ",
"e > O % x ' z y h a g Y i a r E h r a Y w i y a E z r r y a a a a w g w g h a Y 6.4 `.`.- - r j a t r h r q r r a a r a a Y r r q a a a a 3 % U D.w o X e %   . ' a t i a g z a w U a y E E y a r h ' g a Y T Y Y w a z ' a a a ( a %.a ( r r g ] T Y &.] #.8.,.%.&.' Y r > > w ' ' ! a h U a a U z U s a s R Y a U Y z h g z U h a U R w q a a U #.F.S |.C.j.4 % %.r #.W a a h z h a ! a U Y r z %.0 |.tX7XOXt.4 f * 4 7 6 2 2 5 2 f $ 8 b.7XtXtX/.. % ] ' z T Y h W U h T U s s Y R %.Y ! h Y z U U q a W y T R E > % t E Y ^ ' ,.<.1.] ' x j > > %   t H.#.r g r E Y U a a U T z z a E z E ^ Y h a ,.w 4 d b B B V Z V V Z Z V V Z V p 7 < . o l ,.Y %.U z a Y Y Y s E T s Y U ] ' ! 3 . . & s B f.`.'.d.F 7 d b N 4 8 4 5 $ & % % u 5 9  .W.G.g.Q 8 % . X % % Y F.6.%.z ! ' z s R Y Y Y ` a w Y h ( R ' Y / ' ` Y U r = > X % ,.#.z s h U q %.F wX@X1   q #.#.&.! %.%.! ! ( a R U E E U Y ` ! ! R %.E E 6.%.U ] E ] R ` %.9.%.#.#.T ( R ` E ` ` U ` %.R ] ] ' 0.a R ! ( ' z R ` Y U ` R E x ! Y Y k &.` E ( ` ` R R ` U ( ^ x ( / f.p.. 3 [ h Y ^ ( R R k l ",
"e e , % R E a a R r q a h U y h h a g w a r q r E z a a r r i r g r & i g i y 9.h `.9X3 - t w r w z r a a a w q r a q % % h a a h h a U a s U = q 8.' & = ! @ . w ,.y g w h q R a h U i a h q Y a h %.W y T z w Y h Y w R Y Y z r U z U t ^ T w g U T ,.] 6.,.6.6.,.' U k y ; ; ' 6.E s h Y E E U a E U a h R T h U r z Y U Y Y %.w w ` R T q 3 w h E.C dXNX(.- # W %.1.h s h Y a Y a r a a h a z #.7 $XiXtX0X%X|.V.m.B.B.{.{.{.{.B.{. X|.6XrXtXtX[.. $ ] ( U W ' E E E E Y Y h s Y E %.` h Y R h h ' g 3 h w h r g > = e g U / ` ( / ' ` / Y h q : % . > >.#.z T h a r a h U a z z a h a U ^ ! U T s ( n 4XhXkX}.l.h.h.h.p.p.s.p.h.i.s.Y.qX[.A o 3 %.a U E R a U Y Y z ( Y E &.%.W ; o @ F l._.l.L N r 1 1 % * ; w s E ( E 4.` W ( E a 3 $ % = 4 S Z ..s.S h X . . & r #.&.6.0.Y ` ' Y ! R Y a t Y g E ] ` ( R ` ` ` ^ a e > o # ( ] T Y a U w ,.B gX|.1   i E ] ,.' ! #.Y R z Y h R ! #.` ! r E ' W ' ' z z &.' %.' *.) 0.` t R U ' &.6.] ! E x ' 9.' ' R Y E ` ` E E w l U Y U Y ( E Y z ( ^ ! z R l R U x h ! z T h ( T ^ ( h 7.6 W.L X y #.U T ( ( } R t t ",
"e , , - Y U r h z Y a i g U w r i h U w h U a r Y h a i r a r r r a i y t w T ( Z FXQ X i Y 3 e q a a r s r a a w a u % q a a r 3 a a a a 3 a h i % >.T 3 3.F.% @ ! g g r h w i r z a R h Y a h y i h U r q z z Y r U a z r 3 U z a R ] ( h ( Y #.T ] 6.,.1.] ,.,.,.%.z q e ; $ #.0.z Y a z U Y z z U Y z h z s a Y ( a E a U E E %.w a r a U U q a E.~ KXIX+X# % ] ' 1.Y r r w a h E q a h h a g ' 7 @XtXrXeXtXtXtXrXcXrXtXtXtXhXcXrXrXhX0XcX0X7X|.. @ ' ( U U T ! E ,.s ' a Y s Y h ' ] a R a a h g T Y U h g y 3 = e l z z / ` ] ` ( ( ` / t e > % X > [ ,.q a r a w h a %.a r z U h U h U s z U Y g l.NXiXkX0 w 5 4 8 8 4 4 j Q 4 4 % s.MXe.@ # 8.` a E z U a a z } ! E ] a @ 1 u b S.FXp.c 5 o & q w 3 Y %.#.W k a w q t q # q l Y ] 6.,.U r w # 3 B _ Y.h.=.w . . @ % k ] 4.! ' R E ( a a = V g ( >./ #.' ` ( E U e > > + . ( ,.E g h r i ,.G eX$X4 o h W #.( ! @.E ` s s U a R E E z E ` r Y R } Y #.Y W U { } a % . . X .   o   r ] 4.&.E a ] ` ! ] Y U E ` z E E E w r w & h U E z h U ' } w & U r w i z Y R a ^ z g = q ,.8 '.v # g >.h ( ( ` ` ^ x x ",
"= , % = E U a g U z Y z z z g a w r T h r h z a r a q r r a r a a r a r r a @.s s.hX% # h ` q a r q h h a h t i r w ; 1 3 r s w & w r r h r q w % o % T e - ~.t @ ` W r q z Y a a a z h h z z U U ' a a r U z r Y a h 3 E q z z r r w z z ] U a #.! #.#.@.,.( ,.9.#.( V t q > q U 8.' Y U a h h R ( a g a z a Y r w #.E E z h z Y ( ( U Y h U 4.h a I. .VXBXW.@ & 6.( ( U a ,.r i g E ( 3 g g U T ( 6 }.ZXCXCXBXHXLXJXLXLXHXZXBXMXMXGXJXGXGXJXHXHX}.X # ' T U U z h t ` z &.R E T Y E h %.Y ! R a z R h a h z U h V e = g h U ) ' ' <.' ` Y Z g e > %   a %.%.E w U a q a h U g z z w a U U Y a x h E b wXNX7X).$ y = r 3 3 3 3 3 & 3 r q d.1Xx.* . ' 6.Y #.E E ] h U Y 7.U 3 $ s.Q.~.~ U X.w = - W ( ^ h g i h w E w w h T a ' w 3 w w a r w t g Y #.#.3 < 4 p D =.T.0 . . . X 3 E Y Y U R U z 4 E t ' #.,.) #.) / x x e e = + % Y <.T ( #.g w <.S gX$X9 . U ( ) / E ( X.' ! Y E T h T ' U ' E E E %.' ! &.&.%   .   @ _ s.W.W.=.b @ .   . q ] 1.E } ! Y E E Y ' z E z u ] %.] ' i i r a 3 3 r ;.;.. o s U & s w w i q W ( h r s W n ).0 @ z A.! ] ] ' ! ( E l ",
"3 > % w { Y i a r g w h w a y a w a z Y z a g w a w a q a a w a w > w a w k &.w '.hX  = U g z r r y w i y w h g a w r w r r a r w q q a R h r 1 $ & u N Z = h.L.  k [ a z a a h r h q q z a a E r Y U Y a h E h q h r Y T R r U Y Y q z a %.T a ] #.#.1.] @.$.%.( @.U g q q > X ( >.h E z h h U q ! s R a U Y Y z q a a z Y a U U E V h h Y h J.6.#.9.V W.W...% > S.#.Y h U h U a y U U U V g r z @.2 O.l./.]._.Y.l.l.f.f.t.t.J A B J o.-.-.g.`.k.M 4 3 ! ' z U z E U a z ! Y h z z ( Y ` Y U E s a z a a a a z h h - e g h ] ( #.<.,.] ` ( R h > > , . e 6.%.a Y U z a = h h h U a z z Y ! z l h g ( D jXAXCXT.. $ g ,.^ >.] { 4.( ( h h 4XtX X9 + z %.h h z z E U h { 6.Q ~ x.:XK.H.] $.0.4 % ] <.@.%.' ( E #.U E E R U z z ( ` z y U z Y g ` U y q R ] ,.E # q 4 |.wXm.~ 4 % q Y z U a U E r e U i ' #.,.>.' / x Y g t - , + e >.,.t U ,.U q $.B 0X>Xd . V T ( ( %.( ,.%.E T Y h U U Y E ` T ( { R R Y 4.T & p g.2X]._.Y.d.s./.;X|.P 6     o q ' %.%.@.%.%.1.&.6.%.w.z U 0.0.@.Q s ( ( W ! ] %.2.] 1 & w 1 Y a ` ] T 1.] i 3 u 8 j. Xb   q ` r ` %.%.` %.^ R ",
"e , % t ` ( a r T r h a w r U z h h a a a i h z w r a r q q a e a w s r r a %.4 wXhX. y ) z h h h h s a i w r V r r r r ; 1 q & U s w 1 w 4 w i b s N T Z j h.5X  @ &.w w r h a z a ( h r h r w E i g r ( a T h z U U z z Y z w U ] a w E a R a U ' #.6.&.#.#.,.,.#.^ h y = > = ` ,.z U U U h s Y Y U a z a a h U z ` E U Y U h E z g g y ( r ' %.4.8.V p T b & 3 %.%.0.U r a s z a a ` a z z y g #.1 p 9 d 4 8 u s Z T j 8 8 4 u r u q i j i 8 4 3 h i ( U U h Y h ,.h a ' R R s a z ' w z a a a U ^ U r h h z ` w = e = g ( >.%.&.,.#.) ( Y g t , % . y ` 4.z E E h a w a h z E z a s z U a x / g ] +.MXHXZXlX6   = ( i g h 3 r r T q w..XkX#XM . & ,.h a E %.U T a ( D.3 & < p ! ) 8.T 8 u   . r 3 h ( ) =.,.,.] ] ' U E Y ' Y ' U Y E ( ` ( >.,.%.) ( r e X = Q fXd.~ 7 4 w w ! %.Y h ( ] z 3 U a ( ` #.' ' #.] Y g e , % . = ,.D.] T / T r ( F 0X,XN . Y >.( #.( ,.( #.' Y E g ' ` W U h E E ' #.7.w.P.r u a p 5 < < 5 4 4 9 ..@XwX<Xr.0   . 1 & r E a W %.6.&.&.@.] q e a 3 w & o # * * % q w w & $ % X X & % % $ # # . @ . K <XOXv +   @ . ' E ! ' ` E U ",
"3 > O % Y Y q = a a r a a w h a r g h a h r a h a 3 r r i w q a r w a w y h 6.p BXNX$ r 7.! T T ! W ! Y ( Y U E W Y Y ' Y W R E ' *.=.) _ 8.@.d W T j U Y / K.5X. @ ' U a a a a T R R a z s s = a h Y g a E %.h h h r U a U Y a z E h q h a q a #.' #.#.1.) &.,.,.,.E g r > = - ' 7.g ( R Y z r h h g i U z a a z a E E R E U a ' ( a E U a h U ( 6.J.s i w 1 1 U R z ' A.z a h h w a Y g e g U 3 #.U w r i g t i V U E E g h U W R ! R V T E i V h g U E Y ( T T a g E a z z U U z U R %.a r a U w a z z z a w g t g = = g ] ( ] @.>.] <.' ] x q = : . a 7.` h ( w Y U a h = w a z a R s R R g x g @.g.vXZX[.'.Q.X . ( [ g ' #.! E T s 9..X}.;Xu.* o #.U z a Y Y Y Y y ( #.] r & & u ;.@.R.+.~ 3 X . . . . 3 r a E ( ` z R #.6.0.%.] ! ' ( ( U V g 3 o o r 9 X.G.:.D 9 % % 1 s ! E U Y z ( Y U t ( g ( >.>.<.>.] Y R t e - , . O ' 6.T ^ T Y g ' G eX1XG . ] T ) ( ) ] #.U ( Y ` E E ! U R ! &.w @ & 3 y z %.z q = e 3 e q t a w 5 b.@XZXvX{.P $     +   . . .         @ f @ @ * * f 0 7 7 0 f 0 7 1 < n 0 u 2 f b J F J J L J a.1XHXNX X-.J L t.' ' E ` ` ^ Y ",
"q > % a ] z q q a h h h w r g w r h z a h h a h s q a r a r w a r a a r r Y ) 7 BXNXS % R q i 3 4 i 3 e z U w i w 3 1 r 3 % % = & i 6 T V p ! @.T ) ) W ` b xX5X  q E Y g h g r a z U a a U w r g a z z q A.U Y ` Y h Y a z h z z a U ( a a a U ^ T ) 7.1.( ] 8.,.,.^ g e q = % %.,.a h h Y R w a z a a a z Y U a U a z U a W R Y a h U U t r a ( ( ` ' E U 3 a E ! ' ! h R w a a h r a h g r i i g U U h h Y T a y s w a i w w r a q 1 r a r r w r a E T U V g U w i E h a a g z q q U R E U U r z z g h R h w q r t t - t / ,.,.1.1.$.] ( ( h y = ,   g @.6.h h ( z E h Y g E w w t h ` g U R a ` V W.9X#XB 3 V i . % D.Y t ( z ' r %.D.F..XgXV.0   T [ z U E a U ! E a 3 a ' %.s & & & f C +.s.`.X.V # .     . . % X . : q t w 3 # & X % % % .   d G.W.Y.:.Z 6 4 % % w s z E R U a E z Y ( Y t U x R ` ' 8.#.' ` Y x > = % + O ( [ Y U ( h g ( H eX1XG . ] ( U T ( ! E %.' Y h Y T ] U ' 6.w . @ . . .   ; e = q w r a e a a 3 b M.@XeXgXvX,Xn.P K K I J K c 6 7 F y.j.b.x.b.M.B.{.{.{.{.V.{.C.{.|.@X;X$X<X,X1X6X0X6XwXeX0XtXtXrXeXtXeXtXeXtXeX] #.] ' ` Y z ",
"q > % = ^ E y w q a h g h i y a a a h h r r r h a a h h a r w q a a q a w W &.9 HXAXY.3 < & & 3 3 - $ $ 1 3 1 3 w < 3 3 1 1 q 3 o . 3 4 V r 1 w T N s u a S <X:X@ % Y h q a g r i r a z h h E z a w r ( & ` E z ( h a a g z r W a a z a U a w w Y h ' ] %.%.,.6.,.{ T t q > = % ] D.Y z a h h z r z z z E r a Y ` z a ( #.g h Y E z z R U E E a a z [ H.6.U z k %.E s W z h a a g h z h z T T h 3 a w e 3 = h r r w h 3 q a t g w r a a h U r s a a h U Y z s a E h g h T h a i E & a Y E E Y Y z z ( U R U ! ' h r r - - t ( ( %.1.,.6.#.>.R g e - = X g ,.^ r h U z R z z a E U U w h z U w } U ] p b.eXd.& g t _.# # R >.V g E u W D.H.9..XjX6Xy.  % %.^ U a Y a Y E R Y r @ a ' ` @.h & 3 & - 5 S l.W.Y.X.X.D q = & * @ * @ # % : 1 i S C ..].+XW.:.D j w $ 3 i a 3 U h r h ! R ! U E a E a r ^ x #.#.>.#.#.#.( ( h q > > . % 6.7.z R T ` V >.i.wX6X:.  #.$.W ] %.E ' ( U ' E ' Y R U ,.} A XX/.h.+.| S d w & # @ . . @ . 3 C b.1XjXwXwXhXNXjX9XqX1X9X0XwXgXkXjXcXlXBXZXBXBXGXFXBXBXZXBXGXBXGXGXGXHXHXHXBXCXNXvXBXMXNXNXNXMXMXNXVXNXZXZXZXZXMX] #.] ` ^ R z ",
"r , o e ( E w i q w w w q r a i a a a h a a r w a a a r w a q a a t w r w E &.D +X#X`.+X:X;X;X:X<X:X'.W.g.d.s.g.Y.Q.W.Y.Y.Y.Y.W.i.Q s w w 3 1 w Q V i 4 5 ..p.X.w q Y z t t R z a z r h g a h z a z z a U w z a ` Y E r w a R h a U s E g a r a E z T #.! %.@.1.8./ U t > > , - { 6.g U Y U z U U R Y a E a a U E z z Y Y E Y U h h E E E V q 3 e i t U ' U z a %.R ` ] E U U g h t h h s U 6.( ' q q h a h Y E a h h a z z z z z z h h R ( h s a s z z a Y h a a r h a T Y h y h a a U T Y E E z U U U U h U h h h r = % t [ [ ,.%.( ,.<.( V e 3 , % X h 5.#.r y w 3 Y z r y ( z E a Y a U a x a s b }.1XS w U 3 +.g.  - 5.R h %.r @.A.F.F..XlXNX@X0 . a Y Y z Y T R E z z Y E a a w w ' %.] ` r 3 u 4 9 S _ P i.O.f._._./.]./._.'.W.Y.d.h.o.D G d 4 3 & @ % Y Y &.6.r U E T a R E R ! U z z h r E g / >.] ] >.] ( E g e > > o X U 8.V y g ' / ^ d.0X6Xd.  R ,.) 6.E E ( ! T %.! ! ` E h %.R 3 A L h.p.l.l.l.Q.Y.T.l./.'.-X`.'.'.'./.Y.g.s.G.Y.Y.Y.h.s.s.2.s.s.s.W.`.'.:X}.].W.T.l.h.p.X. .s.d.s.d.g.Y.Y.Y.h.+.o.) =.:.g.Y.W.G.g.h.U.T._.W.Q.W.Y.] ] ( ( E U z ",
"q = % 3 ` T r g r i w y r r a r r r i y h a a a a a w w a a a r r r r r r ! &.8 c N N p 8 8 u 6 p 4 6 4 9 9 j p p b V 8 9 p p 9 3 # & 3 a s a n s Y _ _ W s 4 1 3 q R U r a a h U z a z a Y z E q a z E a E Y E E a h a a h h a a Y z a U a z r #.( @.%.] ) ( #.@.' ^ e e = = % ` %.a a h h h a z s Y a a E a h T h U h U U R &.a U g E g U y r y U a w a h U a s a T z h s z a U a a r % a #.' ] ( 3 a a h U a E ( U w g E U U h h s a U R R R z U U Y h h h t y a a h Y U y Y U Y R Y E R ] E Y Y ( E ( U Y U Y Y g = = t ^ ' $.,.#.%.>.` ^ h e , : . q 6.( q r Y a a h W a a r U g z U z U U a U H >X;X8 % p ,.& _.& . ( >.( X.G.h &.#.( 4XlXKXdXt.  r x U z s R Y U E ! ` Y z U Y U ( @.8.R ' #.#.g i - 3 j V n c 9 p 0 b d < @ 2 1 3 - % X % - a g s ) 6.P.8.0.6.s R s U a a h Y R E q U h = E V #.@.>.,.] ( ( ^ z q > , . O R 5.] h U T ' >.h.eX0Xi.. q / ) ! ( Y ) &.r h R ! z E ` ! 6.r 3 % 3 - - 3 4 0 9 6 i 4 5 2 f < 3 5 4 w 3 r U Y ! a ; & % = , 3 q % ; 3 4 3 4 5 3 w 1 q 3 q f w a d 4 r = & & 3 3 3 i a q r 4 4 y w s w V p 6 4 4 ] %.^ U R x a ",
"y = O q E T a r w a q r w r r a w a r q a g r W g r a a z a r a i i a y y i 7.= & $ q % # & & 1 = % 3 % % 1 1 & & & > & % & $ % 1 a q r i 3 & 1 r q q w w > a & 3 a t q q a a w a U U a a a U U r i a z h Y w ( R ` z ` g a r ` a r U E ^ r y W %.E #.&.,.#.&.( [ ^ ( i t , - % ` 4.r z U U h h z a z a z U h a %.E Y ( z R ] h z z x R ! ' R a r h e z T E x k a s g a z ! q s r g t a 3 % U Y z ( Y g h a ! ` U z U E W s q ( &.a ` r U ' E r ( Y U z a s r s ] z r q Y a a U %.` h U U U U ' E ! R Y R ! T s U R h = % t ( ` ' ] >.<.Y #./ t e , % o t >.^ r g w h z a E E w h h h Y W a U U z i d.9Xz.- r r E r H n   % #.7.d s.t i W @.c.:X<XgXM.* 1 a z s a U z Y R Y Y ] W Y U Y #.( #.` i a ] T W >.#.$.z 1 & & 1 1 & * q 3 % 3 y r U ( ! z ! a s h h Y ' ! %.U Y z U Y z h a ` ' z a h 3 U g ( ` <.>.' >.` / h e > > . : x 8.U U a h h 6.d.0X,XX.  ` Y ( ( g ( ( ,.Y Y ( g Y E Y U ( 0.7.w.6.&.' U 1 & q & 3 1 q 1 w z l h E Y ! @.] s s w # 3 @ 3 q % * o & r a a U U Y E ( R W ( ] U W ' i r h a 1 & w h U U Y r & w h 3 1 & % $ w a a #.] ! E ! g a ",
"q > X q ' R q a r a t 1 a r r q r r r a a h a E Y U a r a a a r a r q r r 3 Y #.a Y a z W R ` Y E T Y #.` } E ' 0.! ! ! h U h ! U ` E s R U U ' Y s Y s T R ' ! ! h U T i a a U w a z q q w a w R a a r z r z z U U R ! E r q h r w a h w g 4 = ` a ) %.1.' 7.,.' ^ T x q = , # ^ 5.r r i ] h g a a a h z E R Y U U ( U ` ] 4.R z R t z U E ' w a g z R t ^ ` r r a a ! q E ` a r Y Y ' $ . % U Y z h U A.q % &.E T i a ' 6.& # ,.U z i z w.%   X w a s s H.r & 3 E a R q z H.q = ] z z ` Y Y R R E ' R Y Y z a z s g % % e ^ <.T ' ] <./ T / t e = % . , >.#.r ( w w r h a E z U R U Y h r a h ! s W.hX+.# e T a Y F  .o % R 7.j :.# $ % f P ;X).jX$XK X a a Y h h z U r T E z R E T ] ' W U Y T U a a 3 % y h ,.8.#.T z a E } ( Y Y Y U h h 3 r y h a h Y Y h E Y Y Y s z a ` E z ` E ( z U a 3 U V ( ' ( ' ,.] ] ' T r > , o % @.%.! 1 u E a 7.-.6X@XC . ,.,.U ) T ^ ' ] E Y ' ' a E E ] [ %.` 6.@.` #.' ` ! 6.0.8.8.9.P.K.K.9.6.&.P.A.6.g w a r w R R ` ] %.' [ %.` ` ` z E ! ! ! 7.,.] 9.E.] T ! W h z = r ] %.] ] ! ] 6.8.#.4.%.( ) ! #.#.( %.] %.` R ^ z ",
"e q % q T Y a a w w r a h a a a w a z a r a h Y U h a a a a s h a y a a i 3 3 3 * % @ * % * q 1 # % $ & % 3 3 % a z q q % % & q & q 3 & w & & q q & & ; q % 1 r y z g U a U a a r h z Y a z ` a i a z q g s a a U Y ( h U ' a Y w q s g g Y w # U ^ ( E ) @.,.$.) h T g = = , . R { a a Y ` z y a z a a a Y Y a E ! E ' R q 7.Y _ a l =.1 # [ R h t ! &.4 % @.R n k R ) 1 # a R a e U ) > o . 3 h U h &.W % @ t 6.z s U 8.r . X q $.&.*.w < b @ .   o : i w . o % 0.V w w E h . . ^ &.z E E T ( Y ' E ' R R U z a z V % % r ` ( ` ' ' >.#./ R g e , , . = #.' t h a h g z z z a g E a ` a h Y Y W s [.1Xb # g ( U W +.D o r ` K.1 _.@ & ) i % k.{.fXfX X@ 3 a h R U h U E h R s R ! E ( R ( z z U a W z ' ` ' W E U a w a r s r y r - t 3 r g T z z E ' z ' Y Y U E Y } i a Y z ` ! a s z U a r = ^ g ( ^ ( #.,.<.` / Y e > > . . E 9.[ Y h R q q.p W.s.& % 4.( ( h ! T / ( h V T ] z z z ` %.9.H.!.H.D.K.0.Y W E R %.` ] q.A.#.E ! ' Y ( h g s R h R r a a R z R ! ` s s r w s ! Y Y ' 8.9.{ ' a s w q r r z z r a h h a r r z a z z x U h a z h %.] @.` R R U ",
"e > X q ] U w q e a r w r w 3 q i y a i r g y z s h a g a r z a k z w r a t g a w a a r a a a z h z a s W U U Y a R R z h a z z z U R z a g a a U z R g z a k Y i h h h e r a Y Y r a z U E E a q q U a s h a a h Y ` ' q w z ! r q E a U ' a 3 a z ] ' ] ] ,.] #.[ V t = , , X { 5.r h ' q a a r r a a w r Y #.R g ! 6.r O } =.%.{ &.a %   a ` i U 1.z * . U ` t t &.s o   % W E r E U = . % @ 3 w x ( d n @ + l *.s w.T c J . # ( V W d t.n.v   o % . i 2 -.f . l ^ i i 3 6 f   % ,.U h Y R E E ` T ( ! R U Y h h h a % e ( ) ] ,.` #.^ h g g = , - . > ] ( i w w i g z a U h z h ( z g a U R ( D #X[.5 & T i z a i.8 O U R 1.q '.7   R H.w 0 (.<XJX0XH o g h a ` z z R U Y T a Y E ' U h h U E U E z U U E z #.' U h ! h R Y U h & R { g ' U E E z Y %.` U Y E E x [ ! U R k z ` U ( a U R a 3 / g ( >.^ ] #.` #.R h e y y . % E 0.Y z ' %.a #.w - - w e ^ ,.E ( T ( T T g ( ` E a E R ` 4.] 9.0.D.8.H.9.0.J.A.I.P.&.%.%.w.H.9.8.%.&.6.%.] ( U z E ! ] U ' Y ' R @.6.] R U E R R E R E 9.6.8.8.,.I.A.( U z E E ' ! ' } E ` ( ` %.` E E ! ( ` ' ,.] &.` ^ R x ",
"> % X q ( R q a w U a w q q h a g i r U a a a h z z a a z a a a a a r r e w r r w a k U Y ' z U h r a i h r a U a a a Y s r a a a h a z Y r w a h E ! ' Y h a h h r r a z a w z z R U ` s Y z z a r a z w z Y U a r h %.h U a E a U E w a Y h w g Y ( ( ( ,.,.,.#.,.! y > > : % { 5.a ( E r r w a a r a h r U ! E R #.i # . # k 1 @.E 0 P # * ` h ! 1.c e.  % w.z V ] p t.2   q %.Y 0.f B *   = U h Y r b D f   o E U ( 4 ..J %   & h j u s...b . 3 % & w N i.n @   s W % p | b 1   a &.E E ^ Y ` ` ` E ` U E Y U U W z % r ^ ] ' ` ,.>./ E x t > , % . e %.( a i r h & r z #.a U a z U U a h { ,.t.6Xz.# o W g T h l.e # ( R x %.d.o.. w %.0.& t.;XPXbX$Xw 3 Y Y T R s R E E U h a Y ] ` ! l Y U R a ] R % o . & ' %.R z R &.&.w % @ . t ' r a z h U h z E T a z U E E E Y Y w h U E E U h E i q h g ( ] #.#.,.>.' U t e e > o ; %.9.Y U r { E ,.( %.1.] E #.9.&.! W ) ' s Y E %.@.z R ( %.%.! E } } ' ' %.E ` &.;.H.H.[ 4.8.8.4.0.5.( T ( ' 6.T R Y U ' E E ` z ( Y E &.} U U E ! a Y s E ' ] 1.K.A.&.%.' ! E E E E ( ^ E R E ` E ' ! ^ Y E E ` [ >.>.} R R h ",
"q ; . z ,.h q a a r R h h & t i r a r a a r U E h r h h z a h z U a a s w i a w a U ' W % W %.z h h a z R U a a z k z U R U s w r z a s h Y h s Y %.& a #.h z g h r U a r Y z a a r z s a r z z a Y r a Y z a r E ] R Y Y E a z a r Y q w U ] g ) ( Y ( ' ] X.( ^ ( Y a w > , o ^ ` q a ,.Y h U h z y w w T Y ! h T ] u ~ $   o & y & J x.f + a ] E w H O.*   l ` E < D P f . O U %.s n H 4 . . r ' Y $ X.b p *   % %.a p X.Q p * 3 g d ~ =.| n * % w ' p @.X.Q 1   3 w b ) ~ N u @ X %.Y x Y ( ! ` ' R ' Y z U a U R h > r ( ] ( ' T >./ / h t q , =   r ` ] w q a h a z w E E E Y z z a ( h &.E k.0X+.@ 3 ] g %.b ].$ 3 ` U 3 9.B W.  1 9.' a D  XHXZX0XF : a R U U U ' z U a W U a U ' ' E U ` E Y A.U f f o   ; 4.E U E 6.' w 2 @   O #.( R a h h g U R Y R U z z ! z h [ ' z z R h E U g a 3 ^ U E ] %.] %.1.,./ U t = > o % 6.J.a #.U r ( ' z r %.' Y ] ! @.' R ' ` %.! ' &.%.E ] ] &.] &.' [ ] %.} A.9.' &.a a &.E z ' ` ` 6.8.4.E Y ( Y ` T R T Y ( E ! h z ` E E %.' W ` R ` ` E U U ! R E ] ` ( ( ' E ` } R E E E E E ( ` E ` ^ ^ ( ' ' #.>.` R R x g ",
"& =   q ,.z a a r z w z q w q h w a & a a h z R a h a a h s z a U a a a u r a r h ' E &   % E H.E a a h s Y U x Y R a x ! ] %.] ` k k r a z a U 1.a o   e ` U U a r h h h h a a R Y R z a g a a r a s q w g h Y z ` [ E h U R a ` q a U r r w w ( T [ ( ] #.#.] E ' z a q > ; > [ 9.q a ` E U h s a r a r h h U a T q C ~ 8 &   + 1 n | S d   o Q h w X.X.d . . { w 6 X.b & .   . & 1 p 7 u #     % 3 p X.B b 6 @ . 1 7 =.X.@.p 1 $ q i ) $._ W 4 . q a s S.E Q w   * 1 z p W Q d *   r 6.g h Y ` U U E R T Y Y h h U h = w ( ( ] <.>.` 7.` / g r = > . a %.%.E r r U a U q Y R ( U z h y g r ,.j ).0Xn # g T a &.+.h.# x E ( 3 0.1 `.1 . &.&.Y 7 k.dXbXeXO.o % Y R q a r Y ( E z E z E U Y R U ,.R a A.1 5 =.b   + l ,.U E ! %.$ Y.p.&   3 ,.E h z a U r R R %.%.E E E Y U Y U g R Y R U ` U r a T g E ' ' ,.%.,.,./ U t > = . o T ,.` Y ( W a ,.g a R ' ' ( E Y R ` U ! U ! ! 1.Y h r Y ( Y U U R ! ` ] %.&.,.%.Y 3 q ( Y R ] U U ' ` ' U E T ( R ' ! R ` R ' E z E ( U R U z ` T R ! R R E R ! ( ( E E ] ' ` R ` E U U E ` ( ` E R E ^ ( U ] Y ` >.>.^ ^ ^ l ",
"> > o e ] a r a U ' q s w h w r U a h y r a s E a g a h a z R a a z a a a a i a T ! f ~ W   % ^ 6.a w g Y E ' ` @ * : @ o # o w ' &.z w r U ! %.r u 3.@ . R ' h a z a z h a z z r r s h r z z h w a a U r w q z a z Y E ' r ! Y %.Y 3 U T a T t #.U <.,.( ] #.#.E E z a e q ; q %.9.h = a ( a a z h r U r a h T ' ! 1 ) X.T s $ 1 u C X.@.T f   w 4 W $.1.S &   % & C =.! n 2 # % f u C Q c 6 1 # % 3 N C W W c w f d H | 1.) ) Q s < Q S.0.@.) T & . 3 *.*.{ 2.Q % # p 0.D.0.$.Q r   . 6.Y i R R %.E U R ( Y Y g Y ^ h > g ( ) / ( >.` <.' / g y > , . h &.' q a h h h 3 q h z E a a V h g V ] B #X$X6 % U E ` T /.C % g Y y r ] q d.b   t ] [ < t.%X0X6Xb.@ w w Y R E a s x ! z h z U T R Y E ] #.3 E E % q p 1   * ` s E z 8.r V U.9   . ] ( T ( U R r T a E ` E R E h U z Y z s a h E Y ( z q Y a Y T ^ ` ( ' ] ( h e > > . X ( %.z h ' E ' h ( ! s U #.E %.&.Y Y @.Y &.U ( ] ,.E U E E ( U z U E R R ! &.E %.' } ! Y E a E E ( 7.#.! U ] R h Y ( R U R R U ] ' Y ` U E %.U ( ] #.R ` E E ' ` ` R R E R R E E U E ' ` Y E Y ` R ` ` ( Y Y ' >.,.5.>.x R R x ",
"y , o a ,.U a U ` Y Y h r 3 r a r r r i r a a h a a a h w q a z s z a a z r z r %.U 8 f.jXB . % U 6.a h %.h , + . > h.E # . .   . r 8.z a W 6.& 9 k.s.u . q ' W g a h g h h z h z E a h z z a z r U q s W U Y z a a E Y E h y U h U a a s h ( r a T ( ) #.>.^ ] ( ` V r e = - % ( 6.i g r a U a T g q w U 3 a a E a i 2.1.) $.Q Q Q | =.] ) i @ @ 6 $.X.) X.d . # 5 ) $.Q 1.&.) C @.D.A.) h N d n 7 B Q 2.) X.S B ~ *.X.1.0.<.1.2.$.S X.1.&.2.$.D.N V T _ %.$.S.Q j N _ 8.S.G.D.,.) %   e 6.h h Y T T ] U U g z U U t > e U ] ) ] ) %.$.' ' V e = = -   a ,.%.h i g i z Y Y q ( E h 3 r h V ( #.| hX).$ ; } k 5.i '.< & U ] Y a r z C o.X % >.z ] 6 [.wX%X X. e U U E a w z Y z U ( Y a U s a R Y a Y & ( & q & z + X r * Y @.] %.r } s #   ; ' U h %.R a T a z R E z ` U s Y z E E R R z U Y Y 3 h z ^ ^ #.<.5.@.@.( R l > , . % T #.%.w E E h #.Y E ( ^ ` E ( 6.] U s } 6.&.R %.! R Y Y ( ' h Y z Y E ` E ( ' U %.E E R R ( E U r %.E E ! z ` a R U ( ] R R E ( E R ( ( Y ` ' ( #.' ^ R ] E U ` Y ! T ! Y T R ( R ( E E U ( E ! ( Y R ( T E ' ` >.6.' ^ R R x ",
"> > . r ,.h h w U ( U h g U a a a = q r r a s U h s a z a g a z a x a z z r w q %.a & F W.wXB   o W ` ' ) 1 :.'.`.W.d.i.:.g.R.( # + t ' E &.@ v b.J s w % s ! a g h Y h a a a z Y z Y z s s a a a z Y Y w z r z h a h E ( U h a r ( h h U z &.U ] T E %.' ,.#.( ,./ R g t = , e ( { U E E U h g a h q w t r w h ] q ) F.G.1.1.) ) *.*.6.$.@.C s p T Q Q 1.) Q s h 2.8.0.1.L.D.F.8.J.0.! %.%.) T $.) *.$.1.8.' @.$.I.S.1.1.,.@.,.6.S.2.%.1.) 8.,.6.A.@.1.E ( %.6.F.<.$.$.1.g ( ,.E.0.w   O ,.E a z U h W U z Y h h h h R e T ] 1.%.( ( ] >.#.h h e = , . y ] ( U g y h a U a z E z h a a a r U ,.p.gXl.# q %.z %.B p.# 3 ' T h R t ` d l.. X ( a &.1 p.eX>X[.. % a ^ #.z w t Y U r ( ` Y h E U E z R s w q W % q z ; . o o % Y U T a r 2.-.@   Y %.E T ` h Y s U E E E a R U z r Y Y U z T U R Y y ( U ( T #.[ >.( ' h g t > e o o ' 8.' ( U U h Y E %.a R Y ! ( @.] &.E U ! @.U *.! ` E Y z E ' U ' ( U ( ' U h U Y z E E T Y ' a r %.` R U ` U a Y Y E ( T Y R E E E ( E ! ( ] #.( ,.[ %.T E T ( E ` ( ( ' ! Y E U E E ! Y ` ! R ! R ( ^ ( R ] 4.,.5.^ x x x x ",
", , O a 4.U h h h z a a y h q q a a a a a a h E s a s a U Y a z a a a s a a a a U #.# 5 S d.4XA   . z ,.# l.qXo.N n b B B c F '.z.  + ] 5.q D [.S @ 3 w q z R s z h Y z a g U h z U z E Y z s U s s k a a Y U r a a E E %.h a ` a h z h z z &.q ( E @.7.@.%.,.<.' ( h g e = = % ( ` h U U Y a E h a % i g i w E W = A.S.9.7.F.S.1.=.&.$.<.1.$.3. .~ 1.1.S.,.8.0.F.J.W %.E #.8.9.K.A.T ) h ( &.1.F.L.6.8.1.6.1.L.0.8.8.1.,.0.7.1.0.2.@.&.E a a ) 2.1.6.,.i 3 3 r K.F.L.[ h - & 3 ' 8.) &   > U g g U g g ` g g R h g R g y U ( >.#.] ( ( ` / ^ h t = , X q ,.,.r h a r r a h a Y R W U ! Y h E &.b.<XO.@ u { b E L ..@ 3 ' Y U E 3 8.# '.< O R E z w G gX,X[.@ & 3 z ] #.E h E h q U E E E z E ' R E U s i W u 4 a U 7 o o @ > ` w } & +.:Xv   & ,.&.#.` Y a a R Y T U R %.U U z z U ! E R a ' z r U h T ^ ' ' <.' ( h a y e y + X <.7.U ] %.U g r h ' T r U a ( h ! &.( ! ] ( r ' ] ` ! T h U g h U E ; z ' E ( Y ' U U T ] Y R ' E ' E ! z R z z T R W Y Y E @.E Y Y T E z E Y #.^ #.,.&.&.@.%.>.,.&.&.&.6.&.&.#.7.,.,.%.] 0.&.6.,.6.&.8.6.,.9.D.,.,.( x ^ x x ",
"= > . a >.h a y a r Y z h 4 i w = r i r r r i T Y z z s a Y z E z a r s a a a a r a [ e 4 c o.;XJ . o w P N.a.f # % # $ $ - $ H |.A . k % +.4XL . 3 r r h a ^ z Y r a z a w h Y h z z s R z a z a w z z k U Y r y a a E ^ ( U T ' R h r a a 7.a i ` ( ] ] ( ( >.( T h g e = = > 1.[ U U h E z U h r % q w i r ) & U E.8.1.8.0.7.6.&.&.&.( 0.,.S.1.W ! 1.1.8.D.0.L.#.E h i T ` ' #.( ! ' Y q i ( #.1.,.w u w T ( 2.1.7.1.) ( ( Q 2.A.*.T 4 % w a E #.,.) w 3 = % ( 1.1.T 3 # = 3 q 6.( d .   R g w r g y t - - q = g ' r 3 g / ' ) E ) ,.1.^ Y h r = , . = ( ( q r 3 h a h U U z h z s E T a %.E |.$X| o U k Y k a.Z o a ' a R ` h ] Y g.B   t %.y h 6 ;X9X X. w 3 y #.,.Y z g z z g U w ( a E R E ' E U Y U s T n S.y.c . # X w i } s $ '.d.@ o U &.U U E R Y a R ( a a ! U z E E Y ` a Y z U i t U t / ^ ` ' ,.] ' ] x a e , . O ,.F.t ' %.( ( Y Y E Y a R &.h E R ) #.V ' h U ! # . % . . , # @     . % ( E ( E ! z R U E E Y R E %.' Y ] E ( z R ( R z z Y Y #.g x ` z g ( h Y ^ ^ T w ;.u 4 w i h r z s W s i s R W T U U R h h U i U U U ] h >.%.' R x x x ",
"= > . x >.g h ' q a y i q w 3 a 3 q t a a a h E E R h U h a z Y U a w a r r r r a q r w.i ; 6 O.<XY.* J $Xb.F 2 e U V n ' %.1 c j.J @ $ v |.t.% & i w s = % h i h h g i s h y a a z i g h U U ! a Y Y s s z E ' h a r z g h ' z ` ' a z r z %.r ( h ) $.#.] #.<.` ( h h t > = % ,.,.U E U Y h Y s z 3 w i r z y w F.8.$.E X.( F.$.1.! i U @.1.H.E.1.V T j / I.F.J.E h V w w i U ] i 3 w z ] q & ] @.4 Y T ^ h ' 0.S.7.' 3 t g w ' &.@.a & > 3 3 h ,.] h $ & 3 r e F.^ U % # % z # R ] E #   h ` U U ( h #.g g g g t h t t h ( ( ( T ( ] >.T Y Y a q , . y ] T r y i i t e g / q a a U E V W ,. .0X[.C o w t E 4 W.p . g ' T ' r U i ,.D i.  e ,.^ %.3 f.@Xb.# p a g T E U ` Y h z E R i U E z z Y #.` ] #.@.Z $.#.2.U.H e   o % t w ,.r G }.5   * ` R Y h Y ! x h ' T ! U a h h E h ( ( T y s & e U a ^ / ,.{ ` ' ` ^ R t > e . - { 9.g g E ^ ' z U R ` Y q ' E ( ( Y #.@.T ( 4 6.# s.1.j w r j 3.G.5   > ] g h z R h a Y R E U ' ` ( %.z ( %.E R h U [ E a z Y h x r a E a T ^ z U ( a o               .         .     .   . . .       .   .   X ` ` #.{ E R l ",
"= = # y >.z a ' ( R ,.U Y T z g U i 3 # # % o % = w = = X 3 i R ! ! T Y ! E R U T W a r *.s % 1 d <X XZ.C.v.+.@ o o o o o e f n y.B.c O.;X XF o % a ] ] ! g E ! W ( T U U h E U E ' ^ U g i q u a ' a r r # & o $ 3 % e x Y %.& U h Y a a a 5.U #.U ( ,.) ,.( ,.( ( Y t w > , . ( ' h a q Y s U g q 3 q w = Y 4 @.0.( 3 y = g 2.1.E q & i r T 1.!.^ e % % & 1.0.=.a h h Q W #.' S.#.a 1 3 U T W 6.1.T U / <.$.%.V F.( h w 3 / a z ,.V 5 % & s k t g  .W = = % #.3 ( ) 4 $ 3 3 T 3 i E _ i . = ~.] E Q ( U V E U T #.,.Y U U T ` ' ] Y #.<.( V h r = > X e ' ' r w 3 a a U r Y [ w q g T U ` #.+.gXz.5 & q w %.7 '.- - R z ( ] z W 3 7.$ _.@ & >.g ) & H 0X(.@ 3 i w U E E ` ] z h z U U z U ! a U ( ^ E #.T W ( L.=.A. .5 # o # g a T ! a [.y.@   a ] T ! E &.#.R ' a Y z z z a U z U T %.( U r & E h z / / <.<.<.` ( h g > > X - >.,.,.V ] [ ,.E s ' ` ] h h ! &.6.! ( 8.] #.h 6.3 '._ # # # $ i.;XG . q %.U %.R Y R E ' z #.W a Y ` z U a R ' U ] a 4.&.E U 4.8.{ h T h h z ^ ( { ( @.P t.O.O.O.t.-.P | L I F F M F M F F I M A A A n n m B $ . %.{ ' ` ^ R x ",
"= , o h >.a Y &.r # 3 3 q = > > a = 3 4 w w w 6 < 7 v d #   . @ % % & w w w a a 3 % % # % t & w n a.9XeX@Xx.B 4 & 1 % 4 w V d A @X Xa.>XwXa.d .   % a R a a s a w U z h h h r i r r E y e % @ # # # % # $ w 1 w w w o . . % ` E Y Y h U h a 6.w ,.U ( ] ,.%.( >.( Y h r e = = # 4.' g z U T y T a r = w i h E s X.%.U % = 3 3 Q S i # y h h h / 2.a % $ 3 r h Q G.3 w W T a U ) X.Z 3 % E a h a _  .i x Y ,.Q ,.3 ) h i w w g i w d =.1 % r q } = 4 p.j $ i g y ` 3 C = % % h - [ q ( 0._ > o ] 9.^ ( ( ^ E h Y T #.K.U U h / ( / ( ] #.` T ^ Y r q > X q &.>.g q r a t U h h Y ( r q g U ( #.W.jXl.% 3 z U ] :.l.X e ( a a h g h e #.w +.u o ^ %.E k p ;X[.  q y % z R ^ ( ( >.h ( U r U R 4.R T ( V ` E ! & #.F.0.&.=.4 p 3 . X E r ' w H |.D   & ] E z Y R ' Y ' E ' h E h z h h y E ] E a a q a U ' ' ] ` #.' ` T h t e > X % ' ,.h ( Y ( h R E h ` E ' Y Y ( #.! U U ( ( a 6.& W.N # U ^ r H $XB . q 0.z ! Y W h z z U R ' R E ' ` ! ] z E s a ' a U ` a ( Y ,.g g h h ^ ( ` E ^ ..hXhXhXhXcXhXvXNXNXcXjXgXeX0X0X0XrXcXvXCXhXwX0XtX0XeX1Xe.# ' ' ] ' ! ( U ",
"( ( ( ' ` ' ] %.[ ` %.` >.,.,.<.,.( %.%.&.%.#.#.#.@.] ] ' ' ` ] ` R R z ' } ! ` &.` ( ] ` R R ` #.( ( %.! %.' @.( ' ( ' ] [ %.' ! #.] ! %.' %.%.,.4.#.] ] #.%.,.,.6.{ ,.) %.%.' ' ] #.[ %.,.&.$.%.] w.@.] ] #.#.$.#.^ E ] ( ^ E ( E ! ' ` ( ^ ] ` ] ( ( U T ( #.#.' #.' ) #.,.,.6.` ] ] #.#.%.&.#.#.#.#.&.@.%.#.%.1.1.,.<.%.7.>.' ' ^ ( ' ) ( ( ] %.( ` E ^ ` E ( ! ( ^ T ( T z U U } ` R ,.' ) ] ' ] #.,.' ' ( ( ] ( ,.] ,.&.( ! #.T E @.6.] ( ( ( { %.^ ( h / ^ h T U ( ) <.#.] E #.%.4.#.,.#.( ( ] ` ] E #.U Y ( h ( ( ` U ( ( ] ) ( #.( >.8.%.@.) #.>.,.,.1.7.#.#.^ ) ( ] / Y U U ( R ( ( ' ( T ! Y ( E ' ^ R ] T ] #.#.%.` ] ] ] #.&.%.&.%.' ' W ! W ` ] Y g a t ` ` ^ ) [ ( R R U z s ! ` ( ^ ` ` %.@.] ` @.( ! ' ^ ( ( T ( T U ] %.[ { ] ] ' T R %.,.1.%.&.` &.` ] %.@.] %.] &.#.1.,.] #.#.%.] ] ' ' ' ] ` h T ] ' ^ ^ ` ^ ( ' ( ( ( / ( ( E Y z U T R ' ' ( ' ! #.#.,.%.' ! ! ( ( ) #.] ' ,.,.%.&.%.,.4.1.&.%.%.#.&.%.` ] ( ' ] E R ` ` ( R ! U U R E ^ T ) [ T E E U Y ( #.] T ( E Y E Y ` ] ' ' U E E T h U T ` ( h ( ( T Y ,.7.1.U._ t ' [ ` R Y Y E ",
"( ] #.{ %.%.] %.%.' { ( >.,.5.5.6.[ >.>.] ] ' [ %.] %.] ' E %.#.^ ' ^ E ] ( ^ E [ ' ' #.' ( ^ ( ,.6.%.] ` ' ] ` %.' ` ( ,.%.,.` ^ ( ` ' %.#.>.] 6.] #.] #.` ` %.6.7.( ` #.] ] %.' ] #.,.>.,.' @.] #.,.>.` >.<.' [ R ` %.' ! ` R ( E ! ` R ! [ ' #.( ' E ! ` E #.' Y ] ] ` ,.,.[ ' ^ ` ' #.( { #.,.] %.1.>.#.] #.,.6.6.] ] ,.<.{ ` T x ( #.' ^ ' T ` T ` / R / { >.' ( ` ( T Y Y E T ^ ' ( ,.^ g ] ` ) <.Y >.>.1.] ' ( ,.7.8.#.' ( ( ' ( >.,.>.,.) ( #.h ` >./ ( s U E ( ( ] ' #.,.( 6.,.>.Y #.>.) ' >.' ' ` ` Y U h ( T >.Y g ' ` <.>.] %.>.#.6.,.] ^ ^ #.#.,.,.<.5.#.^ R ^ ( R U h U ^ ` h { ` ` E ` <.` ^ ^ ^ Y E ( %.&.&.1.] { <.,.{ ` { ,.' ` ] ' ` / <.' x h g Y T ( x ' [ ( Y ( Y g U Y { 5.' ] ! ' @.] ' ( ^ ( ( [ >.Y Y T ` ' ] >.' ( %.( ] ` E ( ] ,.,.>.( ( ' #.%.' #.%.%.>.#.1.` ` ' %.' ` ` <.` #.` U / ] ` ` ` Y Y ( Y Y z ^ ] ( ' U ( h Y T R ( ^ ( ( E ( >.] >.( ` ^ ( [ ( ' ` >.' %.,.] ,.#.,.4.6.6.` ` %.] %.E R E %.' ^ E ( ^ T ^ ( U Y / ` ` ` ( ' T ^ Y Y T T ' ] >.>.h Y ` ` R ( Y ] <.,.^ h U ( >.] ` ( ( Y ( / ) X.) _ W w ] ` ' ( ^ R U ",
"E ( ` %.#.] { ] ] [ ] #.' ( ` ` [ >.{ >.%.] >.} ! ( ] ] R ( #.' ( ^ ^ ` E ] E ' %.' ` ' #.R ( ( %.#.#.] ! [ %.#.] ^ ` ] 4.%.' R ` ( ^ ' #.#.#.,.%.%.%.#.%.] ` #.7.' ' #.1.#.' #.[ ' ,.>.] #.^ #.#.*.@.,.` ` ( / ( E ] E U ' ' Y ' ' ] E Y ' ! E Y ^ ' E ^ E ] [ #.' / T #.[ #.{ E E ( E ' E ( ` ,.] ( >.<.>.,.>.7.( >.` <.1.' #./ R U ` ) ( ` ( ' ( ( T ^ #.] ( ` ( >.( T ` ( ^ ^ ,.6.] ( ^ h ^ Y ` ` R / ` ] >.%.' ' ,.] ) %.( ( #.] [ #.>.>.` #.>.' ' ,.{ ` ( R ` ] { [ T ,.,.#.>.' [ #./ ( ' >.^ ) ' ( / ` / g E / ( / T h ' ,.] ,.,.,.6.] 6.#.^ ` ^ >.#.' ] ` ' @.) Y x Y h z ^ ` ` ^ ^ ' / ^ ^ ` ( / R ^ E U ( ' #.] %.( &.{ / #.` <.#.<.R ' ' ` / ' { R Y g x T U T Y T #.R Y ^ E t E E %.,.! ] ` &.%.&.` ( ^ ' %.' ^ U ^ R ` ' ' ] #.#.' @.] ` ! T ` ' ,.` ( [ >.%.#.] ' #.%.#.] >./ #.#.( ' ,.( ` Y / T h ' Y / #.` Y ` ] ( ^ U ] ^ / z Y ( U E / ( T ' ' Y U { #.#.' ^ ^ ^ ^ ` ' ( ( >.] @.%.#.,.%.] 4.#.] ( ] %.] ` E E E ( E E E ^ ` ( R h U ` ( ( T R ( Y U ^ T x ` #.,.` { T h R U ` E Y T ` ' ' ( ^ ^ ' ` ` ` / ( [ T U U V h s a h ' ` ' ( E E U ",
"E T ` ] ` ' ` E E ' ( ' Y R x E R ^ ^ } ( ' ` ^ U ( ' ' ` ` ` ! { } x x T ( E U ' %.! %.] Y ( ( ' ' ] ` R ' ] ,.>.<.' #.5.[ E ! E E T ` #.] { ' %.] %.#.' %.#.{ #.` E #.,.] ' ( ] ] ' ` #.` ^ ] ] ] ] #.R ` ` ` ` ` ` ( R ] ' ` ` R T ! Y ^ E Y E ^ ` E Y E ` ` ( ( ` ` ` ' ( ` R ` ( ` ( ` ] ' ( ( / #.<.>.' >.] ] ` ] ' ' ` ` ` Y R ( / ` / T Y U U Y ^ ( / ^ { T ( E ( / ^ >.` ^ ` Y #.^ Y / T ` T g / ] ,.>.] / E U / ^ ( ( ` ] ] ,.%.( ( [ ( ( / / ` ` / Y z E ` ( h Y ( ] @.( Y ' / T #.' ] ( ^ Y T ` Y g a Y E z Y h V U ' Y [ #.4.#.` ( ( ^ ' ( ' ' ' / T x ] U g e t g h ( ` ^ ^ ` #.Y Y ( T ^ ( ( h U ! ^ ( ) ' ` ! ( ) Y T ` ` ( ( Y ' ^ #.T / Y g x g t i h h z U { T Y E T h Y ` E ] ' E T ' #.[ ] ( ( ] >.( U T U Y T ' >.] ( ' #.` ' R U T ^ / ` ( T ^ [ @.( ( #.! ' <.' ^ ^ / ' ( ( ( Y / ^ ^ ^ T ( ( ( #.` R ( Y Y ^ Y E Y T ^ U E h U ( ^ ^ ` ^ ( ' ] ' ] ' ^ ( T / ` >.' ` / ( ` <.>.' U ( ' ! ( ` ` E ! ` R Y U U Y Y R Y Y z U Y Y T Y R ( h E U Y x U ( ` ` / / / Y h h U E U h T ( ' ' Y h h U ^ / / ( ) ( V U ' ( ( E ` ! ( ( ( E E Y U ",
"U E ( E ` ( E U E ( ! R R R x R x E U R E T R } R E E ` ` ` %.` ^ R } l U E ^ ` E ] R E ! k ^ E ` R ( E ' E ] ' ` ' ' ^ ! ` ` R E E ^ ` ` ` ` ( ] %.' ( ' ' ] { E ( ` ] ' ' ! ( ( ) ' >.` / ` E E ! ] ( T ( R / ' ! ` { E ' Y Y E z Y R U R ! E E Y Y U z E R E ( Y { R ^ ^ ( ^ E E ' ` ^ ^ ( ( E ( ( #.' ` ( ( ^ #.' ' / ^ ^ R / R x ^ x / U Y Y R Y h R ` T R U U E ^ / ` >.` ^ E E E E z R ` [ ' h g ( ` ' / ( Y ( E U E U ^ ^ T Y ( ( ' ( / h Y g U h h h t E s R U ^ Y h T Y T x T Y h Y U ( U h h Y Y h e a g z a t g g g g Y T Y ( ^ E R V ` ` U R / ^ R h h T Y g e t g Y Y ^ ^ ` ^ ` h h h U ( Y U g Y ( Y ( ] ] ` ! W x / / h Y R h V h Y U T x T g g g g 3 a g h R h / h t V t T U E R E ! R ! ' ` ! R E T ( ( Y h h g Y ` ( ( / / ) E E s k Y ^ ^ Y Y ( T E E ^ Y E ! ] >.( R Y Y Y ^ ( h Y ^ g R ` ( ( ] ] / x Y ^ h Y ^ h R ` T T h z U g ^ E ` ^ ` ' ' ^ Y ( / ^ Y { Y ( / ' T U ( ] { ( U g z V E R E Y U R Y U z a z z h Y V z h h h Y / Y T h U U h U E ' ( U x R R Y h h U ^ ` y g U h Y U g g V x h g g / $.h t g { z U z a U Y ( E Y E E Y ",
"^ E R R ^ U R U } } R R x x l R ^ ^ x x R x } t x Y R x ^ E E ^ x l l t z Y E R E E R Y U h R Y Y U ^ R T ( ( E Y U R Y ` E R R R U U Y ^ E ^ ` ` ' ^ ` E ` U ^ R R ^ { ^ E ` x ^ ' ( ` E U E E ( ( E Y x U ^ U Y ` ( ` z z l x U Y Y Y l U R Y U Y z x a U U E ` R g x U ( E ^ U E ' E U ( E ^ ^ E E ^ ( ( U T E R ( E Y U z l g g g V h h g h i g g t g h h h z g z U z R E ^ ^ z U h h h U ' ^ R y t h h Y ^ E E h g z U V U h h h T R Y h h i g x h h j g h U z z a U h U h h r z E g 4 h r h t 3 t g g q 3 e a r a r q a i h g r h R z U x a h a g g h U h r r i a y t t g U h U V h h Y V g h V U x h h / R U h U g h h Y / Y / R / x g g U h h x h g U t e > e w y Y z Y x g g r a z U z U E E k ;.Y U U a h U ^ ^ h h g t h / U Y Y ( U U h Y Y h Y U g z U U U Y U U T T ! E h g h U T Y Y h a g h h U #.E ' g z a R U U U z g h U U h g g i g h ^ ( ` h a U T T U ( h T ( z R ( / Y ^ ( U ( E x r z z h ^ U U h g g t a r a a g g i i a e t g t g g h a a g h E Y g z h h U h h h T h g - > g t g h i g i t g r t X.:.j q a ^ U E U k z R ` E E U R R ",
"x x l x Y z h z R x x l x x x R x x g l x x x l k l x x Y U R l l l k l l h h l E R a U g x U Y U x x x z z z U x l x x E z z l g a g z U g x U Y U x x U U U z R ^ R z U R U x ( R E Y x z U Y U Y E x h h h h z z z z r U k l z z a h l x g g a t g g a z z E x t t t z U U R z U U z z Y z z U Y z U U x g g h l z a a a a t e g g g g g t e i t e g r g r g a a U z z z z a z h g g t x h U l t > t t r h Y h a q y a a g g g h g R h h g t i g g g g g t Y a z a r a a h t a a r a t t t r 3 3 q r q e 3 r e r w r i 3 y y t w q g r a z r q t r r g g g 3 t = q i y > e i t h t t r t g g r g h t r w g z t g h g h h h h t g g Y h e t t g 3 g e g g t = > > = = 3 a z U g r g w a l z r y a a w r a a w e a a E Y a g e q q g h g z U g i g g h g g i g a t a z h a t Y h h a a g h h g V U g a g y h h E U g t z a U z r a a a g h h t g g r h h Y Y z q r t z V h ( g E U g U h a Y Y V g h h a r r s a g i a t t a a g a h r r g y y q 3 y e q q e g r g r a g t e g g g h r a t g e = - > - 3 r r r = = 3 3 q q 3.3.p = g h z ! R R U U R E z z z U ",
"g t l l z x g g l l l l x x x x x x l l l l l t t y l l l l l g l t l l g l l k x U z g l t t t a t t l k l k t t g g l t l l k t t t t t g t t g l t l k x l g x l g t l l l l l l z l l l g U h h t t g g g a a l z t k t y k t t t t t t t y e e t t t t t k t y y t t g g z t t t t a a w e y i a t t t > > e 3 e q > > y y e t e q e > > e > > > e > y e e k t a a e a e e e q e y y t t y t t y > > e e y y , > > y > t e r t t t t = e = e t t t r t g t t r r y t e e e e > > q q > = = - = > e > = e = e q > > e t e > q e = = ; % > > - % = , > - - % , = > > = - > q 3 t t 3 e = t e e e > e q q q q e e e > e - = 3 r e r e e > e e e = , - = e = = , , - , = q e t q e 3 e t > e > > q q > > > > q > e e t g e e > , % e e q > e = = = y y t e q > e > > e e e e y y t a y t t t t t e r r t r g h z h e q q q a e i q y w g t t t i g r h g g e q 3 e e g h z g t a g h h g g g r r y t a y > q q > e q > > y t e t q e > = 3 > = , % , > > q e g q q > e e = > e > e e > , e > = , - , , > = - , - , = = e 4 2.3.3 = h h a l R E Y x U R z l z g ",
"t t k y l l l g l l t k k l t k l l t t l y y t y y t t y k t y y y > t y y y y t a l t y y t y y t y y y y t t t y y y y t y t y t e y y t t e y e t t y t g k t k t y k t l l t y k t y k t t t t t e e t t t e e y e y y y > y > y y > y > > > > > y e > > > > y > > e e e > e e > e q > > > q t y > e q > , > % : , = > > > > > > > > - , > > > > > > > > > > > y > , > > , , % > > > > > = > > > > , , e > > , : , , > , = e > > = > e = > > e > = = q = > e = - > e > > > , > > , , = % % = , , , = , = , - , = - = , = > , = , - O % O % % % , , = , O % % , , % % % O % - e = = , , , % % O % , , , % , % - , - % = % % # , - - % : = , , % % % O O % % % , = % , % % = % - , , , > , , : > ; ; % ; > q > % , > > > = % % - , - = , = , % , = , > > , % , > = , > , > > > e > > e > = = = = = = 3 t i r e e > > > > > = > > = = = = q e > q e q 3 q r t = = = q r y t q > q e y e > = = = = , , > % : : , > > > > > > , % % , % , , = , % - = > , = , - , % , > = > % % = , % - % , % % % % , % - % % X % , = t = j 2._ 3 , t U a x l t a z Y x R g U U "
};
