/* XPM */
static char *_1767ef41cdd4121ff960edbfdf62dc9C527O1R6axeMjshu[] = {
/* columns rows colors chars-per-pixel */
"64 64 252 2 ",
"   c #18532E",
".  c #164B2A",
"X  c #144829",
"o  c #134627",
"O  c #134A2B",
"+  c #174D2A",
"@  c #1A542E",
"#  c #1A562F",
"$  c #1A5832",
"%  c #1A5A35",
"&  c #1D5E36",
"*  c #1C6039",
"=  c #20683F",
"-  c #1F6339",
";  c #226A3E",
":  c #1E623A",
">  c #267244",
",  c #226D43",
"<  c #236F45",
"1  c #2A794D",
"2  c #2A7C53",
"3  c #308254",
"4  c #36895C",
"5  c #429667",
"6  c #419464",
"7  c #378655",
"8  c #348352",
"9  c #3A8B5A",
"0  c #3A8956",
"q  c #3C8E5E",
"w  c #3F9360",
"e  c #53A378",
"r  c #5DAB7E",
"t  c #296F3C",
"y  c #185531",
"u  c #23683A",
"i  c #1F6036",
"p  c #1D5C33",
"a  c #28774D",
"s  c #2F7C4B",
"d  c #26744A",
"f  c #2C8055",
"g  c #30835B",
"h  c #3C9066",
"j  c #4DA073",
"k  c #69B28E",
"l  c #1F5E34",
"z  c #226337",
"x  c #266A3A",
"c  c #7ABE9C",
"v  c #5FAE86",
"b  c #75BB93",
"n  c #B3DCC8",
"m  c #63AE80",
"M  c #113F23",
"N  c #0E371F",
"B  c #103B1F",
"V  c #123F20",
"C  c #134424",
"Z  c #164A28",
"A  c #1F653D",
"S  c #1F6237",
"D  c #2A723F",
"F  c #1C582F",
"G  c #18502C",
"H  c #1A522C",
"J  c #174B27",
"K  c #479968",
"L  c #52A373",
"P  c #154827",
"I  c #0E3119",
"U  c #0E331A",
"Y  c #0E361C",
"T  c #041E11",
"R  c #092714",
"E  c #124123",
"W  c #082412",
"Q  c #061E0F",
"!  c #368B64",
"~  c #0A2813",
"^  c #08200F",
"/  c #113D1F",
"(  c #226539",
")  c #4AA685",
"_  c #41986F",
"`  c #42A07E",
"'  c #63B99C",
"]  c #6DC1A4",
"[  c #0A2D16",
"{  c #509C64",
"}  c #31875E",
"|  c #0B311A",
" . c #03180E",
".. c #051A0E",
"X. c #24734B",
"o. c #2B825C",
"O. c #BAEBE3",
"+. c #B3E5D7",
"@. c #9EDACD",
"#. c #95D0B6",
"$. c #9ED4BD",
"%. c #EBF9F4",
"&. c #C3E7D8",
"*. c #89C8A8",
"=. c #62BBA7",
"-. c #6FC6B9",
";. c #5DB091",
":. c #092816",
">. c #2E8C6C",
",. c #45AE9C",
"<. c #46A78D",
"1. c #34824E",
"2. c #31804E",
"3. c #2A7443",
"4. c #266C3E",
"5. c #226632",
"6. c #B6E2D0",
"7. c #81C29F",
"8. c #20673B",
"9. c #79CFBF",
"0. c #B3EBE8",
"q. c #A4D9C4",
"w. c #85D0C4",
"e. c #C6ECE8",
"r. c #89CDB5",
"t. c #2F7945",
"y. c #1C5A32",
"u. c #114226",
"i. c #185834",
"p. c #1D633D",
"a. c #499B6F",
"s. c #54A67A",
"d. c #062012",
"f. c #03130A",
"g. c #0F3519",
"h. c #154624",
"j. c #0F3317",
"k. c #0B2F19",
"l. c #0A250E",
"z. c #10381C",
"x. c #0D2E15",
"c. c #0A2710",
"v. c #04160A",
"b. c #021009",
"n. c #020F06",
"m. c #378F67",
"M. c #419C78",
"N. c #5DAB84",
"B. c #57A881",
"V. c #164E2E",
"C. c #2B7745",
"Z. c #0C361E",
"A. c #1A5C37",
"S. c #318A66",
"D. c #369070",
"F. c #D5F3F4",
"G. c #276F3F",
"H. c #297B54",
"J. c #3A946D",
"K. c #3E9A78",
"L. c #6DBB9E",
"P. c #6EB793",
"I. c #194F29",
"U. c #195632",
"Y. c #69B186",
"T. c #275721",
"R. c #77A412",
"E. c #79AA17",
"W. c #7FBB26",
"Q. c #87C838",
"!. c #82C02A",
"~. c #87C42E",
"^. c #96D23D",
"/. c #D6F979",
"(. c #C6F168",
"). c #459865",
"_. c #3B6C20",
"`. c #D8FF00",
"'. c #D8FE00",
"]. c #D8FF01",
"[. c #C7EDE0",
"{. c #0E3D24",
"}. c #CFF805",
"|. c #42925B",
" X c #104227",
".X c #D1FA09",
"XX c #58A674",
"oX c #165230",
"OX c #CEF604",
"+X c #57A66F",
"@X c #21663C",
"#X c #CDF503",
"$X c #479860",
"%X c #689516",
"&X c #78AA19",
"*X c #79AC19",
"=X c #78A917",
"-X c #7AAF1B",
";X c #7AB11D",
":X c #7BB11C",
">X c #D3FB02",
",X c #D9FF00",
"<X c #256837",
"1X c #BFE804",
"2X c #1A4D26",
"3X c #CDF603",
"4X c #184622",
"5X c #CDF504",
"6X c #1A4C26",
"7X c #CDF403",
"8X c #215A2C",
"9X c #21582A",
"0X c #1B4920",
"qX c #164925",
"wX c #456A13",
"eX c #A4CC06",
"rX c #A4CA05",
"tX c #A4C905",
"yX c #A5CD06",
"uX c #A6CD07",
"iX c #A6CF08",
"pX c #D6FC00",
"aX c #18451F",
"sX c #598616",
"dX c #123012",
"fX c #174826",
"gX c #144120",
"hX c #144221",
"jX c #3B9570",
"kX c #113D1E",
"lX c #4AA27B",
"zX c #91C8A4",
"xX c #6FAF7A",
"cX c #479359",
"vX c #347F47",
"bX c #266736",
"nX c #3FA184",
"mX c #216033",
"MX c #1C562D",
"NX c #1E5B2F",
"BX c #113C1E",
"VX c #194E28",
"CX c #174A25",
"ZX c #174825",
"AX c #1C552E",
"SX c #2E7641",
"DX c #071B0A",
"FX c #041006",
"GX c #071E0B",
"HX c #1C552C",
"JX c #0D2D12",
"KX c #041306",
/* pixels */
"  .   X o X X O O . +       @ # $ % & * * = - ; : - = > = = , < < > 1 2 3 3 3 4 5 6 6 7 3 8 8 8 7 7 7 9 9 0 9 9 q w w 5 e r r t ",
"y & u ; * - & # -     @ @ # # i - p @ & a ; s < a d a a 2 2 f f f g 4 4 h 5 5 j 6 6 5 k 6 p l u z u x x x x u c k v b n m e v r ",
"$ & i i X M M M N B B B B B B B V C Z . = $ - ; d d A , - & & & : i S u 3 ; h j q D 7 j i F @ G G H H H H H H J l x D 8 K 9 L r ",
"+     P I U U U U U Y Y Y Y B N N Y U T R & - ; d < ; < 2 2 f 2 3 3 3 4 7 s h e e 5 q Z V E E C E C P P Z . C Z Z Z P W l 0 0 K ",
"  S - C - $ & - & & - - - ; S - ; #   M T T Q Q   < < < < < d < > 4 ! h h 4 h s ~ ^ / p S ( - ; ) ) ) _ ` ) ) ' ] ] ' j [ K c { ",
"  - ; X f ; & p & - - - - - - ; > & } f & C |  . .Q ^ Q Q ..Q ^ ^ ^ ^ ^ ^ W R I U E p = X.o.2 - O.+.@.v c #.$.+.%.%.&.$.p K *.{ ",
".   i | > ; - $ & & & - - - ; 1 > < =.-.;.3 - | T  .:.C C o Z . . . + + Z P V # p & : >.,.<.'   ( 4 h h _ 5 q q 1.2.D 9 S 3.4.5.",
"P B . ..; 1 &       # $ $ $ 3 3 > q 6.%.&.7.&.  O $ 3 & 8.g ; ; ; < > _ 4 x r s S y } 9.0.-.q.a w.w.0.w.e.@.@.e.#.q.r.$.i i Z P ",
". E |  .; 1 - $ & # # $ & - f g x # 0 5 0 D t.@   # f - ; h o.f f ! ! h 5 D k 0 y.| u.i.p.A 2.$ a.h j w e K K s.L L K L l l p . ",
"P U d.f.; > < > a a a 2 f f f f i g.h.h.V j.j.B  .f.W C C o P P Z Z Z Z J Z ~ I U ..^ [ k.Y E l.z.j.g.j.z.g.g.g.g.j.I E y.y.# P ",
"M   d.f.E . . Z Z Z . . + + + + E l.x.~ c.l.E Z N M  . .f.f...........f.f...+ y.W  .f.^ W c.c.v.c.l.l.l.l.l.l.l.l.l.l.E F F 9 M ",
":.:...f.b.n.n.n.n.n.n.n.n.n.n.n.n.v...v.c.J p < , m.| :.[ B $ p p i p C E C 6 j 3.:...f.f.v.v.n.v.n.n.n.n.v.n.v.v.v.v.@ y.J E :.",
"R :.T f.f.b.n.n.n.n.n.f.b.n.n.n.n.n.Q / @ 8.< 2 m.M.> # i M k.k.I Y y.i p P N.c s.v @ T  .f.b.n.n.b.v...v.f.n.n.n.n.I p # # Z R ",
"R :.d.f.f.f.f.f.b.b.Q W d.....f.Q Y J @ = a f 4 3 @ y.; 2 a d d 2 f 4 3 & :.+ 4 B.c k 4.d.T  . .b...d.:.R W ....Q h.S p @ # # R ",
"| | :. .f.T d.T ..f.R :.W R / U E + # * ; f m.> + # : V.O   & > C.- p   & X R | s B.a.N.3.:.R :.d.W U | Y E U G 0 r c i @ p H | ",
". $ . d. .| N Z.| ..B C U E i P @   A.: - t.y./ @ . $ > M.;.` ` ) ' @.N.2.l G E d.. a.e w s M Y :.U @ l z x / F q w w S # 2.s . ",
"@ - & N  .: $ & ; [ C y.  @ (     $ : : x V h.G ; S.D.g f 3 & - - S j #.N.F.+.t.C W B 2.3.K 2.. [ E G.2.8 s E t.w 6 7.S # 2.6 @ ",
"$ - - M T - - ; 3.U Z i y.$ x   V.& ; u V h.G < o.H.< m.< J.K.M.;.L.v *.*.P.e.n r B Q M h 8 8 3.U E s L j 2.E C.5 K c i @ 3.7 $ ",
"$ - - M ..y.4.- > B Z p p @ u .   y.i h.Z P : X.< : < D.D.f ; & ( 2.e #.6.L K $.%.L / ..B ( 4.q B E 3.j a.s E # K 6 0 l G s 2.$ ",
". y.& o ../ C P # E Z p i G ( X M + J J   & $ = A X.2 $ z.Y ~ k.k.^ ~ Y u k s.w c w 7.E ..F w j o E ( 8 q C.M E @ @ p p G p ( . ",
"G i i N  .b.n.v.E N P y.i G i . # # I.. $ A.$ U.* - P j.h.@ + 3 h   U W R / s w w 1.b Y.[ R 1.H o E ( 3 q C.B  .f.v.P y.+ . p G ",
"Z G # N T d.R V Z :.X y.i + i * S H G . % % $ y & T.R.E.W.Q.!.~.^./.(.).G ~ k.s w s 8 N.3.Q P a.  E S s 0 3.M d.W E y.p G y.@ Z ",
"G p p o B p ; ; & :.Z i $ G H U + H X X $ #   % J _.`.'.`.`.'.].`.'.`.[.e x / I k t.G.w 6 + d.4.B V ( 2.8 C.x & ( 4.3.p P ( u G ",
". p S Z E y.> J.J.{.o G G G @ v.V Z O V.G # V.@ h.M x 7 3 < f 2.5 }.`.|.a.e H Q / r u ( j 0 Q v.f./ p y.S 3.k 7.*.7.2.y.C p 4.. ",
"Z y.i . C . o m.J. XE @ P J i P + M O   . O G F . N N S f H.g f _ .X`.XX6 t u | :.x D 4.1.K S o ..B # ( p x P.7.c 7.8 y.E $ x Z ",
"C + i . C P N d m.A.+ p H + i + / | M   Z o y.@ y oXu.V.: < $ . # OX`.+X0 D 0 & :.V 2.p ( ( S + d.Y y.4.4.x r.#.q q.s @ E Z + C ",
"/ Z p Z E M N 2 f % @ F G G i + [ | N C X O z + y y V.U.- G # @XG.#X`.$Xe 0 s 2.| [ 4.l l # # G d.U y.S x ( L.c P.*.3.# E / E / ",
"B + l Z C | U E $ M . + P P ( i R M O + M   z o X . %X&X*X=X-X;X:X>X,X<X8 w D C.o :.y.y.x D S @ M [ . S F y.8 7 F t.x # E B h.z.",
"I + l + u.:.| E   N P i - P z S R M O + N # x   U.. 1X'.].`.'.`.`.'.].2Xt.1.t.1.3.U G p x x i E u.[ Z 2.G.# D D l x z # E z.P I ",
"k.J y.Z M W | / . N E @ + E H y.W M P P U # y.P . M N $ + G y $ p 3X`.4Xi y.z x 4.Y Z @ i l F z.M :.C i # G ( u H z l G / Y h.k.",
"[ Z F P N :.| C P U B Z C B y.F Q U C o | S u B U [ [ $ + G   y # 5X`.6Xy.y.G G Z [ . H p y.H g.N :.B p + P l l y.l p G / U E [ ",
"[ P # P B :.k.Y o | B E V V H B ..U M M U y.0 M | [ :.Z # # +   @ 7X].8XH H y.l Z N   + # y.G U R W / h.h.P F F J y.p J B U E [ ",
"[ P H E B R k.Y C | Y V Y V H E ..Y P Z E C b P N M W U y.F # p p #X`.9XI.I.p z Z M # l u z + C ..W / E E h.H H I.# y.J B I E [ ",
"[ h.G E N R [ Y E k.U h.B / @ u...Y B Z o k.r x N M | W U # l # @ 5X`.0XqXH F F M . G y.F y.F C d.W B Z P C J I.h.H F Z B I V [ ",
"k.V + V N R [ z.z.[ U P E B @ C ..:.N o E [ p b + wXeXrXtXyXuXiXiXpX`.aXF H @ + O G P # @ H J C d.W B H J E h.h.h.I.# Z B k./ k.",
"U B J E B :.k.I z.~ U h./ B @ P d.Q U M Y W k.e t.sX].`.'.].`.'.`.`.`.dX@ F H O   I.V J H I.Z E d.W / J fXE h.gXz.J H Z B I B U ",
"B V J E B U W ^ ^ ..I V V V # $ (  .R Y Z B W M $.z h.Y U | R h.J z.h.V U # - % + Z H H J V O 4.B R B h.h.h.k.l.l.j.H Z B I E B ",
"/ P + E B / o o E Q I / Y z.+ . v N ..I N Z | R G s.D E o Y k.h.J J H G O = S J J G H J z.M A.S M R B z.E h.C E C E J P B z.E / ",
"B h.Z E M : d a ; W k.B Y Y o # $ 9 / Q Y / Z R [ J N.b t.@ / E h.P $ < o.& E / H G J h.B oXi S B W z.z.hXE @ @ @ H G Z B / C B ",
"z.V P E Y & , < < Q k./ U Y M B h.p t.Q W Y U h.| R I F r n #.q jX<.D.= P z.h.F z.hXhXE i.* H H ~ W z.z.hXE Z s c c a.P B V P z.",
"V B h./ Q E @ @ y.^ I B Y Y B W l h.u ( v.~ E k.V P R W ~ g.V J hXB g.~ I I.Z E H kXE i.A.P @ J [ W Y z.z.E B / G.G.S C Y / E V ",
"h.J + E ..z.E E F k.U / / / B ..k.p + 4.@ ..R E B Y E [ R R k.[ k.k.I Y V E Z G z.V U.& i E h.V [ W U z.z.E [ U ( u p + E P G h.",
"E J + / ..B V V y.B Y z.z.E /  .W E + # G.G Q ^ U V B g./ B V hXhXV Z V U P hXj.V $ $ + @ I.E h.k.W B h.h.h.[ I J J + P V E H E ",
"/ E h.N  .j.g.z.+ E Z y.u u p k. .W V V H ( p R ..l.[ U / Z G + G G h.V j.c.I V & & # G h.kXE P | :.V hXhXJ [ z.H H H C B z.J / ",
"z.h.h.U ..v.v.Q E E M $ 3 2.+ G p Q W E E h.y.z Z Q Q Q ^ l.c.~ ~ c.^ ^ l.Y y & # G H h.j./ P P | :.B V / h.R I E h.h.E B E h.z.",
"z.V E Y W W [ V   - 1 ! J.lXj 3.I H I W / h.h.J i i P Q Q ........Q ^ k.G p $ G + P hXj./ P P C | | V P Z P R f.v.v.I E B B V z.",
"B hXZ C E C E Z ; a m.) <.=.' P.0 V G ^ ^ V V h.J F p E N k.k.| B o G E y.@ @ Z J V ~ g.P Z . G M o @ # $ $ M | Y B P h.V V V B ",
"kXJ Z E C E @ & , 2 } jXlX' q.F.7.r Z Z v.^ g.hXE h.P O < a 2 2 1 > p P E P J E j.^ z.& - = - & < < g 2 1 4 g 2 g h 9 P V V J kX",
"z.h.P E / B P U.p., D.<.-.@.r b %.zX1.h.B ..f...I V B [ $ [ [ k.[ / P B I V I v.[ P B f S.! jX1 =.2 h h h h h 4 _ j a.P V V E z.",
"z./ P M Y N M . $ = $ o @ 7 n zXY.xXw + J B R ..f.k.:.W $ - - - - i J B ....Q Y C E W 1 4 4 h 4.7 4.9 _ a.K 0 0 a.K w Z / z.V z.",
"g.~ E B U k.U u.V./ k.B h.z.x zX1.cXvXS P P Z N U M R ..M C E C E E Y B d.k.V C o U ..R ~ ~ ~ v.n.f.W U I v.f...U R ^ E B [ I g.",
"z.I E U ^ W [ U M j.B P H H U x vXbXbXp V z.E P C u.| d.S.nXnXnXnXh P G Z P P G # [  ...W ^ I ~ H S ( z 4.G.G.4.i l H E B [ j.z.",
"z.I V R [ W R :.z.hXV V E E / / mXMXNXI./ Y V o . = $ k.` ' =.] ] v y.C.r 4.C Y / k.R C S S + B P Z Z J F NXl y.@ H J E z.k.j.z.",
"j.P E Q ....R R V g.BXg.z.z.~ j.VXCXZXBXU Y V / A.S.; B <.-.-.9.w.P.x 0 n *.Z U / k.^ J J J I.I E h.Z h.J J J h.ZXJ h.h.B g.AXj.",
"~ ~ j...^ v.l.c.J V j.gXz.j.W z.hXhXgXV z.Y / :.M . C :.* = , < X.x H F t.SXP U B k...V V V V l.g.j.h.j.l.l.l.l.j.V gXV z.c.I ~ ",
"g.I j...v.v.DX~ x.z g.l.W [ z.g.g.j.j.U / U z.Q [ [ ~ Q E E h.h.P h.j.z.h.hXV U B [ v.v.v.v.v.v.v.v.FXv.v.v.v.v.l.g.V V z.I g.g.",
"g.j.I  .v.v.v.GXc.I HXz y.h.JXJXJXl.U Y / I Y ..^ c.l.v.I j.j.j.j.j.l.x.I I / I B [ Q V Z C Y v.l.^ ^ v.^ v.v.v.v.j.hXV g.I g.z.",
"g.g.I v.v.v.v.n.DXl.l.c.c.l.l.l.DXl.I B B I z.Q f.v.v.n.~ JXJXJXJXJXv.v.v.g.B I B k.Q hXE h.hX^ R l.^ ^ l.^ W c.I z.h.V g.g.z.z.",
"j.z.I v...v.v.n.n.KXv.DXGXDXv.KXn.l.U B B k./ ^ v.b.n.n.l.l.l.l.l.l.FXv.I / B I E k...V V V gXl.k.~ c.c.~ ~ I U J h.hXV g.z.V z.",
"j.z.j.....v.v.f.n.n.n.n.n.n.n.n.FX~ / B B W [ R ..v.f.f.FXn.n.n.n.v.^ I V V B W I k...l.W l.l.v.^ ^ ^ ^ ^ Q ^ l.W ~ z.B g.V hXz.",
"g.h.Z U I [ ^ v.v.f.b.b.b.b.b.f.c.U Y Y Y Y / k.W .. .v.f.v.v.v.v.j.V C P C C E C z.W W ^ ^ ^ ........v.v.v.f.f.v.k.V hXhXCXh.z.",
"z.gXgXh.I.F J g.W Q ^ ^ W R [ k./ h.E Z H p p G Y k.W Q Q Q Q Q k.V E h.h.h.P # # p F H E E h.Y k.:.W W ^ Q Q ~ V H MXJ hXgXhXz.",
"kXhXh.gXhXhXBXkXI R ~ ~ [ I U Y I hXz.Z G J Z G B I R W W ~ [ U z.z.z./ / V E H Z kXH I.V B V I Y I k.[ ~ ~ ~ g.z.gXh.hXhXh.h.g.",
"hXgXhXJ J J J J I.I.J J J J + h.F y.y.y.H hXV Z G H J C E h.P J + H H H @ @ H J g.hXh.F y.y.F + J I.J J J J I.I.J J J CXI.hXz.J "
};
