/* XPM */
static char *_b5886d88b1948ec8ce62dab47c2ded6Fo4ossDgoT3M7iuk[] = {
/* columns rows colors chars-per-pixel */
"64 64 153 2 ",
"   c #242426",
".  c #2B2C2D",
"X  c #2E2F31",
"o  c #2F3032",
"O  c #323335",
"+  c #353639",
"@  c #37383B",
"#  c #393B3D",
"$  c #3C3E41",
"%  c #3E4144",
"&  c #3F4248",
"*  c #414346",
"=  c #43464A",
"-  c #46494D",
";  c #484B4E",
":  c #474A50",
">  c #4A4D52",
",  c #4E5156",
"<  c #4F5359",
"1  c #505256",
"2  c #52555B",
"3  c #55595E",
"4  c #565B61",
"5  c #595E63",
"6  c #5D6166",
"7  c #5E6369",
"8  c #606367",
"9  c #61656B",
"0  c #64696E",
"q  c #686C6F",
"w  c #666B72",
"e  c #696E74",
"r  c #6A6F78",
"t  c #6B7176",
"y  c #6D737A",
"u  c #71767C",
"i  c #73797E",
"p  c #757B82",
"a  c #797E85",
"s  c #7B7F89",
"d  c #778186",
"f  c #7A8087",
"g  c #778088",
"h  c #7D848B",
"j  c #7F888F",
"k  c #7E8790",
"l  c #7E8890",
"z  c #808287",
"x  c #80868E",
"c  c #81898F",
"v  c #818791",
"b  c #848B93",
"n  c #888F96",
"m  c #868F98",
"M  c #898F98",
"N  c #879097",
"B  c #899097",
"V  c #879199",
"C  c #8D959E",
"Z  c #8C939B",
"A  c #8F999F",
"S  c #8F989E",
"D  c #91959D",
"F  c #91969E",
"G  c #90969E",
"H  c #91989E",
"J  c #93999F",
"K  c #91989F",
"L  c #8F97A0",
"P  c #8F97A1",
"I  c #8F97A0",
"U  c #8F98A1",
"Y  c #9097A0",
"T  c #9097A0",
"R  c #9199A1",
"E  c #9299A1",
"W  c #9199A2",
"Q  c #9199A3",
"!  c #9099A3",
"~  c #939AA3",
"^  c #939BA3",
"/  c #9499A1",
"(  c #949CA2",
")  c #9299A4",
"_  c #939AA4",
"`  c #939BA4",
"'  c #949BA4",
"]  c #949BA6",
"[  c #949CA4",
"{  c #959DA4",
"}  c #969EA7",
"|  c #969FA7",
" . c #939BA4",
".. c #989DA4",
"X. c #989FA6",
"o. c #979EA8",
"O. c #979FA8",
"+. c #969EA8",
"@. c #989FA8",
"#. c #97A0A7",
"$. c #99A1A7",
"%. c #97A1A9",
"&. c #9AA2A8",
"*. c #98A0AA",
"=. c #99A1AA",
"-. c #9AA2AB",
";. c #9AA3AB",
":. c #9DA3AA",
">. c #9AA4AA",
",. c #9CA2AC",
"<. c #9EA7AE",
"1. c #9BA4AC",
"2. c #9FA8AF",
"3. c #9EA7B0",
"4. c #9FA8B0",
"5. c #A0A7AF",
"6. c #A0A9AF",
"7. c #A1A9AF",
"8. c #A0A7B1",
"9. c #A0A9B0",
"0. c #A0A9B1",
"q. c #A2AAB0",
"w. c #A3AAB1",
"e. c #A2A8B2",
"r. c #A3ACB3",
"t. c #A4ACB2",
"y. c #A5ACB4",
"u. c #A5ADB5",
"i. c #A6AEB4",
"p. c #A6AEB5",
"a. c #A7AEB6",
"s. c #A7AFB6",
"d. c #A7AEB7",
"f. c #A3ABB2",
"g. c #A8AFB6",
"h. c #A7AFB8",
"j. c #A8AEB8",
"k. c #A7B0B6",
"l. c #A8B0B7",
"z. c #AAB1B7",
"x. c #A8B0B8",
"c. c #A9B0B8",
"v. c #AAB2B9",
"b. c #ABB5BB",
"n. c #ACB4BC",
"m. c #AEB6BD",
"M. c #AFB7BE",
"N. c #ACB4BB",
"B. c #AEB8BE",
"V. c #B1B9BE",
"C. c #B1B9BF",
"Z. c #B1B9BE",
"A. c #B3BBC1",
/* pixels */
". . . . X . . . . . . . . X . . 1 6.>.<.e.e.b r.i.i.i.i.b t.i.x.i.i.J M.V.M.b.V.+ . X X o o O + O O + . h :.X.^ ^ V h ^ F n n ^ ",
"O O O O O O o o o o O + + # # O 2 -.C C Z C h V C C V C f b b b b b h ^ Y Z V ^ + O # $ % % , 9 9 9 6 > a Y C V Z b a V n b b V ",
"# $ $ $ # + + + + @ # ; < 5 5 2 2 ( Z C Z A f C L L C ' h ^ C V V C h ) ) ^ ^ [ + $ > 4 4 5 9 a a p y 5 p L ^ C V b u b n v h n ",
"1 3 2 > = ; ; ; > > = 4 9 w w 3 2 B v n n b u b x x v n u C V b n V f Y ^ Z Z F @ $ 3 6 7 7 t n v c h t w p p p p y 9 p p u p p ",
"h h j b u b B Z ^ ,.x e.x.j.e.-.7 y u u u y ; o o X . . , [ o.' ) ) 3 O . . . . 6 e.M.x.-.-.x o.[ -.[ J p h v v v p b i.i.g.l.g.",
"a h h h y v h h v Z h [ C b b C a C C ^ Y ^ u t w 9 5 > 2 ^ ^ Y L C h B b h a p f ^ C C Z ^ a V b M M x a V V b V h a b v h v V ",
"x h h h u v v h x V h F b h c V a V C ) ^ ^ h M b b v p 6 [ ) C V b a V m b b v h ' Y V b C a n n b b h p n b v b h i v h h h v ",
"h h a a w b v v v n f C C Z n Z a b b b b M a b x v h p 5 n b b v b p b b b x h x [ ' Y F ^ a b b v h f p B b b x h p h f p p h ",
"b V n n y b M V Z Y 9 = = = = = 3 F Z ^ [ [ h e.M.A.B.l.y @.,.8.y.@.x @.-.-.-.-.7 6 5 5 6 5 9 V V M b c = = * % * # , 2 2 3 2 3 ",
"v v v b u V V V V Y 6 . o o X . ; B n V b v i C C C C F t Z V C C V h C C C C C x C V Z Z Z a Z V V n n + O O O o   f Z V Z V Z ",
"h a f h t v h h h v 5 + $ * $ + > F B b b b u b b V b V w b n n b b p n n V V V h Z b v v b p Z V V b b O . O O O   a n b b b v ",
"h h c x e h c c v b 5 = 3 5 7 3 > J Z V V V t Z V V V Z y Z Z Z V b p M V Z Z Z h C b c b n a Z n n n b + @ = , 1 O z v v h x s ",
"9 w e w 5 p c c h c 6 * 6 9 9 5 % i t h h h 6 w w e w q ; 5 7 5 6 5 2 6 6 5 5 6 u n b b b b u Z V n x p . . + + + . 5 8 9 6 6 5 ",
". X X . + C ^ ^ [ ( e b <.x.h.i.e b V ^ ) ) w , > > ; = X . X o O O O O + + O . w 6.5.w.<.<.c :.-.-.^ ^ t ( <.<.:.x f D F B b v ",
"O + O . + b h h h c t Z b Z M b e h h b v v y b h h b h * # = ; > 2 ; * $ $ + . 9 n v b v v p b v h h v p n b v v h a Z n v v h ",
"$ * = # + b v h c v e n b M M M e x v b v b p n b b v c - < r t t y 9 w 5 4 > # 0 ^ V V b V p V b b b c a b v x v s p M v h h f ",
"= > > * + x h h x c w V V V Z V w b b b c b p b b b v c ; 2 t y y p e p y y w > w ^ F F F F s Z C C V V a b b v v p a C c h a h ",
"f b c f ; c b V n x 3 1 1 1 1 2 2 b Z ( [ -.i V V V V B 3 x $.>.[ ^ p J J ^ F b 3 w 6 6 6 9 5 h h a p p 9 h h h v x 2 , , 2 , , ",
"v Z n V a f v b V n 2 X # @ + + ; B b V V V p ^ C C C C y Z V b b v p b V C V Z h C Z C Z Z p C V V b V p b b c c x % + + + + + ",
"p a a h t i h h v b 3 @ ; - ; = ; n M b v b a L n b v b e b b b v v p b b b v v a V b b b n u b b b v b p v h h h a = * % % * % ",
"h x h h y p h h v b 6 > 6 6 6 5 > V M b v b a ^ Z V b b y V Z C L C h V b b v b a c b b j b u b b b v n p c h h h h = , 7 5 5 3 ",
"0 w e e 7 p h h h h 5 4 y u y t ; b v b v v w b x x x x 5 u i i p i 7 u u u i i 0 u u u u p 0 p p p p p e h h a a p ; 9 y t e t ",
"# # # @ + B ^ ^ C ^ 9 3 t y y e 2 e.e.x.x.b.h <.<.$.<.6., @ % % $ @ - b h h h v t c h h h x f ' [ [ [ [ h [ [ [ ^ C 5 h v h h h ",
"+ + + O O h h h l b 6 3 t y y e , h a h g h u C h h h x * O # # @ X > ^ C C C ^ h ^ Z V Z V f C Z Z V V a b b n b n 5 p h f a a ",
"+ @ + O O h v v b m 6 2 e y e 4 ; b V C V V h ^ V Z C F - o # $ * + ; F C Z C Z a V Z n V V a Z M n V n p v v b v v 1 e h a i i ",
"O X X . o h h h h v 5 % 2 5 2 ; $ b V ^ ^ ) v J C V C F - . + + @ O - Z Z B Z C a C V M b c p M b v M b p b v h h p = 6 i u t 0 ",
"y t t t ; x b b b x 0 u C J b h 2 b V Z N N u i a a a p 5 u h f h p 6 u p f h h i [ ^ C n c w t e r y e 2 4 4 4 4 2 2 Z ^ ^ ^ V ",
"b V V V y V V Z C V a C Y [ ^ V w @.' ) U C v ( ^ ^ C N i Z C ^ C C c ^ ( -.@.-.b -.^ L C Z f C Z V F Z b C n b h p p C b b v v ",
"v b b b y V V V V b p Z V V b b e ^ ^ ^ C L h [ ^ ^ ^ C f V Z V v v f C C C C C h Z V b n n a Z V V V Z h n b v h a u v h h h h ",
"V ^ ^ L p ^ ^ ) o.) h V V b b V y -.[ ) L L x [ ' ) ) ' h Z V V V n h ^ ^ C C L h ^ C Z V V p V V V V V f b h h a p u v h h x x ",
"x b m m t b M Z Z C w u i u i u 6 ( C C V V t p p p p p e p i i p u e p p y y y 9 p p i u u 6 w w w w e 0 0 6 5 3 , 9 h a h a a ",
"Z ) ) [ y C ^ U ) [ 0 $ , , > = # e.-.-.1.-.w = ; : > > > > > , > ; : > > > ; $ 3 e.-.[ -.5.5 * % * * = ; ; * # #   0 ' V M b n ",
"V C L ^ y V V V V C 9 O @ # @ + + -.^ U ^ ^ 9 O + @ $ * * % % % % # # # # # @ O 2 <.[ ^ [ @.2 # $ $ * * = ; > ; = X 9 v h h h h ",
"V C C L t V V C ^ [ t O % * % # + :.^ ) ) ^ 0 # ; > 1 3 3 3 2 2 , > > > , > ; % 2 <.[ [ ) ^ 3 $ > 1 2 4 5 0 w y e ; 6 b h v h h ",
"v b b b w h h j b Z 9 . + + + o # :.[ [ ) [ 0 X + # $ * % = * % $ # @ @ # @ # + 5 e.%.[ ^ ^ 5 + $ = = = ; < , , < @ 6 M h h p h ",
"; > > > = 4.1.<.1.<.f n B Z Z n 3 u y p p p 6 x 6.[ ( C p e.i.e.<.e.x :.[ [ [ -.9 Z N b b n w ( M.M.e.e.n A.A.V.b.Z , 2 3 2 2 8 ",
"= ; = = % %.) ) ^ [ v -.%.-.-.[ p -.%.-.[ <.Z e.-.%.%.%.h <.1.1.1.1.b r.1.4.<.1.h %.[ ^ ^ [ n -.<.4.3.4.v [ L C C b y h h f h h ",
"= = = % # o.^ ^ U ) v %.%.%.%.o.a 1.%.1.-.<.V e.-.-.1.%.h 1.1.1.1.1.b e.<.1.-.-.c [ [ ^ ) [ b 1.1.1.1.%.b [ ) ^ ^ n y x v h h v ",
"$ % % # @ ^ A J A ) v -.-.-.%.o.h <.-.1.1.<.V e.-.%.o.[ h 1.1.<.<.1.b e.1.-.[ $.c [ [ ^ ) o.b -.<.<.1.-.b [ ) U ^ Z a b n b b v ",
"8 0 0 8 ; B F Z V B u i a a h h 0 h v V V V p x h h h h w c b b b b u Z V V b c u B V B b c t a x h f h u h h h f p w h v v h u ",
"^ [ o.^ w [ [ -.-.<.i # , , , > & 8.e.4.4.i.Z ^ C C F F t 7 6 5 5 7 > 5 7 4 , = 9 A.x.i.<.<.h C J C Z C 6 5 5 4 4 > w ' ' F V n ",
"L ) ) Y 0 ^ L C U ) u $ , 1 2 5 < e.<.1.1.e.Z -.<.<.<.<.v -.-.%.%.<.t 3 5 2 , ; 5 i.1.>.1.1.b 1.-.o.) -.h ^ ^ C v 0 e ) C V n b ",
"C ^ ) ' w -.1.[ [ -.u $ 3 5 9 e 5 <.1.;.1.2.n -.<.1.<.<.b <.<.4.3.4.y 5 7 5 1 > 2 e.2.1.1.1.b -.o.o.[ [ f ^ U C m y e ^ F Z V n ",
"x c h h 9 [ [ -.[ -.u , 9 w w w 2 ^ ^ [ #.^ h V Z V V Z a ^ C ^ J B 3 . O o . . 3 l.k.k.e.-.B 4.4.<.>.1.a n b k k e 9 B B n b x ",
"[ [ [ o.w e w e y p y [ -.<.e.e.p $ > > , : > V.k.l.l.r.b x.M.x.i.i.c X.6.7.l.z.t u e 9 6 6 , 5 6 5 4 9 y @.[ %.1.b t -.<.<.1.-.",
"^ ^ U ( u h l N b C h U ^ [ [ %.p > 9 7 5 2 > x.<.1.<.-.x <.1.%.[ [ h e.2.<.1.e.x h p y y y 0 a a h f v h -.%.o.^ h 0 V b V V b ",
"^ U C ^ a V C C V ^ h C ^ ^ ) [ p 2 y e 9 2 ; t.1.-.-.-.h 1.1.1.1.-.x 2.6.<.>.e.b ) V b b b a ) ) [ [ 1.n 1.%.[ U f w C C C C n ",
"V U ^ ^ a b b b V ^ h Z C Y ) ^ a 9 h f i 0 , :.[ [ [ [ h -.1.1.1.<.h n n V Z Z i C V b b v h ^ U U C L h ^ Z V v u w n n Z V V ",
"7 9 9 w > 9 9 9 0 e 3 5 y e w e 7 x.b.V.V.V.c J J ( ^ ^ t u e 0 e e 8 t.t.6.<.6.u ^ Y C V V a ^ [ o.^ U v 2.4.r.%.^ 7 9 9 5 3 # ",
"3 5 4 4 = V b V V ^ u 4 r r t y 7 ( [ -.-.-.B e.1.<.3.<.b <.%.[ ^ c 7 M.b.i.e.e.p -.1.%.1.1.v %.1.1.-.#.x -.[ ^ ^ C 5 5 5 5 4 O ",
"4 5 5 4 = Y L C C ) y 4 r r r t 6 -.#.1.1.-.V e.1.%.1.<.v %.o.o.o.c 6 x.t.<.>.<.p ^ -.%.1.1.b %.-.-.<.-.x X.[ ) C C 3 4 5 5 4 O ",
", 2 , ; # b h x h v 0 2 t e e w 5 ^ ( %.[ %.V 4.1.%.[ %.x o.o.[ [ f 3 <.>.[ ( [ t i i p f h i [ -.%.<.-.w p p p p e = = , ; $   ",
"3 6 0 w ; e.i.i.i.M.h 2 t i i a 3 -.-.<.[ -.b $.[ o.o.o.h ^ ^ ^ ^ V 7 b.V.b.b.l.u A.A.A.M.b.i 2 5 5 4 % 0 l.l.x.i.6.0 p h x h i ",
"3 5 7 5 = A V V C -.a 0 c N C C 9 -.-.3.>.1.V <.%.-.1.-.x 1.1.1.-.b 7 i.4.e.6.2.p ( [ [ [ ^ e 2 5 9 5 = 7 @.o.[ Y C w y a h f y ",
"2 3 3 2 % C C C C ^ p 0 b C C b 9 [ %.1.1.1.B [ [ [ [ %.x 1.-.%.o.h 4 o.%.<.-.#.y A ^ ^ ) ^ t 2 5 5 5 = 9 [ ^ C V C 6 6 t p p 0 ",
"; > > = $ A ^ ) ^ [ i 9 c V Z v 6 Z C ^ ^ ^ v ( ^ U A ^ h [ [ ) L p 2 ' -.1.[ ^ y [ o.^ ^ ^ t < 4 4 3 % w [ A V V F 2 2 5 5 8 3 ",
"n Z F Z 9 u u i y y 6 y N C C V 0 ^ -.%.-.1.b ^ ^ ^ C ^ a ^ ^ ^ V p , f h h h h 5 9 9 0 9 7 , w a p y 5 3 p i a p u 2 C :.<.<.:.",
"h h h k p ^ [ U ^ [ h u [ ^ U ^ 0 ( #.%.%.<.b %.[ [ [ %.h 1.1.[ ^ p 2 o.1.-.-.1.p [ ^ [ [ ' y t h b k w w [ C C C V p v k h h x ",
"l l v v a C ^ U ^ [ p u C U C Z 9 ^ [ o.%.<.b %.[ [ [ >.h %.o.( U p 3 1.%.-.o.^ y [ ^ ^ U C y y l b k w 0 ( A C V b p b v h a h ",
"l b b M p v V C ) ^ u 0 v b v v 6 h h c c b p [ [ ( ( 1.h -.[ [ o.h 2 -.-.-.[ U y ' L C C C t w p a a 7 0 ^ C C m v y v b c h h ",
"0 w < > $ 7 0 0 w 0 2 y [ -.[ V 7 -.-.e.<.<.c J B b N C p V B B b a 2 F J J Z C 7 e e y e e 7 u v V C a 2 y y t t w 5 a p p y y ",
"n C i.N.* 4 y e y h u e ^ U ^ V 5 [ %.-.1.1.h ^ ( ^ ^ ^ a [ [ [ ^ v 5 %.%.U C [ e 5 7 5 5 5 5 y f h h w 7 b b b v v y b v h a p ",
"h v v b # < t y p h y w C V b h 4 Z b v v b y C Z Z C Y i B b b b a 2 B V b b M t 4 4 3 5 6 5 i p a f 6 9 b h h v h e h f a p y ",
"p h b f . ; 9 w e y 8 6 h h h d 5 ^ C V V ^ i f f f h f 6 0 9 0 9 6 > n b v b Z t 2 2 3 4 5 4 t t y t 2 2 t 0 0 9 7 6 i p p p t "
};
