/* XPM */
static char *ae8707f58d1b4d5bfd168fdf23a67390ExPsVqxQRctHQebk[] = {
/* columns rows colors chars-per-pixel */
"64 64 200 2 ",
"   c #785351",
".  c #B09595",
"X  c #A98C90",
"o  c #9B7D81",
"O  c #99797A",
"+  c #947478",
"@  c #927174",
"#  c #926F70",
"$  c #8D6C6F",
"%  c #8A686C",
"&  c #83666E",
"*  c #9A7A7E",
"=  c #8C6F76",
"-  c #7B606D",
";  c #7B5D66",
":  c #74565D",
">  c #6E535E",
",  c #6C515C",
"<  c #674C56",
"1  c #64474D",
"2  c #5F464E",
"3  c #6C4E55",
"4  c #5B444D",
"5  c #5D4247",
"6  c #543E46",
"7  c #543C42",
"8  c #563A3C",
"9  c #53383B",
"0  c #4E373B",
"q  c #4B3235",
"w  c #453035",
"e  c #3E2F36",
"r  c #402D34",
"t  c #3E2B30",
"y  c #B2999D",
"u  c #B49997",
"i  c #DFD2D4",
"p  c #BFA8A8",
"a  c #B89EA4",
"s  c #C2ADB0",
"d  c #6E4C4E",
"f  c #734E4F",
"g  c #6B4749",
"h  c #634244",
"j  c #5E4043",
"k  c #A4888C",
"l  c #947680",
"z  c #836875",
"x  c #7E646F",
"c  c #775B66",
"v  c #735863",
"b  c #826064",
"n  c #634447",
"m  c #4D3940",
"M  c #A88B8B",
"N  c #A08182",
"B  c #7A5657",
"V  c #4B3031",
"C  c #533637",
"Z  c #4E3537",
"A  c #5B3C3D",
"S  c #664649",
"D  c #644953",
"F  c #462F32",
"G  c #3E292B",
"H  c #3B2526",
"J  c #332124",
"K  c #2C1F24",
"L  c #35252A",
"P  c #191013",
"I  c #442D30",
"U  c #3C272A",
"Y  c #1B1215",
"T  c #0B0C11",
"R  c #2B1B1E",
"E  c #2E1E20",
"W  c #2B1A1B",
"Q  c #A7847E",
"!  c #221618",
"~  c #B4A6B0",
"^  c #BAB0B7",
"/  c #A2909C",
"(  c #9B8895",
")  c #9A8088",
"_  c #6C494D",
"`  c #362325",
"'  c #190E0F",
"]  c #221314",
"[  c #8B717D",
"{  c #130C0F",
"}  c #CAB9BA",
"|  c #D5C8CB",
" . c #E6E0E1",
".. c gray97",
"X. c #DFDDE0",
"o. c #D0C3C5",
"O. c #D5D0D8",
"+. c #E2E4E9",
"@. c #7C6676",
"#. c #6F5764",
"$. c #100A0D",
"%. c #09090D",
"&. c #241A1E",
"*. c #856D78",
"=. c #6D4A42",
"-. c #735054",
";. c #7A585B",
":. c #856467",
">. c #8A6667",
",. c #9F91A3",
"<. c #9E99B0",
"1. c #807285",
"2. c #1B1318",
"3. c #B09CA6",
"4. c #BCB7C8",
"5. c #B3A8B9",
"6. c #CABEC4",
"7. c #D8CDD1",
"8. c #E7E6ED",
"9. c #C8C3D1",
"0. c #DFE4ED",
"q. c #C1C2CC",
"w. c #674B50",
"e. c #C6B1B2",
"r. c #E0D9DA",
"t. c #AA9092",
"y. c #A18388",
"u. c #5D4753",
"i. c #4D3C45",
"p. c #38282E",
"a. c #5C3E41",
"s. c #825D5E",
"d. c #311B19",
"f. c #321D1B",
"g. c #332020",
"h. c #20110E",
"j. c #24181B",
"k. c #090609",
"l. c #432B2B",
"z. c #120E13",
"x. c #211210",
"c. c #0E0809",
"v. c #291716",
"b. c #080404",
"n. c #8D7581",
"m. c #080507",
"M. c #B0959B",
"N. c #9A8490",
"B. c #AC9299",
"V. c #7C5B5E",
"C. c #46333A",
"Z. c #554049",
"A. c #251E23",
"S. c #765357",
"D. c #EEF0F7",
"F. c #8B7689",
"G. c #857080",
"H. c #BBA4A8",
"J. c #BAA8B1",
"K. c #968290",
"L. c #917A86",
"P. c #785F6E",
"I. c #B89D9D",
"U. c #4F3A42",
"Y. c #503433",
"T. c #482E2D",
"R. c #2D232C",
"E. c #342830",
"W. c #47363E",
"Q. c #694A52",
"!. c #402828",
"~. c #382322",
"^. c #422726",
"/. c #492D2F",
"(. c #937C89",
"). c #372322",
"_. c #422828",
"`. c #A28A93",
"'. c #CEB9B7",
"]. c #BC9B92",
"[. c #8A6360",
"{. c #A07973",
"}. c #99899B",
"|. c #734B48",
" X c #603F3D",
".X c #5B3A39",
"XX c #694443",
"oX c #5A393A",
"OX c #492D2D",
"+X c #382222",
"@X c #4B2F2D",
"#X c #513332",
"$X c #815A59",
"%X c #0C0505",
"&X c #180B09",
"*X c #291613",
"=X c #593937",
"-X c #180C0A",
";X c #2F1D1B",
":X c #0D0605",
/* pixels */
"  . . X o O O + @ @ # @ @ $ $ $ % % % & $ * * o = & & & - ; : > > , < < : < 1 2 3 1 < 4 4 5 6 7 8 9 0 0 0 q w e e r r t r 0 w 0 ",
". y X u i p y a s d f f f f d g d h j * a o * * k o o l = = z x x x - - c c v c > b 3 c 5 9 j 1 n 8 8 9 9 0 0 1 8 5 1 4 3 d 5 m ",
". M @ N % B f h V C C C C C C Z Z 9 A n k $ B + k l 3 & d S n 2 5 5 5 1 , D v v 3 1 7 < w F G H J J J J J J J K L L L r n n 5 7 ",
"N # # h P I F F F G w F I I G U G U U H F + o X X l b $ = & & & - x - - > 3 > v 3 1 5 Y T R E K K J E E E E R R R R R W I 0 0 q ",
"Q s N ! k ~ ^ ^ ~ / / ( ) / / / 3 1 _ S j ` ' ] b l = l l [ = : > v > > > > > 0 { { T T L 0 8 3 1 S 3 1 1 1 5 5 1 5 7 1 G 1 S 0 ",
"Q } N j |  .....X.| o.s y O.X.+.1 - @.#.< j U R W Y P ' ' ' ' ' ' { $.{ { ' { %.%.&.G 5 x *.5 : 3 1 1 1 1 1 1 5 j 5 3 x r 3 1 0 ",
"=.-.;.S @ B :.>.+ + o ) l l = _ 0 ~ ,.<.1.2 5 j 8 H I F q q w w w F t G G 2.%.T &.1 & 3.4.5.> : ; 3 1 1 1 5 5 5 7 1 3 : &.n 0 w ",
"I F n n | 6.7.o.8.O.O.8.9.0.9.9.c 7.4.0.q.*.m S b . f = ) : > 3 3 3 z w.5 & 7 e 0  .e. ...r.+ : & & 7 7 7 8 0 0 0 5 ; 3 $.w J I ",
"w j h h M N M M t.N N X O k l y.7 :.D u.i.p.&.a.# a B o l [ [ x x @.l 3 1 x 8 0 9 s.B # o # 8 f z x 1 5 7 8 8 5 7 1 ; 3 %.&.U w ",
"I 8 a.a.U W d.f.f.f.f.g.d.f.d.g.h.U E j.! ' $.R W ] F V F F F F I I t G G P k.%.J d.d.H l.l.f.n x x x x - c c c : > : 3 k.z.R I ",
"L @ A A U h.h.h.h.h.h.h.h.h.h.x.c.x.x.P ' k.%.P a.q $.k.k.$.$.$.$.$.k.k.%.%.L K F U h.x.] v.h.U q q q q w w F F F w w U k.z.0 L ",
"2.U V a.9 c.c.c.c.b.c.b.b.b.b.c.b.c.c.k.k.$.2.;.k * G U G j n j j 7 J ! 2.&.n., > j V x.c.$.c.b.b.b.b.b.b.b.b.b.b.b.b.m.k.$.2.2.",
"Y F 8 8 j W b.b.b.b.k.c.$.c.m.b.b.m.k.%.T 9 y t.s M.I j n a.E W j.j.L n 8 : N.n.- > w.9 ` { b.b.b.b.b.m.k.b.b.b.b.b.m.k.k.T 2.Y ",
"Y 8 8 9 j S l.{ $.$.P Y 2.z.$.m.%.%.T z.-.a s B.= q 2.5 & = x - v v c - 3 a.9 & = x c < 9 V E { k.$.$.z.P { m.m.k.k.k.k.k.z.2.Y ",
"&.C j 9 n s . # Z R U E &.R P z.2.Y 2.;.M.y.B.b &.Y r 5 0 j 1 V.: 5 0 e C.2 8 q : n.x 3 4 8 q U R ` Y P 2.Y k.$.T z.T k.%.2.&.&.",
"w b :.8 S O O + A ` f g h 9 R 2.E L b O X y.w z.U Z h :.M.O.~ / ( ( 3.N.: 7 w 9 ` a.s.1 2 Z.0 9 I n U R G J $.&.A.K &.%.z.w 7 w ",
"9 * :.8 S e.* O s.U b % :.S.U ! w :.N ;.:.J P G s.X.D.M.o.k S 1 1 5 & x z F.G.3 Z l.H f 2 2 7 0 0 _ 9 0 a.G ! 3 5 7 2 %.K 5 1 9 ",
"7 $ ;.9 n s N o V.U :.k M b U R ;.% % l L { J . i 8.H.} } y J.3.N.K.L.> n.> P.@.> Z l.H d 3 5 C.0 f 7 a.n F R ;.3 1 1 T L 1 1 7 ",
"7 :.b Z h # * N 8 U b y.k ;.U J + -._ J $.` M ..| N M r.o.X :._ 5 3 x F.F.> 2 > #.2 I F l.n a.0 w d 9 j j F J : 1 -.a.$.L 1 1 7 ",
"w _ j Z j j 9 9 U L V.+ % _ U t k O A $.U e.O s O t.a d E ] ' j.j.] E g.7 - #.D < 7 5 0 V V q L r _ Z n j F U 8 I G ` $.t 5 a.w ",
"Z j w q a.I c.k.%.J V.+ & _ U t C >.Y ! I.p >.O O b ` Y P R 0 l & q 9 l.d.I 1 4 U.7 Z.7 w Y.8 8 w n Z n a.I K U c.b.m.%.K n n Z ",
"F 9 a.Z j a.U P z.L ;.# b S U 0 y.I { ;.M.% b O b j.] Z o r.D.t.= x F.c 9 T.l.5 m 7 6 6 w Z C S 4 n q n a.r 2.F H Y z.T K 8 Z F ",
"Z d _ I j ;.-._ 5 f V.% :._ H J -.z.q * O S.s.a W ` f X 8.r.t.y.= 2 *.x ;.B V V 6 0 8 7 r r C q R C Z 7 n F 2.5 3 3 j J t j j Z ",
"w -.j G a.:.e.} e.a ;.S a.j ` k.c.{ # k _ d . ` { C X y.+ -.# o :.x > & $ f L l.9 C.8 Z C.e F H c.9 Z Z Z t R.L.L.: a.U F S j w ",
"F f 7 U a.% e.s e.H.f j _ 8 J $.t S N >.-.B f 2.&.d   * X p y ) x z P.x S K K w A Z e w 0 e L q I n V I 9 U E.L.n.t w G w n a.F ",
"G q F U 9 b 7.+ o.6.f -.-.a.E z.q S _ _ j :.H 2.5 # B # M 3.V.8 w 7 > 2 C.p.W.m 9 a.t F 0 L &.` q n q C j q Z.n.v K I G w n q G ",
"` U ` U 8 ;.} H.s J._ f S a.R z.Z 8 8 h h -.! &.:.b # X * a.7 S.Q.8 Z 1 U.C.m m q g e r G K &.! q n Z Z A 9 6 x - K L U F j F ` ",
"g.l.J U 8 f s.A $ % a.A S w ! L 9 S B f a.a.2.t V.B O % 1 Z d 1 2 5 0 7 m E.w r t g 0 L q e L Y n _ I I q w L 7 U R &.G F h q J ",
"W I g.U 8 g f h B B 8 S.:.F ! p.U n f f j Z R ;.>.s.>.s.t a.1 5 5 7 0 Z 7 R.w U.0 f 8 K q e L Y S g I 1 n I K 0 U &.2.p.q h q W ",
"j.l.E ` Z h g C d _ Z 8 n G 2.L g.A h n 9 F E -.f g a.n L a.n j 7 m Z q 7 K L w I a.8 R I I L P a.C U q 9 U K w ` &.P L F a.V j.",
"! U R ` Z j h a.h h I q j J 2.K f.C a.j C w ! F Z Z a.a.t 8 a.8 m 0 Z q 7 ! ! R J d S &.t G R { A a.J G F J R I G &.2.K I A F ! ",
"! U R J V j a.V A A I l.l.` P Y R Z a.8 q 0 K F h a.C C 9 q 8 9 0 q 8 8 F 2.! &.L # a.R L L R $.J C H H U J &.t E j.2.J I 8 I ! ",
"! U W J V a.8 Y.C C l.U U ` P $.G q g d h 8 L F g j Y.Y.C 9 0 j j 8 A a.R P L K I p G U F I E $.U C H E H E &.G E j.Y J U C I ! ",
"! H W J F A C l.Y.V G I F J P z.G A a.A a.Z w L A A C T.!.F 8 9 8 h 8 R P &.L K f . j.t F J E $.p.9 ` J l.R j.U E ! Y K U Z l.! ",
"j.` j.J F 8 Y.l.l.l.U V C J P z.G V C 9 8 I Z e q 9 C A H ~.g.J ` g.d.P Y j.R q p j ! U t K 2.$.G 9 J U I R ! g.g.! Y K H q H j.",
"R J W J F C V g.^.l.U /.V ` P z.U F Y.C V H Y.0 e C A 9 ] ~.f.!.f.! ] P R J U s.X j.P E L R { z.I 9 J ` l.R ] g.W j.2.J U V J R ",
"J U W J F C d.h.h.j.l.l.l.J Y J -.e H V C C F q 6 1 8 R H l.g.V l.Y &.R E l.g | L P J F E Y %._ 7 8 H H H W $.' ' P R J U V H J ",
"` U g.J I V U G U G l.U g.J Y L S Z.L g.V C Z V V S < e Z C V V l.j.E t U B t.Z Y &.F K W $.K y w q g.E ` W { U t t ` J U q I ` ",
"J G ` J F Z C 9 9 9 U !.g.g.P J S n W.J l.V Z C ` U 5 @.> 7 I l.U ` 9 s.p M.V ! Y F ` E { ` @ 7 8 t E E J j.P 3 c v 2 L U F l.J ",
"g.I H J I y.s s b F U !.g.g.P ] C C 4 i.U !.!.g.A l.g.I < F.,.(.+ o.i . A W Y &.l.R E P { s.j l.J L E R ` j.{ > > , 5 E U I H g.",
"H U ` E G S S.S.` J U g.g.E P ! V 9 I Z.i.U ).C U F Y.W ] f.J !.V H f.] P Y I H j.U ] c._ d l.h P J E E J W ' a.9 9 U { ` l.J H ",
"l.Z I U q j d _ R ! U g.g.R P ! H l.U n 5 U.H g.Z F U H E W j.j.! j.Y Y ! U E J U Y $.9 -.q j j.$.J ` ` ` R j.A U U g.$.U q V l.",
"U C U H I q V V W ! l.l.l.J P j.l.U Y.9 q 7 7 H d.!.I R H F H !.!.H J ` f.J H R ' { Z S.8 q U P %.` U g.g.E J a.H H J $.` q V U ",
"` V g.J G C C C g.! V !.!.H 2.&.I U ~.l.Z 8 5 5 H W x.d.H l.Z Z q Z F ` R ! h.$.Y j _ C H H P %.j.j d d a.F U q g.f.d.%.K l.U ` ",
"g.l.U J U l.l.U W Y l.` H J 2.&.I I ` d.l.C Z 8 5 m E h.' ' x.] ] x.h.' { { { F g a.l.U U P { j Z q :.& 7 L U U { c.c.$.R l.l.g.",
"g.H J J U W c.c.k.Y I F I H &.&.G I I ` d._.I q Z 7 j Z j.' { $.$.$.$.{ { I n n V l.l.` P W C W ;.k `.L.[ ; 1 0 H ! P P E U H g.",
"J H H H l.I J E &.L 7 7 8 9 t L Z w F I f.] H V F 9 9 a.U Z t J &.j.j.K U j A V l.H H ' ' Z H # H.~ 5.,./ n.c 3 F U G U G F !.J ",
").V H H I @ l z - z = ; - z > > 5 1 < 1 5 g.' d.U V I U I j : ; - - c > e I l.U !.f.' c.F F . e.D.7.~ `.(.*.- , 5 9 U G U F V ).",
"g.U H H I y.k ) = l l l l l - 5.; (.[ G.x J I ! c.W H W J I ` ! j.! ! 7 ! J H W $.k.$.J l.>.'...p . O.4.,.F., u.U.I J ` U I l.g.",
"g.H g.` F O N y.# # N y.) @ -.$ -.l = = ; P U G E { $.$.J V n 1 1 1 1 7 P 2.j.k.$.Y J V q O ].I.'.i $ 9 t 7 < 7 w L K E L I ` g.",
"f.W ! J U ' Y R $.k.c.W R P k.b.c.] ] ] Y $.R t G H j.z.J E U U G U G L $.Y L R K F I I S [.{.>.'.f g.l.J j.` C.p.R j.R J U ] f.",
"g.d.! J U C h n -.S.S.-.g _ S C ] W ' P $.%.! 8 Z I I F Z I l }.}.}.}.G.z.&.p.G I U g.H j |.|.[.f R C C I J d.L R ! P ' R U W g.",
"g.d.j.g.U V C 9 a.h  XA V F F I J q S S G Y j.` E G -.. V.a.y ^ ^ 5.~ ( j.7 < w t H E ` Y. X.XXX` ` U U H H !.g.2.Y P ! Y H W g.",
"d.oXf.J l.l.V OXl.V V V l.F l.U W Y.V V V ' j.` R F } i # f H.9.q.4.4.,.J 3 G.Z.` H E R +XOX@X#Xd.] g.g.f.+Xf.H Y Y $.$.{ U I d.",
"] W x.g.H ^.H d.h.h.h.h.d.l.d.f.h.H H H H $.j.J R I $Xs.A C f #.> , < 4 2.G w L 2.` E g.H ^._._.g.P d.g.^.d.H V x.h.c.' $.d.] ] ",
"f.f.W g.H H f.h.c.c.c.c.c.%Xc.c.c.c.c.c.c.c.! J R H _.l.g.d.l.I l.l.U U { ] ! ! { g.R ` R d.d.f.f.g.! P h.f.g v.] &Xc.c.$.d.W f.",
"g.f.W f.H !.d.c.c.c.c.' c.' ' h.c.E G F H { ! J W ` W W v.h.d.d.d.d.d.W c.h.x.' $.E W ` E R h.*X*X*Xl.a.g =XW x.-Xc.c.c.%.W d.f.",
"g.g.f.f.H l.g.W x.P ' h.' ' h.Y ' !.l.U !.{ j.J W J f.c.c.c.*X*X*X*X*X] b.c.c.k.{ g.W J J W h.&Xh.h.h.x.x.h.h.&Xb.c.c.c.c.W f.;X",
"g.H g.f.H !.l.V R W ] ] x.x.] j.h.^.H H H $.j.U W J ` W c.%Xh.h.h.h.h.h.b.b.m.c.' ` j.J J R h.b.:Xc.&X-X&Xc.:Xb.b.c.c.$.c.W g.d.",
"g.!.H f.J g.] P h.' { ' ' ' ' ' c.h.h.P h.$.j.W P J H H W ' c.b.b.b.b.%Xk.k.c.$.Y ! P J J ` ] %Xb.b.b.b.b.b.b.b.k.c.c.$.$.d.g.d.",
"g.l.@X_.!.H j.c.k.k.c.c.c.$.$.$.$.' ' ' P P g.G U G G I G H d.c.c.c.c.k.c.%.$.P j.` E E E E R x.k.m.m.m.m.m.k.c.c.' ! W R F l.;X",
"g._.^._.V .XC H ] { { ' P P 2.j.E l.U U C A j 8 8 I l.l.l.U H j.{ { { { { P j.E Z j j C F U l.` j.! Y P ' ' { P f.V A Y.l.^.^.g.",
"f.l.l.!.!.l.^.g.f.] ] ] ! j.W E W H J H Y.C ).F C U H ` ` g.g.g.R ! ] P P Y W J Z F V Z F g.!.W E R W ! ] ] Y W ~.+X_.!.^.l._.~.",
"V g.!.Y.@XV V V Y.Y.V V V V Y.V q A a.a.A l.!.f.V C 9 9 C C C q V I l.U G V C Z F H !.C a.a.a.A l.q V V V V Y.Y.V V V V V _.^.!."
};
