/* XPM */
static char *_1bfe5ab5cf24908e89b3c17260a6b24PASmsu6EURKOaHst[] = {
/* columns rows colors chars-per-pixel */
"64 64 203 2 ",
"   c #050505",
".  c #090907",
"X  c #05070A",
"o  c #06090C",
"O  c #0A0B0C",
"+  c #080707",
"@  c #120F0D",
"#  c #12100E",
"$  c #060C12",
"%  c #0B0E12",
"&  c #0E1115",
"*  c #0D131A",
"=  c #071018",
"-  c #131415",
";  c #191714",
":  c #1A1916",
">  c #13161A",
",  c #15191D",
"<  c #1B1B1C",
"1  c #211E1B",
"2  c #21201E",
"3  c #151B22",
"4  c #1B1E22",
"5  c #151B24",
"6  c #1D2125",
"7  c #1D242A",
"8  c #1E2930",
"9  c #232425",
"0  c #292623",
"q  c #272826",
"w  c #2A2826",
"e  c #23262A",
"r  c #26292D",
"t  c #2B2C2C",
"y  c #282728",
"u  c #302F2F",
"i  c #2F302F",
"p  c #30312F",
"a  c #242B32",
"s  c #2B2E32",
"d  c #2E3134",
"f  c #2D333A",
"g  c #25313D",
"h  c #323335",
"j  c #393635",
"k  c #393837",
"l  c #33363A",
"z  c #35393C",
"x  c #3A3C3C",
"c  c #373837",
"v  c #403F3E",
"b  c #3F403F",
"n  c #42413F",
"m  c #2C3742",
"M  c #353C42",
"N  c #3B3E42",
"B  c #373F48",
"V  c #303740",
"C  c #403F41",
"Z  c #3D4145",
"A  c #35414B",
"S  c #3C434A",
"D  c #3D4751",
"F  c #3E4B56",
"G  c #424344",
"H  c #474847",
"J  c #42464A",
"K  c #45494C",
"L  c #4A4B4D",
"P  c #484745",
"I  c #504F4D",
"U  c #52514F",
"Y  c #454C52",
"T  c #4A4E52",
"R  c #444F59",
"E  c #514F50",
"W  c #4D5154",
"Q  c #46515B",
"!  c #4C545B",
"~  c #4B545B",
"^  c #525455",
"/  c #53565A",
"(  c #55595D",
")  c #5A5C5E",
"_  c #575855",
"`  c #605E5D",
"'  c #64675B",
"]  c #445360",
"[  c #4B5661",
"{  c #4C5965",
"}  c #545C63",
"|  c #5A5E62",
" . c #525E6A",
".. c #5D6165",
"X. c #56616B",
"o. c #5B636A",
"O. c #5E686E",
"+. c #5B6671",
"@. c #5E6974",
"#. c #546371",
"$. c #626365",
"%. c #63666A",
"&. c #65696C",
"*. c #6A6C6D",
"=. c #6A6864",
"-. c #6F716F",
";. c #636C73",
":. c #6A6E72",
">. c #636F7A",
",. c #606770",
"<. c #6D7175",
"1. c #65717C",
"2. c #6B747B",
"3. c #727475",
"4. c #727679",
"5. c #74797C",
"6. c #7A7B7C",
"7. c #797877",
"8. c #82817E",
"9. c #667582",
"0. c #6A7681",
"q. c #6E7984",
"w. c #6F7D8B",
"e. c #737B84",
"r. c #7A7E82",
"t. c #737E8A",
"y. c #7D8285",
"u. c #76828C",
"i. c #7B848B",
"p. c #748493",
"a. c #7B8692",
"s. c #7D8A94",
"d. c #7D8D9B",
"f. c #788FA0",
"g. c #828485",
"h. c #828689",
"j. c #85898C",
"k. c #8A8C8D",
"l. c #848C93",
"z. c #8A8E91",
"x. c #838E99",
"c. c #8D9194",
"v. c #85929C",
"b. c #8C939B",
"n. c #929596",
"m. c #93969A",
"M. c #94999C",
"N. c #999C9D",
"B. c #999590",
"V. c #A19F9A",
"C. c #8393A3",
"Z. c #8996A1",
"A. c #8B98A3",
"S. c #8F9DA9",
"D. c #939BA2",
"F. c #9A9EA2",
"G. c #939FA9",
"H. c #9DA2A6",
"J. c #94A2AD",
"K. c #9BA4AC",
"L. c #92A3B2",
"P. c #9BA9B3",
"I. c #98AAB9",
"U. c #A2A5A5",
"Y. c #A3A6A9",
"T. c #A4A9AB",
"R. c #AAADAD",
"E. c #AEB1AF",
"W. c #AAADB2",
"Q. c #A6ABB1",
"!. c #ACB1B4",
"~. c #AAB3BB",
"^. c #B2B4B4",
"/. c #B2B5BA",
"(. c #B6BABD",
"). c #BABDBD",
"_. c #B7B2AB",
"`. c #97B1C3",
"'. c #AEBBC3",
"]. c #ADBDCA",
"[. c #B5BDC4",
"{. c #BDC1C3",
"}. c #B5C3C9",
"|. c #B7C9D6",
" X c #BCD1D9",
".X c #C1C4C5",
"XX c #C6CACB",
"oX c #CACAC9",
"OX c #C6CED3",
"+X c #CCD2D4",
"@X c #C4D2DD",
"#X c #D5DADD",
"$X c #DCDEDF",
"%X c #D2D6D8",
"&X c #D2DCE2",
"*X c #DDE3E4",
"=X c #DCE6E8",
"-X c #DFEBEF",
";X c #DCEBF2",
":X c #E4E8E9",
">X c #E5EDF2",
",X c #ECF4F9",
"<X c #F6F9F9",
/* pixels */
"-.R.R.Y.M.n.n.c.z.z.k.z.z.j.j.j.h.h.h.i.j.m.m.M.l.i.i.i.t.e.2.1.1.>.@.@.2.@.o.X.;.o.@. . .} [ ~ W T Y Y Y J S A A B B M B Y S Y ",
"R.!.Y.E.$X).!./.{.&.*.*.*.*.&.$.&.) ( m./.M.m.m.H.M.M.b.l.l.a.u.u.u.t.t.q.q.0.q.1.r.;.q.} T ( o.| W W T T Y Y o.W } o. .;.&.} R ",
"R.U.z.N.h.3.*.) G L L L L L L K K T ^ | H.j.3.c.H.b.;.i.&...| X.} } } o.>.+.0.0.;.o.! @.S Z z h s s s s s s s a f f f B | | } ! ",
"N.k.k.) > N Z Z Z z S Z N N z l z l l h Z c.M.Y.Y.b.r.j.l.i.i.i.t.u.t.t.1.;.1.0.;.o.} , = e r a a s r r r r e e e e e 9 N Y Y J ",
"V.{.N.4 H.'.}.}.'.P.P.J.D.P.P.P.;.o.%...( d - < r.b.l.b.b.x.l.2.1.0.1.1.1.1.1.Y & & = = f Y W ;.o...;.o.o.o.} } o.} ! o.z o...Y ",
"V.XXN.( %X:X<X<X=X%X+X{.!.&X=X-Xo.t.p.9.@.( l e 9 , > - - - - - - & % & & - & $ $ 7 z } u.s.} 2.;.o.o.o.o.o.o.} ( } ;.u.B ;.o.Y ",
"' :.4...z.3.y.g.c.c.M.D.b.b.l.%.Y '.I.`.f.X.} ( W h N Z J J S S S Z M z z 3 $ = 7 o.i.~.|.].1.2.e.;.o.o.o.} } } ! o.;.2.7 | Y S ",
"N Z | | %XOX#X+X>X&X&X>X@X;X@X@Xq.#X|.;X Xs.R ..r.R.*.l.D.2.1.;.;.;.a.O.} i.~ A Y :X.X:X<X*Xc.2.i.i.! ! ! W Y Y Y } e.;.% S s N ",
"S ( ) ) U.N.U.U.T.N.N.Y.n.H.b.F.! y.+.#.] V 7 / k./.3.M.b.x.x.u.u.p.b.;.o.u.W Y T 6.3.k.M.k.W *.a.u.o.} ! W W } ! o.e.;.$ 7 l S ",
"N W / / l 9 0 w w w w t 0 w 0 t ; l r 6 4 - % e 9 < Z G Z Z Z Z N N M z z > o $ s 0 0 h x x w | u.u.u.u.t.q.q.q.2.1.2.;.o * e N ",
"f z.^ ^ l ; ; ; ; ; ; ; ; ; ; : O : : > - o $ > / J % o o % % % % % o o $ $ f a Z l ; : < 2 ; l J J J J S S Z Z Z S S l o * Y f ",
"5 l G / T O O O O   O         O   O O o o % 5 4.H.m.z l z ( | ( ( ! s 4 3 7 v.>.1.( G : O % O                         X o % 3 5 ",
", Z W W ( 9         o O % O X     X o $ = T !.T.{.W.N ( | / r 9 6 6 f | W 2.G.v.t.1.O.T d &           X o           X o o = 3 , ",
", W W T ( ..x & % % > , 3 * % X $ $ = * :./.{.Q.l.J 3 } i.l.u.t.0.0.q.t.;./ T i.l.u.q.@.T G r & o % % * > & X X o o o o o * 5 , ",
"7 L ( T | {.R.k.K e l r 7 e > * 3 , 5 4.W.F.Q.r.7 , B } Y ( o.5.2.} Y A D X.W J 2.v.u.;. .W J l e d , > 5 , o % = * = o $ 5 7 7 ",
"S r.y.W ..n.n.c.^ d *.$.) T e 5 r f r.n.Y.F.S * l K ) y.W.&X'.P.J.J.~.G.2.! S T d / 6.o.X.{ Y T N | l e z s % 7 8 a 7 $ * S ! S ",
"T m.y.W ...Xm.n.6.l r.h.y.<.l 4 S y.N.4.y.s > z 6.=X,XW.+XH...o.o.} i.u.a.C.d.;.K x h *.X.X.~ Y Y %.T Y / z 4 ;.} ~ X.$ a } o.T ",
"! j.4.T | {.N.M.5.l y.H.U.r.l e 4.h.h.b.f & s R.$X>X(.XXXX!.[.~.G.S.Z.1.v.1.w.p.1.K x h &.;.} D Y *.! / | Z e 4.;.o.o.= f o.o.! ",
"! y.r.K ) k.m.N.W l r.F.H.4.l s c.:.%.s % d U.<X%XN.U.*X+XY.y.%.} ;.u.C.C.1.X.1.9.X.N Z x | / Y S &.T ( ( Z s 2.o.:./ % f o.o.! ",
"S %.( K ( ( T T l f 5.c.h.%.l M H.n.^ % l .Xn.{.n.T./.&.r < - 6 6 < r t ! t.9.+.@.~ } Y G G J f B %.K | ( Z l W N z d % M } / S ",
"K ( S J / N O o $ s 5.c.i.%.l M L g., 4 ^.).g.n.n.r.d , > e Y b.i.J T x 0 N o. .Q ~ { ~ S H W W S | K | / N a l O   X $ a | | K ",
"Z T / K ( / l > * f 4.k.r...l Y F.N & 4.W.h.r.n.r.6 < K M.*X,XT.l.u.C.q.T b x } R ! [ [ S K L .. .| J | / B 3 Z h , * = a W K Z ",
"K &.%.N ( 4.:.%.} *.5.h.y.%.h s :.* J m.n.<.6./.9 d *.Y.>X*XT.F.l.X.s.u.4.3.G G [ Y W ~ B B L J e L K ! | Z 3 } ;.;.( s M ( ( K ",
"S :.( z / y..XXX.X/.4.../ ( d o O & k.H.%.&.R.d & L Y.F.c.:.k.M.y.u.1.i.j.*.f x T D W K D A Z h O T K K K M g Z.Z.2./ l Z ..( S ",
"Z *.! l / h..X{..X(.*.( %.W s % M ..N.g.:.3.*.3 7 &.-.m.Y.).!.D.u.a.w.u...a a S ^ K A S Y A f J N | G N T l m Z.v.M S z S | / Z ",
"z J Z l T r.#Xc.+XOX*.:.:./ r * J ..%.%.( y.h 3 } k.3.k.U.~.5.W S ! 1.X.D V F R T / M Z Y f 7 d J | J L ( J { v.0.a N z S | J z ",
"d l d l W 4.XX(.{.[.%.*.../ e * K W W ) ) :.4 7 y.r.k.Y.m./ ! <.,.W K o.Q D R R J $.A B z a 7 4 J | K K ^ T [ u.t.a f l Z ( Z d ",
"t x s l W *.6.^ j.h./ ^ ..S 4 f T ..3.*./ / 3 M 5.3.n.h.o.K &.o.X.} Y ! R m S B M $.Y f J A f , | %.N N J S f ! l e 7 z Z ) J s ",
"9 N t l W $.*.) 3.3.W <.y.Z 4 V l | *.*.( K e 4.g.6.g.6.M / o.} } ! Y K ! g S Q Y *.W a J A f , ..$.N o.| N a Y l 7 5 V J ) J 9 ",
"6 x r d K ) $.L &.%.K W | z 3 f t ^ ) | T Z r :.*.$./ | f / | ( ! R K J ! a f S N / W e N N f > / L l J T l a S d 7 > f Z / G 6 ",
"4 l e d K ( ) / ) ) N J ( s 3 a w L / ( L S 4 Z K K / / M W / W R Y K J ! 4 4 e s &...7 M z e & ^ / s z Z s e N z 7 3 a N ^ Z 4 ",
"4 l e s G ( / G ^ ^ N x x d > , e K / W J Y a Z ) / L L T J W T Y J W W Z 3 4 7 f k./ e f f e % s L h h l s 7 M r 6 3 s N W N 4 ",
"4 l 9 s G / W H L L x l l d > % z J $.&.) W f Z $.( H H L T Y ( ( W ^ / e > f a N ).z l Z N r % l L h r h r 7 z r 6 , s l L N 4 ",
"4 h 9 s Z ^ L x H G z N Z s > * z ^ / ^ / K S f ^ ^ L b c Z W T W ) W e > 7 f a *.R.6 M Z s r % V T d s x e 6 l r 4 , a l K x 4 ",
"6 d 6 s Z W H x x x l G L s > * z G L T W N K A J T L ^ h p t s d t 0 > , 6 e J ).( 4 l M a 3 % z T s l N e 4 t t 4 , a h J h 6 ",
"e s 9 s Z L G t j x l C G d > * l Z H L G h H Y A L ^ T < p w c w 4 < > e s l 6.Y.6 > r f e & * N T s d x e < t 9 6 3 s l G s e ",
"s l 9 s Z L 0 ; ; 6 x x x s , s :.A h G L L Z J [ o.W e h x t G x , 7 e r x $.%Xf > s Z r , $ %.! W h h h 9 % - - > e s l G h s ",
"d l t s N G l z l z x l t s , f ..{ f t G L K G G ..@.A K L G G x 6 r M l 3.T.K , 7 Z a 9 % a !.S J t r d 9 & l M M d s l J N d ",
"s z d s Z K L T T T l c t t > s ..| F s x G K L d l } p.1.! N x l d T 6.).W.G 4 , Z d r & d z.! W M r r s 6 > ;.q.0.X.f l Z x s ",
"t N h s N F.{.{.r.Z l c t t > < L L  .] l c c t ^ x t N @.C.I.A.c.+X$XR.^ 9 , 7 x e r > & 6.( x s f r e d 6 & 1.1.>.} r l N h t ",
"h l d r z ..<.<.d s l t t r > 4 G T N { ] l i L l Z H 9 < w s c G h w < > , N h 6 l < O %.&.x ) > s r r s 9 - / T T l & d x s h ",
"x K N l J ( &.%.e 4 l t t e > 4 h x l | } Q h t K Z l h r 9 6 6 4 6 , , 4 l r s l , % T :.J ( 6 % s d d d e 6 ^ l l t % l J G x ",
"l L l h N J G G 9 4 x x x s > 6 x l H T J ~ ~ h 0 c N e h Z h c c h s d w s h e - & K <.W J l > $ d l t t r s / h h s % d J G l ",
"d G t s z L L L t 4 G c c h 3 7 N l p x K W } } h 9 : 0 h x K K J K Z d e 4 ; % , ( %.L h h > $ 6 ( &.&./ Z l J t w 0 $ a x l d ",
"t x l s l x x l 9 , x d h s 5 7 N N d 0 x L K W } R r ; - - : < < : ; - & & & Z $./ x l l > & ( K J y.i.! f l l & O O % e x x t ",
"t h s s l 9 O O o , N Z N h 7 7 z N N d 0 k N J K ! ( K 6 - & % % % % & & N | | G x x d > 9 L 9 4.H.K.Z.x.e.o.Y h 4 > > r l h t ",
"s h h h x N s r 7 f ! ! W T M f K S Z N w < h G Z T T / l K M s 7 6 6 a l ( ^ G x h h - - K h k.(.'.].I.P.v.q.;.Z l z l z Z c s ",
"i G h h N z.b.a.t.a.l.e.t.a.1.1.} o.@.o.} t - 0 l G N l N ( 2.e.t.t.q.1.A N x l c w - O Z Z R..X,X#X'.K.A.s.t.>.} T l z l Z G i ",
"t l h h N F.H.D.l.b.b.b.b.b.t.].e.A.x.d.u.s N 4 O 9 h 9 s N d 4 6 4 4 ! 4 s h 9 % o % s x g.oX<X).R.&X|.I.C.>.#.Q N s d l N x t ",
"t h t d Z n.N.F.k.k.N.F.D.z.:.j.:.b.l.l.e.> l z r & % % s G | o.o.o.o.! > 3 6 o % , s G J n._.^.oX$Xj.T M ! @.~ S f a r f N d t ",
"w 9 4 s l - , e % o O 9 e > o   O < < < , % e M z h 6 * s r l l z l z f % , f e a Z N N ..8.B.g.oX*.t x s 6 d D V e 6 e s l < w ",
"t 0 4 s l L ) | :.<.<.:.$.%...L < 9 - > % $ 4 W K N N Z K N b.L.L.L.L.d.* 7 V z N l t h ( =.=.8.*.e L L N s 0 f e 4 > - e l 9 t ",
"t 0 6 t l G L T / ) _ ^ G Z Z N s J ....z , 6 d r z :.R.5./ !.}.}.].'.J.6 ~ @.S M h r d H _ U ` d d l l h h c t 3 , > 4 , h 9 t ",
"0 E w s x x G v x G G G x Z x l 9 H G G G - 6 d e Z XX$Xk.*.(.@X X|.|.I.s ;.d.{ d h r e u v n P 0 < t t w u w h , , % % & l N 0 ",
"< 9 : t h j h 0 ; ; ; ; 0 x 0 w ; h h h h % 6 s e N 7.6.^ L *.9.1.>.@. .3 z S f 3 d r t h j k k t > 0 t j 0 h G : ; O - % 0 < < ",
"w w 9 t h h w ; O O O O O + O O O O O O O O 4 s e h k x t 0 x N x x l l & < 4 4 & t e d e 0 0 w w t 4 > ; w $.2 < @ O O % 0 9 w ",
"t w 9 w h c 0 O O O O - O - - ; O r z Z h & 4 s 9 d 9 9 2 ; 0 0 0 0 0 9 O ; : - % r 9 d r e ; 1 1 1 x / $.I 9 : # O O O $ 9 0 w ",
"t t w w h x t 9 : > - ; - - ; , - c x l c & 6 s 9 s w O O O 1 1 1 1 1 <   O O o & t 9 s s 9 ; @ ; ; ; : : ; ; @   O O O O 9 w q ",
"t h t w h c x G e 9 < < : : < 6 ; j h h h % 6 l 9 s d 9 O + ; ; ; ; ; ;     X O - d 6 s s e ;   . O @ # @ O .     O O % O 9 t 0 ",
"t c h w s t < > ; - & - - - - - O ; ; > ; % 6 9 > s h h 9 - O         + o o O % , 4 > s s d < +                 o O O % % 0 t 0 ",
"t x n k c h 6 O o o O O O % % % % - - - > > t z l z z N z h 0 O O O O o O $ % > 6 d r r r r e : o X X X X X o O O - 4 9 e Z x q ",
"t k j k G U L h < & & - > > 3 6 r x l l L ^ ( W W N x x x l h 6 & & & & & > 6 r K ( ( L Z l x d 6 4 , > - - & > w G ^ H x j j t ",
"w x x c c x j t w < < < 4 6 9 r 9 h s h H L i Z L l h d d t t t e 4 < > > , 9 s K Z G K Z t c 9 r e 9 4 < < , 9 p u k c j x k p ",
"G t c H n G G G H H G G G G H G J ^ / / ^ x c w G L T T L L L J G N x l z G L K Z h c L / / / ^ x J G G G G H H G G G G G k j c "
};
